<?xml version="1.0" encoding="UTF-8"?>
<map version="1.10" tiledversion="1.12.2" orientation="orthogonal" renderorder="right-down" width="875" height="27" tilewidth="16" tileheight="16" infinite="0" nextlayerid="8" nextobjectid="1860">
 <editorsettings>
  <export target="anubis.json" format="json"/>
 </editorsettings>
 <properties>
  <property name="BG" type="color" value="#ff1b1e20"/>
  <property name="Background Type" type="int" value="0"/>
  <property name="COL1" type="color" value="#ff0d1616"/>
  <property name="COL2" type="color" value="#ff000000"/>
  <property name="COL3" type="color" value="#ffa9c8df"/>
  <property name="COL4" type="color" value="#ffa0bed3"/>
  <property name="Difficulty" value="HARD"/>
  <property name="GROUND" type="color" value="#ff1b1e20"/>
  <property name="Gamemode" type="int" value="0"/>
  <property name="Ground Type" type="int" value="0"/>
  <property name="Level name" value="ANUBIS"/>
  <property name="OBJ" type="color" value="#ffffffff"/>
  <property name="Song" value="STEREOMA"/>
  <property name="Speed" type="int" value="1"/>
  <property name="Stars" type="int" value="5"/>
 </properties>
 <tileset firstgid="1" source="famidash.tsx"/>
 <tileset firstgid="16385" source="sprites.tsx"/>
 <layer id="4" name="l2" width="875" height="27">
  <data encoding="csv">
1,1,1,1,1,1,1,1,1,1,1,1,1,1,1,1,1,1,1,1,1,1,1,1,1,1,1,1,1,1,1,1,1,1,1,1,1,1,1,1,1,1,1,1,1,1,1,1,1,1,1,1,1,1,1,1,1,1,1,1,1,1,1,1,1,1,1,1,1,1,1,1,1,1,1,1,1,1,1,1,1,1,1,1,1,1,1,1,1,1,1,1,1,1,1,1,1,1,1,1,1,1,1,1,1,1,1,1,1,1,1,1,1,1,1,1,1,1,1,1,1,1,1,1,1,1,1,1,1,1,1,1,1,1,1,1,1,1,1,1,1,1,1,1,1,1,1,1,1,1,1,1,1,1,1,1,1,1,1,1,1,1,1,1,1,1,1,1,1,1,1,1,1,1,1,1,1,1,1,1,1,1,1,1,1,1,1,1,1,1,1,1,1,1,1,1,1,1,1,1,1,1,1,1,1,1,1,1,1,1,1,1,1,1,1,1,1,1,1,1,1,1,1,1,1,1,1,1,1,1,1,1,1,1,1,1,1,1,1,1,1,1,1,1,1,1,1,1,1,1,1,1,1,1,1,1,1,1,1,1,1,1,1,1,1,1,1,1,1,1,1,1,1,1,1,1,1,1,1,1,1,1,1,1,1,1,1,1,1,1,1,1,1,1,1,1,1,1,1,1,1,1,1,1,1,1,1,1,1,1,1,1,1,1,1,1,1,1,1,1,1,1,1,1,1,1,1,1,1,1,1,1,1,1,1,1,1,1,1,1,1,1,1,1,1,1,1,1,1,1,1,1,1,1,1,1,1,1,1,1,1,1,1,1,1,1,1,1,1,1,1,1,1,1,1,1,1,1,1,1,1,1,1,1,1,1,1,1,1,1,1,1,1,1,1,1,1,1,1,1,1,1,1,1,1,1,1,1,1,1,1,1,1,1,1,1,1,1,1,1,1,1,1,1,1,1,1,1,1,1,1,1,1,1,1,1,1,1,1,1,1,1,1,1,1,1,1,1,1,1,1,1,1,1,1,1,1,1,1,1,1,1,1,1,1,1,1,1,1,1,1,1,1,1,1,1,1,1,1,1,1,1,1,1,1,1,1,1,1,1,1,1,1,1,1,1,1,1,1,1,1,1,1,1,1,1,1,1,1,1,1,1,1,1,1,1,1,1,1,1,1,1,1,1,1,1,1,1,1,1,1,1,1,1,1,1,1,1,1,1,1,1,1,1,1,1,1,1,1,1,1,1,1,1,1,1,1,1,1,1,1,1,1,1,1,1,1,1,1,1,1,1,1,1,1,1,1,1,1,1,1,1,1,1,1,1,1,1,1,1,1,1,1,1,1,1,1,1,1,1,1,1,1,1,1,1,1,1,1,1,1,1,1,1,1,1,1,1,1,1,1,1,1,1,1,1,1,1,1,1,1,1,1,1,1,1,1,1,1,1,1,1,1,1,1,1,1,1,1,1,1,1,1,1,1,1,1,1,1,1,1,1,1,1,1,1,1,1,1,1,1,1,1,1,1,1,1,1,1,1,1,1,1,1,1,1,1,1,1,1,1,1,1,1,1,1,1,1,1,1,1,1,1,1,1,1,1,1,1,1,1,1,1,1,1,1,1,1,1,1,1,1,1,1,1,1,1,1,1,1,1,1,1,1,1,1,1,1,1,1,1,1,1,1,1,1,1,1,1,1,1,1,1,1,1,1,1,1,1,1,1,1,1,1,1,1,1,1,1,1,1,1,1,1,1,1,1,1,1,1,1,1,1,1,1,1,1,1,1,1,1,1,1,1,1,1,1,1,1,1,1,1,1,1,1,1,1,1,1,1,1,1,1,1,1,1,1,1,1,1,1,1,1,1,1,1,1,1,1,1,1,1,1,1,1,1,1,1,1,1,1,1,1,1,1,1,1,1,1,1,1,1,1,1,1,1,1,1,1,1,1,1,1,1,1,1,1,1,1,1,1,1,1,1,1,
1,1,1,1,1,1,1,1,1,1,1,1,1,1,1,1,1,1,1,1,1,1,1,1,1,1,1,1,1,1,1,1,1,1,1,1,1,1,1,1,1,1,1,1,1,1,1,1,1,1,1,1,1,1,1,1,1,1,1,1,1,1,1,1,1,1,1,1,1,1,1,1,1,1,1,1,1,1,1,1,1,1,1,1,1,1,1,1,1,1,1,1,1,1,1,1,1,1,1,1,1,1,1,1,1,1,1,1,1,1,1,1,1,1,1,1,1,1,1,1,1,1,1,1,1,1,1,1,1,1,1,1,1,1,1,1,1,1,1,1,1,1,1,1,1,1,1,1,1,1,1,1,1,1,1,1,1,1,1,1,1,1,1,1,1,1,1,1,1,1,1,1,1,1,1,1,1,1,1,1,1,1,1,1,1,1,1,1,1,1,1,1,1,1,1,1,1,1,1,1,1,1,1,1,1,1,1,1,1,1,1,1,1,1,1,1,1,1,1,1,1,1,1,1,1,1,1,1,1,1,1,1,1,1,1,1,1,1,1,1,1,1,1,1,1,1,1,1,1,1,1,1,1,1,1,1,1,1,1,1,1,1,1,1,1,1,1,1,1,1,1,1,1,1,1,1,1,1,1,1,1,1,1,1,1,1,1,1,1,1,1,1,1,1,1,1,1,1,1,1,1,1,1,1,1,1,1,1,1,1,1,1,1,1,1,1,1,1,1,1,1,1,1,1,1,1,1,1,1,1,1,1,1,1,1,1,1,1,1,1,1,1,1,1,1,1,1,1,1,1,1,1,1,1,1,1,1,1,1,1,1,1,1,1,1,1,1,1,1,1,1,1,1,1,1,1,1,1,1,1,1,1,1,1,1,1,1,1,1,1,1,1,1,1,1,1,1,1,1,1,1,1,1,1,1,1,1,1,1,1,1,1,1,1,1,1,1,1,1,1,1,1,1,1,1,1,1,1,1,1,1,1,1,1,1,1,1,1,1,1,1,1,1,1,1,1,1,1,1,1,1,1,1,1,1,1,1,1,1,1,1,1,1,1,1,1,1,1,1,1,1,1,1,1,1,1,1,1,1,1,1,1,1,1,1,1,1,1,1,1,1,1,1,1,1,1,1,1,1,1,1,1,1,1,1,1,1,1,1,1,1,1,1,1,1,1,1,1,1,1,1,1,1,1,1,1,1,1,1,1,1,1,1,1,1,1,1,1,1,1,1,1,1,1,1,1,1,1,1,1,1,1,1,1,1,1,1,1,1,1,1,1,1,1,1,1,1,1,1,1,1,1,1,1,1,1,1,1,1,1,1,1,1,1,1,1,1,1,1,1,1,1,1,1,1,1,1,1,1,1,1,1,1,1,1,1,1,1,1,1,1,1,1,1,1,1,1,1,1,1,1,1,1,1,1,1,1,1,1,1,1,1,1,1,1,1,1,1,1,1,1,1,1,1,1,1,1,1,1,1,1,1,1,1,1,1,1,1,1,1,1,1,1,1,1,1,1,1,1,1,1,1,1,1,1,1,1,1,1,1,1,1,1,1,1,1,1,1,1,1,1,1,1,1,1,1,1,1,1,1,1,1,1,1,1,1,1,1,1,1,1,1,1,1,1,1,1,1,1,1,1,1,1,1,1,1,1,1,1,1,1,1,1,1,1,1,1,1,1,1,1,1,1,1,1,1,1,1,1,1,1,1,1,1,1,1,1,1,1,1,1,1,1,1,1,1,1,1,1,1,1,1,1,1,1,1,1,1,1,1,1,1,1,1,1,1,1,1,1,1,1,1,1,1,1,1,1,1,1,1,1,1,1,1,1,1,1,1,1,1,1,1,1,1,1,1,1,1,1,1,1,1,1,1,1,1,1,1,1,1,1,1,1,1,1,1,1,1,1,1,1,1,1,1,1,1,1,1,1,1,1,1,1,1,1,1,1,1,1,1,1,1,1,1,1,1,1,1,1,1,1,1,1,1,1,
1,1,1,1,1,1,1,1,1,1,1,1,1,1,1,1,1,1,1,1,1,1,1,1,1,1,1,1,1,1,1,1,1,1,1,1,1,1,1,1,1,1,1,1,1,1,1,1,1,1,1,1,1,1,1,1,1,1,1,1,1,1,1,1,1,1,1,1,1,1,1,1,1,1,1,1,1,1,1,1,1,1,1,1,1,1,1,1,1,1,1,1,1,1,1,1,1,1,1,1,1,1,1,1,1,1,1,1,1,1,1,1,1,1,1,1,1,1,1,1,1,1,1,1,1,1,1,1,1,1,1,1,1,1,1,1,1,1,1,1,1,1,1,1,1,1,1,1,1,1,1,1,1,1,1,1,1,1,1,1,1,1,1,1,1,1,1,1,1,1,1,1,1,1,1,1,1,1,1,1,1,1,1,1,1,1,1,1,1,1,1,1,1,1,1,1,1,1,1,1,1,1,1,1,1,1,1,1,1,1,1,1,1,1,1,1,1,1,1,1,1,1,1,1,1,1,1,1,1,1,1,1,1,1,1,1,1,1,1,1,1,1,1,1,1,1,1,1,1,1,1,1,1,1,1,1,1,1,1,1,1,1,1,1,1,1,1,1,1,1,1,1,1,1,1,1,1,1,1,1,1,1,1,1,1,1,1,1,1,1,1,1,1,1,1,1,1,1,1,1,1,1,1,1,1,1,1,1,1,1,1,1,1,1,1,1,1,1,1,1,1,1,1,1,1,1,1,1,1,1,1,1,1,1,1,1,1,1,1,1,1,1,1,1,1,1,1,1,1,1,1,1,1,1,1,1,1,1,1,1,1,1,1,1,1,1,1,1,1,1,1,1,1,1,1,1,1,1,1,1,1,1,1,1,1,1,1,1,1,1,1,1,1,1,1,1,1,1,1,1,1,1,1,1,1,1,1,1,1,1,1,1,1,1,1,1,1,1,1,1,1,1,1,1,1,1,1,1,1,1,1,1,1,1,1,1,1,1,1,1,1,1,1,1,1,1,1,1,1,1,1,1,1,1,1,1,1,1,1,1,1,1,1,1,1,1,1,1,1,1,1,1,1,1,1,1,1,1,1,1,1,1,1,1,1,1,1,1,1,1,1,1,1,1,1,1,1,1,1,1,1,1,1,1,1,1,1,1,1,1,1,1,1,1,1,1,1,1,1,1,1,1,1,1,1,1,1,1,1,1,1,1,1,1,1,1,1,1,1,1,1,1,1,1,1,1,1,1,1,1,1,1,1,1,1,1,1,1,1,1,1,1,1,1,1,1,1,1,1,1,1,1,1,1,1,1,1,1,1,1,1,1,1,1,1,1,1,1,1,1,1,1,1,1,1,1,1,1,1,1,1,1,1,1,1,1,1,1,1,1,1,1,1,1,1,1,1,1,1,1,1,1,1,1,1,1,1,1,1,1,1,1,1,1,1,1,1,1,1,1,1,1,1,1,1,1,1,1,1,1,1,1,1,1,1,1,1,1,1,1,1,1,1,1,1,1,1,1,1,1,1,1,1,1,1,1,1,1,1,1,1,1,1,1,1,1,1,1,1,1,1,1,1,1,1,1,1,1,1,1,1,1,1,1,1,1,1,1,1,1,1,1,1,1,1,1,1,1,1,1,1,1,1,1,1,1,1,1,1,1,1,1,1,1,1,1,1,1,1,1,1,1,1,1,1,1,1,1,1,1,1,1,1,1,1,1,1,1,1,1,1,1,1,1,1,1,1,1,1,1,1,1,1,1,1,1,1,1,1,1,1,1,1,1,1,1,1,1,1,1,1,1,1,1,1,1,1,1,1,1,1,1,1,1,1,1,1,1,1,1,1,1,1,1,1,1,1,1,1,1,1,1,1,1,1,1,1,1,1,1,1,1,1,1,1,1,1,1,1,1,1,1,1,1,1,1,1,1,1,1,1,1,1,1,1,1,1,1,1,1,1,1,1,1,1,1,1,1,1,1,1,1,1,1,1,
1,1,1,1,1,1,1,1,1,1,1,1,1,1,1,1,1,1,1,1,1,1,1,1,1,1,1,1,1,1,1,1,1,1,1,1,1,1,1,1,1,1,1,1,1,1,1,1,1,1,1,1,1,1,1,1,1,1,1,1,1,1,1,1,1,1,1,1,1,1,1,1,1,1,1,1,1,1,1,1,1,1,1,1,1,1,1,1,1,1,1,1,1,1,1,1,1,1,1,1,1,1,1,1,1,1,1,1,1,1,1,1,1,1,1,1,1,1,1,1,1,1,1,1,1,1,1,1,1,1,1,1,1,1,1,1,1,1,1,1,1,1,1,1,1,1,1,1,1,1,1,1,1,1,1,1,1,1,1,1,1,1,1,1,1,1,1,1,1,1,1,1,1,1,1,1,1,1,1,1,1,1,1,1,1,1,1,1,1,1,1,1,1,1,1,1,1,1,1,1,1,1,1,1,1,1,1,1,1,1,1,1,1,1,1,1,1,1,1,1,1,1,1,1,1,1,1,1,1,1,1,1,1,1,1,1,1,1,1,1,1,1,1,1,1,1,1,1,1,1,1,1,1,1,1,1,1,1,1,1,1,1,1,1,1,1,1,1,1,1,1,1,1,1,1,1,1,1,1,1,1,1,1,1,1,1,1,1,1,1,1,1,1,1,1,1,1,1,1,1,1,1,1,1,1,1,1,1,1,1,1,1,1,1,1,1,1,1,1,1,1,1,1,1,1,1,1,1,1,1,1,1,1,1,1,1,1,1,1,1,1,1,1,1,1,1,1,1,1,1,1,1,1,1,1,1,1,1,1,1,1,1,1,1,1,1,1,1,1,1,1,1,1,1,1,1,1,1,1,1,1,1,1,1,1,1,1,1,1,1,1,1,1,1,1,1,1,1,1,1,1,1,1,1,1,1,1,1,1,1,1,1,1,1,1,1,1,1,1,1,1,1,1,1,1,1,1,1,1,1,1,1,1,1,1,1,1,1,1,1,1,1,1,1,1,1,1,1,1,1,1,1,1,1,1,1,1,1,1,1,1,1,1,1,1,1,1,1,1,1,1,1,1,1,1,1,1,1,1,1,1,1,1,1,1,1,1,1,1,1,1,1,1,1,1,1,1,1,1,1,1,1,1,1,1,1,1,1,1,1,1,1,1,1,1,1,1,1,1,1,1,1,1,1,1,1,1,1,1,1,1,1,1,1,1,1,1,1,1,1,1,1,1,1,1,1,1,1,1,1,1,1,1,1,1,1,1,1,1,1,1,1,1,1,1,1,1,1,1,1,1,1,1,1,1,1,1,1,1,1,1,1,1,1,1,1,1,1,1,1,1,1,1,1,1,1,1,1,1,1,1,1,1,1,1,1,1,1,1,1,1,1,1,1,1,1,1,1,1,1,1,1,1,1,1,1,1,1,1,1,1,1,1,1,1,1,1,1,1,1,1,1,1,1,1,1,1,1,1,1,1,1,1,1,1,1,1,1,1,1,1,1,1,1,1,1,1,1,1,1,1,1,1,1,1,1,1,1,1,1,1,1,1,1,1,1,1,1,1,1,1,1,1,1,1,1,1,1,1,1,1,1,1,1,1,1,1,1,1,1,1,1,1,1,1,1,1,1,1,1,1,1,1,1,1,1,1,1,1,1,1,1,1,1,1,1,1,1,1,1,1,1,1,1,1,1,1,1,1,1,1,1,1,1,1,1,1,1,1,1,1,1,1,1,1,1,1,1,1,1,1,1,1,1,1,1,1,1,1,1,1,1,1,1,1,1,1,1,1,1,1,1,1,1,1,1,1,1,1,1,1,1,1,1,1,1,1,1,1,1,1,1,1,1,1,1,1,1,1,1,1,1,1,1,1,1,1,1,1,1,1,1,1,1,1,1,1,1,1,1,1,1,1,1,1,1,1,1,1,1,1,1,1,1,1,1,1,1,1,1,1,1,1,1,1,1,1,1,1,1,1,1,1,1,1,
1,1,1,1,1,1,1,1,1,1,1,1,1,1,1,1,1,1,1,1,1,1,1,1,1,1,1,1,1,1,1,1,1,1,1,1,1,1,1,1,1,1,1,1,1,1,1,1,1,1,1,1,1,1,1,1,1,1,1,1,1,1,1,1,1,1,1,1,1,1,1,1,1,1,1,1,1,1,1,1,1,1,1,1,1,1,1,1,1,1,1,1,1,1,1,1,1,1,1,1,1,1,1,1,1,1,1,1,1,1,1,1,1,1,1,1,1,1,1,1,1,1,1,1,1,1,1,1,1,1,1,1,1,1,1,1,1,1,1,1,1,1,1,1,1,1,1,1,1,1,1,1,1,1,1,1,1,1,1,1,1,1,1,1,1,1,1,1,1,1,1,1,1,1,1,1,1,1,1,1,1,1,1,1,1,1,1,1,1,1,1,1,1,1,1,1,1,1,1,1,1,1,1,1,1,1,1,1,1,1,1,1,1,1,1,1,1,1,1,1,1,1,1,1,1,1,1,1,1,1,1,1,1,1,1,1,1,1,1,1,1,1,1,1,1,1,1,1,1,1,1,1,1,1,1,1,1,1,1,1,1,1,1,1,1,1,1,1,1,1,1,1,1,1,1,1,1,1,1,1,1,1,1,1,1,1,1,1,1,1,1,1,1,1,1,1,1,1,1,1,1,1,1,1,1,1,1,1,1,1,1,1,1,1,1,1,1,1,1,1,1,1,1,1,1,1,1,1,1,1,1,1,1,1,1,1,1,1,1,1,1,1,1,1,1,1,1,1,1,1,1,1,1,1,1,1,1,1,1,1,1,1,1,1,1,1,1,1,1,1,1,1,1,1,1,1,1,1,1,1,1,1,1,1,1,1,1,1,1,1,1,1,1,1,1,1,1,1,1,1,1,1,1,1,1,1,1,1,1,1,1,1,1,1,1,1,1,1,1,1,1,1,1,1,1,1,1,1,1,1,1,1,1,1,1,1,1,1,1,1,1,1,1,1,1,1,1,1,1,1,1,1,1,1,1,1,1,1,1,1,1,1,1,1,1,1,1,1,1,1,1,1,1,1,1,1,1,1,1,1,1,1,1,1,1,1,1,1,1,1,1,1,1,1,1,1,1,1,1,1,1,1,1,1,1,1,1,1,1,1,1,1,1,1,1,1,1,1,1,1,1,1,1,1,1,1,1,1,1,1,1,1,1,1,1,1,1,1,1,1,1,1,1,1,1,1,1,1,1,1,1,1,1,1,1,1,1,1,1,1,1,1,1,1,1,1,1,1,1,1,1,1,1,1,1,1,1,1,1,1,1,1,1,1,1,1,1,1,1,1,1,1,1,1,1,1,1,1,1,1,1,1,1,1,1,1,1,1,1,1,1,1,1,1,1,1,1,1,1,1,1,1,1,1,1,1,1,1,1,1,1,1,1,1,1,1,1,1,1,1,1,1,1,1,1,1,1,1,1,1,1,1,1,1,1,1,1,1,1,1,1,1,1,1,1,1,1,1,1,1,1,1,1,1,1,1,1,1,1,1,1,1,1,1,1,1,1,1,1,1,1,1,1,1,1,1,1,1,1,1,1,1,1,1,1,1,1,1,1,1,1,1,1,1,1,1,1,1,1,1,1,1,1,1,1,1,1,1,1,1,1,1,1,1,1,1,1,1,1,1,1,1,1,1,1,1,1,1,1,1,1,1,1,1,1,1,1,1,1,1,1,1,1,1,1,1,1,1,1,1,1,1,1,1,1,1,1,1,1,1,1,1,1,1,1,1,1,1,1,1,1,1,1,1,1,1,1,1,1,1,1,1,1,1,1,1,1,1,1,1,1,1,1,1,1,1,1,1,1,1,1,1,1,1,1,1,1,1,1,1,1,1,1,1,1,1,1,1,1,1,1,1,1,1,1,1,1,1,1,1,1,1,1,1,1,1,1,1,1,1,1,1,1,1,1,1,1,1,1,1,1,1,1,1,1,
1,1,1,1,1,1,1,1,1,1,1,1,1,1,1,1,1,1,1,1,1,1,1,1,1,1,1,1,1,1,1,1,1,1,1,1,1,1,1,1,1,1,1,1,1,1,1,1,1,1,1,1,1,1,1,1,1,1,1,1,1,1,1,1,1,1,1,1,1,1,1,1,1,1,1,1,1,1,1,1,1,1,1,1,1,1,1,1,1,1,1,1,1,1,1,1,1,1,1,1,1,1,1,1,1,1,1,1,1,1,1,1,1,1,1,1,1,1,1,1,1,1,1,1,1,1,1,1,1,1,1,1,1,1,1,1,1,1,1,1,1,1,1,1,1,1,1,1,1,1,1,1,1,1,1,1,1,1,1,1,1,1,1,1,1,1,1,1,1,1,1,1,1,1,1,1,1,1,1,1,1,1,1,1,1,1,1,1,1,1,1,1,1,1,1,1,1,1,1,1,1,1,1,1,1,1,1,1,1,1,1,1,1,1,1,1,1,1,1,1,1,1,1,1,1,1,1,1,1,1,1,1,1,1,1,1,1,1,1,1,1,1,1,1,1,1,1,1,1,1,1,1,1,1,1,1,1,1,1,1,1,1,1,1,1,1,1,1,1,1,1,1,1,1,1,1,1,1,1,1,1,1,1,1,1,1,1,1,1,1,1,1,1,1,1,1,1,1,1,1,1,1,1,1,1,1,1,1,1,1,1,1,1,1,1,1,1,1,1,1,1,1,1,1,1,1,1,1,1,1,1,1,1,1,1,1,1,1,1,1,1,1,1,1,1,1,1,1,1,1,1,1,1,1,1,1,1,1,1,1,1,1,1,1,1,1,1,1,1,1,1,1,1,1,1,1,1,1,1,1,1,1,1,1,1,1,1,1,1,1,1,1,1,1,1,1,1,1,1,1,1,1,1,1,1,1,1,1,1,1,1,1,1,1,1,1,1,1,1,1,1,1,1,1,1,1,1,1,1,1,1,1,1,1,1,1,1,1,1,1,1,1,1,1,1,1,1,1,1,1,1,1,1,1,1,1,1,1,1,1,1,1,1,1,1,1,1,1,1,1,1,1,1,1,1,1,1,1,1,1,1,1,1,1,1,1,1,1,1,1,1,1,1,1,1,1,1,1,1,1,1,1,1,1,1,1,1,1,1,1,1,1,1,1,1,1,1,1,1,1,1,1,1,1,1,1,1,1,1,1,1,1,1,1,1,1,1,1,1,1,1,1,1,1,1,1,1,1,1,1,1,1,1,1,1,1,1,1,1,1,1,1,1,1,1,1,1,1,1,1,1,1,1,1,1,1,1,1,1,1,1,1,1,1,1,1,1,1,1,1,1,1,1,1,1,1,1,1,1,1,1,1,1,1,1,1,1,1,1,1,1,1,1,1,1,1,1,1,1,1,1,1,1,1,1,1,1,1,1,1,1,1,1,1,1,1,1,1,1,1,1,1,1,1,1,1,1,1,1,1,1,1,1,1,1,1,1,1,1,1,1,1,1,1,1,1,1,1,1,1,1,1,1,1,1,1,1,1,1,1,1,1,1,1,1,1,1,1,1,1,1,1,1,1,1,1,1,1,1,1,1,1,1,1,1,1,1,1,1,1,1,1,1,1,1,1,1,1,1,1,1,1,1,1,1,1,1,1,1,1,1,1,1,1,1,1,1,1,1,1,1,1,1,1,1,1,1,1,1,1,1,1,1,1,1,1,1,1,1,1,1,1,1,1,1,1,1,1,1,1,1,1,1,1,1,1,1,1,1,1,1,1,1,1,1,1,1,1,1,1,1,1,1,1,1,1,1,1,1,1,1,1,1,1,1,1,1,1,1,1,1,1,1,1,1,1,1,1,1,1,1,1,1,1,1,1,1,1,1,1,1,1,1,1,1,1,1,1,1,1,1,1,1,1,1,1,1,1,1,1,1,1,1,1,1,1,1,1,1,1,1,1,1,1,1,1,1,1,1,1,1,1,1,1,1,
1,1,1,1,1,1,1,1,1,1,1,1,1,1,1,1,1,1,1,1,1,1,1,1,1,1,1,1,1,1,1,1,1,1,1,1,1,1,1,1,1,1,1,1,1,1,1,1,1,1,1,1,1,1,1,1,1,1,1,1,1,1,1,1,1,1,1,1,1,1,1,1,1,1,1,1,1,1,1,1,1,1,1,1,1,1,1,1,1,1,1,1,1,1,1,1,1,1,1,1,1,1,1,1,1,1,1,1,1,1,1,1,1,1,1,1,1,1,1,1,1,1,1,1,1,1,1,1,1,1,1,1,1,1,1,1,1,1,1,1,1,1,1,1,1,1,1,1,1,1,1,1,1,1,1,1,1,1,1,1,1,1,1,1,1,1,1,1,1,1,1,1,1,1,1,1,1,1,1,1,1,1,1,1,1,1,1,1,1,1,1,1,1,1,1,1,1,1,1,1,1,1,1,1,1,1,1,1,1,1,1,1,1,1,1,1,1,1,1,1,1,1,1,1,1,1,1,1,1,1,1,1,1,1,1,1,1,1,1,1,1,1,1,1,1,1,1,1,1,1,1,1,1,1,1,1,1,1,1,1,1,1,1,1,1,1,1,1,1,1,1,1,1,1,1,1,1,1,1,1,1,1,1,1,1,1,1,1,1,1,1,1,1,1,1,1,1,1,1,1,1,1,1,1,1,1,1,1,1,1,1,1,1,1,1,1,1,1,1,1,1,1,1,1,1,1,1,1,1,1,1,1,1,1,1,1,1,1,1,1,1,1,1,1,1,1,1,1,1,1,1,1,1,1,1,1,1,1,1,1,1,1,1,1,1,1,1,1,1,1,1,1,1,1,1,1,1,1,1,1,1,1,1,1,1,1,1,1,1,1,1,1,1,1,1,1,1,1,1,1,1,1,1,1,1,1,1,1,1,1,1,1,1,1,1,1,1,1,1,1,1,1,1,1,1,1,1,1,1,1,1,1,1,1,1,1,1,1,1,1,1,1,1,1,1,1,1,1,1,1,1,1,1,1,1,1,1,1,1,1,1,1,1,1,1,1,1,1,1,1,1,1,1,1,1,1,1,1,1,1,1,1,1,1,1,1,1,1,1,1,1,1,1,1,1,1,1,1,1,1,1,1,1,1,1,1,1,1,1,1,1,1,1,1,1,1,1,1,1,1,1,1,1,1,1,1,1,1,1,1,1,1,1,1,1,1,1,1,1,1,1,1,1,1,1,1,1,1,1,1,1,1,1,1,1,1,1,1,1,1,1,1,1,1,1,1,1,1,1,1,1,1,1,1,1,1,1,1,1,1,1,1,1,1,1,1,1,1,1,1,1,1,1,1,1,1,1,1,1,1,1,1,1,1,1,1,1,1,1,1,1,1,1,1,1,1,1,1,1,1,1,1,1,1,1,1,1,1,1,1,1,1,1,1,1,1,1,1,1,1,1,1,1,1,1,1,1,1,1,1,1,1,1,1,1,1,1,1,1,1,1,1,1,1,1,1,1,1,1,1,1,1,1,1,1,1,1,1,1,1,1,1,1,1,1,1,1,1,1,1,1,1,1,1,1,1,1,1,1,1,1,1,1,1,1,1,1,1,1,1,1,1,1,1,1,1,1,1,1,1,1,1,1,1,1,1,1,1,1,1,1,1,1,1,1,1,1,1,1,1,1,1,1,1,1,1,1,1,1,1,1,1,1,1,1,1,1,1,1,1,1,1,1,1,1,1,1,1,1,1,1,1,1,1,1,1,1,1,1,1,1,1,1,1,1,1,1,1,1,1,1,1,1,1,1,1,1,1,1,1,1,1,1,1,1,1,1,1,1,1,1,1,1,1,1,1,1,1,1,1,1,1,1,1,1,1,1,1,1,1,1,1,1,1,1,1,1,1,1,1,1,1,1,1,1,1,1,1,1,1,1,1,1,1,1,1,1,1,1,1,1,1,1,1,1,1,1,1,1,1,1,1,1,1,1,
1,1,1,1,1,1,1,1,1,1,1,1,1,1,1,1,1,1,1,1,1,1,1,1,1,1,1,1,1,1,1,1,1,1,1,1,1,1,1,1,1,1,1,1,1,1,1,1,1,1,1,1,1,1,1,1,1,1,1,1,1,1,1,1,1,1,1,1,1,1,1,1,1,1,1,1,1,1,1,1,1,1,1,1,1,1,1,1,1,1,1,1,1,1,1,1,1,1,1,1,1,1,1,1,1,1,1,1,1,1,1,1,1,1,1,1,1,1,1,1,1,1,1,1,1,1,1,1,1,1,1,1,1,1,1,1,1,1,1,1,1,1,1,1,1,1,1,1,1,1,1,1,1,1,1,1,1,1,1,1,1,1,1,1,1,1,1,1,1,1,1,1,1,1,1,1,1,1,1,1,1,1,1,1,1,1,1,1,1,1,1,1,1,1,1,1,1,1,1,1,1,1,1,1,1,1,1,1,1,1,1,1,1,1,1,1,1,1,1,1,1,1,1,1,1,1,1,1,1,1,1,1,1,1,1,1,1,1,1,1,1,1,1,1,1,1,1,1,1,1,1,1,1,1,1,1,1,1,1,1,1,1,1,1,1,1,1,1,1,1,1,1,1,1,1,1,1,1,1,1,1,1,1,1,1,1,1,1,1,1,1,1,1,1,1,1,1,1,1,1,1,1,1,1,1,1,1,1,1,1,1,1,1,1,1,1,1,1,1,1,1,1,1,1,1,1,1,1,1,1,1,1,1,1,1,1,1,1,1,1,1,1,1,1,1,1,1,1,1,1,1,1,1,1,1,1,1,1,1,1,1,1,1,1,1,1,1,1,1,1,1,1,1,1,1,1,1,1,1,1,1,1,1,1,1,1,1,1,1,1,1,1,1,1,1,1,1,1,1,1,1,1,1,1,1,1,1,1,1,1,1,1,1,1,1,1,1,1,1,1,1,1,1,1,1,1,1,1,1,1,1,1,1,1,1,1,1,1,1,1,1,1,1,1,1,1,1,1,1,1,1,1,1,1,1,1,1,1,1,1,1,1,1,1,1,1,1,1,1,1,1,1,1,1,1,1,1,1,1,1,1,1,1,1,1,1,1,1,1,1,1,1,1,1,1,1,1,1,1,1,1,1,1,1,1,1,1,1,1,1,1,1,1,1,1,1,1,1,1,1,1,1,1,1,1,1,1,1,1,1,1,1,1,1,1,1,1,1,1,1,1,1,1,1,1,1,1,1,1,1,1,1,1,1,1,1,1,1,1,1,1,1,1,1,1,1,1,1,1,1,1,1,1,1,1,1,1,1,1,1,1,1,1,1,1,1,1,1,1,1,1,1,1,1,1,1,1,1,1,1,1,1,1,1,1,1,1,1,1,1,1,1,1,1,1,1,1,1,1,1,1,1,1,1,1,1,1,1,1,1,1,1,1,1,1,1,1,1,1,1,1,1,1,1,1,1,1,1,1,1,1,1,1,1,1,1,1,1,1,1,1,1,1,1,1,1,1,1,1,1,1,1,1,1,1,1,1,1,1,1,1,1,1,1,1,1,1,1,1,1,1,1,1,1,1,1,1,1,1,1,1,1,1,1,1,1,1,1,1,1,1,1,1,1,1,1,1,1,1,1,1,1,1,1,1,1,1,1,1,1,1,1,1,1,1,1,1,1,1,1,1,1,1,1,1,1,1,1,1,1,1,1,1,1,1,1,1,1,1,1,1,1,1,1,1,1,1,1,1,1,1,1,1,1,1,1,1,1,1,1,1,1,1,1,1,1,1,1,1,1,1,1,1,1,1,1,1,1,1,1,1,1,1,1,1,1,1,1,1,1,1,1,1,1,1,1,1,1,1,1,1,1,1,1,1,1,1,1,1,1,1,1,1,1,1,1,1,1,1,1,1,1,1,1,1,1,1,1,1,1,1,1,1,1,1,1,1,1,1,1,1,1,1,1,1,1,1,1,1,1,1,1,1,1,1,
1,1,1,1,1,1,1,1,1,1,1,1,1,1,1,1,1,1,1,1,1,1,1,1,1,1,1,1,1,1,1,1,1,1,1,1,1,1,1,1,1,1,1,1,1,1,1,1,1,1,1,1,1,1,1,1,1,1,1,1,1,1,1,1,1,1,1,1,1,1,1,1,1,1,1,1,1,1,1,1,1,1,1,1,1,1,1,1,1,1,1,1,1,1,1,1,1,1,1,1,1,1,1,1,1,1,1,1,1,1,1,1,1,1,1,1,1,1,1,1,1,1,1,1,1,1,1,1,1,1,1,1,1,1,1,1,1,1,1,1,1,1,1,1,1,1,1,1,1,1,1,1,1,1,1,1,1,1,1,1,1,1,1,1,1,1,1,1,1,1,1,1,1,1,1,1,1,1,1,1,1,1,1,1,1,1,1,1,1,1,1,1,1,1,1,1,1,1,1,1,1,1,1,1,1,1,1,1,1,1,1,1,1,1,1,1,1,1,1,1,1,1,1,1,1,1,1,1,1,1,1,1,1,1,1,1,1,1,1,1,1,1,1,1,1,1,1,1,1,1,1,1,1,1,1,1,1,1,1,1,1,1,1,1,1,1,1,1,1,1,1,1,1,1,1,1,1,1,1,1,1,1,1,1,1,1,1,1,1,1,1,1,1,1,1,1,1,1,1,1,1,1,1,1,1,1,1,1,1,1,1,1,1,1,1,1,1,1,1,1,1,1,1,1,1,1,1,1,1,1,1,1,1,1,1,1,1,1,1,1,1,1,1,1,1,1,1,1,1,1,1,1,1,1,1,1,1,1,1,1,1,1,1,1,1,1,1,1,1,1,1,1,1,1,1,1,1,1,1,1,1,1,1,1,1,1,1,1,1,1,1,1,1,1,1,1,1,1,1,1,1,1,1,1,1,1,1,1,1,1,1,1,1,1,1,1,1,1,1,1,1,1,1,1,1,1,1,1,1,1,1,1,1,1,1,1,1,1,1,1,1,1,1,1,1,1,1,1,1,1,1,1,1,1,1,1,1,1,1,1,1,1,1,1,1,1,1,1,1,1,1,1,1,1,1,1,1,1,1,1,1,1,1,1,1,1,1,1,1,1,1,1,1,1,1,1,1,1,1,1,1,1,1,1,1,1,1,1,1,1,1,1,1,1,1,1,1,1,1,1,1,1,1,1,1,1,1,1,1,1,1,1,1,1,1,1,1,1,1,1,1,1,1,1,1,1,1,1,1,1,1,1,1,1,1,1,1,1,1,1,1,1,1,1,1,1,1,1,1,1,1,1,1,1,1,1,1,1,1,1,1,1,1,1,1,1,1,1,1,1,1,1,1,1,1,1,1,1,1,1,1,1,1,1,1,1,1,1,1,1,1,1,1,1,1,1,1,1,1,1,1,1,1,1,1,1,1,1,1,1,1,1,1,1,1,1,1,1,1,1,1,1,1,1,1,1,1,1,1,1,1,1,1,1,1,1,1,1,1,1,1,1,1,1,1,1,1,1,1,1,1,1,1,1,1,1,1,1,1,1,1,1,1,1,1,1,1,1,1,1,1,1,1,1,1,1,1,1,1,1,1,1,1,1,1,1,1,1,1,1,1,1,1,1,1,1,1,1,1,1,1,1,1,1,1,1,1,1,1,1,1,1,1,1,1,1,1,1,1,1,1,1,1,1,1,1,1,1,1,1,1,1,1,1,1,1,1,1,1,1,1,1,1,1,1,1,1,1,1,1,1,1,1,1,1,1,1,1,1,1,1,1,1,1,1,1,1,1,1,1,1,1,1,1,1,1,1,1,1,1,1,1,1,1,1,1,1,1,1,1,1,1,1,1,1,1,1,1,1,1,1,1,1,1,1,1,1,1,1,1,1,1,1,1,1,1,1,1,1,1,1,1,1,1,1,1,1,1,1,1,1,1,1,1,1,1,1,1,1,1,1,1,1,1,1,1,1,1,1,1,1,1,1,1,1,
1,1,1,1,1,1,1,1,1,1,1,1,1,1,1,1,1,1,1,1,1,1,1,1,1,1,1,1,1,1,1,1,1,1,1,1,1,1,1,1,1,1,1,1,1,1,1,1,1,1,1,1,1,1,1,1,1,1,1,1,1,1,1,1,1,1,1,1,1,1,1,1,1,1,1,1,1,1,1,1,1,1,1,1,1,1,1,1,1,1,1,1,1,1,1,1,1,1,1,1,1,1,1,1,1,1,1,1,1,1,1,1,1,1,1,1,1,1,1,1,1,1,1,1,1,1,1,1,1,1,1,1,1,1,1,1,1,1,1,1,1,1,1,1,1,1,1,1,1,1,1,1,1,1,1,1,1,1,1,1,1,1,1,1,1,1,1,1,1,1,1,1,1,1,1,1,1,1,1,1,1,1,1,1,1,1,1,1,1,1,1,1,1,1,1,1,1,1,1,1,1,1,1,1,1,1,1,1,1,1,1,1,1,1,1,1,0,0,0,0,0,0,0,0,0,0,0,0,0,0,0,0,1,1,1,1,1,1,1,1,1,1,1,1,1,1,1,1,1,1,1,1,1,1,1,1,1,1,1,1,1,1,1,1,1,1,1,1,1,1,1,1,1,1,1,1,1,1,1,1,1,1,1,1,1,1,1,1,1,1,1,1,1,1,1,1,1,1,1,1,1,1,1,1,1,1,1,1,1,1,1,1,1,1,1,1,1,1,1,1,1,1,1,1,1,1,1,1,1,1,1,1,1,1,1,1,1,1,1,1,1,1,1,1,1,1,1,1,1,1,1,1,1,1,1,1,1,1,1,1,1,1,1,1,1,1,1,1,1,1,1,1,1,1,1,1,1,1,1,1,1,1,1,1,1,1,1,1,1,1,1,1,1,1,1,1,1,1,1,1,1,1,1,1,1,1,1,1,1,1,1,1,1,1,1,1,1,1,1,1,1,1,1,1,1,0,0,1,1,1,1,1,1,1,1,1,1,1,1,1,1,1,1,1,1,1,1,1,1,1,1,1,1,1,1,1,1,1,1,1,1,1,1,1,1,1,1,1,1,1,1,1,1,1,1,1,1,1,1,1,1,1,1,1,1,1,1,1,1,1,1,1,1,1,1,1,1,1,1,1,1,1,1,1,1,1,1,1,1,1,1,1,1,1,1,1,1,1,1,1,1,1,1,1,1,1,1,1,1,1,1,1,1,1,1,1,1,1,1,1,1,1,1,1,1,1,1,1,1,1,1,1,1,1,1,1,1,1,1,1,1,1,1,1,1,1,1,1,1,1,1,1,1,1,1,1,1,1,1,1,1,1,1,1,1,1,1,1,1,1,1,1,1,1,1,1,1,1,1,1,1,1,1,1,1,1,1,1,1,1,1,1,1,1,1,1,1,1,1,1,1,1,1,1,1,1,1,1,1,1,1,1,1,1,1,1,1,1,1,1,1,1,1,1,1,1,1,1,1,1,1,1,1,1,1,1,1,1,1,1,1,1,1,1,1,1,1,1,1,1,1,1,1,1,1,1,1,1,1,1,1,1,1,1,1,1,1,1,1,1,1,1,1,1,1,1,1,1,1,1,1,1,1,1,1,1,1,1,1,1,1,1,1,1,1,1,1,1,1,1,1,1,1,1,1,1,1,1,1,1,1,1,1,1,1,1,1,1,1,1,1,1,1,1,1,1,1,1,1,1,1,1,1,1,1,1,1,1,1,1,1,1,1,1,1,1,1,1,1,1,1,1,1,1,1,1,1,1,1,1,1,1,1,1,1,1,1,1,1,1,1,1,1,1,1,1,1,1,1,1,1,1,1,1,1,1,1,1,1,1,1,1,1,1,1,1,1,1,1,1,1,1,1,1,1,1,1,1,1,1,1,1,1,1,1,1,1,1,1,1,1,1,1,1,1,1,1,1,1,1,1,1,1,1,1,1,1,1,1,1,1,1,1,1,1,1,1,1,1,1,1,1,1,1,1,
1,1,1,1,1,1,1,1,1,1,1,1,1,1,1,1,1,1,1,1,1,1,1,1,1,1,1,1,1,1,1,1,1,1,1,1,1,1,1,1,1,1,1,1,1,1,1,1,1,1,1,1,1,1,1,1,1,1,1,1,1,1,1,1,1,1,1,1,1,1,1,1,1,1,1,1,1,1,1,1,1,1,1,1,1,1,1,1,1,1,1,1,1,1,1,1,1,1,1,1,1,1,1,1,1,1,1,1,1,1,1,1,1,1,1,1,1,1,1,1,1,1,1,1,1,1,1,1,1,1,1,1,1,1,1,1,1,1,1,1,1,1,1,1,1,1,1,1,1,1,1,1,1,1,1,1,1,1,1,1,1,1,1,1,1,1,1,1,1,1,1,1,1,1,1,1,1,1,1,1,1,1,1,1,1,1,1,1,1,1,1,1,1,1,1,1,1,1,1,1,1,1,1,1,1,1,1,1,1,1,1,1,1,1,1,1,1,1,1,1,1,1,1,1,1,1,1,1,1,1,1,1,1,1,1,1,1,1,1,1,1,1,1,1,1,1,1,1,1,1,1,1,1,1,1,1,1,1,1,1,1,1,1,1,1,1,1,1,1,1,1,1,1,1,1,1,1,1,1,1,1,1,1,1,1,1,1,1,1,1,1,1,1,1,1,1,1,1,1,1,1,1,1,1,1,1,1,1,1,1,1,1,1,1,1,1,1,1,1,1,1,1,1,1,1,1,1,1,1,1,1,1,1,1,1,1,1,1,1,1,1,1,1,1,1,1,1,1,1,1,1,1,1,1,1,1,1,1,1,1,1,1,1,1,1,1,1,1,1,1,1,1,1,1,1,1,1,1,1,1,1,1,1,1,1,1,1,1,1,1,1,1,1,1,1,1,1,1,1,1,1,1,1,1,1,1,1,1226,698,5981,1,1,1,1,1,1,1,1,1,1,1,1,1,1,1,0,0,1,1,1,1,1,1,1,1,1,1,1,1,1,1,1,1,1,1,1,1,1,1,1,1,1,1,1,1,1,1,1,1,1,1,1,1,1,1,1,1,1,1,1,1,1,1,1,1,1,1,1,1,1,1,1,1,1,1,1,1,1,1,1,1,1,1,1,1,1,1,1,1,1,1,1,1,1,1,1,1,1,1,1,1,1,1,1,1,1,1,1,1,1,1,1,1,1,1,1,1,1,1,1,1,1,1,1,1,1,1,1,1,1,1,1,1,1,1,1,1,1,1,1,1,1,1,1,1,1,1,1,1,1,1,1,1,1,1,1,1,1,1,1,1,1,1,1,1,1,1,1,1,1,1,1,1,1,1,1,1,1,1,1,1,1,1,1,1,1,1,1,1,1,1,1,1,1,1,1,1,1,1,1,1,1,1,1,1,1,1,1,1,1,1,1,1,1,1,1,1,1,1,1,1,1,1,1,1,1,1,1,1,1,1,1,1,1,1,1,1,1,1,1,1,1,1,1,1,1,1,1,1,1,1,1,1,1,1,1,1,1,1,1,1,1,1,1,1,1,1,1,1,1,1,1,1,1,1,1,1,1,1,1,1,1,1,1,1,1,1,1,1,1,1,1,1,1,1,1,1,1,1,1,1,1,1,1,1,1,1,1,1,1,1,1,1,1,1,1,1,1,1,1,1,1,1,1,1,1,1,1,1,1,1,1,1,1,1,1,1,1,1,1,1,1,1,1,1,1,1,1,1,1,1,1,1,1,1,1,1,1,1,1,1,1,1,1,1,1,1,1,1,1,1,1,1,1,1,1,1,1,1,1,1,1,1,1,1,1,1,1,1,1,1,1,1,1,1,1,1,1,1,1,1,1,1,1,1,1,1,1,1,1,1,1,1,1,1,1,1,1,1,1,1,1,1,1,1,1,1,1,1,1,1,1,1,1,1,1,1,1,1,1,1,1,1,1,1,1,1,1,1,1,1,1,1,1,1,1,1,1,1,1,1,1,1,1,1,
1,1,1,1,1,1,1,1,1,1,1,2301,2307,1,1,1,1,1,1,2301,2307,1,1,1,1,1,2301,2307,0,1,1,1,1,1,2301,2307,1,1,1,1,1,2301,2307,1,1,1,1,1,1,2301,2307,1,1,1,1,1,2301,2307,1,1,1,1,1,1,2301,2307,1,1,1,1,1,2301,2307,1,1,1,1,1,1,2301,2307,1,1,1,1,1,2301,2307,1,1,1,1,1,1,1,1,1,1,1,1,1,1,1,1,1,1,1,1,1,1,1,1,1,1,1,1,1,1,1,1,1,1,1,1,1,1,5105,1,1,1,1,1,1,1,5105,1,1,1,1,1,1,1,5105,1,1,1,1,1,1,1,5105,1,1,1,1,1,1,1,5105,1,1,1,1,1,1,1,5105,1,1,1,1,1,1,1,5105,1,1,1,1,1,1,1,5105,1,1,1,1,1,1,1,5105,1,1,1,1,1,1,1,5105,1,1,1,1,1,1,1,5105,1,1,1,1,1,1,1,5105,1,1,1,1,1,1,1,1,1,1,1,1,1,1,1,1,1,1,1,1,1,1,1,1,1,1,1,1,1,1,1,1,1,1,1,1,1,1,1,1,1,1,1,1666,106,1664,1,1,1,1,1,1,1,1,1,1,1,1,1665,1663,1,1,1665,106,1663,1,1,1,1,1665,1663,1,1,1,1,1,1665,106,1663,1,1,1663,1,1,1,1,1,1,1,1,1,1,1,1,1,1,1,1,1,1,1,1,1,1,1,1,1,1,1,1,1,1,1,1,1,1,1,1,1,1,1,1,1,1,1,1,1,1,1,1,1,1,1,1,1,1,1,1,1,1,1,1,1,1,1,1,1,1,1,1,1,1,1,1,1,1,1,1,1,1,1,1,1,1,1,1,1,1,1,1,1,1,1,1,1,1,1,1,1,1,1,1,1,1,1,1,1,1,1,1,1,1,698,1226,5981,1,1,1,1,1,1,1,1,1,1,1,1,1,1,1,1,1,1,1,1,1,1,1,1,1,1,1,1,1,1,1,1,1,1,1,1,1,1,1,1,1,1,1,1,1,1,1,1,1,1,1,1,1,1,1,1,1,1,1,1,1,1,1,1,1,1,1,1,1,1,1,1,1,1,1,1,1,1,1,1,1,1,1,1,1,1,1,1,1,1,1,1,1,1,1,1,1,1,1,1,1,1,1,1,1,1,1,1,1,1,1,1,1,1,1,1,1,1,1,1,1,1,1,1,1,1,1,1,1,1,1,1,1,1,1,1,1,1,1,1,1,1,1,1,1,1,1,1,1,1,1,1,1,1,1,1,1,1,1,1,1,1,1,1,1,1,1,1,1,1,1,1,1,1,1,1,1,1,1,1,1,1,1,1,1,1,1,1,1,1,1,1,1,1,1,1,1,1,1,1,1,1,1,1,1,1,1,1,1,1,1,1,1,1,1,1,1,1,1,1,1,1,1,1,1,1,1,1,1,1,1,1,1,1,1,1,1,1,1,1,1,1,1,1,1,1,1,1,1,1,1,1,1,1,1,1,1,1,1,1,1,1,1,1,1,1,1,1,1,1,1,1,1,1,1,1,1,1,1,1,1,1,1,1,1,1,1,1,1,1,1,1,1,1,1,1,1,1,1,1,1,1,1,1,1,1,1,1,1,1,1,1,1,1,1,1,1,1,1,1,1,1,1,1,1,1,1,1,1,1,1,1,1,1,1,1,1,1,1,1,1,1,1,1,1,1,1,1,1,1,1,1,1,1,1,1,1,1,1,1,1,1,1,1,1,1,1,1,1,1,1,1,1,1,1,1,1,1,1,1,1,1,1,1,1,1,1,1,1,1,1,1,1,1,1,1,1,1,1,1,1,1,1,1,1,1,1,1,1,1,1,1,1,1,1,1,1,1,1,1,1,1,1,1,1,1,1,1,1,1,1,1,1,1,1,1,1,1,1,1,1,1,1,1,1,1,1,1,1,1,1,1,1,1,1,1,1,1,1,1,1,1,1,1,1,
1,1,1,1,1,1,1,1,1,1,1,2302,2308,1,1,1,1,1,1,2302,2308,1,1,1,1,1,2302,2308,0,1,1,1,1,1,2302,2308,1,1,1,1,1,2302,2308,1,1,1,1,1,1,2302,2308,1,1,1,1,1,2302,2308,1,1,1,1,1,1,2302,2308,1,1,1,1,1,2302,2308,1,1,1,1,1,1,2302,2308,1,1,1,1,1,2302,2308,1,1,1,1,1,1,1,1,1,1,1,1,1,1,1,1,1,1,1,1,1,1,1,1,1,1,1,1,1,1,1,1,1,1,1,1,1,1,5105,1,1,1,1,1,1,1,5105,1,1,1,5105,1,1,1,5105,1,1,1,1,1,1,1,5105,1,1,1,5105,1,1,1,5105,1,1,1,1,1,1,1,5105,1,1,1,5105,1,1,1,5105,1,1,1,1,1,1,1,5105,1,1,1,5105,1,1,1,5105,1,1,1,1,1,1,1,5105,1,1,1,5105,1,1,1,5105,1,1,1,1,1,1,1,5105,1,1,1,0,1,1,1,1,1,1,1,1,1,1,1,1,1,1,1,1,1,1,1,1,1,1,1,1,1,1,1,1,1,1,1,1,1,1,1,1,1,1,1,1665,106,1663,1,1,1,1,1,1,1,1,1,1,1,1,1,1666,1664,1,1,1666,106,1664,1,1,1,1,1666,1664,1,1,1,1,1,1666,106,1664,1,1666,1664,1,1,1,1,1,1,1,1,1,1,1,1,1,1,1,1,1,1,1,1,1,1,1,1,1,1,1,1,1,1,1,1,1,1,1,1,1,1,1,1,1,1,1,1,1,1,1,1,1,1,1,1,1,1,1,1,1,1,1,1,1,1,1,1,1,1,1,1,1,1,1,1,1,1,1,1,1,1,1,1,1,1,1,1,1,1,1,1,1,1,1,1,1,1,1,1,1,1,1,1,1,1,1,1,1,1,1,1,1,1226,698,5981,1,1,1,1,1,1,1,1,1,1,1,1,1,1,1,1,1,1,1,1,1,1,1,1,1,1,1,1,1,1,1,1,1,1,1,1,1,1,1,1,1,1,1,1,1,1,1,1,1,1,1,1,1,1,1,1226,698,1226,698,5981,1,1,1,1,1,1,1,1,1,1,1,1,1,1,1,1,1,1,1,1,1,1,1,1,1,1,1,1,1,1,1,1,1,1,1,1,1,1,1,1,1,1,1,1,1,1,1,1,1,1,1,1,1,1,1,1,1,1,1,1,1,1,1,1,1,1,1,1,1,1,1,1,1,1,1,1,1,1,1,1,1,1,1,1,1,1,1,1,1,1,1,1,1,1,1,1,1,1,1,1,1,1,1,1,1,1,1,1,1,1,1,1,1,1,1,1,1,1,1,1,1,1,1,1,1,1,1,1,1,1,1,1,1,1,1,1,1,1,1,1,1,1,1,1,1,1,1,1,1,1,1,1,1,1,1,1,1,1,1,1,1,1,1,1,1,1,1,1,1,1,1,1,1,1,1,1,1,1,1,1,1,1,1,1,1,1,1,1,1,1,1,1,1,1,1,1,1,1,1,1,1,1,1,1,1,1,1,1,1,1,1,1,1,1,1,1,1,1,1,1,1,1,1,1,1,1,1,1,1,1,1,1,1,1,1,1,1,1,1,1,1,1,1,1,1,1,1,1,1,1,1,1,1,1,1,1,1,1,1,1,1,1,1,1,1,1,1,1,1,1,1,1,1,1,1,1,1,1,1,1,1,1,1,1,1,1,1,1,1,1,1,1,1,1,1,1,1,1,1,1,1,1,1,1,1,1,1,1,1,1,1,1,1,1,1,1,1,1,1,1,1,1,1,1,1,1,1,1,1,1,1,1,1,1,1,1,1,1,1,1,1,1,1,1,1,1,1,1,1,1,1,1,1,1,1,1,1,1,1,1,1,1,1,1,1,1,1,1,1,1,1,1,1,1,1,1,1,1,1,1,1,1,1,1,1,1,1,1,1,1,1,1,1,1,1,1,1,1,1,1,1,1,1,1,1,
1,1,1,1,1,1,1,1,1,1,2301,2307,1,1,1,1,1,1,2301,2307,1,1,1,1,1,2301,2307,0,1,1,1,1,1,2301,2307,1,1,1,1,1,2301,2307,1,1,1,1,1,1,2301,2307,1,1,1,1,1,2301,2307,1,1,1,1,1,1,2301,2307,1,1,1,1,1,2301,5249,5249,1,1,1,1,1,2301,2307,1,1,1,1,1,2301,2307,1,1,1,1,1,1,1,1,1,1,1,1,1,1,1,1,1,1,1,1,1,1,1,1,1,1,1,1,1,1,1,1,1,1,1,1,1,1,1,5105,1,1,1,5105,1,1,1,5105,1,1,1,5105,1,1,1,5105,1,1,1,5105,1,1,1,5105,1,1,1,5105,1,1,1,5105,1,1,1,5105,1,1,1,5105,740,23,741,5105,1,1,1,5105,1,1,1,5105,1,1,1,5105,1,1,1,5105,1,1,1,5105,1,1,1,5105,1,1,1,5105,1,1,1,5105,1,1,1,5105,1,1,1,5105,1,1,1,5105,1,1,1,0,1,1,1,1,1,1,1,1,1,1,1,1,1,1,1,1,1,1,1,1,1,1,1,1,1,1,1,1,1,1,1,1,1,1,1,1,1,1,1,1,1666,106,1664,1,1,1,1,1,1,1,1,1,1,1,1,1665,1663,1,1,1665,106,1663,1,1,1,1,1665,1663,1,1,1,1,1,1665,106,1663,1,1665,1663,1,1,1,1,1,1,1,1,1,1,1,1,1,1,1,1,1,1,1,1,1,1,1,1,1,1,1,1,1,1,1,1,1,1,1,1,1,1,1,1,1,1,1,1,1,1,1,1,1,1,1,1,1,1,1,1,1,1,1,1,1,1,1,1,1,1,1,1,1,1,1,1,1,1,1,1,1,1,1,1,1,1,1,1,1,1,1,1,1,1,1,1,1,1,1,1,1,1,1,1,1,1,1,1,1,1,1,1,1,698,1226,5981,1,1,2813,2819,1,1,1,1,1,1,1,1,2973,2979,1,1,1,1,1,1,1,1,2813,2819,1,1,1,1,1,1,1,1,2973,2979,1,1,1,1,1,1,1,1,2813,2819,1,1,1,1,1,1,1,1,2973,2979,1,698,1226,698,1226,5981,1,1,2813,2819,1,1,1,1,1,1,1,1,1,1,1,1,1,1,1,1,1,1,1,1,1,1,1,1,1,1,1,1,1,1,1,1,1,1429,1,1,1,1,1,1,1,1,1,1,1,1,1,1,1,1,1,1,1,1,1,1,1,1,1,1,1,1,1,1,1,1,1,1,1,1,1,1,1,1,1,1,1,1,1,1,1,1,1,1,1,1,1,1,1,1,1,1,1,1,1,1,1,1,1,1,1,1,1,1,1,1,1,1,1,1,1,1,1,1,1,1,1,1,1,1,1,1,1,1,1,1,1,1,1,1,1,1,1,1,1,1,1,1,1,1,1,1,1,1,1,1,1,1,1,1,1,1,1,1,1,1,1,1,1,1,1,1,1,1,1,1,1,1,1,1,1,1,1,1,1,1,1,1,1,1,1,1,1,1,1,1,1,1,1,1,1,1,1,1,1,1,1,1,1,1,1,1,1,1,1,1,1,1,1,1,1,1,1,1,1,1,1,1,1,1,1,1,1,1,1,1,1,1,1,1,1,1,1,1,1,1,1,1,1,1,1,1,1,1,1,1,1,1,1,1,1,1,1,1,1,1,1,1,1,1,1,1,1,1,1,1,1,1,1,1,1,1,1,1,1,1,1,1,1,1,1,1,1,1,1,1,1,1,1,1,1,1,1,1,1,1,1,1,1,1,1,1,1,1,1,1,1,1,1,1,1,1,1,1,1,1,1,1,1,1,1,1,1,1,1,1,1,1,1,1,1,1,1,1,1,1,1,1,1,1,1,1,1,1,1,1,1,1,1,1,1,1,1,1,1,1,1,1,1,1,1,1,1,1,1,1,1,1,1,1,1,1,1,1,1,1,1,1,1,1,1,1,1,1,1,1,1,1,1,1,1,1,1,1,1,1,1,1,1,1,1,
1,1,1,1,1,1,1,1,1,1,2302,2308,1,1,1,1,1,1,2302,2308,1,1,1,1,1,2302,2308,0,1,126,126,126,126,126,126,126,5249,5249,1,1,2302,2308,1,1,1,1,1,1,2302,2308,1,1,1,1,1,2302,2308,1,1,1,1,1,1,2302,2308,1,1,1,1,1,2302,5249,5249,1,1,1,1,1,2302,2308,1,1,1,1,1,2302,2308,1,1,1,1,1,1,1,1,1,1,1,1,1,1,1,1,1,1,1,1,1,1,1,1,1,1,1,1,1,1,1,1,1,1,1,1,1,1,1,5105,1,1,1,5105,1,1,1,5105,1,1,1,5105,1,1,1,5105,1,1,1,5105,1,1,1,5105,1,1,1,5105,1,1,1,5105,1,1,1,5105,1,1,1,5105,740,23,741,5105,1,1,1,5105,1,1,1,5105,1,1,1,5105,1,1,1,5105,1,1,1,5105,1,1,1,5105,1,1,1,5105,1,1,1,5105,1,1,1,5105,1,1,1,5105,1,1,1,5105,1,1,1,0,1,1,1,1,1,1,1,1,1,1,1,1,1,1,1,1,1,1,1,1,1,1,1,1,1,1,1,1,1,1,1,1,1,1,1,1,1,1,1,1,1665,106,1663,1,1,1,1,1,1,1,1,1,1,1,1,1,1666,1664,1,1,1666,106,1664,1,1,1,1,1666,1664,1,1,1,1,1,1666,106,1664,1,1666,1664,1,1,1,1,1,1,1,1,1,1,1,1,1,1,1,1,1,1,1,1,1,1,1,1,1,1,1,1,1,1,1,1,1,1,1,1,1,1,1,1,1,1,1,1,1,1,1,1,1,1,1,1,1,1,1,1,1,1,1,3462,1665,1663,3462,3462,1665,106,1663,3462,3462,3462,1665,1663,3462,3462,3462,3462,3462,3462,1665,106,1663,3462,1665,1663,3462,3462,3462,1665,1663,3462,3462,3462,1665,106,1663,3462,3462,3462,3462,3462,3462,3462,3462,3462,3462,3462,3462,3462,1226,698,5981,1,1,2814,2820,1,1,1,1,1,1,1,1,2974,2980,1,1,1,1,1,1,1,1,2814,2820,1,1,1,1,1,1,1,1,2974,2980,1,1,1,1,1,1,1,1,2814,2820,1,1,1,1,1,1,1,1,2974,2980,1,1226,698,1226,698,5981,1,1,2814,2820,1,1,1,1,1,1,1,1,1,1,1,1,1,1,1,1,1,1,1,1,1,1,1,1,1,1,1,1,1,1,1,1,1,1445,1,1,1,1,1,1,1,1,1,1,1,1,1,1,1,1,1,1,1,1,1,1,1,1,1,1,1,1,1,1,1,1,1,1,1,1,1,1,1,1,1,1,1,1,1,1,1,1,1,1,1,1,1,1,1,1,1,1,1,1,1,1,1,1,1,1,1,1,1,1,1,1,1,1,1,1,1,1,1,1,1,1,1,1,1,1,1,1,1,1,1,1,1,1,1,1,1,1,1,1,1,1,1,1,1,1,1,1,1,1,1,1,1,1,1,1,1,1,1,1,1,1,1,1,1,1,1,1,1,1,1,1,1,1,1,1,1,1,1,1,1,1,1,1,1,1,1,1,1,1,1,1,1,1,1,1,1,1,1,1,1,1,1,1,1,1,1,1,1,1,1,1,1,1,1,1,1,1,1,1,1,1,1,1,1,1,1,1,1,1,1,1,1,1,1,1,1,1,1,1,1,1,1,1,1,1,1,1,1,1,1,1,1,1,1,1,1,1,1,1,1,1,1,1,1,1,1,1,1,1,1,1,1,1,1,1,1,1,1,1,1,1,1,1,1,1,1,1,1,1,1,1,1,1,1,1,1,1,1,1,1,1,1,1,1,1,1,1,1,1,1,1,1,1,1,1,1,1,1,1,1,1,1,1,1,1,1,1,1,1,1,1,1,1,1,1,1,1,1,1,1,1,1,1,1,1,1,1,1,1,1,1,1,1,1,1,1,1,1,1,1,1,1,1,1,1,1,1,1,1,1,1,1,1,1,1,1,1,1,1,1,1,1,1,1,1,1,1,1,1,1,1,1,1,1,1,1,1,1,1,1,1,1,1,1,1,1,
1,1,1,1,1,1,1,1,1,2301,2307,1,1,1,1,1,1,2301,2307,1,1,1,1,1,2301,2307,0,1,1,126,126,126,126,126,126,126,5249,5249,1,2301,2307,1,1,1,1,1,1,2301,2307,1,1,1,1,1,2301,2307,1,1,1,1,5249,5249,5249,2307,5105,1,1,1,1,2301,2307,5249,5249,1,1,1,1,2301,2307,1,1,1,1,1,2301,2307,1,1,1,1,1,1,1,1,1,1,1,1,1,1,1,1,1,1,1,1,1,1,1,1,1,1,1,1,1,1,1,1,1,1,1,1,1,1,1,1,5105,1,1,1,755,1,1,1,5105,1,1,1,5105,1,1,1,5105,0,1,1,5105,1,1,1,5105,1,1,1,5105,1,1,1,5105,1,1,1,5105,1,1,1,5105,740,23,741,5105,1,1,3428,23,3427,1,1,5105,1,1,1,5105,1,1,3428,5105,1,1,0,5105,0,0,1,5105,1,1,1,5105,1,1,1,5105,1,1,1,5105,1,1,1,5105,1,1,1,5105,1,1,1,0,1,1,1,1,1,1,1,1,1,1,1,1,1,1,1,1,1,1,1,1,1,1,1,1,1,1,1,1,1,1,1,1,1,1,1,1,1,1,1,1,1661,106,1667,1,1,1,1,1,1,1,1,1,1,1,1,1,1662,1668,1,1,1662,106,1668,1,1,1,1,1662,1668,1,1,1,1,1,1662,106,1668,1,1662,1668,1,1,1,1,1,1,1,1,1,1,1,1,1,1,1,1,1,1,1,1,1,1,1,1,1,1,1,1,3462,3462,3462,3462,3462,3462,3462,1,1,3462,1,1,3462,3462,3462,3462,3462,3462,3462,3462,3462,3462,3462,3462,3462,1,1,3462,1,1,1,0,1,1666,1664,0,1,1666,106,1664,0,0,0,1666,1664,0,0,0,0,0,1,1666,106,1664,0,1666,1664,0,0,0,1666,1664,0,0,1,1666,106,1664,0,0,0,0,0,0,0,0,0,0,0,0,698,1226,5981,1,2813,2819,1,1,1,1,1,1,1,1,2973,2979,1,1,1,1,1,1,1,1,2813,2819,1,1,1,1,1,1,1,1,2973,2979,1,1,1,1,1,1,1,1,2813,2819,1,1,1,1,1,1,1,1,2973,2979,1,1,698,1226,698,1226,5981,1,2813,2819,1,1,1,1,1,1,1,1,1,1,1,1,1,1,1,1,1,1,1,1,1,1,1,1,1,1,1,1,1,1,1,1,1,1,1461,0,1,1,1,1,1,1,1,1,1,1,1,1,1,1,1,1,1,1,1,1,1,1,1,1,1,1,1,1,1,1,1,1,1,1,1,1,1,1,1,1,1,1,1,1,1,1,1,1,1,1,1,1,1,1,1,1,1,1,1,1,1,1,1,1,1,1,1,1,1,1,1,1,1,1,1,1,1,1,1,1,1,1,1,1,1,1,1,1,1,1,1,1,1,1,1,1,1,1,1,1,1,1,1,1,1,1,1,1,1,1,1,1,1,1,1,1,1,1,1,1,1,1,1,1,1,1,1,1,1,1,1,1,1,1,1,1,1,1,1,1,1,1,1,1,1,1,1,1,1,1,1,1,1,1,1,1,1,1,1,1,1,1,1,1,1,1,1,1,1,1,1,1,1,1,1,1,1,1,1,1,1,1,1,1,1,1,1,1,1,1,1,1,1,1,1,1,1,1,1,1,1,1,1,1,1,1,1,1,1,1,1,1,1,1,1,1,1,1,1,1,1,1,1,1,1,1,1,1,1,1,1,1,1,1,1,1,1,1,1,1,1,1,1,1,1,1,1,1,1,1,1,1,1,1,1,1,1,1,1,1,1,1,1,1,1,1,1,1,1,1,1,1,1,1,1,1,1,1,1,1,1,1,1,1,1,1,1,1,1,1,1,1,1,1,1,1,1,1,1,1,1,1,1,1,1,1,1,1,1,1,1,1,1,1,1,1,1,1,1,1,1,1,1,1,1,1,1,1,1,1,1,1,1,1,1,1,1,1,1,1,1,1,1,1,1,1,1,1,1,1,1,1,1,1,1,1,1,1,1,1,1,1,1,1,1,1,
1,1,1,1,1,1,1,1,1,2302,2308,1,1,1,1,1,1,2302,2308,126,126,126,126,126,126,126,5249,5249,5249,126,126,126,126,126,126,126,5249,5249,126,126,126,126,126,126,126,126,126,5249,5249,126,126,126,126,126,126,126,126,126,126,126,5249,5249,5249,2308,5105,1,1,1,1,2302,2308,5249,5249,1,1,1,1,2302,2308,1,1,1,1,1,2302,2308,1,1,1,1,1,1,1,1,1,1,1,1,1,1,1,1,1,1,1,1,1,1,1,1,1,1,1,1,1,1,1,1,1,1,1,1,1,1,1,1,5105,0,0,0,755,1,1,1,5105,1,1,1,5105,1,1,1,740,741,1,1,5105,1,1,1,5105,1,1,1,5105,1,1,1,5105,1,1,1,5105,1,1,1,5105,740,23,741,5105,1,1,3428,23,3427,1,1,5105,1,1,1,5105,1,1,3428,5105,1,1,3428,23,23,3427,1,5105,1,1,1,5105,1,1,1,5105,3428,3427,1,5105,1,1,1,5105,1,1,1,5105,1,1,1,0,1,1,1,1,1,1,1,1,1,0,1,1,1,1,1,1,1,1,1,1,1,1,1,1,1,1,1,1,1,1,1,1,1,1,1,1,1,1,1,1,1662,106,1668,1,1,1,1,1,1,1,1,1,1,1,1,1661,1667,1,1,1661,106,1667,1,1,1,1,1661,1667,1,1,1,1,1,1661,106,1667,1,1661,1667,1,1,1,1,1,1,1,1,1,1,1,1,1,1,1,1,1,1,1,1,1,1,1,1,1,1,1,1689,1690,0,0,0,0,0,0,0,1,1,0,1,1,0,0,0,1,1,1,1,1,1,1,1,1,1,1,1,1,1,1,1,1,1,1662,1668,1,1,1662,106,1668,1,1,1,1662,1668,1,1,1,1,1,1,1662,106,1,1,1662,1668,1,1,1,1662,1668,1,1,1,1662,106,1668,1,1,1,1,1,1,1,1,1,1,1,1,1226,698,5981,1,2814,2820,1,1,1,1,1,1,1,1,2974,2980,1,1,1,1,1,1,1,1,2814,2820,1,1,1,1,1,1,1,1,2974,2980,1,1,1,1,1,1,1,1,2814,2820,1,1,1,1,1,1,1,1,2974,2980,1,1,1226,698,1226,698,5981,1,2814,2820,1,1,1,1,1,1,1,1,1,1,1,1,1,1,1,1,1,1,1,1,1,1,1,1,1,1,1,1,1,1,1,1,1,1,1477,0,1,1,1,1,1,1,1,1,1,1,1,1,1,1,1,1,1,1,1,1,1,1,1,1,1,1,1,1,1,1,1,1,1,1,1,1,1,1,1,1,1,1,1,1,1,1,1,1,1,1,1,1,1,1,1,1,1,1,1,1,1,1,1,1,1,1,1,1,1,1,1,1,1,1,1,1,1,1,1,1,1,1,1,1,1,1,1,1,1,1,1,1,1,1,1,1,1,1,1,1,1,1,1,1,1,1,1,1,1,1,1,1,1,1,1,1,1,1,1,1,1,1,1,1,1,1,1,1,1,1,1,1,1,1,1,1,1,1,1,1,1,1,1,1,1,1,1,1,1,1,1,1,1,1,1,1,1,1,1,1,1,1,1,1,1,1,1,1,1,1,1,1,1,1,1,1,1,1,1,1,1,1,1,1,1,1,1,1,1,1,1,1,1,1,1,1,1,1,1,1,1,1,1,1,1,1,1,1,1,1,1,1,1,1,1,1,1,1,1,1,1,1,1,1,1,1,1,1,1,1,1,1,1,1,1,1,1,1,1,1,1,1,1,1,1,1,1,1,1,1,1,1,1,1,1,1,1,1,1,1,1,1,1,1,1,1,1,1,1,1,1,1,1,1,1,1,1,1,1,1,1,1,1,1,1,1,1,1,1,1,1,1,1,1,1,1,1,1,1,1,1,1,1,1,1,1,1,1,1,1,1,1,1,1,1,1,1,1,1,1,1,1,1,1,1,1,1,1,1,1,1,1,1,1,1,1,1,1,1,1,1,1,1,1,1,1,1,1,1,1,1,1,1,1,1,1,1,1,1,1,1,1,1,1,1,1,
1,1,1,1,1,1,1,1,2301,2307,1,1,1,1,1,1,2237,5249,5249,126,126,126,126,126,126,126,5249,5249,5249,126,126,126,126,126,126,126,5249,5249,126,126,126,126,126,126,126,126,126,5249,5249,126,126,126,126,126,126,126,126,126,126,126,5249,5249,5249,1,5105,1,1,1,2301,2307,1,5249,5249,1,1,1,2301,2307,1,1,5249,5249,1,2301,2307,1,1,1,1,1,1,1,1,1,1,1,1,1,1,1,1,1,1,1,1,1,1,1,1,1,1,1,1,1,1,1,1,1,1,1,1,1,1,1,1,1,5105,0,0,0,755,1,1,1,5105,1,1,1,5105,1,1,1,740,741,1,1,5105,1,755,5317,5249,5315,3426,3426,740,23,741,3426,5105,3426,5318,5316,5105,3426,1,5314,5249,740,23,741,5105,3426,3426,3428,3389,3427,5316,3426,5105,5317,5249,5315,5105,3426,3426,3428,5105,3426,3426,3428,23,23,3427,1,5105,1,1,1,5105,1,1,1,5105,3428,3427,1,5105,1,1,1,5105,1,1,1,5105,1,1,1,0,1,1,1,1,1,1,1,1,1,1,1,1,1,1,1,1,1,1,1,1,1,1,1,1,1,1,1,1,1,1,1,1,1,1,1,1,1,1,1,1661,106,1667,1,1,1,1,1,1,1,1,1,1,1,1,1,1662,1668,1,1,1662,106,1668,1,1,1,1,1662,1668,1,1,1,1,1,1662,106,1668,1,1662,1668,1,1,1,1,1,1,1,1,1,1,1,1,1,1,1,1,1,1,1,1,1,1,1,1,1,1,1,1,1,1,1,1,1,1,1,1,1,1,1,1,1,1,1,1,1,1,1,1,1,1,1,1,1,1,1,1,1,1,1,1,1,1661,1667,1,1,1661,106,1667,1,1,1,1661,1667,1,1,1,1,1,1,1661,106,1667,1,1661,1667,1,1,1,1661,1667,1,1,1,1661,106,1667,1,1,1,1,1,1,1,1,1,1,1,1,1,698,1226,5981,2813,2819,1,1,1,1,1,1,1,1,2973,2979,1,1,1,1,1,1,1,1,2813,2819,1,1,1,1,1,1,1,1,2973,2979,1,1,1,1,1,1,1,1,2813,2819,1,1,1,1,1,1,1,1,2973,2979,1,1,1,698,1226,698,1226,5981,2813,2819,1,1,1,1,1,1,1,1,1,1,1,1,1,1,1,1,1,1,1,1,1,1,1,1,1,1,1,1,1,1,1,1,1,1,1,3392,3435,3426,3426,3426,3426,3426,3428,1,1,1,1,1,1,1,3428,3391,1,1,3428,1,1,3392,3427,1,1,1,1,1,1,1,1,1,1,1,1,1,1,1,1,1,1,1,1,1,1,1,1,1,1,1,1,1,1,1,1,1,1,1,1,1,1,1,1,1,1,1,1,1,1,1,1,1,1,1,1,1,1,1,1,1,1,1,1,1,1,1,1,1,1,1,1,1,1,1,1,1,1,1,1,1,1,1,1,1,1,1,1,1,1,1,1,1,1,1,1,1,1,1,1,1,1,1,1,1,1,1,1,1,1,1,1,1,1,1,1,1,1,1,1,1,1,1,1,1,1,1,1,1,1,1,1,1,1,1,1,1,1,1,1,1,1,1,1,1,1,1,1,1,1,1,1,1,1,1,1,1,1,1,1,1,1,1,1,1,1,1,1,1,1,1,1,1,1,1,1,1,1,1,1,1,1,1,1,1,1,1,1,1,1,1,1,1,1,1,1,1,1,1,1,1,1,1,1,1,1,1,1,1,1,1,1,1,1,1,1,1,1,1,1,1,1,1,1,1,1,1,1,1,1,1,1,1,1,1,1,1,1,1,1,1,1,1,1,1,1,1,1,1,1,1,1,1,1,1,1,1,1,1,1,1,1,1,1,1,1,1,1,1,1,1,1,1,1,1,1,1,1,1,1,1,1,1,1,1,1,1,1,1,1,1,1,1,1,1,1,1,1,1,1,1,1,1,1,1,1,1,1,1,1,1,1,1,1,1,1,1,1,1,1,1,1,1,1,1,1,1,1,1,1,1,1,1,1,1,1,1,1,1,1,1,1,1,1,1,1,1,1,
1,1,1,1,1,1,1,1,2302,2308,1,1,1,1,1,1,2238,5249,5249,126,126,126,126,126,126,126,5249,5249,5249,126,1748,32,32,32,32,1747,5249,5249,126,126,126,126,126,126,126,126,126,5249,5249,126,126,126,126,126,126,126,126,126,126,126,5249,5249,5249,1,5105,1,1,1,2302,2308,1,5249,5249,1,1,1,2302,2308,1,1,5249,5249,1,2302,2308,1,1,1,1,1,1,1,1,1,1,1,1,1,1,1,1,1,1,1,1,1,1,1,1,1,1,1,1,1,1,1,1,1,1,1,1,1,1,1,1,1,0,0,0,1,755,3426,3426,3426,5313,5249,5319,3426,5105,3426,3426,3426,740,741,1,1,5105,1,755,1,5318,5249,5316,1,740,23,741,1,5110,1,5317,5315,5105,1,5313,5249,5319,740,23,741,5105,1,1,1,5110,5317,5315,1,5105,1,5318,5249,5316,1,1,3428,5105,1,1,3428,23,23,3427,1,5105,1,1,1,5110,1,1,1,5105,3428,3427,5317,5315,3428,1,1,5105,1,1,1,5110,1,1,1,0,1,1,1,1,1,1,1,1,1,1,1,1,1,1,1,1,1,1,1,1,1,1,1,1,1,1,1,1,1,1,1,1,1,1,1,1,1,1,1,1662,106,1668,1,1,1,1,1,1,1,1,1,1,1,1,1661,1667,1,1,1661,106,1667,1,1,1,1,1661,1667,1,1,1,1,1,1661,106,1667,1,1661,1667,1,1,1,1,1,1,1,1,1,1,1,1,1,1,1,1,1,1,1,1,1,1,1,1,1,1,1,1,1,1,1,1,1,1,1,1,1,1,1,1,1,1,1,1,1,1,1,1,1,1,1,1,1,1,1,1,1,1,1,1,1,1,1662,1668,1,1,1662,106,1668,1,1,1,1662,1668,1,1,1,1,1,1,1662,106,1668,1,1662,1668,1,1,1,1662,1668,1,1,1,1662,106,1668,1,1,1,1,1,1,1,1,1,1,1,1,1,1226,698,5837,2814,2820,1,1,1,1,1,1,1,1,2974,2980,1,1,1,1,1,1,1,1,2814,2820,1,1,1,1,1,1,1,1,2974,2980,1,1,1,1,1,1,1,1,2814,2820,1,1,1,1,1,1,1,1,2974,2980,1,1,1,1226,698,1226,698,5837,2814,2820,1,1,1,1,1,1,1,1,1,1,1,1,1,1,1,1,1,1,1,1,1,1,1,1,1,1,1,1,1,1,1,1,1,1,1,3424,0,1,1,1,1,1,3428,1,1,1,1,1,1,1,3428,3391,3426,3426,3428,3426,3426,3392,3435,1,1,1,1,1,1,1,1,1,1,1,1,1,1,1,1,1,1,1,1,1,1,1,1,1,1,1,1,1,1,1,1,1,1,1,1,1,1,1,1,1,1,1,1,1,1,1,1,1,1,1,1,1,1,1,1,1,1,1,1,1,1,1,1,1,1,1,1,1,1,1,1,1,1,1,1,1,1,1,1,1,1,1,1,1,1,1,1,1,1,1,1,1,1,1,1,1,1,1,1,1,1,1,1,1,1,1,1,1,1,1,1,1,1,1,1,1,1,1,1,1,1,1,1,1,1,1,1,1,1,1,1,1,1,1,1,1,1,1,1,1,1,1,1,1,1,1,1,1,1,1,1,1,1,1,1,1,1,1,1,1,1,1,1,1,1,1,1,1,1,1,1,1,1,1,1,1,1,1,1,1,1,1,1,1,1,1,1,1,1,1,1,1,1,1,1,1,1,1,1,1,1,1,1,1,1,1,1,1,1,1,1,1,1,1,1,1,1,1,1,1,1,1,1,1,1,1,1,1,1,1,1,1,1,1,1,1,1,1,1,1,1,1,1,1,1,1,1,1,1,1,1,1,1,1,1,1,1,1,1,1,1,1,1,1,1,1,1,1,1,1,1,1,1,1,1,1,1,1,1,1,1,1,1,1,1,1,1,1,1,1,1,1,1,1,1,1,1,1,1,1,1,1,1,1,1,1,1,1,1,1,1,1,1,1,1,1,1,1,1,1,1,1,1,1,1,1,1,1,1,1,1,1,1,1,1,1,1,1,1,1,1,1,1,
1,1,1,1,1,1,1,2301,2307,1,1,1,1,1,1,2301,2307,5249,5249,126,126,126,126,126,126,126,5249,5249,5249,1748,2301,2307,1,1,1,1,5249,5249,32,32,32,32,32,32,1747,126,126,5249,5249,126,1748,32,32,32,32,32,32,32,32,1747,5249,5249,5249,1,5105,1,1,2301,2307,1,1,1,5105,1,1,2301,2307,1,1,1,5249,5249,2301,2307,1,1,1,1,1,1,1,1,1,1,1,1,1,1,1,1,1,1,1,1,1,1,1,1,1,1,1,1,1,1,1,1,1,1,1,1,1,1,1,1,1,1,0,0,0,1,752,1,1,1,5314,5249,5320,1,5110,1,1,1,740,741,3426,3426,5318,5316,752,1,5317,5249,5315,1,744,739,745,1,1,1,1,5318,5316,1,5314,5249,5320,744,739,745,5110,1,1,1,1,1,5318,5316,5105,1,5317,5249,5315,1,1,1,5110,1,1,3428,3389,3389,3427,3426,5314,5249,5320,3426,3426,3426,3426,3426,5110,3428,3427,1,5318,3428,3426,3426,5317,5249,5315,3426,3426,3426,1,3391,0,1,1,5318,5316,0,1666,1664,1,1,1666,106,1664,1,1,1,1,1666,1664,1,1,1,1,1,1666,106,1664,1,1666,1664,1,1,1,1,1,1666,1664,1,1,1,1666,106,1664,1,1,1,1,1,1,1,1,1,1,1,1,1665,1663,1,1,1665,106,1663,3409,1,1,1,1665,1663,1,1,1,1,1,1665,106,1663,1,1665,1663,1,1,1,1,1,1,1,1,1,1,1,1,1,1,1,1,1,1,1,1,1,1,1,1,1,1,1,1,1,1,1,1,1,1,1,1,1,1,1,1,1,1,1,1,1,1,1,1,1,1,1,1,1,1,1,1,1,1,1,1,1,1661,1667,1,1,1661,106,1667,1,1,1,1661,1667,1,1,1,1,1,1,1661,106,1667,1,1661,1667,1,1,1,1661,1667,1,1,1,1661,106,1667,1,1,1,1,1,1,1,1,1,1,1,1,1,1,1,1,2813,2819,1,1,1,1,1,1,1,1,2973,2979,1,1,1,1,1,1,1,1,2813,2819,1,1,1,1,1,1,1,1,2973,2979,1,1,1,1,1,1,1,1,2813,2819,1,1,1,1,1,1,1,1,2973,2979,1,1,1,1,2299,2300,1,1,2813,2819,1,1,1,1,1,1,1,1,1,1,1,1,1,1,1,1,1,1,1,1,1,1,1,1,1,1,1,1,1,1,1,1,1,1,1,1,3475,0,1,1,1,1,1,3428,3426,3426,3426,3426,3426,3426,3426,3428,3391,1,1,1,1,1,3424,1,1,1,1,1,1,1,1,1,1,1,1,1,1,1,1,1,1,1,1,1,1,1,1,1,1,1,1,1,1,1,1,1,1,1,1,1,1,1,1,1,1,1,1,1,1,1,1,1,1,1,1,1,1,1,1,1,1,1,1,1,1,1,1,1,1,1,1,1,1,1,1,1,1,1,1,1,1,1,1,1,1,1,1,1,1,1,1,1,1,1,1,1,1,1,1,1,1,1,1,1,1,1,1,1,1,1,1,1,1,1,1,1,1,1,1,1,1,1,1,1,1,1,1,1,1,1,1,1,1,1,1,1,1,1,1,1,1,1,1,1,1,1,1,1,1,1,1,1,1,1,1,1,1,1,1,1,1,1,1,1,1,1,1,1,1,1,1,1,1,1,1,1,1,1,1,1,1,1,1,1,1,1,1,1,1,1,1,1,1,1,1,1,1,1,1,1,1,1,1,1,1,1,1,1,1,1,1,1,1,1,1,1,1,1,1,1,1,1,1,1,1,1,1,1,1,1,1,1,1,1,1,1,1,1,1,1,1,1,1,1,1,1,1,1,1,1,1,1,1,1,1,1,1,1,1,1,1,1,1,1,1,1,1,1,1,1,1,1,1,1,1,1,1,1,1,1,1,1,1,1,1,1,1,1,1,1,1,1,1,1,1,1,1,1,1,1,1,1,1,1,1,1,1,1,1,1,1,1,1,1,1,1,1,1,1,1,1,1,1,1,1,1,1,1,1,1,1,1,1,1,1,1,1,1,1,1,1,1,1,1,1,1,1,1,
1,1,1,1,1,1,1,2302,2308,1,1,1,1,1,1,2302,2308,5249,5249,1748,32,32,32,32,1747,126,5249,5249,5249,1,2302,2308,1,1,1,1,5473,5473,2308,1,1,1,1,1,1,1747,126,5249,5249,1748,1,1,2302,2308,1,1,5110,1,1,1,5249,5249,5249,1,5105,1,1,2302,2308,1,1,1,5110,1,1,2302,2308,1,1,1,5249,5249,2302,2308,1,1,1,1,1,1,1,1,1,1,1,1,1,1,1,1,1,1,1,1,1,1,1,1,1,1,1,1,1,1,1,1,1,1,1,1,1,1,1,1,1,1,0,0,0,1,5110,1,1,1,5318,5249,5316,1,1,1,1,1,744,745,1,1,5317,5315,1,1,5313,5249,5319,1,1,1,1,1,1,1,1,5317,5315,1,5318,5249,5316,1,1,1,1,1,1,1,1,1,5317,5315,5110,1,5313,5249,5319,1,1,1,1,1,1,1,1,5317,5315,1,5318,5249,5316,1,1,1,1,1,1,3428,3427,1,5317,3428,1,1,5313,5249,5319,1,1,1,3409,3391,1,1,1,5317,5315,0,1665,1663,1,1,1665,106,1663,1,1,1,1,1665,1663,1,1,1,1,1,1665,106,1663,1,1665,1663,1,1,1,1,1,1665,1663,1,1,3409,1665,106,1663,1,1,1,1,1,1,1,1,1,1,1,1,1,1666,1664,1,1,1666,106,1664,1,1,1,1,1666,1664,1,1,1,1,1,1666,106,1664,1,1666,1664,1,1,1,1,1,1,1,1,1,1,1,1,1,1,1,1,1,1,1,1,1,1,1,1,1,1,1,1,1,1,1,1,1,1,1,1,1,1,1,1,1,1,1,1,1,1,1,1,1,1,1,1,1,1,1,1,1,1,1,1,1665,1663,1,1,1665,106,1663,1,1,1,1665,1663,1,1,1,1,1,1,1665,106,1663,1,1665,1663,1,1,1,1665,1663,1,1,1,1665,106,1663,1,1,1,1,1,1,1,1,1,1,1,1,1,1,1,1,2814,2820,1,1,1,1,1,1,1,1,2974,2980,1,1,1,1,1,1,1,1,2814,2820,1,1,1,1,1,1,1,1,2974,2980,1,1,1,1,1,1,1,1,2814,2820,1,1,1,1,1,1,1,1,2974,2980,1,1,1,1,1,1,1,1,2814,2820,1,1,1,1,1,1,1,1,1,1,1,1,1,1,1,1,1,1,1,1,1,1,1,1,1,1,1,1,1,1,1,1,1,1,1,1,1,1,1,1,1,1,1,1,1,1,1,1,1,1,1,3436,3391,1,1,1,1,1,3504,1,1,1,1,1,1,1,1,1,1,1,1,1,1,1,1,1,1,1,1,1,1,1,1,1,1,1,1,1,1,1,1,1,1,1,1,1,1,1,1,1,1,1,1,1,1,1,1,1,1,1,1,1,1,1,1,1,1,1,1,1,1,1,1,1,1,1,1,1,1,1,1,1,1,1,1,1,1,1,1,1,1,1,1,1,1,1,1,1,1,1,1,1,1,1,1,1,1,1,1,1,1,1,1,1,1,1,1,1,1,1,1,1,1,1,1,1,1,1,1,1,1,1,1,1,1,1,1,1,1,1,1,1,1,1,1,1,1,1,1,1,1,1,1,1,1,1,1,1,1,1,1,1,1,1,1,1,1,1,1,1,1,1,1,1,1,1,1,1,1,1,1,1,1,1,1,1,1,1,1,1,1,1,1,1,1,1,1,1,1,1,1,1,1,1,1,1,1,1,1,1,1,1,1,1,1,1,1,1,1,1,1,1,1,1,1,1,1,1,1,1,1,1,1,1,1,1,1,1,1,1,1,1,1,1,1,1,1,1,1,1,1,1,1,1,1,1,1,1,1,1,1,1,1,1,1,1,1,1,1,1,1,1,1,1,1,1,1,1,1,1,1,1,1,1,1,1,1,1,1,1,1,1,1,1,1,1,1,1,1,1,1,1,1,1,1,1,1,1,1,1,1,1,1,1,1,1,1,1,1,1,1,1,1,1,1,1,1,1,1,1,1,1,1,1,1,1,1,1,1,1,1,1,1,1,1,1,1,1,1,1,1,1,1,1,
1,1,1,1,1,1,2301,2307,1,1,1,1,1,1,2301,2307,5110,5249,5249,1,1,2301,2307,0,1,1747,5249,5249,5249,2301,2307,1,1,1,1,1,5473,5473,1,1,1,1,1,1,2301,2307,1747,5249,5249,1,1,2301,2307,1,1,1,1,1,1,2301,5473,5476,1,1,5110,1,2301,2307,1,1,1,1,1,1,1,1,1,1,1,1,5249,5249,2307,1,1,1,1,1,1,1,1,1,1,1,1,1,1,1,1,1,1,1,1,1,1,1,1,1,1,1,1,1,1,1,1,1,1,1,1,1,1,1,1,1,1,1,0,0,0,1,1,1,1,1,5317,5249,5315,1,1,1,1,1,1,1,1,1,5313,5319,1,1,5314,5249,5320,1,1,1,1,1,1,1,1,5313,5319,1,5317,5249,5315,1,1,1,1,1,1,1,1,1,5313,5319,1,1,5314,5249,5320,1,1,1,1,1,1,1,1,5313,5319,1,5317,5249,5315,1,1,1,1,1,1,1,1,1,5313,5319,1,1,5314,5249,5320,1,1,1,1,1,1,1,1,5313,5319,1,1,1666,1664,1,1,1666,106,1664,1,1,1,1,1666,1664,1,1,1,1,1,1666,106,1664,1,1666,1664,1,1,1,1,3409,1666,1664,1,1,1,1666,106,1664,1,1,1,1,1,1,1,1,1,1,1,1,1665,1663,1,1,1665,106,1663,1,1,1,1,1665,1663,1,1,1,1,1,1665,106,1663,1,1665,1663,1,1,1,1,1,1,1,1,1,1,1,1,1,1,1,1,1,1,1,1,1,1,1,1,1,1,1,1,1,1,1,1,1,1,1,1,1,1,1,1,1,1,1,1,1,1,1,1,1,1,1,1,1,1,1,1,1,1,1,1,1,1666,1664,1,1,1666,106,1664,1,1,1,1666,1664,1,1,1,1,1,1,1666,106,1664,1,1666,1664,1,1,1,1666,1664,1,1,1,1666,106,1664,1,1,1,1,1,1,1,1,1,1,1,1,5825,5977,2813,2819,1,1,1,1,1,1,1,1,2973,2979,1,1,1,1,1,1,1,1,2813,2819,1,1,1,1,1,1,1,1,2973,2979,1,1,1,1,1,1,1,1,2813,2819,1,1,1,1,1,1,1,1,2973,2979,1,1,1,1,1,1,1,1,2813,2819,1,1,1,1,1,1,1,1,1,1,1,1,1,1,1,1,1,1,1,1,1,1,1,1,1,1,1,1,1,1,1,1,1,1,1,1,1,1,1,1,1,1,1,1,1,1,1,1,1,1,1,1,1,3423,1,1,1,1,1,1,1,1,1,1,1,1,1,1,1,1,1,1,1,1,1,1,1,1,1,1,1,1,1,1,1,1,1,1,1,1,1,1,1,1,1,1,1,1,1,1,1,1,1,1,1,1,1,1,1,1,1,1,1,1,1,1,1,1,1,1,1,1,1,1,1,1,1,1,1,1,1,1,1,1,1,1,1,1,1,1,1,1,1,1,1,1,1,1,1,1,1,1,1,1,1,1,1,1,1,1,1,1,1,1,1,1,1,1,1,1,1,1,1,1,1,1,1,1,1,1,1,1,1,1,1,1,1,1,1,1,1,1,1,1,1,1,1,1,1,1,1,1,1,1,1,1,1,1,1,1,1,1,1,1,1,1,1,1,1,1,1,1,1,1,1,1,1,1,1,1,1,1,1,1,1,1,1,1,1,1,1,1,1,1,1,1,1,1,1,1,1,1,1,1,1,1,1,1,1,1,1,1,1,1,1,1,1,1,1,1,1,1,1,1,1,1,1,1,1,1,1,1,1,1,1,1,1,1,1,1,1,1,1,1,1,1,1,1,1,1,1,1,1,1,1,1,1,1,1,1,1,1,1,1,1,1,1,1,1,1,1,1,1,1,1,1,1,1,1,1,1,1,1,1,1,1,1,1,1,1,1,1,1,1,1,1,1,1,1,1,1,1,1,1,1,1,1,1,1,1,1,1,1,1,1,1,1,1,1,1,1,1,1,1,1,1,1,1,1,1,1,1,1,1,1,1,1,1,1,1,1,1,1,1,1,1,1,1,1,1,1,1,1,1,1,
1,1,1,1,1,1,2302,2308,1,1,5109,1,1,1,2302,2308,1,5249,5249,1,1,2302,2308,0,1,1,5109,1,1,2302,2308,1,1,1,1,1,5473,5473,0,0,1,1,5109,1,2302,2308,1,5249,5249,1,1,2302,2308,1,1,1,1,1,5109,2302,5473,1,1,1,1,1,2302,2308,1,1,1,1,1,1,5109,1,1,1,1,1,5249,5249,2308,1,1,1,1,1,1,1,5109,1,1,1,1,1,1,1,1,1,1,1,1,1,1,1,1,1,1,1,1,1,1,1,1,1,1,1,1,1,1,1,1,1,1,1,0,0,0,0,1,1,1,1,0,5318,5249,5316,1,1,1,1,1,1,5109,1,5314,5320,1,5313,5249,5319,1,1,1,1,1,1,1,1,5109,5314,5320,1,1,5318,5249,5316,1,1,1,1,1,1,1,1,5314,5320,1,5313,5249,5319,1,1,1,1,1,1,1,1,1,5314,5320,1,1,5318,5249,5316,1,1,1,1,1,1,1,1,5314,5320,5109,5313,5249,5319,1,1,1,1,1,1,1,1,1,5314,5320,1,1,1665,1663,1,1,1665,106,1663,1,1,1,1,1665,1663,1,1,1,1,1,1665,106,1663,1,1665,1663,1,1,1,1,1,1665,1663,1,1,1,1665,106,1663,1,1,1,1,1,1,1,1,1,1,1,1,1,1666,1664,1,1,1666,106,1664,1,1,1,1,1666,1664,1,1,1,1,1,1666,106,1664,1,1666,1664,1,1,1,1,1,1,1,1,1,1,1,1,1,1,1,1,1,1,1,1,1,1,1,1,1,1,1685,1686,0,0,0,0,0,0,0,1,1,0,1,1,0,0,0,1,1,1,1,1,1,1,1,1,1,1,1,1,1,1,1,1,1665,1663,1,1,1665,106,1663,1,1,1,1665,1663,1,1,1,1,1,1,1665,106,1663,1,1665,1663,1,1,1,1665,1663,1,1,1,1665,106,1663,1,1,1,1,1,1,1,1,1,1,1,1,1226,698,1226,2820,5825,5857,1,1,1,1,1,1,2974,2980,1,1,1,1,1,1,1,1,2814,2820,1,1,1,1,1,1,1,1,2974,2980,1,1,1,1,1,1,1,1,2814,2820,1,1,1,1,1,1,1,1,2974,2980,1,1,1,1,1,1,1,1,2814,2820,1,1,1,1,1,1,1,1,1,1,1,1,1,1,1,3501,1,1,1,1,1,1,1,1,1,1,1,1,1,1,1,1,1,1,1,1,1,1,1,1,1,1,1,1,1,1,1,1,1,1,1,1,1,3477,1,1,1,1,1,1,1,1,1,1,1,1,1,1,1,1,1,1,1,1,1,1,1,1,1,1,1,1,1,1,1,1,1,1,1,1,1,1,1,1,1,1,1,1,1,1,1,1,1,1,1,1,1,1,1,1,1,1,1,1,1,1,1,1,1,1,1,1,1,1,1,1,1,1,1,1,1,1,1,1,1,1,1,1,1,1,1,1,1,1,1,1,1,1,1,1,1,1,1,1,1,1,1,1,1,1,1,1,1,1,1,1,1,1,1,1,1,1,1,1,1,1,1,1,1,1,1,1,1,1,1,1,1,1,1,1,1,1,1,1,1,1,1,1,1,1,1,1,1,1,1,1,1,1,1,1,1,1,1,1,1,1,1,1,1,1,1,1,1,1,1,1,1,1,1,1,1,1,1,1,1,1,1,1,1,1,1,1,1,1,1,1,1,1,1,1,1,1,1,1,1,1,1,1,1,1,1,1,1,1,1,1,1,1,1,1,1,1,1,1,1,1,1,1,1,1,1,1,1,1,1,1,1,1,1,1,1,1,1,1,1,1,1,1,1,1,1,1,1,1,1,1,1,1,1,1,1,1,1,1,1,1,1,1,1,1,1,1,1,1,1,1,1,1,1,1,1,1,1,1,1,1,1,1,1,1,1,1,1,1,1,1,1,1,1,1,1,1,1,1,1,1,1,1,1,1,1,1,1,1,1,1,1,1,1,1,1,1,1,1,1,1,1,1,1,1,1,1,1,1,1,1,1,1,1,1,1,1,1,1,1,1,1,1,1,1,1,1,1,1,1,
1,1,5109,1,1,2301,2307,1,1,1,5105,1,1,2301,2307,1,1,5473,5109,1,2301,2307,0,1,1,1,5105,1,2301,2307,1,1,1,1,5109,2301,5473,5473,0,1,1,1,5105,2301,2307,1,1,1,1,1,5109,1,1,1,1,1,1,1,5105,1,5473,1,1,1,1,1,5109,1,1,1,1,1,1,1,5105,1,1,1,1,1,2301,2307,5109,1,1,1,1,1,1,1,5105,1,1,1,1,1,1,1,1,1,1,1,1,1,1,1,1,1,1,1,1,1,1,1,1,1,1,1,1,1,1,1,1,1,1,1,1,0,0,0,1,1,1,0,0,5317,5249,5315,1,1,1,1,1,1,5105,5313,5319,1,1,5314,5249,5320,5109,1,1,751,1,1,1,1,5313,5319,1,1,1,5317,5249,742,738,743,1,1,1,1,1,5313,5319,3428,3427,5314,5249,5320,1,1,5109,3428,1,1,1,1,5313,5319,5105,1,1,5317,5249,5315,1,1,5109,1,1,1,1,5313,5319,1,5105,5314,5249,5320,1,1,1,1,0,1,1,1333,1334,5319,1,1,1,1661,1667,1,1,1661,106,1667,1,1,1,1,1661,1667,1,1,1,1,1,1661,106,1667,1,1661,1667,1,1,1,1,1,1,1666,1664,1,1,1,1666,106,1664,1,1,1,1,1,1,1,1,1,1,1,1,1662,1668,1,1,1662,106,1668,1,1,1,1,1662,1668,1,1,1,1,1,1662,106,1668,1,1662,1668,1,1,1,1,1,1,1,1,1,1,1,1,1,1,1,1,1,1,1,1,1,1,1,1,1,1,1,1,3461,3461,3461,3461,3461,3461,3461,1,1,3461,1,1,3461,3461,3461,3461,3461,3461,3461,3461,3461,3461,3461,3461,3461,1,1,3461,1,1,1,3461,3461,1666,1664,3461,3461,1666,106,1664,3461,3461,3461,1666,1664,3461,3461,3461,3461,3461,3461,1666,106,3461,3461,1666,1664,3461,3461,3461,1666,1664,3461,3461,3461,1666,106,1664,3461,3461,3461,3461,3461,3461,3461,3461,3461,3461,3461,698,1226,698,5981,1226,5981,5825,5977,5857,1,1,2973,2979,1,1,1,1,1,5825,5977,5977,2813,2819,1,1,1,1,1,1,1,1,2973,2979,1,1,5825,5857,1,1,1,1,2813,2819,1,1,1,1,1,1,5825,5977,2973,2979,1,1,1,1,1,1,1,1,2813,2819,1,1,1,1,1,1,1,1,1,1,1,3476,3476,3476,3476,3501,1,1,1,1,1,1,1,1,1,1,1,1,1,1,1,3501,1,1,1,1,1,1,1,1,1,1,1,1,1,1,1,1,1,1,1,1,1,1,1,1,1,1,1,1,1,1,1,1,1,1,1,1,1,1,1,1,1,1,1,1,1,1,1,1,1,1,1,1,1,1,1,1,1,1,1,1,1,1,1,1,1,1,1,1,1,1,1,1,1,1,1,1,1,1,1,1,1,1,1,1,1,1,1,1,1,1,1,1,1,1,1,1,1,1,1,1,1,1,1,1,1,1,1,1,1,1,1,1,1,1,1,1,1,1,1,1,1,1,1,1,1,1,1,1,1,1,1,1,1,1,1,1,1,1,1,1,1,1,1,1,1,1,1,1,1,1,1,1,1,1,1,1,1,1,1,1,1,1,1,1,1,1,1,1,1,1,1,1,1,1,1,1,1,1,1,1,1,1,1,1,1,1,1,1,1,1,1,1,1,1,1,1,1,1,1,1,1,1,1,1,1,1,1,1,1,1,1,1,1,1,1,1,1,1,1,1,1,1,1,1,1,1,1,1,1,1,1,1,1,1,1,1,1,1,1,1,1,1,1,1,1,1,1,1,1,1,1,1,1,1,1,1,1,1,1,1,1,1,1,1,1,1,1,1,1,1,1,1,1,1,1,1,1,1,1,1,1,1,1,1,1,1,1,1,1,1,1,1,1,1,1,1,1,1,1,1,1,1,1,1,1,1,1,1,1,1,1,1,1,1,1,1,1,1,1,1,1,1,1,1,1,1,1,1,1,1,1,1,1,1,1,1,1,1,1,1,1,1,1,1,1,1,1,1,1,1,1,1,1,1,1,1,1,1,1,1,1,1,1,1,1,1,1,1,1,1,1,1,1,1,
1,1,5105,1,1,2302,2308,1,0,0,5105,1,1,2302,2308,1,1,1,5105,1,2302,2308,0,1,1,1,5105,1,2302,2308,5109,1,1,1,5105,2302,5473,5473,5109,1,1,1,5105,2302,2308,1,5109,1,1,1,5105,1,1,1,5109,1,1,1,5105,1,5473,1,5249,1,1,1,5105,1,1,1,5109,1,1,1,5105,1,1,1,5109,1,2302,2308,5105,1,1,1,5109,1,1,1,5105,1,1,1,0,1,1,1,1,1,1,1,1,1,1,1,1,1,1,1,1,1,1,1,1,1,1,1,1,1,1,1,1,1,5109,1,1,0,0,0,1,1,5109,0,0,5313,5249,5319,1,1,5109,1,1,1,5105,742,738,738,743,5318,5249,5316,5105,1,1,755,5109,1,1,1,5314,5320,1,1,5109,5313,5249,740,23,741,1,1,5109,1,1,5314,5320,3428,3427,5318,5249,5316,3425,3425,5105,3428,1,1,5109,1,5314,5320,5105,1,1,5313,5249,3428,3390,3427,5105,1,1,1,5109,5314,5320,1,5105,5318,5249,5316,5109,1,1,1,3392,3410,3410,3410,3391,5320,1,1,1,1662,1668,1,1,1662,106,1668,1,1,1,1,1662,1668,1,1,1,1,3410,1662,106,1668,1,1662,1668,1,1,1,1,1,1,1665,1663,1,1,1,1665,106,1663,1,1,1,1,1,1,1,1,1,1,1,1661,1667,1,1,1661,106,1667,1,1,1,3410,1661,1667,1,1,1,3410,1,1661,106,1667,1,1661,1667,1,1,1,1,1,1,1,1,1,1,1,1,1,1,1,1,1,1,1,1,1,1,1,1,1,1,1,1,1,1,1,1,1,1,1,1,1,1,1,1,1,1,1,1,1,1,1,1,1,1,1,1,1,1,1,1,1,1,1,1,0,0,0,0,0,0,0,0,0,0,0,0,0,0,0,0,0,0,0,0,0,0,0,0,0,0,0,0,0,0,0,0,0,0,0,0,0,0,0,0,0,0,0,0,0,0,0,0,1226,698,1226,1,698,5981,1226,698,5981,3425,3425,2974,2980,3425,3425,3425,3425,3425,698,1226,698,2814,2820,1,1,1,1,1,1,1,1,2974,2980,1,1,698,5981,5825,5977,5857,1,2814,2820,1,1,1,1,1,1,1226,698,2974,2980,5977,5977,5857,1,1,1,1,1,2814,2820,1,1,5825,5977,5857,1,1,1,3476,3501,1,1,1,1,1,1,1,1,1,1,1,1,1,1,1,1,1,1,1,1,1,3421,1,1,1,1,1,1,1,1,1,1,1,1,1,3475,1,1,1,1,1,1,1,1,1,1,1,1,1,1,1,1,1,1,1,1,1,1,1,1,1,1,1,1,1,1,1,1,1,1,1,1,1,1,1,1,1,1,1,1,1,1,1,1,1,1,1,1,1,1,1,1,1,1,1,1,1,1,1,1,1,1,1,1,1,1,1,1,1,1,1,1,1,1,1,1,1,1,1,1,1,1,1,1,1,1,1,1,1,1,1,1,1,1,1,1,1,1,1,1,1,1,1,1,1,1,1,1,1,1,1,1,1,1,1,1,1,1,1,1,1,1,1,1,1,1,1,1,1,1,1,1,1,1,1,1,1,1,1,1,1,1,1,1,1,1,1,1,1,1,1,1,1,1,1,1,1,1,1,1,1,1,1,1,1,1,1,1,1,1,1,1,1,1,1,1,1,1,1,1,1,1,1,1,1,1,1,1,1,1,1,1,1,1,1,1,1,1,1,1,1,1,1,1,1,1,1,1,1,1,1,1,1,1,1,1,1,1,1,1,1,1,1,1,1,1,1,1,1,1,1,1,1,1,1,1,1,1,1,1,1,1,1,1,1,1,1,1,1,1,1,1,1,1,1,1,1,1,1,1,1,1,1,1,1,1,1,1,1,1,1,1,1,1,1,1,1,1,1,1,1,1,1,1,1,1,1,1,1,1,1,1,1,1,1,1,1,1,1,1,1,1,1,1,1,1,1,1,1,1,1,1,1,1,1,1,1,1,1,1,1,1,1,1,1,1,1,1,1,1,1,1,1,1,1,1,1,1,1,1,1,1,1,1,1,1,1,1,1,1,1,1,1,1,1,1,
1,1,5105,1,2301,2307,5105,1,0,0,5105,1,2301,2307,5105,1,1,1,5105,2301,2307,5249,5105,1,1,1,5105,2301,2307,1,5105,5249,5249,5249,5105,2307,5473,5473,5105,1,1,1,5105,1,1,1,5105,1,1,1,5105,1,1,1,5105,5282,1,1,5105,1,5473,1,5249,3425,5249,2307,5105,1,1,1,5105,1,2301,2307,5105,1,1,5249,5249,2301,2307,1,5105,1,1,1,5105,1,1,1,5105,1,1,1,0,1,1,1,1,1,1,1,1,1,1,1,1,1,1,1,1,1,1,1,1,1,1,1,1,1,1,1,1,1,5105,1,1,0,0,0,1,1,742,743,3425,5314,5249,5320,3425,3425,5105,3425,3425,3425,5105,740,23,23,741,5317,5249,5315,5105,1,1,755,5105,1,3425,3425,5318,5316,3425,3425,5105,5314,5249,740,23,741,3425,3425,5105,3425,3425,5318,5316,3428,3427,1,5105,1,1,1,5105,3428,3425,3425,5105,3425,5318,5316,5105,3425,3425,5314,5249,3428,23,3427,5105,1,1,1,5105,5318,5316,3428,5105,5317,5249,5315,5105,1,1,1,3392,1,1,1,3391,5316,1,0,1661,1667,1,1,1661,106,1667,1,1,1,1,1661,1667,3391,1,1,1,1,1661,106,1667,1,1661,1667,1,1,1,1,1,1,1,1661,1667,1,1,1,1661,106,1667,1,1,1,3410,3410,1,3410,1,1,1,1,1662,1668,1,3410,1662,106,1668,1,1,1,1,1662,1668,1,1,1,1,1,1662,106,1668,1,1662,1668,1,1,1,1,1,1,1,1,1,1,1,1,1,1,1,1,1,1,1,1,1,1,1,1,1,1,1,1,1,1,1,1,1,1,1,1,1,1,1,1,1,1,1,1,1,1,1,1,1,1,1,1,1,1,1,1,1,1,1,1,1,1,1,1,1,1,1,1,1,1,1,1,1,1,1,1,1,1,1,1,1,1,1,1,1,1,1,1,1,1,1,1,1,1,1,1,1,1,1,1,1,1,1,1,1,1,1,1,698,1226,698,1,1226,1,698,1226,5981,1,1,1,1,1,1,1,1,1,1226,698,1226,2819,1,3157,3158,5833,1,1,1,1,2973,2979,1,1,1,1226,5981,698,1226,5981,2813,2819,5825,5977,5977,5977,5857,1,1,698,1226,2979,698,1226,698,5981,3425,3425,3425,3425,2813,2819,3425,3425,3425,1226,698,5981,1,1,1,1,1,1,1,1,1,1,1,1,1,1,1,1,1,1,1,1,1,1,1,1,1,3434,3391,1,1,3428,3425,3425,3425,3425,3425,3425,3425,3425,3425,3425,3422,1,1,1,1,1,1,1,1,1,1,1,1,1,1,1,3477,3425,3425,3425,1,1,1,1,1,1,1,1,1,1,1,1,1,1,1,1,1,1,1,1,1,1,1,1,1,1,1,1,1,1,1,1,1,1,1,1,1,1,1,1,1,1,1,1,1,1,1,1,1,1,1,1,1,1,1,1,1,1,1,1,1,1,1,1,1,1,1,1,1,1,1,1,1,1,1,1,1,1,1,1,1,1,1,1,1,1,1,1,1,1,1,1,1,1,1,1,1,1,1,1,1,1,1,1,1,1,1,1,1,1,1,1,1,1,1,1,1,1,1,1,1,1,1,1,1,1,1,1,1,1,1,1,1,1,1,1,1,1,1,1,1,1,1,1,1,1,1,1,1,1,1,1,1,1,1,1,1,1,1,1,1,1,1,1,1,1,1,1,1,1,1,1,1,1,1,1,1,1,1,1,1,1,1,1,1,1,1,1,1,1,1,1,1,1,1,1,1,1,1,1,1,1,1,1,1,1,1,1,1,1,1,1,1,1,1,1,1,1,1,1,1,1,1,1,1,1,1,1,1,1,1,1,1,1,1,1,1,1,1,1,1,1,1,1,1,1,1,1,1,1,1,1,1,1,1,1,1,1,1,1,1,1,1,1,1,1,1,1,1,1,1,1,1,1,1,1,1,1,1,1,1,1,1,1,1,1,1,1,1,1,1,1,1,1,1,1,1,1,1,1,1,1,1,1,1,1,1,1,1,1,1,1,1,1,1,1,1,1,1,1,1,1,1,1,1,1,1,1,1,1,1,1,1,1,1,1,1,1,1,1,1,
1,1,5105,1,2302,2308,5105,1,0,0,5105,1,2302,2308,5249,5249,3425,5473,5473,2302,2308,5249,5105,5249,1,1,5105,2302,2308,3425,5105,5249,5249,5249,2302,2308,3425,3425,5105,3425,3425,3425,5249,2308,1,1,5105,1,1,2302,5105,3425,5249,5249,5249,5249,3425,2302,5249,5249,3425,3425,5249,1,5249,2308,5249,3425,3425,3425,3221230577,3425,5249,5249,5249,3425,3425,5249,5249,2302,5249,5249,5249,5249,5283,5284,5105,1,1,1,5105,1,1,1,0,1,1,1,1,1,1,1,1,1,1,1,1,1,1,1,1,1,1,1,1,1,1,1,1,1,1,1,1,1,5105,1,0,0,0,0,1,1,740,741,1,1,5105,1,1,1,5105,0,0,0,5105,740,23,23,741,3425,5318,5249,5316,3425,3425,755,5105,1,1,1,5105,1,1,1,5105,1,1,740,23,741,1,1,5105,1,1,1,5105,3428,3427,1,5105,1,1,1,5105,3428,1,1,5105,1,1,1,5105,1,1,1,5105,3428,23,3427,5105,3425,3425,3425,5105,5317,5315,3428,5105,3425,5318,5249,5316,3425,3425,3425,0,1,1,1,1,5315,1,0,1662,1668,1,1,1662,106,1668,1,1,1,1,1662,1668,1,1,1,1,1,1662,106,1668,1,1662,1668,1,1,1,1,1,1,1,1662,1668,1,1,1,1662,106,1668,1,1,1,1,1,1,1,1,1,1,1661,1,1,1,1,1,1,1,1,1,1,1661,1667,1,1,1,1,1,1661,106,1667,3410,1661,1667,1,1,1,1,1,1,1,1,1,1,1,1,1,1,1,1,1,1,1,1,1,1,1,1,1,1,1,1,1,1,1,1,1,1,1,1,1,1,1,1,1,1,1,1,1,1,1,1,1,1,1,1,1,1,1,1,1,1,1,1,1,1,1,1,1,1,1,1,1,1,1,1,1,1,1,1,1,1,1,1,1,1,1,1,1,1,1,1,1,1,1,1,1,1,1,1,1,1,1,1,1,1,1,1,1,1,1,1,1,1226,698,1226,1,698,1,1226,698,0,1,1,1,1,1,1,1,1,1,698,1226,698,2820,3425,1226,698,5981,3425,3425,3425,3425,2974,2980,3425,3425,3425,698,1,1226,698,5981,2814,2820,698,1226,698,1226,5981,3425,3425,1226,698,1,1226,698,1226,1,1,1,1,1,1,1,1,1,1,698,1226,5981,1,1,1,1,1,1,1,1,1,1,1,1,1,1,1,1,1,1,1,1,1,1,1,1,1,3428,3391,3425,3425,3428,1,1,1,1,1,1,1,1,1,1,3392,3433,3425,3425,3428,3425,3425,3425,3425,3425,3425,3425,3425,3425,3425,1,3421,1,1,1,1,1,1,1,1,1,1,1,1,1,1,1,1,1,1,1,1,1,1,1,1,1,1,1,1,1,1,1,1,1,1,1,1,1,1,1,1,1,1,1,1,1,1,1,1,1,1,1,1,1,1,1,1,1,1,1,1,1,1,1,1,1,1,1,1,1,1,1,1,1,1,1,1,1,1,1,1,1,1,1,1,1,1,1,1,1,1,1,1,1,1,1,1,1,1,1,1,1,1,1,1,1,1,1,1,1,1,1,1,1,1,1,1,1,1,1,1,1,1,1,1,1,1,1,1,1,1,1,1,1,1,1,1,1,1,1,1,1,1,1,1,1,1,1,1,1,1,1,1,1,1,1,1,1,1,1,1,1,1,1,1,1,1,1,1,1,1,1,1,1,1,1,1,1,1,1,1,1,1,1,1,1,1,1,1,1,1,1,1,1,1,1,1,1,1,1,1,1,1,1,1,1,1,1,1,1,1,1,1,1,1,1,1,1,1,1,1,1,1,1,1,1,1,1,1,1,1,1,1,1,1,1,1,1,1,1,1,1,1,1,1,1,1,1,1,1,1,1,1,1,1,1,1,1,1,1,1,1,1,1,1,1,1,1,1,1,1,1,1,1,1,1,1,1,1,1,1,1,1,1,1,1,1,1,1,1,1,1,1,1,1,1,1,1,1,1,1,1,1,1,1,1,1,1,1,1,1,1,1,1,1,1,1,1,1,1,1,1,1,1,1,1,1,1,1,1,1,1,1,1,1,1,1,1,1,1,1,1,1,1,1
</data>
 </layer>
 <layer id="1" name="l1" width="875" height="27">
  <data encoding="csv">
1,1,1,1,1,1,1,1,1,1,1,1,1,1,1,1,1,1,1,1,1,1,1,1,1,1,1,1,1,1,1,1,1,1,1,1,1,1,1,1,1,1,1,1,1,1,1,1,1,1,1,1,1,1,1,1,1,1,1,1,1,1,1,1,1,1,1,1,1,1,1,1,1,1,1,1,1,1,1,1,1,1,1,1,1,1,1,1,1,1,1,1,1,1,1,1,1,1,1,1,1,1,1,1,1,1,1,1,1,1,1,1,1,1,1,1,1,1,1,1,1,1,1,1,1,1,1,1,1,1,1,1,1,1,1,1,1,1,1,1,1,1,1,1,1,1,1,1,1,1,1,1,1,1,1,1,1,1,1,1,1,1,1,1,1,1,1,1,1,1,1,1,1,1,1,1,1,1,1,1,1,1,1,1,1,1,1,1,1,1,1,1,1,1,1,1,1,1,1,1,1,1,1,1,1,1,1,1,1,1,1,1,1,1,1,1,1,1,1,1,1,1,1,1,1,1,1,1,1,1,1,1,1,1,1,1,1,1,1,1,1,1,1,1,1,1,1,1,1,1,1,1,1,1,1,1,1,1,1,1,1,1,1,1,1,1,1,1,1,1,1,1,1,1,1,1,1,1,1,1,1,1,1,1,1,1,1,1,1,1,1,1,1,1,1,1,1,1,1,1,1,1,1,1,1,1,1,1,1,1,1,1,1,1,1,1,1,1,1,1,1,1,1,1,1,1,1,1,1,1,1,1,1,1,1,1,1,1,1,1,1,1,1,1,1,1,1,1,1,1,1,1,1,1,1,1,1,1,1,1,1,1,1,1,1,1,1,1,1,1,1,1,1,1,1,1,1,1,1,1,1,1,1,1,1,1,1,1,1,1,1,1,1,1,1,1,1,1,1,1,1,1,1,1,1,1,1,1,1,1,1,1,1,1,1,1,1,1,1,1,1,1,1,1,1,1,1,1,1,1,1,1,1,1,1,1,1,1,1,1,1,1,1,1,1,1,1,1,1,1,1,1,1,1,1,1,1,1,1,1,1,1,1,1,1,1,1,1,1,1,1,1,1,1,1,1,1,1,1,1,1,1,1,1,1,1,1,1,1,1,1,1,1,1,1,1,1,1,1,1,1,1,1,1,1,1,1,1,1,1,1,1,1,1,1,1,1,1,1,1,1,1,1,1,1,1,1,1,1,1,1,1,1,1,1,1,1,1,1,1,1,1,1,1,1,1,1,1,1,1,1,1,1,1,1,1,1,1,1,1,1,1,1,1,1,1,1,1,1,1,1,1,1,1,1,1,1,1,1,1,1,1,1,1,1,1,1,1,1,1,1,1,1,1,1,1,1,1,1,1,1,1,1,1,1,1,1,1,1,1,1,1,1,1,1,1,1,1,1,1,1,1,1,1,1,1,1,1,1,1,1,1,1,1,1,1,1,1,1,1,1,1,1,1,1,1,1,1,1,1,1,1,1,1,1,1,1,1,1,1,1,1,1,1,1,1,1,1,1,1,1,1,1,1,1,1,1,1,1,1,1,1,1,1,1,1,1,1,1,1,1,1,1,1,1,1,1,1,1,1,1,1,1,1,1,1,1,1,1,1,1,1,1,1,1,1,1,1,1,1,1,1,1,1,1,1,1,1,1,1,1,1,1,1,1,1,1,1,1,1,1,1,1,1,1,1,1,1,1,1,1,1,1,1,1,1,1,1,1,1,1,1,1,1,1,1,1,1,1,1,1,1,1,1,1,1,1,1,1,1,1,1,1,1,1,1,1,1,1,1,1,1,1,1,1,1,1,1,1,1,1,1,1,1,1,1,1,1,1,1,1,1,1,1,1,1,1,1,1,1,1,1,1,1,1,1,1,1,1,1,1,1,1,1,1,1,1,1,1,1,1,1,1,1,1,1,1,1,1,1,1,1,1,1,1,1,1,1,1,1,1,1,1,1,1,1,1,1,1,1,1,1,1,1,1,
1,1,1,1,1,1,1,1,1,1,1,1,1,1,1,1,1,1,1,1,1,1,1,1,1,1,1,1,1,1,1,1,1,1,1,1,1,1,1,1,1,1,1,1,1,1,1,1,1,1,1,1,1,1,1,1,1,1,1,1,1,1,1,1,1,1,1,1,1,1,1,1,1,1,1,1,1,1,1,1,1,1,1,1,1,1,1,1,1,1,1,1,1,1,1,1,1,1,1,1,1,1,1,1,1,1,1,1,1,1,1,1,1,1,1,1,1,1,1,1,1,1,1,1,1,1,1,1,1,1,1,1,1,1,1,1,1,1,1,1,1,1,1,1,1,1,1,1,1,1,1,1,1,1,1,1,1,1,1,1,1,1,1,1,1,1,1,1,1,1,1,1,1,1,1,1,1,1,1,1,1,1,1,1,1,1,1,1,1,1,1,1,1,1,1,1,1,1,1,1,1,1,1,1,1,1,1,1,1,1,1,1,1,1,1,1,1,1,1,1,1,1,1,1,1,1,1,1,1,1,1,1,1,1,1,1,1,1,1,1,1,1,1,1,1,1,1,1,1,1,1,1,1,1,1,1,1,1,1,1,1,1,1,1,1,1,1,1,1,1,1,1,1,1,1,1,1,1,1,1,1,1,1,1,1,1,1,1,1,1,1,1,1,1,1,1,1,1,1,1,1,1,1,1,1,1,1,1,1,1,1,1,1,1,1,1,1,1,1,1,1,1,1,1,1,1,1,1,1,1,1,1,1,1,1,1,1,1,1,1,1,1,1,1,1,1,1,1,1,1,1,1,1,1,1,1,1,1,1,1,1,1,1,1,1,1,1,1,1,1,1,1,1,1,1,1,1,1,1,1,1,1,1,1,1,1,1,1,1,1,1,1,1,1,1,1,1,1,1,1,1,1,1,1,1,1,1,1,1,1,1,1,1,1,1,1,1,1,1,1,1,1,1,1,1,1,1,1,1,1,1,1,1,1,1,1,1,1,1,1,1,1,1,1,1,1,1,1,1,1,1,1,1,1,1,1,1,1,1,1,1,1,1,1,1,1,1,1,1,1,1,1,1,1,1,1,1,1,1,1,1,1,1,1,1,1,1,1,1,1,1,1,1,1,1,1,1,1,1,1,1,1,1,1,1,1,1,1,1,1,1,1,1,1,1,1,1,1,1,1,1,1,1,1,1,1,1,1,1,1,1,1,1,1,1,1,1,1,1,1,1,1,1,1,1,1,1,1,1,1,1,1,1,1,1,1,1,1,1,1,1,1,1,1,1,1,1,1,1,1,1,1,1,1,1,1,1,1,1,1,1,1,1,1,1,1,1,1,1,1,1,1,1,1,1,1,1,1,1,1,1,1,1,1,1,1,1,1,1,1,1,1,1,1,1,1,1,1,1,1,1,1,1,1,1,1,1,1,1,1,1,1,1,1,1,1,1,1,1,1,1,1,1,1,1,1,1,1,1,1,1,1,1,1,1,1,1,1,1,1,1,1,1,1,1,1,1,1,1,1,1,1,1,1,1,1,1,1,1,1,1,1,1,1,1,1,1,1,1,1,1,1,1,1,1,1,1,1,1,1,1,1,1,1,1,1,1,1,1,1,1,1,1,1,1,1,1,1,1,1,1,1,1,1,1,1,1,1,1,1,1,1,1,1,1,1,1,1,1,1,1,1,1,1,1,1,1,1,1,1,1,1,1,1,1,1,1,1,1,1,1,1,1,1,1,1,1,1,1,1,1,1,1,1,1,1,1,1,1,1,1,1,1,1,1,1,1,1,1,1,1,1,1,1,1,1,1,1,1,1,1,1,1,1,1,1,1,1,1,1,1,1,1,1,1,1,1,1,1,1,1,1,1,1,1,1,1,1,1,1,1,1,1,1,1,1,1,1,1,1,1,1,1,1,1,1,1,1,1,1,1,1,1,1,1,1,1,1,1,1,1,1,1,1,1,1,1,1,1,1,1,1,1,1,1,
1,1,1,1,1,1,1,1,1,1,1,1,1,1,1,1,1,1,1,1,1,1,1,1,1,1,1,1,1,1,1,1,1,1,1,1,1,1,1,1,1,1,1,1,1,1,1,1,1,1,1,1,1,1,1,1,1,1,1,1,1,1,1,1,1,1,1,1,1,1,1,1,1,1,1,1,1,1,1,1,1,1,1,1,1,1,1,1,1,1,1,1,1,1,1,1,1,1,1,1,1,1,1,1,1,1,1,1,1,1,1,1,1,1,1,1,1,1,1,1,1,1,1,1,1,1,1,1,1,1,1,1,1,1,1,1,1,1,1,1,1,1,1,1,1,1,1,1,1,1,1,1,1,1,1,1,1,1,1,1,1,1,1,1,1,1,1,1,1,1,1,1,1,1,1,1,1,1,1,1,1,1,1,1,1,1,1,1,1,1,1,1,1,1,1,1,1,1,1,1,1,1,1,1,1,1,1,1,1,1,1,1,1,1,1,1,1,1,1,1,1,1,1,1,1,1,1,1,1,1,1,1,1,1,1,1,1,1,1,1,1,1,1,1,1,1,1,1,1,1,1,1,1,1,1,1,1,1,1,1,1,1,1,1,1,1,1,1,1,1,1,1,1,1,1,1,1,1,1,1,1,1,1,1,1,1,1,1,1,1,1,1,1,1,1,1,1,1,1,1,1,1,1,1,1,1,1,1,1,1,1,1,1,1,1,1,1,1,1,1,1,1,1,1,1,1,1,1,1,1,1,1,1,1,1,1,1,1,1,1,1,1,1,1,1,1,1,1,1,1,1,1,1,1,1,1,1,1,1,1,1,1,1,1,1,1,1,1,1,1,1,1,1,1,1,1,1,1,1,1,1,1,1,1,1,1,1,1,1,1,1,1,1,1,1,1,1,1,1,1,1,1,1,1,1,1,1,1,1,1,1,1,1,1,1,1,1,1,1,1,1,1,1,1,1,1,1,1,1,1,1,1,1,1,1,1,1,1,1,1,1,1,1,1,1,1,1,1,1,1,1,1,1,1,1,1,1,1,1,1,1,1,1,1,1,1,1,1,1,1,1,1,1,1,1,1,1,1,1,1,1,1,1,1,1,1,1,1,1,1,1,1,1,1,1,1,1,1,1,1,1,1,1,1,1,1,1,1,1,1,1,1,1,1,1,1,1,1,1,1,1,1,1,1,1,1,1,1,1,1,1,1,1,1,1,1,1,1,1,1,1,1,1,1,1,1,1,1,1,1,1,1,1,1,1,1,1,1,1,1,1,1,1,1,1,1,1,1,1,1,1,1,1,1,1,1,1,1,1,1,1,1,1,1,1,1,1,1,1,1,1,1,1,1,1,1,1,1,1,1,1,1,1,1,1,1,1,1,1,1,1,1,1,1,1,1,1,1,1,1,1,1,1,1,1,1,1,1,1,1,1,1,1,1,1,1,1,1,1,1,1,1,1,1,1,1,1,1,1,1,1,1,1,1,1,1,1,1,1,1,1,1,1,1,1,1,1,1,1,1,1,1,1,1,1,1,1,1,1,1,1,1,1,1,1,1,1,1,1,1,1,1,1,1,1,1,1,1,1,1,1,1,1,1,1,1,1,1,1,1,1,1,1,1,1,1,1,1,1,1,1,1,1,1,1,1,1,1,1,1,1,1,1,1,1,1,1,1,1,1,1,1,1,1,1,1,1,1,1,1,1,1,1,1,1,1,1,1,1,1,1,1,1,1,1,1,1,1,1,1,1,1,1,1,1,1,1,1,1,1,1,1,1,1,1,1,1,1,1,1,1,1,1,1,1,1,1,1,1,1,1,1,1,1,1,1,1,1,1,1,1,1,1,1,1,1,1,1,1,1,1,1,1,1,1,1,1,1,1,1,1,1,1,1,1,1,1,1,1,1,1,1,1,1,1,1,1,1,1,1,1,1,1,1,1,1,1,1,1,1,1,1,1,1,1,1,1,1,1,1,1,1,1,1,1,
1,1,1,1,1,1,1,1,1,1,1,1,1,1,1,1,1,1,1,1,1,1,1,1,1,1,1,1,1,1,1,1,1,1,1,1,1,1,1,1,1,1,1,1,1,1,1,1,1,1,1,1,1,1,1,1,1,1,1,1,1,1,1,1,1,1,1,1,1,1,1,1,1,1,1,1,1,1,1,1,1,1,1,1,1,1,1,1,1,1,1,1,1,1,1,1,1,1,1,1,1,1,1,1,1,1,1,1,1,1,1,1,1,1,1,1,1,1,1,1,1,1,1,1,1,1,1,1,1,1,1,1,1,1,1,1,1,1,1,1,1,1,1,1,1,1,1,1,1,1,1,1,1,1,1,1,1,1,1,1,1,1,1,1,1,1,1,1,1,1,1,1,1,1,1,1,1,1,1,1,1,1,1,1,1,1,1,1,1,1,1,1,1,1,1,1,1,1,1,1,1,1,1,1,1,1,1,1,1,1,1,1,1,1,1,1,1,1,1,1,1,1,1,1,1,1,1,1,1,1,1,1,1,1,1,1,1,1,1,1,1,1,1,1,1,1,1,1,1,1,1,1,1,1,1,1,1,1,1,1,1,1,1,1,1,1,1,1,1,1,1,1,1,1,1,1,1,1,1,1,1,1,1,1,1,1,1,1,1,1,1,1,1,1,1,1,1,1,1,1,1,1,1,1,1,1,1,1,1,1,1,1,1,1,1,1,1,1,1,1,1,1,1,1,1,1,1,1,1,1,1,1,1,1,1,1,1,1,1,1,1,1,1,1,1,1,1,1,1,1,1,1,1,1,1,1,1,1,1,1,1,1,1,1,1,1,1,1,1,1,1,1,1,1,1,1,1,1,1,1,1,1,1,1,1,1,1,1,1,1,1,1,1,1,1,1,1,1,1,1,1,1,1,1,1,1,1,1,1,1,1,1,1,1,1,1,1,1,1,1,1,1,1,1,1,1,1,1,1,1,1,1,1,1,1,1,1,1,1,1,1,1,1,1,1,1,1,1,1,1,1,1,1,1,1,1,1,1,1,1,1,1,1,1,1,1,1,1,1,1,1,1,1,1,1,1,1,1,1,1,1,1,1,1,1,1,1,1,1,1,1,1,1,1,1,1,1,1,1,1,1,1,1,1,1,1,1,1,1,1,1,1,1,1,1,1,1,1,1,1,1,1,1,1,1,1,1,1,1,1,1,1,1,1,1,1,1,1,1,1,1,1,1,1,1,1,1,1,1,1,1,1,1,1,1,1,1,1,1,1,1,1,1,1,1,1,1,1,1,1,1,1,1,1,1,1,1,1,1,1,1,1,1,1,1,1,1,1,1,1,1,1,1,1,1,1,1,1,1,1,1,1,1,1,1,1,1,1,1,1,1,1,1,1,1,1,1,1,1,1,1,1,1,1,1,1,1,1,1,1,1,1,1,1,1,1,1,1,1,1,1,1,1,1,1,1,1,1,1,1,1,1,1,1,1,1,1,1,1,1,1,1,1,1,1,1,1,1,1,1,1,1,1,1,1,1,1,1,1,1,1,1,1,1,1,1,1,1,1,1,1,1,1,1,1,1,1,1,1,1,1,1,1,1,1,1,1,1,1,1,1,1,1,1,1,1,1,1,1,1,1,1,1,1,1,1,1,1,1,1,1,1,1,1,1,1,1,1,1,1,1,1,1,1,1,1,1,1,1,1,1,1,1,1,1,1,1,1,1,1,1,1,1,1,1,1,1,1,1,1,1,1,1,1,1,1,1,1,1,1,1,1,1,1,1,1,1,1,1,1,1,1,1,1,1,1,1,1,1,1,1,1,1,1,1,1,1,1,1,1,1,1,1,1,1,1,1,1,1,1,1,1,1,1,1,1,1,1,1,1,1,1,1,1,1,1,1,1,1,1,1,1,1,1,1,1,1,1,1,1,1,1,1,1,1,1,1,1,1,1,1,1,1,1,1,1,1,1,1,1,1,1,1,1,1,
1,1,1,1,1,1,1,1,1,1,1,1,1,1,1,1,1,1,1,1,1,1,1,1,1,1,1,1,1,1,1,1,1,1,1,1,1,1,1,1,1,1,1,1,1,1,1,1,1,1,1,1,1,1,1,1,1,1,1,1,1,1,1,1,1,1,1,1,1,1,1,1,1,1,1,1,1,1,1,1,1,1,1,1,1,1,1,1,1,1,1,1,1,1,1,1,1,1,1,1,1,1,1,1,1,1,1,1,1,1,1,1,1,1,1,1,1,1,1,1,1,1,1,1,1,1,1,1,1,1,1,1,1,1,1,1,1,1,1,1,1,1,1,1,1,1,1,1,1,1,1,1,1,1,1,1,1,1,1,1,1,1,1,1,1,1,1,1,1,1,1,1,1,1,1,1,1,1,1,1,1,1,1,1,1,1,1,1,1,1,1,1,1,1,1,1,1,1,1,1,1,1,1,1,1,1,1,1,1,1,1,1,1,1,1,1,1,1,1,1,1,1,1,1,1,1,1,1,1,1,1,1,1,1,1,1,1,1,1,1,1,1,1,1,1,1,1,1,1,1,1,1,1,1,1,1,1,1,1,1,1,1,1,1,1,1,1,1,1,1,1,1,1,1,1,1,1,1,1,1,1,1,1,1,1,1,1,1,1,1,1,1,1,1,1,1,1,1,1,1,1,1,1,133,133,133,133,133,133,133,133,133,133,133,133,133,1,1,1,1,1,1,1,1,1,1,1,1,1,1,1,1,1,1,1,1,1,1,1,1,1,1,1,1,1,1,1,1,1,1,1,1,1,1,1,1,1,1,1,1,1,1,1,1,1,1,1,1,1,1,1,1,1,1,1,1,1,1,1,1,1,1,1,1,1,1,1,1,1,1,1,1,1,1,1,1,1,1,1,1,1,1,1,1,1,1,1,1,1,1,1,1,1,1,1,1,1,1,1,1,1,1,1,1,1,1,1,1,1,1,1,1,1,1,1,1,1,1,1,1,1,1,1,1,1,1,1,1,1,1,1,1,1,1,1,1,1,1,1,1,1,1,1,1,1,1,1,1,1,1,1,1,1,1,1,1,1,1,1,1,1,1,1,1,1,1,1,1,1,1,1,1,1,1,1,1,1,1,1,1,1,1,1,1,1,1,1,1,1,1,1,1,1,1,1,1,1,1,1,1,1,1,1,1,1,1,1,1,1,1,1,1,1,1,1,1,1,1,1,1,1,1,1,1,1,1,1,1,1,1,1,1,1,1,1,1,1,1,1,1,1,1,1,1,1,1,1,1,1,1,1,1,1,1,1,1,1,1,1,1,1,1,1,1,1,1,1,1,1,1,1,1,1,1,1,1,1,1,1,1,1,1,1,1,1,1,1,1,1,1,1,1,1,1,1,1,1,1,1,1,1,1,1,1,1,1,1,1,1,1,1,1,1,1,1,1,1,1,1,1,1,1,1,1,1,1,1,1,1,1,1,1,1,1,1,1,1,1,1,1,1,1,1,1,1,1,1,1,1,1,1,1,1,1,1,1,1,1,1,1,1,1,1,1,1,1,1,1,1,1,1,1,1,1,1,1,1,1,1,1,1,1,1,1,1,1,1,1,1,1,1,1,1,1,1,1,1,1,1,1,1,1,1,1,1,1,1,1,1,1,1,1,1,1,1,1,1,1,1,1,1,1,1,1,1,1,1,1,1,1,1,1,1,1,1,1,1,1,1,1,1,1,1,1,1,1,1,1,1,1,1,1,1,1,1,1,1,1,1,1,1,1,1,1,1,1,1,1,1,1,1,1,1,1,1,1,1,1,1,1,1,1,1,1,1,1,1,1,1,1,1,1,1,1,1,1,1,1,1,1,1,1,1,1,1,1,1,1,1,1,1,1,1,1,1,1,1,1,1,1,1,1,1,1,1,1,1,1,1,1,1,1,1,1,1,1,1,1,1,1,1,1,1,1,1,1,1,1,1,1,1,1,1,1,1,
1,1,1,1,1,1,1,1,1,1,1,1,1,1,1,1,1,1,1,1,1,1,1,1,1,1,1,1,1,1,1,1,1,1,1,1,1,1,1,1,1,1,1,1,1,1,1,1,1,1,1,1,1,1,1,1,1,1,1,1,1,1,1,1,1,1,1,1,1,1,1,1,1,1,1,1,1,1,1,1,1,1,1,1,1,1,1,1,1,1,1,1,1,1,1,1,1,1,1,1,1,1,1,1,1,1,1,1,1,1,1,1,1,1,1,1,1,1,1,1,1,1,1,1,1,1,1,1,1,1,1,1,1,1,1,1,1,1,1,1,1,1,1,1,1,1,1,1,1,1,1,1,1,1,1,1,1,1,1,1,1,1,1,1,1,1,1,1,1,1,1,1,1,1,1,1,1,1,1,1,1,1,1,1,1,1,1,1,1,1,1,1,1,1,1,1,1,1,1,1,1,1,1,1,1,1,1,1,1,1,1,1,1,1,1,1,1,1,1,1,1,1,1,1,1,1,1,1,1,1,1,1,1,1,1,1,1,1,1,1,1,1,1,1,1,1,1,1,1,1,1,1,1,1,1,1,1,1,1,1,1,1,1,1,1,1,1,1,1,1,1,1,1,1,1,1,1,1,1,1,1,1,1,1,1,1,1,1,1,1,1,1,1,1,1,1,1,1,1,1,1,1,1,133,133,133,133,133,133,133,133,133,133,133,133,133,1,1,1,1,1,1,1,1,1,1,1,1,1,1,1,1,1,1,1,1,1,1,1,1,1,1,1,1,1,1,1,1,1,1,1,1,1,1,1,1,1,1,1,1,1,1,1,1,1,1,1,1,1,1,1,1,1,1,1,1,1,1,1,1,1,1,1,1,1,1,1,1,1,1,1,1,1,1,1,1,1,1,1,1,1,1,1,1,1,1,1,1,1,1,1,1,1,1,1,1,1,1,1,1,1,1,1,1,1,1,1,1,1,1,1,1,1,1,1,1,1,1,1,1,1,1,1,1,1,1,1,1,1,1,1,1,1,1,1,1,1,1,1,1,1,1,1,1,1,1,1,1,1,1,1,1,1,1,1,1,1,1,1,1,1,1,1,1,1,1,1,1,1,1,1,1,1,1,1,1,1,1,1,1,1,1,1,1,1,1,1,1,1,1,1,1,1,1,1,1,1,1,1,1,1,1,1,1,1,1,1,1,1,1,1,1,1,1,1,1,1,1,1,1,1,1,1,1,1,1,1,1,1,1,1,1,1,1,1,1,1,1,1,1,1,1,1,1,1,1,1,1,1,1,1,1,1,1,1,1,1,1,1,1,1,1,1,1,1,1,1,1,1,1,1,1,1,1,1,1,1,1,1,1,1,1,1,1,1,1,1,1,1,1,1,1,1,1,1,1,1,1,1,1,1,1,1,1,1,1,1,1,1,1,1,1,1,1,1,1,1,1,1,1,1,1,1,1,1,1,1,1,1,1,1,1,1,1,1,1,1,1,1,1,1,1,1,1,1,1,1,1,1,1,1,1,1,1,1,1,1,1,1,1,1,1,1,1,1,1,1,1,1,1,1,1,1,1,1,1,1,1,1,1,1,1,1,1,1,1,1,1,1,1,1,1,1,1,1,1,1,1,1,1,1,1,1,1,1,1,1,1,1,1,1,1,1,1,1,1,1,1,1,1,1,1,1,1,1,1,1,1,1,1,1,1,1,1,1,1,1,1,1,1,1,1,1,1,1,1,1,1,1,1,1,1,1,1,1,1,1,1,1,1,1,1,1,1,1,1,1,1,1,1,1,1,1,1,1,1,1,1,1,1,1,1,1,1,1,1,1,1,1,1,1,1,1,1,1,1,1,1,1,1,1,1,1,1,1,1,1,1,1,1,1,1,1,1,1,1,1,1,1,1,1,1,1,1,1,1,1,1,1,1,1,1,1,1,1,1,1,1,1,1,1,1,1,1,1,1,1,1,1,1,1,1,1,1,1,
1,1,1,1,1,1,1,1,1,1,1,1,1,1,1,1,1,1,1,1,1,1,1,1,1,1,1,1,1,1,1,1,1,1,1,1,1,1,1,1,1,1,1,1,1,1,1,1,1,1,1,1,1,1,1,1,1,1,1,1,1,1,1,1,1,1,1,1,1,1,1,1,1,1,1,1,1,1,1,1,1,1,1,1,1,1,1,1,1,1,1,1,1,1,1,1,1,1,1,1,1,1,1,1,1,1,1,1,1,1,1,1,1,1,1,1,1,1,1,1,1,1,1,1,1,1,1,1,1,1,1,1,1,1,1,1,1,1,1,1,1,1,1,1,1,1,1,1,1,1,1,1,1,1,1,1,1,1,1,1,1,1,1,1,1,1,1,1,1,1,1,1,1,1,1,1,1,1,1,1,1,1,1,1,1,1,1,1,1,1,1,1,1,1,1,1,1,1,1,1,1,1,1,1,1,1,1,1,1,1,1,1,1,1,1,1,1,1,1,1,1,1,1,1,1,1,1,1,1,1,1,1,1,1,1,1,1,1,1,1,1,1,1,1,1,1,1,1,1,1,1,1,1,1,1,1,1,1,1,1,1,1,1,1,1,1,1,1,1,1,1,1,1,1,1,1,1,1,1,1,1,1,1,1,1,1,1,1,1,1,1,1,1,1,1,1,1,1,1,1,1,1,1,133,133,133,133,133,133,133,133,133,133,133,133,133,1,1,1,1,1,1,1,1,1,1,1,1,1,1,1,1,1,1,1,1,1,1,1,1,1,1,1,1,1,1,1,1,1,1,1,1,1,1,1,1,1,1,1,1,1,1,1,1,1,1,1,1,1,1,1,1,1,1,1,1,1,1,1,1,1,1,1,1,1,1,1,1,1,1,1,1,1,1,1,1,1,1,1,1,1,1,1,1,1,1,1,1,1,1,1,1,1,1,1,1,1,1,1,1,1,1,1,1,1,1,1,1,1,1,1,1,1,1,1,1,1,1,1,1,1,1,1,1,1,1,1,1,1,1,1,1,1,1,1,1,1,1,1,1,1,1,1,1,1,1,1,1,1,1,1,1,1,1,1,1,1,1,1,1,1,1,1,1,1,1,1,1,1,1,1,1,1,1,1,1,1,1,1,1,1,1,1,1,1,1,1,1,1,1,1,1,1,1,1,1,1,1,1,1,1,1,1,1,1,1,1,1,1,1,1,1,1,1,1,1,1,1,1,1,1,1,1,1,1,1,1,1,1,1,1,1,1,1,1,1,1,1,1,1,1,1,1,1,1,1,1,1,1,1,1,1,1,1,1,1,1,1,1,1,1,1,1,1,1,1,1,1,1,1,1,1,1,1,1,1,1,1,1,1,1,1,1,1,1,1,1,1,1,1,1,1,1,1,1,1,1,1,1,1,1,1,1,1,1,1,1,1,1,1,1,1,1,1,1,1,1,1,1,1,1,1,1,1,1,1,1,1,1,1,1,1,1,1,1,1,1,1,1,1,1,1,1,1,1,1,1,1,1,1,1,1,1,1,1,1,1,1,1,1,1,1,1,1,1,1,1,1,1,1,1,1,1,1,1,1,1,1,1,1,1,1,1,1,1,1,1,1,1,1,1,1,1,1,1,1,1,1,1,1,1,1,1,1,1,1,1,1,1,1,1,1,1,1,1,1,1,1,1,1,1,1,1,1,1,1,1,1,1,1,1,1,1,1,1,1,1,1,1,1,1,1,1,1,1,1,1,1,1,1,1,1,1,1,1,1,1,1,1,1,1,1,1,1,1,1,1,1,1,1,1,1,1,1,1,1,1,1,1,1,1,1,1,1,1,1,1,1,1,1,1,1,1,1,1,1,1,1,1,1,1,1,1,1,1,1,1,1,1,1,1,1,1,1,1,1,1,1,1,1,1,1,1,1,1,1,1,1,1,1,1,1,1,1,1,1,1,1,1,1,1,1,1,1,1,1,1,1,1,1,1,1,1,1,1,
1,1,1,1,1,1,1,1,1,1,1,1,1,1,1,1,1,1,1,1,1,1,1,1,1,1,1,1,1,1,1,1,1,1,1,1,1,1,1,1,1,1,1,1,1,1,1,1,1,1,1,1,1,1,1,1,1,1,1,1,1,1,1,1,1,1,1,1,1,1,1,1,1,1,1,1,1,1,1,1,1,1,1,1,1,1,1,1,1,1,1,1,1,1,1,1,1,1,1,1,1,1,1,1,1,1,1,1,1,1,1,1,1,1,1,1,1,1,1,1,1,1,1,1,1,1,1,1,1,1,1,1,1,1,1,1,1,1,1,1,1,1,1,1,1,1,1,1,1,1,1,1,1,1,1,1,1,1,1,1,1,1,1,1,1,1,1,1,1,1,1,1,1,1,1,1,1,1,1,1,1,1,1,1,1,1,1,1,1,1,1,1,1,1,1,1,1,1,1,1,1,1,1,1,1,1,1,1,1,1,1,1,1,1,1,1,1,1,1,1,1,1,1,1,1,1,1,1,1,1,1,1,1,1,1,1,1,1,1,1,1,1,1,1,1,1,1,1,1,1,1,1,1,1,1,1,1,1,1,1,1,1,1,1,1,1,1,1,1,1,1,1,1,1,1,1,1,1,1,1,1,1,1,1,1,1,1,1,1,1,1,1,1,1,1,1,1,1,1,1,1,1,1,133,133,133,133,133,133,133,133,133,133,133,133,133,1,1,1,1,1,1,1,1,1,1,1,1,1,1,1,1,1,1,1,1,1,1,1,1,1,1,1,1,1,1,1,1,1,1,1,1,1,1,1,1,1,1,1,1,1,1,1,1,1,1,1,1,1,1,1,1,1,1,1,1,1,1,1,1,1,1,1,1,1,1,1,1,1,1,1,1,1,1,1,1,1,1,1,1,1,1,1,1,1,1,1,1,1,1,1,1,1,1,1,1,1,1,1,1,1,1,1,1,1,1,1,1,1,1,1,1,1,1,1,1,1,1,1,1,1,1,1,1,1,1,1,1,1,1,1,1,1,1,1,1,1,1,1,1,1,1,1,1,1,1,1,1,1,1,1,1,1,1,1,1,1,1,1,1,1,1,1,1,1,1,1,1,1,1,1,1,1,1,1,1,1,1,1,1,1,1,1,1,1,1,1,1,1,1,1,1,1,1,1,1,1,1,1,1,1,1,1,1,1,1,1,1,1,1,1,1,1,1,1,1,1,1,1,1,1,1,1,1,1,1,1,1,1,1,1,1,1,1,1,1,1,1,1,1,1,1,1,1,1,1,1,1,1,1,1,1,1,1,1,1,1,1,1,1,1,1,1,1,1,1,1,1,1,1,1,1,1,1,1,1,1,1,1,1,1,1,1,1,1,1,1,1,1,1,1,1,1,1,1,1,1,1,1,1,1,1,1,1,1,1,1,1,1,1,1,1,1,1,1,1,1,1,1,1,1,1,1,1,1,1,1,1,1,1,1,1,1,1,1,1,1,1,1,1,1,1,1,1,1,1,1,1,1,1,1,1,1,1,1,1,1,1,1,1,1,1,1,1,1,1,1,1,1,1,1,1,1,1,1,1,1,1,1,1,1,1,1,1,1,1,1,1,1,1,1,1,1,1,1,1,1,1,1,1,1,1,1,1,1,1,1,1,1,1,1,1,1,1,1,1,1,1,1,1,1,1,1,1,1,1,1,1,1,1,1,1,1,1,1,1,1,1,1,1,1,1,1,1,1,1,1,1,1,1,1,1,1,1,1,1,1,1,1,1,1,1,1,1,1,1,1,1,1,1,1,1,1,1,1,1,1,1,1,1,1,1,1,1,1,1,1,1,1,1,1,1,1,1,1,1,1,1,1,1,1,1,1,1,1,1,1,1,1,1,1,1,1,1,1,1,1,1,1,1,1,1,1,1,1,1,1,1,1,1,1,1,1,1,1,1,1,1,1,1,1,1,1,1,1,1,1,1,1,1,1,1,1,1,1,
1,1,1,1,1,1,1,1,1,1,1,1,1,1,1,1,1,1,1,1,1,1,1,1,1,1,1,1,1,1,1,1,1,1,1,1,1,1,1,1,1,1,1,1,1,1,1,1,1,1,1,1,1,1,1,1,1,1,1,1,1,1,1,1,1,1,1,1,1,1,1,1,1,1,1,1,1,1,1,1,1,1,1,1,1,1,1,1,1,1,1,1,1,1,1,1,1,1,1,1,1,1,1,1,1,1,1,1,1,1,1,1,1,1,1,1,1,1,1,1,1,1,1,1,1,1,1,1,1,1,1,1,1,1,1,1,1,1,1,1,1,1,1,1,1,1,1,1,1,1,1,1,1,1,1,1,1,1,1,1,1,1,1,1,1,1,1,1,1,1,1,1,1,1,1,1,1,1,1,1,1,1,1,1,1,1,1,1,1,1,1,1,1,1,1,1,1,1,1,1,1,1,1,1,1,1,1,1,1,1,1,1,1,1,1,1,1,1,1,1,1,1,1,1,1,1,1,1,1,1,1,1,1,1,1,1,1,1,1,1,1,1,1,1,1,1,1,1,1,1,1,1,1,1,1,1,1,1,1,1,1,1,1,1,1,1,1,1,1,1,1,1,1,1,1,1,1,1,1,1,1,1,1,1,1,1,1,1,1,1,1,1,1,1,1,1,1,1,1,1,1,1,1,133,133,133,133,133,133,133,133,133,133,133,133,133,1,1,1,1,1,1,1,1,1,1,1,1,1,1,1,1,1,1,1,1,1,1,1,1,1,1,1,1,1,1,1,1,1,1,1,1,1,1,1,1,1,1,1,1,1,1,1,1,1,1,1,1,1,1,1,1,1,1,1,1,1,1,1,1,1,1,1,1,1,1,1,1,1,1,1,1,1,1,1,1,1,1,1,1,1,1,1,1,1,1,1,1,1,1,1,1,1,1,1,1,1,1,1,1,1,1,1,1,1,1,1,1,1,1,1,1,1,1,1,1,1,1,1,1,1,1,1,1,1,1,1,1,1,1,1,1,1,1,1,1,1,1,1,1,1,1,1,1,1,1,1,1,1,1,1,1,1,1,1,1,1,1,1,1,1,1,1,1,1,1,1,1,1,1,1,1,1,1,1,1,1,1,1,1,1,1,1,1,1,1,1,1,1,1,1,1,1,1,1,1,1,1,1,1,1,1,1,1,1,1,1,1,1,1,1,1,1,1,1,1,1,1,1,1,1,1,1,1,1,1,1,1,1,1,1,1,1,1,1,1,1,1,1,1,1,1,1,1,1,1,1,1,1,1,1,1,1,1,1,1,1,1,1,1,1,1,1,1,1,1,1,1,1,1,1,1,1,1,1,1,1,1,1,1,1,1,1,1,1,1,1,1,1,1,1,1,1,1,1,1,1,1,1,1,1,1,1,1,1,1,1,1,1,1,1,1,1,1,1,1,1,1,1,1,1,1,1,1,1,1,1,1,1,1,1,1,1,1,1,1,1,1,1,1,1,1,1,1,1,1,1,1,1,1,1,1,1,1,1,1,1,1,1,1,1,1,1,1,1,1,1,1,1,1,1,1,1,1,1,1,1,1,1,1,1,1,1,1,1,1,1,1,1,1,1,1,1,1,1,1,1,1,1,1,1,1,1,1,1,1,1,1,1,1,1,1,1,1,1,1,1,1,1,1,1,1,1,1,1,1,1,1,1,1,1,1,1,1,1,1,1,1,1,1,1,1,1,1,1,1,1,1,1,1,1,1,1,1,1,1,1,1,1,1,1,1,1,1,1,1,1,1,1,1,1,1,1,1,1,1,1,1,1,1,1,1,1,1,1,1,1,1,1,1,1,1,1,1,1,1,1,1,1,1,1,1,1,1,1,1,1,1,1,1,1,1,1,1,1,1,1,1,1,1,1,1,1,1,1,1,1,1,1,1,1,1,1,1,1,1,1,1,1,1,1,1,1,1,1,1,1,1,1,1,1,1,1,1,1,
1,1,1,1,1,1,1,1,1,1,1,1,1,1,1,1,1,1,1,1,1,1,1,1,1,1,1,1,1,1,1,1,1,1,1,1,1,1,1,1,1,1,1,1,1,1,1,1,1,1,1,1,1,1,1,1,1,1,1,1,1,1,1,1,1,1,1,1,1,1,1,1,1,1,1,1,1,1,1,1,1,1,1,1,1,1,1,1,1,1,1,1,1,1,1,1,1,1,1,1,1,1,1,1,1,1,1,1,1,1,1,1,1,1,1,1,1,1,1,1,1,1,1,1,1,1,1,1,1,1,1,1,1,1,1,1,1,1,1,1,1,1,1,1,1,1,1,1,1,1,1,1,1,1,1,1,1,1,1,1,1,1,1,1,1,1,1,1,1,1,1,1,1,1,1,1,1,1,1,1,1,1,1,1,1,1,1,1,1,1,1,1,1,1,1,1,1,1,1,1,1,1,1,1,1,1,1,1,1,1,1,1,1,1,1,1,1,1,1,1,1,1,1,1,1,1,1,1,1,1,1,1,1,1,1,1,1,1,1,1,1,1,1,1,1,1,1,1,1,1,1,1,1,1,1,1,1,1,1,1,1,1,1,1,1,1,1,1,1,1,1,1,1,1,1,1,1,1,1,1,1,1,1,1,1,1,1,1,1,1,1,1,1,1,1,1,1,1,1,1,1,1,1,133,133,133,133,133,133,133,133,133,133,133,133,133,1,1,1,1,1,1,1,1,1,1,1,1,1,1,1,1,1,1,1,1,1,1,1,1,1,1,1,1,1,1,1,1,1,1,1,1,1,1,1,1,1,1,1,1,1,1,1,1,1,1,1,1,1,1,1,1,1,1,1,1,1,1,1,1,1,1,1,1,1,1,1,1,1,1,1,1,1,1,1,1,1,1,1,1,1,1,1,1,1,1,1,1,1,1,1,1,1,1,1,1,1,1,1,1,1,1,1,1,1,1,1,1,1,1,1,1,1,1,1,1,1,1,1,1,1,1,1,1,1,1,1,1,1,1,1,1,1,1,1,1,1,1,1,1,1,1,1,1,1,1,1,1,1,1,1,1,1,1,1,1,1,1,1,1,1,1,1,1,1,1,1,1,1,1,1,1,1,1,1,1,1,1,1,1,1,1,1,1,1,1,1,1,1,1,1,1,1,1,1,1,1,1,1,1,1,1,1,1,1,1,1,1,1,1,1,1,1,1,1,1,1,1,1,1,1,1,1,1,1,1,1,1,1,1,1,1,1,1,1,1,1,1,1,1,1,1,1,1,1,1,1,1,1,1,1,1,1,1,1,1,1,1,1,1,1,1,1,1,1,1,1,1,1,1,1,1,1,1,1,1,1,1,1,1,1,1,1,1,1,1,1,1,1,1,1,1,1,1,1,1,1,1,1,1,1,1,1,1,1,1,1,1,1,1,1,1,1,1,1,1,1,1,1,1,1,1,1,1,1,1,1,1,1,1,1,1,1,1,1,1,1,1,1,1,1,1,1,1,1,1,1,1,1,1,1,1,1,1,1,1,1,1,1,1,1,1,1,1,1,1,1,1,1,1,1,1,1,1,1,1,1,1,1,1,1,1,1,1,1,1,1,1,1,1,1,1,1,1,1,1,1,1,1,1,1,1,1,1,1,1,1,1,1,1,1,1,1,1,1,1,1,1,1,1,1,1,1,1,1,1,1,1,1,1,1,1,1,1,1,1,1,1,1,1,1,1,1,1,1,1,1,1,1,1,1,1,1,1,1,1,1,1,1,1,1,1,1,1,1,1,1,1,1,1,1,1,1,1,1,1,1,1,1,1,1,1,1,1,1,1,1,1,1,1,1,1,1,1,1,1,1,1,1,1,1,1,1,1,1,1,1,1,1,1,1,1,1,1,1,1,1,1,1,1,1,1,1,1,1,1,1,1,1,1,1,1,1,1,1,1,1,1,1,1,1,1,1,1,1,1,1,1,1,1,1,1,1,1,1,
1,1,1,1,1,1,1,1,1,1,1,1,1,1,1,1,1,1,1,1,1,1,1,1,1,1,1,1,1,1,1,1,1,1,1,1,1,1,1,1,1,1,1,1,1,1,1,1,1,1,1,1,1,1,1,1,1,1,1,1,1,1,1,1,1,1,1,1,1,1,1,1,1,1,1,1,1,1,1,1,1,1,1,1,1,1,1,1,1,1,1,0,0,0,133,133,133,133,133,133,133,133,133,133,133,133,133,133,133,133,133,133,133,133,133,133,133,133,133,133,1,1,1,1,1,1,1,1,1,1,1,1,1,1,1,1,1,1,1,1,1,1,1,1,1,1,1,1,1,1,1,1,1,1,1,1,1,1,1,1,1,1,1,1,1,1,1,1,1,1,1,1,1,1,1,1,1,1,1,1,1,1,1,1,1,1,1,1,1,1,1,1,1,1,1,1,1,1,1,1,1,1,1,1,1,1,1,1,1,1,1,1,1,1,1,1,1,1,1,1,1,1,1,1,1,1,1,1,1,1,1,1,1,1,1,1,1,1,1,1,1,1,1,1,1,1,1,1,1,1,1,1,1,1,1,1,1,1,1,1,1,1,1,1,1,1,1,1,1,1,1,1,1,1,1,1,1,1,1,1,1,1,1,1,1,1,1,1,1,1,1,1,1,1,1,1,1,1,1,1,1,1,1,133,133,133,133,133,133,133,133,133,133,133,133,133,1,1,1,1,1,1,1,1,1,1,1,1,1,1,1,1,1,1,1,1,1,1,1,1,1,1,1,1,1,1,1,1,1,1,1,1,1,1,1,1,1,1,1429,1430,1431,1432,1429,1430,1431,1432,1429,1430,1431,1432,1429,1430,1431,1432,1429,1430,1431,1432,1429,1430,1431,1432,1429,1430,1431,1432,1429,1430,1431,1432,1429,1430,1431,1432,1429,1430,1431,1432,1429,1430,1431,1432,1429,1430,1431,1432,1429,1,3477,1,1,1,1,1,1,1,1,1,1,1,1,1,1,1,1,1,1,1,1,1,1,1,1,1,1,1,1,1,1,1,1,1,1,1,1,1,1,1,1,1,1,1,1,1,1,1,1,1,1,1,1,1,1,1,1,1,1,1,1,1,1,1,1,0,0,0,133,133,133,133,133,133,133,133,133,133,1,1,1,1,1,1,1,1,1,1,1,1,1,1,1,1,1,1,1,1,1,1,1,1,1,1,1,1,1,1,1,1,1,1,1,1,1,1,1,1,1,1,1,1,1,1,1,1,1,1,1,1,1,1,1,1,1,1,1,1,1,1,1,1,1,1,1,1,1,1,1,1,1,1,1,1,1,1,1,1,1,1,1,1,1,1,1,1,1,1,1,1,1,1,1,1,1,1,1,1,1,1,1,1,1,1,1,1,1,1,1,1,1,1,1,1,1,1,1,1,1,1,1,1,1,1,1,1,1,1,1,1,1,1,1,1,1,1,1,1,1,1,1,1,1,1,1,1,1,1,1,1,1,1,1,1,1,1,1,1,1,1,1,1,1,1,1,1,1,1,1,1,1,1,1,1,1,1,1,1,1,1,1,1,1,1,1,1,1,1,1,1,1,1,1,1,1,1,1,1,1,1,1,1,1,1,1,1,1,1,1,1,1,1,1,1,1,1,1,1,1,1,1,1,1,1,1,1,1,1,1,1,1,1,1,1,1,1,1,1,1,1,1,1,1,1,1,1,1,1,1,1,1,1,1,1,1,1,1,1,1,1,1,1,1,1,1,1,1,1,1,1,1,1,1,1,1,1,1,1,1,1,1,1,1,1,1,1,1,1,1,1,1,1,1,1,1,1,1,1,1,1,1,1,1,1,1,1,1,1,1,1,1,1,1,1,1,1,1,1,1,1,1,1,1,1,1,1,1,1,1,1,1,1,1,1,1,1,1,1,1,1,1,1,1,1,1,1,1,1,1,1,1,1,1,1,1,1,1,1,1,1,1,1,1,1,1,1,1,1,1,1,1,1,1,1,1,1,1,1,1,1,1,1,1,1,1,1,1,
1,1,1,1,1,1,1,1,1,1,1,1,1,1,1,1,1,1,1,1,1,1,1,1,1,1,1,1,1,1,1,1,1,1,1,1,1,1,1,1,1,1,1,1,1,1,1,1,1,1,1,1,1,1,1,1,1,1,1,1,1,1,1,1,1,1,1,1,1,1,1,1,1,1,1,1,1,1,1,1,1,1,1,1,1,1,1,1,1,1,1,0,0,0,133,133,133,133,133,133,133,133,133,133,133,133,133,133,133,133,133,133,133,133,133,133,133,133,133,133,1,1,1,1,1,1,5105,1,1,1,1,1,1,1,1,1,1,1,1,1,1,1,1,1,1,1,1,1,1,1,1,1,1,1,1,1,1,1,1,1,1,1,1,1,1,1,1,1,1,1,1,1,1,1,1,1,1,1,1,1,1,1,1,1,1,1,1,1,1,1,1,1,1,1,1,1,1,1,1,1,1,1,1,1,1,1,1,1,1,1,1,1,1,1,1,1,1,1,1,1,1,1,1,1,1,1,1,1,1,1,1,1,1,1,1,1,1,1,1,1,1,1,1,1,1,1,1,1,1,1,1,1,1,1,1,1,1,1,1,1,1,1,1,1,1,1,1,1,1,1,1,1,1,1,1,1,1,1,1,1,1,1,1,1,1,1,1,1,1,1,1,1,1,1,1,1,1,1,1,1,1,1,1,133,133,133,133,133,133,133,133,133,133,133,133,133,0,0,1429,1430,1431,1432,1429,1430,1431,1432,1429,1430,1431,1432,1429,1430,1431,1432,1429,1430,1431,1432,1429,1430,1431,1432,1429,1430,1431,1432,1429,1430,1431,1432,1429,1430,1431,1432,1429,1430,1431,1432,1445,1446,1447,1448,1445,1446,1447,1448,1445,1446,1447,1448,1445,1446,1447,1448,1445,1446,1447,1448,1445,1446,1447,1448,1445,1446,1447,1448,1445,1446,1447,1448,1445,1446,1447,1448,1445,1446,1447,1448,1445,1446,1447,1448,1445,1446,1447,1448,1445,1,3477,1,1,1,1,1,1,1,1,1,1,1,1,1,1,1,1,1,1,1,1,1,1,1,1,1,1,1,1,1,1,1,1,1,1,1,1,1,1,1,1,1,1,1,1,1,1,1,1,1,1,1,1,1,1,1,1,1,1,1,1,1,1,1,1,0,0,0,133,133,133,133,133,133,133,133,133,133,1,1,1,1,1,1,1,1,1,1,1,1,1,1,1,1,1,1,1,1,1,1,1,1,1,1,1,1,1,1,1,1,1,1,1,1,1,1,1,1,1,1,1,1,1,1,1,1,1,1,1,1,1,1,1,1,1,1,1,1,1,1,1,1,1,1,1,1,1,1,1,1,1,1,1,1,1,1,1,1,1,1,1,1,1,1,1,1,1,1,1,1,1,1,1,1,1,1,1,1,1,1,1,1,1,1,1,1,1,1,1,1,1,1,1,1,1,1,1,1,1,1,1,1,1,1,1,1,1,1,1,1,1,1,1,1,1,1,1,1,1,1,1,1,1,1,1,1,1,1,1,1,1,1,1,1,1,1,1,1,1,1,1,1,1,1,1,1,1,1,1,1,1,1,1,1,1,1,1,1,1,1,1,1,1,1,1,1,1,1,1,1,1,1,1,1,1,1,1,1,1,1,1,1,1,1,1,1,1,1,1,1,1,1,1,1,1,1,1,1,1,1,1,1,1,1,1,1,1,1,1,1,1,1,1,1,1,1,1,1,1,1,1,1,1,1,1,1,1,1,1,1,1,1,1,1,1,1,1,1,1,1,1,1,1,1,1,1,1,1,1,1,1,1,1,1,1,1,1,1,1,1,1,1,1,1,1,1,1,1,1,1,1,1,1,1,1,1,1,1,1,1,1,1,1,1,1,1,1,1,1,1,1,1,1,1,1,1,1,1,1,1,1,1,1,1,1,1,1,1,1,1,1,1,1,1,1,1,1,1,1,1,1,1,1,1,1,1,1,1,1,1,1,1,1,1,1,1,1,1,1,1,1,1,1,1,1,1,1,1,1,1,1,1,1,1,1,1,1,1,1,1,1,1,1,1,1,1,1,
1,1,1,1,1,1,1,1,1,1,1,1,1,1,1,1,1,1,1,1,1,1,1,1,1,1,1,1,1,1,1,1,1,1,1,1,1,1,1,1,1,1,1,1,1,1,1,1,1,1,1,1,1,1,1,1,1,1,1,1,1,1,1,1,1,1,1,1,5105,1,1,1,1,1,1,1,5105,1,1,1,1,1,1,1,1,1,1,1,1,1,1,0,0,0,133,133,133,133,133,133,133,133,133,133,133,133,133,133,133,133,133,133,133,133,133,133,133,133,133,133,1,1,1,1,1,1,5105,1,1,1,1,1,1,1,1,1,1,1,1,1,1,1,1,1,1,1,1,1,1,1,1,1,1,1,1,1,1,1,1,1,1,1,1,1,1,1,1,1,1,1,1,1,1,1,1,1,1,1,1,1,1,1,1,1,1,1,1,1,1,1,1,1,1,1,1,1,1,1,1,1,1,1,1,1,1,1,1,1,1,1,1,1,1,1,1,1,131,1,1,1,1,1,1,1,1,1,1,1,1,1,1,1,1,1,1,1,1,1,1,1,1,1,1,1,1,1,1,1,1,1,1,1,1,1,1,1,1,1,1,1,1,1,1,1,1,1,1,1,1,1,1,1,1,1,1,1,1,1,1,1,1,1,1,1,1,1,1,1,1,1,1,1,1,1,1,1,1,1,1,1,1,1,1,133,133,133,133,133,133,133,133,133,133,133,133,133,0,0,1445,1446,1447,1448,1445,1446,1447,1448,1445,1446,1447,1448,1445,1446,1447,1448,1445,1446,1447,1448,1445,1446,1447,1448,1445,1446,1447,1448,1445,1446,1447,1448,1445,1446,1447,1448,1445,1446,1447,1448,1461,1462,1463,1464,1461,1462,1463,1464,1461,1462,1463,1464,1461,1462,1463,1464,1461,1462,1463,1464,1461,1462,1463,1464,1461,1462,1463,1464,1461,1462,1463,1464,1461,1462,1463,1464,1461,1462,1463,1464,1461,1462,1463,1464,1461,1462,1463,1464,1461,1,3477,1,1,1,1,1,1,1,1,1,1,1,1,1,1,1,1,1,1,1,1,1,1,1,1,1,1,1,1,1,1,1,1,1,1,1,1,1,1,1,1,1,1,1,1,1,1,1,1,1,1,1,1,1,1,1,1,3475,1,1,3477,1,1,1,1,0,0,0,133,133,133,133,133,133,133,133,133,133,1,1,1,1,1,1,1,1,1,1,1,1,1,1,1,1,1,1,1,1,1,1,1,1,1,1,1,1,1,1,1,1,1,1,1,1,1,1,1,1,1,1,1,1,1,1,1,1,1,1,1,1,1,1,1,1,1,1,1,1,1,1,1,1,1,1,1,1,1,1,1,1,1,1,1,1,1,1,1,1,1,1,1,1,1,1,1,1,1,1,1,1,1,1,1,1,1,1,1,1,1,1,1,1,1,1,1,1,1,1,1,1,1,1,1,1,1,1,1,1,1,1,1,1,1,1,1,1,1,1,1,1,1,1,1,1,1,1,1,1,1,1,1,1,1,1,1,1,1,1,1,1,1,1,1,1,1,1,1,1,1,1,1,1,1,1,1,1,1,1,1,1,1,1,1,1,1,1,1,1,1,1,1,1,1,1,1,1,1,1,1,1,1,1,1,1,1,1,1,1,1,1,1,1,1,1,1,1,1,1,1,1,1,1,1,1,1,1,1,1,1,1,1,1,1,1,1,1,1,1,1,1,1,1,1,1,1,1,1,1,1,1,1,1,1,1,1,1,1,1,1,1,1,1,1,1,1,1,1,1,1,1,1,1,1,1,1,1,1,1,1,1,1,1,1,1,1,1,1,1,1,1,1,1,1,1,1,1,1,1,1,1,1,1,1,1,1,1,1,1,1,1,1,1,1,1,1,1,1,1,1,1,1,1,1,1,1,1,1,1,1,1,1,1,1,1,1,1,1,1,1,1,1,1,1,1,1,1,1,1,1,1,1,1,1,1,1,1,1,1,1,1,1,1,1,1,1,1,1,1,1,1,1,1,1,1,1,1,1,1,1,1,1,1,1,1,1,1,1,1,1,1,1,1,1,1,1,1,1,
1,1,1,1,1,1,1,1,1,1,1,1,1,1,1,1,1,1,1,1,1,1,1,1,1,1,1,1,1,1,1,1,1,1,1,1,1,1,1,1,1,1,1,1,1,1,1,1,1,1,1,1,1,1,1,1,1,1,1,1,1,1,1,1,1,1,1,1,5105,1,1,3475,3477,1,1,1,5105,1,1,1,1,1,1,1,5105,1,1,1,1,1,1,0,0,0,133,133,133,133,133,133,133,133,133,133,133,133,133,133,133,133,133,133,133,133,133,133,133,133,133,133,1,1,1,1,1,1,5105,1,1,1,1,1,1,1,1,1,1,1,1,1,1,1,1,1,1,1,1,1,1,1,1,1,1,1,1,1,1,1,1,1,1,1,1,1,1,1,1,3428,3486,3427,1,1,1,1,1,1,1,1,1,1,1,1,1,1,1,1,1,1,1,1,1,1,1,1,1,1,1,1,1,1,1,1,1,1,1,1,1,1,1,1,1,1,1,1,1,1,131,1,1,1,1,1,1,1,1,1,1,1,1,1,1,1,1,1,1,1,1,1,1,1,1,1,1,1,1,1,1,1,1,1,1,1,1,1,1,1,1,1,1,1,1,1,1,1,1,1,1,1,1,1,1,1,1,1,1,1,1,1,1,1,1,1,1,1,1,1,1,1,1,1,1,1,1,1,1,1,1,1,1,1,1,1,1,133,133,133,133,133,133,133,133,133,133,133,133,133,0,0,1461,1462,1463,1464,1461,1462,1463,1464,1461,1462,1463,1464,1461,1462,1463,1464,1461,1462,1463,1464,1461,1462,1463,1464,1461,1462,1463,1464,1461,1462,1463,1464,1461,1462,1463,1464,1461,1462,1463,1464,1477,1478,1479,1480,1477,1478,1479,1480,1477,1478,1479,1480,1477,1478,1479,1480,1477,1478,1479,1480,1477,1478,1479,1480,1477,1478,1479,1480,1477,1478,1479,1480,1477,1478,1479,1480,1477,1478,1479,1480,1477,1478,1479,1480,1477,1478,1479,1480,1477,3489,3477,1,1,1,1,1,1,1,1,1,1,1,1,1,1,1,1,1,1,1,1,1,1,1,1,1,1,1,1,1,1,1,1,1,1,1,1,1,1,1,1,1,1,1,1,1,1,1,1,1,1,1,1,1,1,1,1,3475,1,1,3477,1,1,1,1,0,0,0,133,133,133,133,133,133,133,133,133,133,1,1,1,1,1,1,1,1,1,1,1,1,1,1,1,1,1,1,1,1,1,3475,1430,1431,1432,1429,1430,1431,1432,1429,1430,1431,1432,1429,1430,1431,1432,1429,1430,1431,1432,1429,1430,1431,1432,0,0,0,0,1,1,1,1,1,1,1,1,1,1,1,1,1,1,1,1,1,1,1,1,1,1,1,1,1,1,1,1,1,1,1,1,1,1,1,1,1,1,1,1,1,1,1,1,1,1,1,1,1,1,1,1,1,1,1,1,1,1,1,1,1,1,1,1,1,1,1,1,1,1,1,1,1,1,1,1,1,1,1,1,1,1,1,1,1,1,1,1,1,1,1,1,1,1,1,1,1,1,1,1,1,1,1,1,1,1,1,1,1,1,1,1,1,1,1,1,1,1,1,1,1,1,1,1,1,1,1,1,1,1,1,1,1,1,1,1,1,1,1,1,1,1,1,1,1,1,1,1,1,1,1,1,1,1,1,1,1,1,1,1,1,1,1,1,1,1,1,1,1,1,1,1,1,1,1,1,1,1,1,1,1,1,1,1,1,1,1,1,1,1,1,1,1,1,1,1,1,1,1,1,1,1,1,1,1,1,1,1,1,1,1,1,1,1,1,1,1,1,1,1,1,1,1,1,1,1,1,1,1,1,1,1,1,1,1,1,1,1,1,1,1,1,1,1,1,1,1,1,1,1,1,1,1,1,1,1,1,1,1,1,1,1,1,1,1,1,1,1,1,1,1,1,1,1,1,1,1,1,1,1,1,1,1,1,1,1,1,1,1,1,1,1,1,1,1,1,1,1,1,1,1,1,1,1,1,1,1,1,1,1,1,1,1,1,1,1,1,1,1,1,1,1,1,1,1,1,1,1,1,1,1,1,1,1,1,1,1,1,1,1,
1,1,1,1,1,1,1,1,1,1,1,1,1,1,1,1,5105,1,1,1,1,1,1,1,1,1,1,1,1,1,1,1,1,1,1,1,3475,3477,1,1,1,1,1,1,1,1,1,1,1,1,1,1,1,1,1,1,1,1,1,1,1,1,1,1,5105,1,1,1,5105,1,1,3475,3477,1,1,1,5105,1,1,1,1,1,1,1,5105,1,1,1,5105,1,1,0,0,0,133,133,133,133,133,133,133,133,133,133,133,133,133,133,133,133,133,133,133,133,133,133,133,133,133,133,1,1,1,1,1,1,5105,1,1,1,1,1,1,1,1,1,1,1,1,1,1,1,1,1,1,1,1,1,1,1,1,1,1,1,1,1,1,1,1,1,1,1,1,1,1,1,1,3428,3486,3427,1,1,1,1,1,1,1,1,1,1,1,1,1,1,1,1,1,1,1,1,1,1,1,1,1,1,1,1,1,1,1,1,1,1,1,1,1,1,1,1,1,1,1,1,1,1,131,1,1,1,1,1,1,1,1,1,1,1,1,1,1,1,1,1,1,1,1,1,1,1,1,1,1,1,1,1,1,1,1,1,1,1,1,1,1,1,1,1,1,1,1,1,1,1,1,1,1,1,1,1,1,1,1,1,1,1,1,1,1,1,1,1,1,1,1,1,1,1,1,1,1,1,1,1,1,1,1,1,1,1,1,1,1,133,133,133,133,133,133,133,133,133,133,133,133,133,0,0,1477,1478,1479,1480,1477,1478,1479,1480,1477,1478,1479,1480,1477,1478,1479,1480,1477,1478,1479,1480,1477,1478,1479,1480,1477,1478,1479,1480,1477,1478,1479,1480,1477,1478,1479,1480,1477,1478,1479,1480,5546,5546,5546,5546,5546,5546,5546,5546,5546,5546,5546,5546,5546,5546,5546,5546,5546,5546,5546,5546,5546,5546,5546,5546,5546,5546,5546,5546,5546,5546,5546,5546,5546,5546,5546,5546,5546,5546,5546,5546,5546,5546,5546,5546,5546,5546,5546,5546,5546,3475,3477,1,1,1,1,1,1,1,1,1,1,1,1,1,1,1,1,1,1,1,1,1,1,1,1,1,1,1,1,1,1,1,1,1,1,1,1,1,1,1,1,1,1,1,1,1,1,1,1,1,1,1,1,1,1,1,1,3475,1,1,3477,1,1,1,1,0,0,0,133,133,133,133,133,133,133,133,133,133,1,1,1,1,1,1,1,1,1,1,1,1,1,1,1,1,1,1,1,1,1,3475,1446,1447,1448,1445,1446,1447,1448,1445,1446,1447,1448,1445,1446,1447,1448,1445,1446,1447,1448,1445,1446,1447,1448,0,0,0,0,1,1,1,1,1,1,1,1,1,1,1,1,1,1,1,1,1,1,1,1,1,1,1,1,1,1,1,1,1,1,1,1,1,1,1,1,1,1,1,1,1,1,1,1,1,1,1,1,1,1,1,1,1,1,1,1,1,1,1,1,1,1,1,1,1,1,1,1,1,1,1,1,1,1,1,1,1,1,1,1,1,1,1,1,1,1,1,1,1,1,1,1,1,1,1,1,1,1,1,1,1,1,1,1,1,1,1,1,1,1,1,1,1,1,1,1,1,1,1,1,1,1,1,1,1,1,1,1,1,1,1,1,1,1,1,1,1,1,1,1,1,1,1,1,1,1,1,1,1,1,1,1,1,1,1,1,1,1,1,1,1,1,1,1,1,1,1,1,1,1,1,1,1,1,1,1,1,1,1,1,1,1,1,1,1,1,1,1,1,1,1,1,1,1,1,1,1,1,1,1,1,1,1,1,1,1,1,1,1,1,1,1,1,1,1,1,1,1,1,1,1,1,1,1,1,1,1,1,1,1,1,1,1,1,1,1,1,1,1,1,1,1,1,1,1,1,1,1,1,1,1,1,1,1,1,1,1,1,1,1,1,1,1,1,1,1,1,1,1,1,1,1,1,1,1,1,1,1,1,1,1,1,1,1,1,1,1,1,1,1,1,1,1,1,1,1,1,1,1,1,1,1,1,1,1,1,1,1,1,1,1,1,1,1,1,1,1,1,1,1,1,1,1,1,1,1,1,1,1,1,1,1,1,1,1,1,1,1,1,1,
1,1,1,1,1,1,1,1,1,1,1,1,1,1,1,1,5105,1,1,1,1,1,1,1,1,1,1,1,1,1,1,1,1,1,1,1,3475,3477,1,1,1,1,1,1,1,1,1,1,1,1,1,1,1,1,1,1,1,1,1,1,3475,1,3477,1,1,1,1,1,5105,1,1,3475,3477,1,1,1,5105,1,1,1,5105,1,1,1,5105,1,1,1,5105,1,1,0,0,0,133,133,133,133,133,133,133,133,133,133,133,133,133,133,133,133,133,133,133,133,133,133,133,133,133,133,1,1,1,1,1,1,5105,1,1,1,3428,1,1,1,1,1,1,1,1,1,1,1,0,0,1,1,1,1,1,1,1,1,1,1,1,1,1,1,1,1,1,1,1,1,1,1,1,3428,3486,3427,126,126,126,3475,3486,3477,126,126,126,126,126,126,126,126,126,3486,126,126,126,0,0,0,1,1,1,1,1,1,1,1,1,1,1,1,1,1,1,1,1,1,1,1,1,1,1,1,131,131,1429,1430,1431,1432,1429,1430,1431,1432,1429,1430,1431,1432,1429,1430,1431,1432,1429,1430,1431,1432,1429,1430,1431,1432,1429,1430,1431,1432,1429,1430,1431,1432,1429,1430,1431,3475,3477,1430,1431,116,117,131,1,1,1,1,1,1,1,1,1,1,1,1,1,1,1,1,1,1,1,116,117,131,1,1,1,1,1,1,1,1,1,1,1,1,1,1,1,1,1,1,1,1,1,133,133,133,133,133,133,133,133,133,133,133,133,133,1,1,1,1,1,1,1,1160,1155,1155,1161,5546,5546,5546,5546,5546,5546,5546,1156,1157,5546,1156,1157,5546,5546,5546,5546,5546,5546,5546,5546,5546,5546,5546,5546,5546,1156,1157,5546,161,164,162,0,0,0,0,0,0,0,0,0,0,0,0,0,0,0,0,0,0,0,1153,0,0,0,0,0,0,0,0,0,1158,1159,0,0,0,1153,0,0,0,0,0,0,0,0,0,0,0,0,0,0,3475,3477,1,1,1,1,1,1,1,1,1,1,1,1,1,1,1,1,1,1,1,1,1,1,1,1,1,1,1,1,1,1,1,1,1,1,1,1,1,1,1,1,1,1,1,1,1,1,1,1,1,1,1,1,1,1,1,1,3475,1,1,3477,1,1,1,1,0,0,0,133,133,133,133,133,133,133,133,133,133,1,1,1,1,1,1,1,1,1,1,1,1,1,1,1,1,1,1,1,1,1,3475,1462,1463,1464,1461,1462,1463,1464,1461,1462,1463,1464,1461,1462,1463,1464,1461,1462,1463,1464,1461,1462,1463,1464,1429,1430,1431,1432,1429,1430,1431,1432,1,1,1,1,1,1,1,1,1,1,1,1,1,1,1,1,1,1,1,1,1,1,1,1,1,1,1,1,1,1,1,1,1,1,1,1,1,1,1,1,1,1,1,1,1,1,1,1,1,1,1,1,1,1,1,1,1,1,1,1,1,1,1,1,1,1,1,1,1,1,1,1,1,1,1,1,1,1,1,1,1,1,1,1,1,1,1,1,1,1,1,1,1,1,1,1,1,1,1,1,1,1,1,1,1,1,1,1,1,1,1,1,1,1,1,1,1,1,1,1,1,1,1,1,1,1,1,1,1,1,1,1,1,1,1,1,1,1,1,1,1,1,1,1,1,1,1,1,1,1,1,1,1,1,1,1,1,1,1,1,1,1,1,1,1,1,1,1,1,1,1,1,1,1,1,1,1,1,1,1,1,1,1,1,1,1,1,1,1,1,1,1,1,1,1,1,1,1,1,1,1,1,1,1,1,1,1,1,1,1,1,1,1,1,1,1,1,1,1,1,1,1,1,1,1,1,1,1,1,1,1,1,1,1,1,1,1,1,1,1,1,1,1,1,1,1,1,1,1,1,1,1,1,1,1,1,1,1,1,1,1,1,1,1,1,1,1,1,1,1,1,1,1,1,1,1,1,1,1,1,1,1,1,1,1,1,1,1,1,1,1,1,1,1,1,1,1,1,1,1,1,1,1,1,1,1,1,1,1,1,1,1,1,1,1,1,1,1,1,1,1,1,1,1,1,1,1,1,1,1,1,1,1,1,1,1,
1,1,1,1,1,1,1,1,1,1,1,1,1,1,1,1,5105,1,1,1,1,1,1,1,1,1,3475,1,3477,1,1,1,1,1,1,1,3475,3477,1,1,1,1,1,1,1,1,1,3475,3477,1,1,1,1,1,1,1,1,1,1,1,3475,1,3477,1,1,1,1,1,5105,1,1,3475,3477,1,1,1,5105,1,1,1,5105,1,1,1,5105,1,1,1,5105,1,1,0,0,0,133,133,133,133,133,133,133,133,133,133,133,133,133,133,133,133,133,133,133,133,133,133,133,133,133,133,1,1,1,1,1,1,5105,1,1,1,3428,1,1,1,1,1,1,1,1,1,1,1,3428,3427,1,1,1,1,1,1,1,1,1,1,1,1,1,1,1,1,1,1,1,1,1,1,1,3428,3486,3427,126,126,126,3475,3484,3477,126,126,126,126,126,126,126,126,126,3486,126,126,126,3475,3475,3477,3477,1,1,1,1,1,1,1,1,1,1,3475,3477,126,126,126,126,126,126,126,126,126,126,126,128,131,1445,1446,1447,1448,1445,1446,1447,1448,1445,1446,1447,1448,1445,1446,1447,1448,1445,1446,1447,1448,1445,1446,1447,1448,1445,1446,1447,1448,1445,1446,1447,1448,1445,1446,1447,131,3477,1446,1447,116,117,131,1,1,1,1,1,1,1,1,1,1,1,1,1,1,1,1,1,1,1,116,117,131,1,1,1,1,1,1,1,1,1,131,116,117,1,1,1,1,1,1,1,1,1,133,133,133,133,133,133,133,133,133,133,133,133,133,1,1,1,1,1,1,1,1,1,1689,5733,0,0,0,0,0,0,0,1156,1157,0,161,162,0,0,0,1,1,1,1,1,1,1,1,1,1,161,162,1,0,0,0,1,1,1,1,1,1,1,1,1,0,1153,1,1,1,1,1,1,1,1,1290,1,1,1,1,1,1,1,1,1,1160,145,1,1,1,1290,1,1,1,1,1,1,1,1,1,1,1,1,1,1,3475,3477,1,1,1,1,1,1,1,1,1,1,1,1,1,1,1,1,1,1,1,1,1,1,1,1,1,1,1,1,1,1,1,1,1,1,1,1,1,1,1,1,1,1,1,1,1,1,1,1,1,1,1,1,1,1,1,1,3475,1,1,3477,1,1,1,1,0,0,0,133,133,133,133,133,133,133,133,133,133,1,1,59,59,59,59,59,59,59,59,59,59,59,59,59,59,59,59,59,59,59,3475,1478,1479,1480,1477,1478,1479,1480,1477,1478,1479,1480,1477,1478,1479,1480,1477,1478,1479,1480,1477,1478,1479,1480,1445,1446,1447,1448,1445,1446,1447,1448,1,1,1,1,1,1,1,1,1,1,1,1,1,1,1,1,1,1,1,1,1,1,1,1,1,1,1,1,1,1,1,1,1,1,1,1,1,1,1,1,1,1,1,1,1,1,1,1,1,1,1,1,1,1,1,1,1,1,1,1,1,1,1,1,1,1,1,1,1,1,1,1,1,1,1,1,1,1,1,1,1,1,1,1,1,1,1,1,1,1,1,1,1,1,1,1,1,1,1,1,1,1,1,1,1,1,1,1,1,1,1,1,1,1,1,1,1,1,1,1,1,1,1,1,1,1,1,1,1,1,1,1,1,1,1,1,1,1,1,1,1,1,1,1,1,1,1,1,1,1,1,1,1,1,1,1,1,1,1,1,1,1,1,1,1,1,1,1,1,1,1,1,1,1,1,1,1,1,1,1,1,1,1,1,1,1,1,1,1,1,1,1,1,1,1,1,1,1,1,1,1,1,1,1,1,1,1,1,1,1,1,1,1,1,1,1,1,1,1,1,1,1,1,1,1,1,1,1,1,1,1,1,1,1,1,1,1,1,1,1,1,1,1,1,1,1,1,1,1,1,1,1,1,1,1,1,1,1,1,1,1,1,1,1,1,1,1,1,1,1,1,1,1,1,1,1,1,1,1,1,1,1,1,1,1,1,1,1,1,1,1,1,1,1,1,1,1,1,1,1,1,1,1,1,1,1,1,1,1,1,1,1,1,1,1,1,1,1,1,1,1,1,1,1,1,1,1,1,1,1,1,1,1,1,1,1,
1,1,1,1,1,1,1,1,1,1,1,1,1,1,1,1,5105,3475,3477,1,1,1,1,1,1,1,3475,1,3477,1,1,1,1,1,1,1,3475,3477,1,1,1,1,1,1,1,1,1,3475,3477,1,1,1,1,1,1,1,1,1,1,1,3475,1,3477,1,1,1,1,1,5105,1,1,3475,3477,1,1,1,5105,1,1,1,3475,3477,1,1,5105,1,1,1,5105,1,1,0,0,0,133,133,133,133,133,133,133,133,133,133,133,133,133,133,133,133,133,133,133,133,133,133,133,133,133,133,1,1,1,1,1,1,5105,1,1,1,3428,126,126,126,126,126,126,126,126,126,126,126,3428,3427,126,126,126,126,3428,50,50,222,50,50,3428,3486,3427,50,219,50,50,50,50,50,219,50,5105,3428,3486,3427,50,219,50,3479,3476,3480,50,219,50,50,50,50,50,50,222,3486,50,220,50,3475,3475,3477,3477,126,126,126,126,126,126,126,126,126,126,3475,3477,126,126,126,126,126,126,126,126,126,126,126,3475,131,1461,1462,1463,1464,1461,1462,1463,1464,1461,1462,1463,1464,1461,1462,1463,1464,1461,1462,1463,1464,1461,1462,1463,1464,1461,1462,1463,1464,1461,1462,1463,1464,1461,1462,1463,131,131,1462,1463,116,117,131,1,1,1,1,1,1,1,1,1,1,1,1,1,1,1,1,1,1,1,116,117,131,1,1,1,1,1,1,1,1,1,131,116,117,1,1,1,1,1,1,1,1,1,133,133,133,133,133,133,133,133,133,133,133,133,133,1,1,1,1,1,1,1,1,1,1,1,1,1,1,1,1,1,1,161,162,1,1,1,1,1,1,1,1,1,1,1,1,1,1,1,1,1,1,1,1,1,1,1,1,1,1,1,1,1,1,1,0,1290,1,1,1,1,1,1,1,1,1,1,1,1,1,1,1,1,1,1,1,1290,0,1,1,1,1,1,1,1,1,1,1,1,1,1,1,1,1,1,3475,3477,1,1,1,1,1,1,1,1,1,1,1,1,1,1,1,1,1,1,1,1,1,1,1,1,1,1,1,1,1,1,1,1,1,1,1,1,1,1,1,1,1,1,1,1,1,1,1,1,1,1,1,1,1,1,1,1,3475,1,1,3477,1,1,1,1,0,0,0,133,133,133,133,133,133,133,133,133,133,1,1,1,1,1,1,1,1,1,1,1,1,1,1,1,1,1,1,1,1,1,3475,3477,50,220,50,50,50,3486,126,126,126,126,126,126,126,3475,3477,126,126,3486,126,126,3475,3477,1461,1462,1463,1464,1461,1462,1463,1464,1,1,1,1,1,1,1,1,1,1,1,1,1,1,1,1,1,1,1,1,1,1,1,1,1,1,1,1,1,1,1,1,1,1,1,1,1,1,1,1,1,1,1,1,1,1,1,1,1,1,1,1,1,1,1,1,1,1,1,1,1,1,1,1,1,1,1,1,1,1,1,1,1,1,1,1,1,1,1,1,1,1,1,1,1,1,1,1,1,1,1,1,1,1,1,1,1,1,1,1,1,1,1,1,1,1,1,1,1,1,1,1,1,1,1,1,1,1,1,1,1,1,1,1,1,1,1,1,1,1,1,1,1,1,1,1,1,1,1,1,1,1,1,1,1,1,1,1,1,1,1,1,1,1,1,1,1,1,1,1,1,1,1,1,1,1,1,1,1,1,1,1,1,1,1,1,1,1,1,1,1,1,1,1,1,1,1,1,1,1,1,1,1,1,1,1,1,1,1,1,1,1,1,1,1,1,1,1,1,1,1,1,1,1,1,1,1,1,1,1,1,1,1,1,1,1,1,1,1,1,1,1,1,1,1,1,1,1,1,1,1,1,1,1,1,1,1,1,1,1,1,1,1,1,1,1,1,1,1,1,1,1,1,1,1,1,1,1,1,1,1,1,1,1,1,1,1,1,1,1,1,1,1,1,1,1,1,1,1,1,1,1,1,1,1,1,1,1,1,1,1,1,1,1,1,1,1,1,1,1,1,1,1,1,1,1,1,1,1,1,1,1,1,1,1,1,1,1,1,1,1,1,1,1,1,1,
1,1,1,1,1,1,1,1,1,1,1,1,1,1,1,1,5105,3475,3477,1,1,1,1,1,1,1,3475,1,3477,1,1515,1516,1,1,1513,1514,3475,3477,1,1,1,1,1,1,1,1,1,3475,3477,1,1,1,1,1,1,1,1,1,1,1,3475,1,3477,1,1,1,1,1,5105,1,1,3479,3480,1,1,1,5105,1,1,1,3475,3477,1,1,5105,1,1,1,5105,1,1,0,0,0,133,133,133,133,133,133,133,133,133,133,133,133,133,133,133,133,133,133,133,133,133,133,133,133,133,133,1,1,1,1,1,1,5110,1,1,1,3428,50,50,50,219,50,50,50,219,50,50,50,3428,3427,126,126,126,126,3428,1,1,1,1,1,3428,3484,3427,1,1,1,1,1,1,1,1,1,5110,3428,3484,3427,1,1,1,1,28,1,1,1,1,1,1,1,5110,1,1,3484,1,1,1,3475,3479,3480,3477,126,126,126,126,126,126,126,126,126,126,3475,3477,50,5110,3486,126,126,126,126,126,126,126,126,3475,128,1477,1478,1479,1480,1477,1478,1479,1480,1477,1478,1479,1480,1477,1478,1479,1480,1477,1478,1479,1480,1477,1478,1479,1480,1477,1478,1479,1480,1477,1478,1479,1480,1477,1478,1479,131,131,1478,1479,120,121,131,1,1,1,1,1,1,1,1,1,1,1,1,1,1,1,1,1,1,1,120,121,131,1,1,1,1,1,1,1,1,1,131,116,117,1,1,1,1,1,1,1,1,1,133,133,133,133,133,133,133,133,133,133,133,133,133,1,1,1,1,1,1,1,1,1,1,1,1,1,1,1,1,1,1,1,1,1,1,1,1,1,1,1,1,1,1,1,1,1,1,1,1,1,1,1,1,1,1,1,1,1,1,1,1,1,1,1,1,1,1,1,1,1,1,1,1,1,1,1,1,1,1,1,1,1,1,1,1,0,0,1,1,1,1,1,1289,1,1,1,1,1,1,1,1,1,1,1,3479,3480,1,1,1,1,1,1,1,1,1,1,1,1,1,1,1,1,1,1,1,1,1,1,1,1,1,1,1,1,1,1,1,1,1,1,1,1,1,1,1,1,1,1,1,1,1,1,1,1,1,1,1,1,1,1,1,1,3475,1,3476,3480,1,1,1,1,0,0,0,133,133,133,133,133,133,133,133,133,133,1,1,1,1,1,1,1,1,1,1,1,1,1,1,1,1,1,1,1,1,1,3475,3504,0,1,1,1,1,3486,126,126,126,126,126,126,126,3475,3477,219,50,3484,50,50,3475,3477,1477,1478,1479,1480,1477,1478,1479,1480,1,1,1,1,1,1,1,1,1,1,1,1,1,1,1,1,1,1,1,1,1,1,1,1,1,1,1,1,1,1,1,1,1,1,1,1,1,1,1,1,1,1,1,1,1,1,1,1,1,1,1,1,1,1,1,1,1,1,1,1,1,1,1,1,1,1,1,1,1,1,1,1,1,1,1,1,1,1,1,1,1,1,1,1,1,1,1,1,1,1,1,1,1,1,1,1,1,1,1,1,1,1,1,1,1,1,1,1,1,1,1,1,1,1,1,1,1,1,1,1,1,1,1,1,1,1,1,1,1,1,1,1,1,1,1,1,1,1,1,1,1,1,1,1,1,1,1,1,1,1,1,1,1,1,1,1,1,1,1,1,1,1,1,1,1,1,1,1,1,1,1,1,1,1,1,1,1,1,1,1,1,1,1,1,1,1,1,1,1,1,1,1,1,1,1,1,1,1,1,1,1,1,1,1,1,1,1,1,1,1,1,1,1,1,1,1,1,1,1,1,1,1,1,1,1,1,1,1,1,1,1,1,1,1,1,1,1,1,1,1,1,1,1,1,1,1,1,1,1,1,1,1,1,1,1,1,1,1,1,1,1,1,1,1,1,1,1,1,1,1,1,1,1,1,1,1,1,1,1,1,1,1,1,1,1,1,1,1,1,1,1,1,1,1,1,1,1,1,1,1,1,1,1,1,1,1,1,1,1,1,1,1,1,1,1,1,1,1,1,1,1,1,1,1,1,1,1,1,1,1,1,1,1,1,1,1,
1,1,1,1,1,1,1,1,1,1,1,1,1,1,1,1,5105,3475,3477,1,1,1,1,1,1,1,3475,1,3477,1515,1516,1,5105,1,1,1513,3479,3480,1,1,1,1,1,1513,1514,1,1,3475,3477,1,1515,1516,1,1,1,1,1,1,1513,1514,3475,1,3477,1,1,1,1,1,5110,1,1,938,934,1,1,1,5105,1,1,1,3475,3477,1,1,5105,1,1,1,5105,1,1,0,0,0,133,133,133,133,133,133,133,133,133,133,133,133,133,133,133,133,133,133,133,133,133,133,133,133,133,133,1,1,1,1,1,1,1,1,1,1,3428,1,1,1,1,1,1,1,1,126,1,1,3428,3427,50,50,220,50,3428,1,1,1,1,1,3428,3389,3427,1,1,1,1,1,5105,1,1,1,1,3428,3389,3427,1,1,1,1,1,1,1,1,1,1,1,1,1,1,1,28,1,1,1,3479,3476,3476,3480,50,5105,50,50,50,50,50,50,219,50,3475,3477,1,1,3486,50,50,5105,50,50,50,50,50,3475,3477,32,32,32,32,32,32,32,32,32,32,32,32,32,32,32,32,32,32,32,32,32,32,32,32,32,32,32,32,32,32,32,32,32,32,32,128,131,32,32,3475,1,128,1,1,1,1,1,1,1,1,1,1,1,1,1,1,1,1,1,1,1,3479,3476,128,1,1,1,1,1,1,1,1,1,131,120,121,1,1,1,1,1,1,1,1,1,133,133,133,133,133,133,133,133,133,133,133,133,133,1,1,1,1,1,1,1,1,1,1,1,1,1,1,1,1,1,1,1,1,1,1,1,1,1,1,1,1,1,1,1,1,1,1,1,1,1,1,1,1,1,1,1,1,1,1,1,1,1,1,1,1,1,1,1,1289,1,1,1,1289,1,1,1,1,1,1,1,1289,1,1,1,1,0,0,1,1,1289,1,1,1153,1,1,1,1,1,1,1,1,1,1,1,1,1,1,1,1,1,1,1,1,1,1,1,1,1,1,1,1,1,1,1,1,1,1,1,1,1,1,1,1,1,1,1,1,1,1,1,1,1,1,1,1,1,1,1,1,1,1,1,1,1,1,1,1,1,1,1,1,1,3511,3512,1,1,1,1,1,1,0,0,0,133,133,133,133,133,133,133,133,133,133,1,1,1,1,1,1,1,1,1,1,1,1,1,1,1,1,1,1,1,1,1,3504,1,1,1,1,1,1,3484,50,50,50,219,50,50,50,3475,3477,1,1,353,1,1,3475,3504,1,1,1,1,1,1,1,1,1,1,1,1,1,1,1,1,1,1,1,1,1,1,1,1,1,1,1,1,1,1,1,1,1,1,1,1,1,1,1,1,1,1,1,1,1,1,1,1,1,1,1,1,1,1,1,1,1,1,1,1,1,1,1,1,1,1,1,1,1,1,1,1,1,1,1,1,1,1,1,1,1,1,1,1,1,1,1,1,1,1,1,1,1,1,1,1,1,1,1,1,1,1,1,1,1,1,1,1,1,1,1,1,1,1,1,1,1,1,1,1,1,1,1,1,1,1,1,1,1,1,1,1,1,1,1,1,1,1,1,1,1,1,1,1,1,1,1,1,1,1,1,1,1,1,1,1,1,1,1,1,1,1,1,1,1,1,1,1,1,1,1,1,1,1,1,1,1,1,1,1,1,1,1,1,1,1,1,1,1,1,1,1,1,1,1,1,1,1,1,1,1,1,1,1,1,1,1,1,1,1,1,1,1,1,1,1,1,1,1,1,1,1,1,1,1,1,1,1,1,1,1,1,1,1,1,1,1,1,1,1,1,1,1,1,1,1,1,1,1,1,1,1,1,1,1,1,1,1,1,1,1,1,1,1,1,1,1,1,1,1,1,1,1,1,1,1,1,1,1,1,1,1,1,1,1,1,1,1,1,1,1,1,1,1,1,1,1,1,1,1,1,1,1,1,1,1,1,1,1,1,1,1,1,1,1,1,1,1,1,1,1,1,1,1,1,1,1,1,1,1,1,1,1,1,1,1,1,1,1,1,1,1,1,1,
1,1,1,1,1,1,1,1,1,1,1,1,1,1,1,1,0,3475,3477,1515,1516,1,1,1513,1514,1,3475,1,3477,1516,126,1,5105,1,1,5477,938,934,5476,1,5110,1,1,1,1513,1514,1,3475,3477,1515,1516,1,1,1,1,1,1,1,1,1513,3479,3476,3480,1,1,1,1,1,1,1,1,1,1,1,1,1,5110,1,1,1,3475,3477,1,1,5110,1,1,1,5105,1,1,0,0,0,133,133,133,133,133,133,133,133,133,133,133,133,133,133,133,133,133,133,133,133,133,133,133,133,133,133,1,1,1,1,1,1,1,1,1,1,28,1,1,1,1,1,1,1,1,1,1,1,3428,3427,1,1,1,1,1,1,1,1,1,1,1,28,1,1,1,1,1,1,5110,1,1,1,1,1,1,762,1,1,1,1,1,1,1,1,1,1,1,1,1,1,1,1,1,1,1,1,1,1,28,1,5110,1,1,1,1,1,1,126,1,3479,3480,1,1,3484,1,1,5110,1,1,1,1,1,3479,3480,1,1,1,1,1,1,1,1,1,1,1,1,1,1,1,1,1,1,1,1,1,1,1,1,1,1,1,1,1,1,1,1,1,1,1,3475,128,1,1,3479,3476,3480,1,1,1,1,1,1,1,1,1,1,1,1,1,1,1,1,1,1,1,0,0,1,1,1,1,1,1,1,1,1,1,128,3476,3480,1,1,1,1,1,1,1,1,1,133,133,133,133,133,133,133,133,133,133,133,133,133,1,1,1,1,1,1,1,1,1,1,1,1,1,1,1,1,1,1,1,1,1,1,1,1,1,1,1,1,1,1,1,1,1,1,1,1,1,1,1,1,1,1,1,1,1,1,1,1,1,1,1,1289,1,1,1,1153,1,1,1,145,1159,1,1,1,1,1,0,1153,1,1,1,1,1,1,1,1158,145,1,1,1,1,1,1,1,1289,1,1,1,1,1,1,1,1,1,1,1,1,1,1,1,1,1,1,1,1,1,1,1,1,1,1,1,1,1,1,1,1,1,1,1,1,1,1,1,1,1,1,1,1,1,1,1,1,1,1,1,1,1,1,1,1,1,1,1,1,1,1,1,1,1,1,1,1,1,1,1,1,0,0,0,133,133,133,133,133,133,133,133,133,133,1,1,1,1,1,1,1,1,1,1,1,1,1,1,1,1,1,1,1,1,1,1,1,1,1,1,1,1,353,1,1,1,1,1,1,1,3475,3477,1,1,1,1,1,3475,1,1,1,1,1,1,1,1,1,1,1,1,1,1,1,1,1,1,1,1,1,1,1,1,1,1,1,1,1,1,1,1,1,1,1,1,1,1,1,1,1,1,1,1,1,1,1,1,1,1,1,1,1,1,1,1,1,1,1,1,1,1,1,1,1,1,1,1,1,1,1,1,1,1,1,1,1,1,1,1,1,1,1,1,1,1,1,1,1,1,1,1,1,1,1,1,1,1,1,1,1,1,1,1,1,1,1,1,1,1,1,1,1,1,1,1,1,1,1,1,1,1,1,1,1,1,1,1,1,1,1,1,1,1,1,1,1,1,1,1,1,1,1,1,1,1,1,1,1,1,1,1,1,1,1,1,1,1,1,1,1,1,1,1,1,1,1,1,1,1,1,1,1,1,1,1,1,1,1,1,1,1,1,1,1,1,1,1,1,1,1,1,1,1,1,1,1,1,1,1,1,1,1,1,1,1,1,1,1,1,1,1,1,1,1,1,1,1,1,1,1,1,1,1,1,1,1,1,1,1,1,1,1,1,1,1,1,1,1,1,1,1,1,1,1,1,1,1,1,1,1,1,1,1,1,1,1,1,1,1,1,1,1,1,1,1,1,1,1,1,1,1,1,1,1,1,1,1,1,1,1,1,1,1,1,1,1,1,1,1,1,1,1,1,1,1,1,1,1,1,1,1,1,1,1,1,1,1,1,1,1,1,1,1,1,1,1,1,1,1,1,1,1,1,1,1,1,1,1,1,1,1,1,1,1,1,1,1,1,1,1,1,1,1,1,
1,1,1,1,1,1,1,1,1,1,1,1,1,1,1,126,0,3475,3477,1516,1,1,1,1,1513,1514,3479,3476,3480,1,1,1,5110,1,1,5477,1,1,5476,1,1,1,1,1,1,1513,1514,3475,3477,1516,1,1,1,1,1,1,1,1,1,5477,934,938,1,1,1,1,1,1,1,1,1,1,1,1,2301,2307,1,1,1,1,3475,3477,1,1,1,1,1,1,5110,1,1,0,0,0,133,133,133,133,133,133,133,133,133,133,133,133,133,133,133,133,133,133,133,133,133,133,133,133,133,133,1,1,1,1,1,1,1,1,1,1,1,1,1,1,1,1,1,1,1,1,1,1,1,28,1,1,1,1,1,1,1,1,1,1,1,1,1,1,1,1,1,1,1,1,1,1,1,1,1,1,1,1,1,1,1,1,1,1,1,1,1,1,1,1,1,1,1,1,1,1,1,1,1,1,1,1,1,1,1,1,1,1,1,1,1,1,1,28,1,1,1,1,1,1,1,1,1,1,1,1,1,1,1,1,1,1,1,1,1,1,1,1,1,1,1,1,1,1,1,1,1,1,1,1,1,1,1,1,1,1,1,1,1,3479,3480,1,1,1,1,1,1,1,1,1,1,1,1,1,1,1,1,1,1,1,1,1,1,1,1,1,1,1,1,1,1,1,1,1,1,1,1,1,0,0,1,1,1,1,1,1,1,1,1,133,133,133,133,133,133,133,133,133,133,133,133,133,1,1,1,1,1,1,1,1,1,1,1,1,1,1,1,1,1,1,161,162,1,1,1,1,1,1,1,1,1,1,1,1,1,1,1,1,1,1,1,1,1,1,1,1,1,1,1,1,1,1,1158,145,1,1,1,0,1,1,1,1160,1161,1,1,1,1,1,0,0,1,1,1,1,1,1,1,1160,1161,1,1,1,1,1,1,1,1153,1,1,1,1,1,1,1,5977,5857,1,1,1,1,1,1,1,1,1,1,1,1,1,1,1,1,1,1,1,1,1,1,1,1,1,1,1,1,1,1,1,1,1,1,1,1,1,1,1,1,1,1,1,1,1,1,1,1,1,1,1,1,1,1,1,1,1,1,1,1,1,1,1,0,0,0,133,133,133,133,133,133,133,133,133,133,1,1,1,1,1,1,1,0,0,0,0,0,0,1,1,1,1,1,1,1,1,1,1,1,1,1,1,1,1,1,1,1,1,1,1,1,3503,3477,1,1,1,1,1,1,1,1,1,1,1,1,1,1,1,1,1,1,1,1,1,1,1,1,1,1,1,1,1,1,1,1,1,1,1,1,1,1,1,1,1,1,1,1,1,1,1,1,1,1,1,1,1,1,1,1,1,1,1,1,1,1,1,1,1,1,1,1,1,1,1,1,1,1,1,1,1,1,1,1,1,1,1,1,1,1,1,1,1,1,1,1,1,1,1,1,1,1,1,1,1,1,1,1,1,1,1,1,1,1,1,1,1,1,1,1,1,1,1,1,1,1,1,1,1,1,1,1,1,1,1,1,1,1,1,1,1,1,1,1,1,1,1,1,1,1,1,1,1,1,1,1,1,1,1,1,1,1,1,1,1,1,1,1,1,1,1,1,1,1,1,1,1,1,1,1,1,1,1,1,1,1,1,1,1,1,1,1,1,1,1,1,1,1,1,1,1,1,1,1,1,1,1,1,1,1,1,1,1,1,1,1,1,1,1,1,1,1,1,1,1,1,1,1,1,1,1,1,1,1,1,1,1,1,1,1,1,1,1,1,1,1,1,1,1,1,1,1,1,1,1,1,1,1,1,1,1,1,1,1,1,1,1,1,1,1,1,1,1,1,1,1,1,1,1,1,1,1,1,1,1,1,1,1,1,1,1,1,1,1,1,1,1,1,1,1,1,1,1,1,1,1,1,1,1,1,1,1,1,1,1,1,1,1,1,1,1,1,1,1,1,1,1,1,1,1,1,1,1,1,1,1,1,1,1,1,1,1,1,1,1,1,1,1,1,1,1,1,1,1,1,
1,1,1,1,1,1,1,1,1,1,1,1,1,1,1,1,1,3479,3480,1,1,1,1,1,1,1513,934,1,938,1,1,1,1,1,1,5477,1,1,5476,1,1,1,1,1,1,1,1513,3479,3480,1,1,1,1,1,1,1,1,1,1,5477,1,5476,1,1,1,1,1,1,1,1,1,1,1,1,2302,2308,1,1,1,1,3479,3480,1,1,1,1,1,1,1,1,1,0,0,0,133,133,133,133,133,133,133,133,133,133,133,133,133,133,133,133,133,133,133,133,133,133,133,133,133,133,1,1,1,1,1,1,1,1,5109,1,1,1,1,1,1,1,1,1,1,1,1,1,1,1,1,1,1,1,1,1,1,1,1,1,1,27,1,1,1,1,1,1,1,1,1,1,1,761,1,1,1,1,1,1,1,1,5109,1,27,1,1,1,1,1,1,27,1,1,1,1,1,1,5109,1,1,1,1,1,1,1,1,1,1,1,1,1,1,0,1,1,1,1,1,1,1,1,1,1,1,1,1,1,1,1,1,1,1,1,1,1,1,1,1,1,1,1,1,1,1,1,1,1,1,1,1,1,1,1,1,1,1,1,1,1,1,1,1,1,1,1,1,1,1,1,1,1,1,1,1,1,1,1,1,1,1,1,1,1,1,1,1,1,1,1,1,1,1,1,1,1,1,1,1,1,1,1,1,1,1,1,1,1,1,133,133,133,133,133,133,133,133,133,133,133,133,133,1,1,1,1,1,1,1,1,1,1685,5733,0,0,0,0,0,0,0,1156,1157,0,161,162,0,0,0,1,1,1,1,1,1,1,1,1,1,161,162,1,1,1,1,1,1,1,1,1,1,1,1,1160,1161,1,1,1,0,1,1,1,1,1,1,1,1,1,1,0,0,1,1,1,1,1,1,1,0,0,1,1,1,1,1,1,1,1,1,1,1,1,1,3478,3474,3481,5981,1,1,1,1,1,1,1,1,1,1,1,1,1,1,1,1,1,1,1,1,1,1,1,1,1,1,1,1,1,1,1,1,1,1,1,1,1,1,1,1,1,1,1,1,1,1,1,1,1,1,1,1,1,1,1,1,1,1,1,1,1,1,1,0,0,0,133,133,133,133,133,133,133,133,133,133,1,1,1,0,0,0,0,0,1,1,1,1,1,1,1,1,1,1,1,1,1,1,1,1,1,1,1,1,1,1,1,1,1,1,1,1,1,3503,1,1,1,1,1,1,1,1,1,1,1,1,1,1,1,1,1,1,1,1,1,1,1,1,1,1,1,1,1,1,1,1,1,1,1,1,1,1,1,1,1,1,1,1,1,1,1,1,1,1,1,1,1,1,1,1,1,1,1,1,1,1,1,1,1,1,1,1,1,1,1,1,1,1,1,1,1,1,1,1,1,1,1,1,1,1,1,1,1,1,1,1,1,1,1,1,1,1,1,1,1,1,1,1,1,1,1,1,1,1,1,1,1,1,1,1,1,1,1,1,1,1,1,1,1,1,1,1,1,1,1,1,1,1,1,1,1,1,1,1,1,1,1,1,1,1,1,1,1,1,1,1,1,1,1,1,1,1,1,1,1,1,1,1,1,1,1,1,1,1,1,1,1,1,1,1,1,1,1,1,1,1,1,1,1,1,1,1,1,1,1,1,1,1,1,1,1,1,1,1,1,1,1,1,1,1,1,1,1,1,1,1,1,1,1,1,1,1,1,1,1,1,1,1,1,1,1,1,1,1,1,1,1,1,1,1,1,1,1,1,1,1,1,1,1,1,1,1,1,1,1,1,1,1,1,1,1,1,1,1,1,1,1,1,1,1,1,1,1,1,1,1,1,1,1,1,1,1,1,1,1,1,1,1,1,1,1,1,1,1,1,1,1,1,1,1,1,1,1,1,1,1,1,1,1,1,1,1,1,1,1,1,1,1,1,1,1,1,1,1,1,1,1,1,1,1,1,1,1,1,1,1,1,1,1,1,1,1,1,1,1,1,1,1,1,1,1,1,1,1,1,
1,1,1,1,1,1,1,1,1,1,1,1,1,1,1,1,5477,934,5473,5476,1,1,1,1,1,1,1,1,1,1,1,1,1,1,1,5477,1,1,5476,1,1,1,1,1,1,1,1,1,938,1,2301,2307,1,1,1,1,1,1,2301,5477,1,5476,1,1,1,2301,2307,1,1,1,1,1,1,2301,2307,1,1,1,1,1,934,5473,5476,1,1,1,1,1,1,1,1,0,0,0,133,133,133,133,133,133,133,133,133,133,133,133,133,133,133,133,133,133,133,133,133,133,133,133,133,133,1,1,1,1,1,1,1,1,5105,1,1,1,1,1,1,1,5109,1,1,1,1,1,1,1,1,1,1,27,27,1,1,1,1,1,1,3428,1,126,1,1,5105,1,1,1,1,1,1,3428,3390,3427,1,1,1,1,1,1,5105,3478,3481,1,126,1,1,1,1,3482,1,1,1,1,1,1,1,1,1,1,1,1,1,1,1,1,1,1,1,1,1,1,1,1,1,1,1,1,1,1,1,1,1,1,5733,1,1,1,1,1,1,1,1,1,1,1,1,1,1,1,1333,1334,1,1,1,1,1,1,1,1,1,1,1,1,1,1,1,1,1,1,1,1,1,1,1,1,1,1,1,1,1,1,1,1,1,1,1,1,1,1,1,1,1,1,1,1,1,1,1,1,1,1,1,1,1,1,1,1,1,1,1,1,1,1,1,1,1,133,133,133,133,133,133,133,133,133,133,133,133,133,1,1,1,1,1,1,1,1158,1154,1154,1159,5545,5545,5545,5545,5545,5545,5545,1156,1157,5545,1156,1157,5545,5545,5545,5545,5545,5545,5545,5545,5545,5545,5545,5545,5545,1156,1157,5545,161,164,162,5545,5545,5545,5545,5545,5545,5545,5545,5545,5545,5545,5545,5545,5545,5545,5545,5545,5545,5545,5545,5545,5545,5545,5545,5545,5545,5545,5545,5545,5545,5545,5545,5545,5545,5545,5545,5545,5545,5545,5545,5545,5545,5545,5545,5545,5545,5545,5545,3475,1,3477,49,3482,1,1,1,1,1,1,1,1,1,1,1,1,1,1,1,1,5857,1,1,1,1,1,1,1,1,1,1,1,1,1,1,1,1,1,1,1,1,1,1,1,1,1,1,1,1,1,5857,1,1,1,1,1,1,1,1,1,1,1,1,1,1,1,0,0,0,133,133,133,133,133,133,133,133,133,133,1,1,1,1,1,1,1,1,1,1,1,1,1,1,3477,1,1,1,1,1,1,1,1,1,1,1,1,1,1,1,1,1,1,1,1,1,1,1,1,1,1,1,1,1,1,1,1,1,1,1,1,1,1,1,1,1,1,1,1,1,1,1,1,1,1,1,1,1,1,1,1,1,1,1,1,1,1,1,1,1,1,1,1,1,1,1,1,1,1,1,1,1,1,1,1,1,1,1,1,1,1,1,1,1,1,1,1,1,1,1,1,1,1,1,1,1,1,1,1,1,1,1,1,1,1,1,1,1,1,1,1,1,1,1,1,1,1,1,1,1,1,1,1,1,1,1,1,1,1,1,1,1,1,1,1,1,1,1,1,1,1,1,1,1,1,1,1,1,1,1,1,1,1,1,1,1,1,1,1,1,1,1,1,1,1,1,1,1,1,1,1,1,1,1,1,1,1,1,1,1,1,1,1,1,1,1,1,1,1,1,1,1,1,1,1,1,1,1,1,1,1,1,1,1,1,1,1,1,1,1,1,1,1,1,1,1,1,1,1,1,1,1,1,1,1,1,1,1,1,1,1,1,1,1,1,1,1,1,1,1,1,1,1,1,1,1,1,1,1,1,1,1,1,1,1,1,1,1,1,1,1,1,1,1,1,1,1,1,1,1,1,1,1,1,1,1,1,1,1,1,1,1,1,1,1,1,1,1,1,1,1,1,1,1,1,1,1,1,1,1,1,1,1,1,1,1,1,1,1,1,1,1,1,1,1,1,1,1,1,1,1,1,1,1,1,1,1,1,1,1,1,1,1,1,1,1,1,1,1,1,1,1,1,1,1,1,1,1,1,1,1,1,1,1,1,1,1,1,1,1,1,1,1,1,1,1,1,1,1,
1,1,1,1,1,1,5109,1,1,1,1,1,1,1,5109,1,5477,5473,5473,5476,1,1,5109,1,1,1,1,1,1,1,1,1,1,1,1,5477,1,1,5476,1,1,1,1,1,1,1,1,1,1,1,2302,2308,1,1,1,1,1,1,2302,5477,1,5476,3482,1,1,2302,2308,1,1,1,1,1,1,2302,2308,1,1,1,1,1,5477,5473,5476,1,1,1,1,1,1,1,1,0,0,0,133,133,133,133,133,133,133,133,133,133,133,133,133,133,133,133,133,133,133,133,133,133,133,133,133,133,1,1,1,1,1,1,1,1,5105,1,1,1,1,27,1,1,5105,1,1,1,1,1,1,1,1,3428,3390,3390,3427,1,1,1,1,1,1,3428,1,1,1,1,5105,1,1,1,1,1,1,3428,3482,3427,1,1,1,1,1,1,5105,3475,3477,49,5109,217,49,49,49,3486,1,126,1,1,1,1,1,1,1,1,5109,3478,3474,3481,1,1,1,1,1,1,1,27,1,1,1,1,1,1,1,1,3478,3474,3474,3474,3481,1,1,1,1,1,1,1,1,1,1,1,1,1,1,1,3478,3481,1,1,1,1,3478,3481,1,1,1,1,1,1,1,1,1,1,1,1,1,1,1,1,1,1,1,1,1,1,1,1,1,1,1,1,1,1,3478,3481,1,1,1,1,1,1,1,1,3483,113,1,1,1,1,3482,1,1,1,1,1,1,1,1,1,1,1,1,133,133,133,133,133,133,133,133,133,133,133,133,133,0,0,1425,1426,1427,1428,1425,1426,1427,1428,1425,1426,1427,1428,1425,1426,1427,1428,1425,1426,1427,1428,1425,1426,1427,1428,1425,1426,1427,1428,1425,1426,1427,1428,1425,1426,1427,1428,1425,1426,1427,1428,1425,1426,1427,1428,1425,1426,1427,1428,1425,1426,1427,1428,1425,1426,1427,1428,1425,1426,1427,1428,1425,1426,1427,1428,1425,1426,1427,1428,1425,1426,1427,1428,1425,1426,1427,1428,1425,1426,1427,1428,1425,1426,1427,1428,1425,1426,1427,1428,3488,1,3477,126,3486,49,3478,3481,49,49,49,49,49,49,49,49,49,49,3478,3474,3481,5981,1,1,1,1,1,1,1,1,1,1,1,1,1,3482,1,1,1,1,1,1,1,1,1,1,1,1,1,3478,3481,5981,5825,1,1,1,1,1,1,1,1,1,1,1,1,1,1,0,0,0,133,133,133,133,133,133,133,133,133,133,1,1,1,1,1,1,1,1,1,1,1,1,1,3501,3477,1,1,352,1,1,1,1,1,1,1,1,1,1,3502,1,1,1,1,1,1,1,1,1,1,1,1,1,1,1,1,1,1,1,1,1,1,1,1,1,1,1,1,1,1,1,1,1,1,1,1,1,1,1,1,1,1,1,1,1,1,1,1,1,1,1,1,1,1,1,1,1,1,1,1,1,1,1,1,1,1,1,1,1,1,1,1,1,1,1,1,1,1,1,1,1,1,1,1,1,1,1,1,1,1,1,1,1,1,1,1,1,1,1,1,1,1,1,1,1,1,1,1,1,1,1,1,1,1,1,1,1,1,1,1,1,1,1,1,1,1,1,1,1,1,1,1,1,1,1,1,1,1,1,1,1,1,1,1,1,1,1,1,1,1,1,1,1,1,1,1,1,1,1,1,1,1,1,1,1,1,1,1,1,1,1,1,1,1,1,1,1,1,1,1,1,1,1,1,1,1,1,1,1,1,1,1,1,1,1,1,1,1,1,1,1,1,1,1,1,1,1,1,1,1,1,1,1,1,1,1,1,1,1,1,1,1,1,1,1,1,1,1,1,1,1,1,1,1,1,1,1,1,1,1,1,1,1,1,1,1,1,1,1,1,1,1,1,1,1,1,1,1,1,1,1,1,1,1,1,1,1,1,1,1,1,1,1,1,1,1,1,1,1,1,1,1,1,1,1,1,1,1,1,1,1,1,1,1,1,1,1,1,1,1,1,1,1,1,1,1,1,1,1,1,1,1,1,1,1,1,1,1,1,1,1,1,1,1,1,1,1,1,1,1,1,1,1,1,1,1,1,1,1,1,1,1,1,1,1,1,1,1,1,1,1,1,1,1,1,1,1,1,1,1,
1,1,1,1,1,1,1,1,1,1,1,1,1,1,1,1,5477,5473,5473,5476,1,3482,1,1,1,1,1,1,1,1,1,3478,3474,3481,2301,5477,1,1,5476,1,1,1,2301,2307,1,1,1,1,1,2301,2307,1,1,1,5281,3506,1,2301,2307,5477,1,5476,3486,31,3482,1,1,1,1,1,1,1,1,1,1,1,1,3478,3481,1,5477,5473,5476,1,1,1,1,1,1,1,1,0,0,0,133,133,133,133,133,133,133,133,133,133,133,133,133,133,133,133,133,133,133,133,133,133,133,133,133,133,1,1,1,1,1,1,1,1,5105,1,1,1,3428,3427,49,216,5105,49,49,216,49,49,49,217,49,3428,3478,3481,3427,1,1,1,1,1,1,3428,49,216,49,49,5105,217,49,49,49,218,49,3428,3486,3427,49,216,49,49,49,216,5105,3475,3477,126,126,126,126,126,126,3486,49,49,218,49,49,49,49,49,49,215,5105,3475,3482,3477,1,1,1,1,1,1,1,3482,1,1,1,1,1,1,126,1,3475,1,127,1,3477,1,1,1,1,1,1,1,1,1,1,1,1,1,1,1,3475,3477,1,1,1,1,3475,3477,1,1,3482,1,1,1,1,1,1,1,1,1,1,1,1,1,1,1,1,1,1,1,3478,3474,127,3474,127,1,1,1,3475,127,1,3478,3474,127,1,1,1,1,1,1,1,1,1,1,127,1,3482,1,1,1,1,1,1,1,1,1,1,133,133,133,133,133,133,133,133,133,133,133,133,133,0,0,1441,1442,1443,1444,1441,1442,1443,1444,1441,1442,1443,1444,1441,1442,1443,1444,1441,1442,1443,1444,1441,1442,1443,1444,1441,1442,1443,1444,1441,1442,1443,1444,1441,1442,1443,1444,1441,1442,1443,1444,1441,1442,1443,1444,1441,1442,1443,1444,1441,1442,1443,1444,1441,1442,1443,1444,1441,1442,1443,1444,1441,1442,1443,1444,1441,1442,1443,1444,1441,1442,1443,1444,1441,1442,1443,1444,1441,1442,1443,1444,1441,1442,1443,1444,1441,1442,1443,1444,0,1,3477,126,3486,126,3475,3477,126,126,126,126,126,126,126,126,126,126,3475,1,3477,5981,1,3505,3506,1,1,1,1,1,1,1,1,1,1,3486,49,3478,3481,1,1,1,1,1,1,1,1,1,1,3475,3477,49,3478,3474,3481,49,49,49,49,49,49,49,49,49,49,3478,3481,0,0,0,133,133,133,133,133,133,133,133,133,133,1,1,1,1,1,1,1,1,1,1,1,1,1,3475,3477,1,1,3482,49,49,215,49,49,49,49,49,218,49,3475,3502,1,1,352,1,1,1,1,1,1,1,1,1,1,1,3501,49,215,49,1,1,1,1,1,1,1,1,1,1,1,1,1,1,1,1,1,1,1,1,1,1,1,1,1,1,1,1,1,1,1,1,1,1,1,1,1,1,1,1,1,1,1,1,1,1,1,1,1,1,1,1,1,1,1,1,1,1,1,1,1,1,1,1,1,1,1,1,1,1,1,1,1,1,1,1,1,1,1,1,1,1,1,1,1,1,1,1,1,1,1,1,1,1,1,1,1,1,1,1,1,1,1,1,1,1,1,1,1,1,1,1,1,1,1,1,1,1,1,1,1,1,1,1,1,1,1,1,1,1,1,1,1,1,1,1,1,1,1,1,1,1,1,1,1,1,1,1,1,1,1,1,1,1,1,1,1,1,1,1,1,1,1,1,1,1,1,1,1,1,1,1,1,1,1,1,1,1,1,1,1,1,1,1,1,1,1,1,1,1,1,1,1,1,1,1,1,1,1,1,1,1,1,1,1,1,1,1,1,1,1,1,1,1,1,1,1,1,1,1,1,1,1,1,1,1,1,1,1,1,1,1,1,1,1,1,1,1,1,1,1,1,1,1,1,1,1,1,1,1,1,1,1,1,1,1,1,1,1,1,1,1,1,1,1,1,1,1,1,1,1,1,1,1,1,1,1,1,1,1,1,1,1,1,1,1,1,1,1,1,1,1,1,1,1,1,1,1,1,1,1,1,1,1,1,1,1,1,1,1,1,1,1,1,1,1,1,1,1,1,1,1,1,1,1,1,1,1,1,1,1,1,1,1,1,1,1,1,1,1,1,
3425,3425,3425,3425,3425,3425,3425,3425,3425,3425,3425,3425,31,31,3478,3481,31,3425,3425,3425,31,3486,31,3482,3425,3425,3425,3425,3425,31,3425,3475,0,3477,2302,2308,31,31,31,31,31,31,3482,3425,3425,3425,3425,3425,3425,3425,2308,937,3478,3474,1,3477,31,3425,3478,3481,31,31,3486,126,3486,3425,3482,1,1,1,3425,31,3478,3474,3481,31,31,3475,3477,31,3478,3474,3474,3474,3507,3508,1,1,1,1,1,0,0,0,133,133,133,133,133,133,133,133,133,133,133,133,133,133,133,133,133,133,133,133,133,133,133,133,133,133,1,1,1,1,1,1,1,1,5105,1,1,1,3428,3427,126,126,126,126,126,126,126,126,126,126,126,3428,3475,3477,3427,49,215,49,49,49,217,3428,126,126,126,126,126,126,126,126,126,126,126,3428,3486,3427,126,126,126,126,126,126,126,3475,3477,126,126,126,126,126,126,3486,126,126,126,126,126,126,126,126,126,126,126,3475,3486,3477,49,49,216,49,49,49,49,3486,49,49,49,218,5105,49,49,49,118,119,131,127,127,31,31,31,31,31,31,31,31,31,31,31,31,31,31,31,3475,127,31,31,31,31,127,127,31,31,127,31,31,31,31,31,31,31,31,31,31,31,31,31,31,31,31,31,31,31,118,119,131,127,131,31,31,31,127,131,31,118,119,131,31,31,31,31,31,31,31,31,31,31,131,31,127,31,3478,3474,3474,3481,0,0,0,0,1,133,133,133,133,133,133,133,133,133,133,133,133,133,0,0,1457,1458,1459,1460,1457,1458,1459,1460,1457,1458,1459,1460,1457,1458,1459,1460,1457,1458,1459,1460,1457,1458,1459,1460,1457,1458,1459,1460,1457,1458,1459,1460,1457,1458,1459,1460,1457,1458,1459,1460,1457,1458,1459,1460,1457,1458,1459,1460,1457,1458,1459,1460,1457,1458,1459,1460,1457,1458,1459,1460,1457,1458,1459,1460,1457,1458,1459,1460,1457,1458,1459,1460,1457,1458,1459,1460,1457,1458,1459,1460,1457,1458,1459,1460,1457,1458,1459,1460,0,1,3477,126,3486,126,3475,3477,126,126,126,126,126,126,126,126,126,126,3475,1,3477,49,49,3475,3477,49,49,49,49,49,49,49,49,49,49,3486,126,3475,3477,49,49,49,3478,3474,3474,3481,49,49,49,3475,3477,126,3475,1,3477,126,126,126,126,126,126,126,126,126,126,3475,3477,0,0,0,133,133,133,133,133,133,133,133,133,133,1,1,1,1,1,1,1,1,1,1,1,1,1,3475,3477,218,49,3486,126,126,126,126,126,126,126,126,126,126,3475,3477,49,49,3482,49,216,49,49,49,49,49,49,216,49,3501,3477,1,1,1,1,1,1,1,1,1,1,1,1,1,1,1,1,1,1,1,1,1,1,1,1,1,1,1,1,1,1,1,1,1,1,1,1,1,1,1,1,1,1,1,1,1,1,1,1,1,1,1,1,1,1,1,1,1,1,1,1,1,1,1,1,1,1,1,1,1,1,1,1,1,1,1,1,1,1,1,1,1,1,1,1,1,1,1,1,1,1,1,1,1,1,1,1,1,1,1,1,1,1,1,1,1,1,1,1,1,1,1,1,1,1,1,1,1,1,1,1,1,1,1,1,1,1,1,1,1,1,1,1,1,1,1,1,1,1,1,1,1,1,1,1,1,1,1,1,1,1,1,1,1,1,1,1,1,1,1,1,1,1,1,1,1,1,1,1,1,1,1,1,1,1,1,1,1,1,1,1,1,1,1,1,1,1,1,1,1,1,1,1,1,1,1,1,1,1,1,1,1,1,1,1,1,1,1,1,1,1,1,1,1,1,1,1,1,1,1,1,1,1,1,1,1,1,1,1,1,1,1,1,1,1,1,1,1,1,1,1,1,1,1,1,1,1,1,1,1,1,1,1,1,1,1,1,1,1,1,1,1,1,1,1,1,1,1,1,1,1,1,1,1,1,1,1,1,1,1,1,1,1,1,1,1,1,1,1,1,1,1,1,1,1,1,1,1,1,1,1,1,1,1,1,1,1,1,1,1,1,1,1,1,1,1,1,1,1,1,1,1,1,1,1,1,1,1,1,1,1,1,1,1,1,1,1,1,1,1,1,1,1,1,1
</data>
 </layer>
 <objectgroup id="7" name="SP">
  <object id="422" gid="3392" x="224" y="432" width="16" height="16">
   <properties>
    <property name="bg layer" value="1"/>
    <property name="z index" type="int" value="0"/>
   </properties>
  </object>
  <object id="423" gid="3391" x="240" y="432" width="16" height="16">
   <properties>
    <property name="bg layer" value="1"/>
    <property name="z index" type="int" value="0"/>
   </properties>
  </object>
  <object id="434" gid="31" x="560" y="432" width="16" height="16">
   <properties>
    <property name="bg layer" value="0"/>
   </properties>
  </object>
  <object id="435" gid="31" x="544" y="432" width="16" height="16">
   <properties>
    <property name="bg layer" value="0"/>
   </properties>
  </object>
  <object id="436" gid="16394" x="592" y="400" width="16" height="16">
   <properties>
    <property name="bg layer" value="0"/>
   </properties>
  </object>
  <object id="437" gid="16486" x="592" y="400" width="16" height="16">
   <properties>
    <property name="bg layer" value="0"/>
    <property name="color channel" value="2"/>
    <property name="z index" type="int" value="15"/>
   </properties>
  </object>
  <object id="438" gid="16486" x="592" y="400" width="16" height="16">
   <properties>
    <property name="bg layer" value="0"/>
    <property name="color channel" value="3"/>
    <property name="hflip" type="bool" value="true"/>
    <property name="z index" type="int" value="15"/>
   </properties>
  </object>
  <object id="440" gid="16388" x="0" y="112" width="16" height="16">
   <properties>
    <property name="Channel" value="LINE"/>
    <property name="Color" type="color" value="#ffc4e4ff"/>
    <property name="Color Blending" type="bool" value="true"/>
   </properties>
  </object>
  <object id="441" gid="16388" x="0" y="176" width="16" height="16">
   <properties>
    <property name="Channel" value="1"/>
    <property name="Color" type="color" value="#ff212c2e"/>
    <property name="Color Blending" type="bool" value="true"/>
   </properties>
  </object>
  <object id="442" gid="16388" x="0" y="208" width="16" height="16">
   <properties>
    <property name="Channel" value="3"/>
    <property name="Color" type="color" value="#ff9cb1c6"/>
    <property name="Color Blending" type="bool" value="true"/>
   </properties>
  </object>
  <object id="444" gid="3391" x="336" y="432" width="16" height="16">
   <properties>
    <property name="bg layer" value="1"/>
   </properties>
  </object>
  <object id="445" gid="3391" x="368" y="432" width="16" height="16">
   <properties>
    <property name="bg layer" value="1"/>
   </properties>
  </object>
  <object id="494" gid="3391" x="336" y="416" width="16" height="16">
   <properties>
    <property name="bg layer" value="1"/>
   </properties>
  </object>
  <object id="446" gid="3391" x="672" y="432" width="16" height="16">
   <properties>
    <property name="bg layer" value="1"/>
   </properties>
  </object>
  <object id="549" gid="3391" x="992" y="400" width="16" height="16">
   <properties>
    <property name="bg layer" value="1"/>
   </properties>
  </object>
  <object id="552" gid="3391" x="992" y="416" width="16" height="16">
   <properties>
    <property name="bg layer" value="1"/>
   </properties>
  </object>
  <object id="554" gid="3391" x="992" y="432" width="16" height="16">
   <properties>
    <property name="bg layer" value="1"/>
   </properties>
  </object>
  <object id="556" gid="3391" x="1024" y="416" width="16" height="16">
   <properties>
    <property name="bg layer" value="1"/>
   </properties>
  </object>
  <object id="558" gid="3391" x="1024" y="432" width="16" height="16">
   <properties>
    <property name="bg layer" value="1"/>
   </properties>
  </object>
  <object id="560" gid="3391" x="1056" y="432" width="16" height="16">
   <properties>
    <property name="bg layer" value="1"/>
   </properties>
  </object>
  <object id="447" gid="3391" x="528" y="432" width="16" height="16">
   <properties>
    <property name="bg layer" value="1"/>
   </properties>
  </object>
  <object id="496" gid="3391" x="528" y="416" width="16" height="16">
   <properties>
    <property name="bg layer" value="1"/>
   </properties>
  </object>
  <object id="448" gid="3392" x="496" y="432" width="16" height="16">
   <properties>
    <property name="bg layer" value="1"/>
   </properties>
  </object>
  <object id="495" gid="3392" x="496" y="416" width="16" height="16">
   <properties>
    <property name="bg layer" value="1"/>
   </properties>
  </object>
  <object id="449" gid="3392" x="272" y="288" width="16" height="16">
   <properties>
    <property name="bg layer" value="1"/>
   </properties>
  </object>
  <object id="512" gid="3392" x="576" y="240" width="16" height="16">
   <properties>
    <property name="bg layer" value="1"/>
   </properties>
  </object>
  <object id="590" gid="3392" x="752" y="288" width="16" height="16">
   <properties>
    <property name="bg layer" value="1"/>
   </properties>
  </object>
  <object id="879" gid="3392" x="960" y="272" width="16" height="16">
   <properties>
    <property name="bg layer" value="1"/>
   </properties>
  </object>
  <object id="895" gid="3392" x="1136" y="240" width="16" height="16">
   <properties>
    <property name="bg layer" value="1"/>
   </properties>
  </object>
  <object id="915" gid="3392" x="1280" y="304" width="16" height="16">
   <properties>
    <property name="bg layer" value="1"/>
   </properties>
  </object>
  <object id="592" gid="3392" x="752" y="272" width="16" height="16">
   <properties>
    <property name="bg layer" value="1"/>
   </properties>
  </object>
  <object id="880" gid="3392" x="960" y="256" width="16" height="16">
   <properties>
    <property name="bg layer" value="1"/>
   </properties>
  </object>
  <object id="896" gid="3392" x="1136" y="224" width="16" height="16">
   <properties>
    <property name="bg layer" value="1"/>
   </properties>
  </object>
  <object id="917" gid="3392" x="1280" y="288" width="16" height="16">
   <properties>
    <property name="bg layer" value="1"/>
   </properties>
  </object>
  <object id="450" gid="3392" x="272" y="304" width="16" height="16">
   <properties>
    <property name="bg layer" value="1"/>
   </properties>
  </object>
  <object id="510" gid="3392" x="576" y="256" width="16" height="16">
   <properties>
    <property name="bg layer" value="1"/>
   </properties>
  </object>
  <object id="588" gid="3392" x="752" y="304" width="16" height="16">
   <properties>
    <property name="bg layer" value="1"/>
   </properties>
  </object>
  <object id="878" gid="3392" x="960" y="288" width="16" height="16">
   <properties>
    <property name="bg layer" value="1"/>
   </properties>
  </object>
  <object id="894" gid="3392" x="1136" y="256" width="16" height="16">
   <properties>
    <property name="bg layer" value="1"/>
   </properties>
  </object>
  <object id="913" gid="3392" x="1280" y="320" width="16" height="16">
   <properties>
    <property name="bg layer" value="1"/>
   </properties>
  </object>
  <object id="451" gid="3392" x="272" y="320" width="16" height="16">
   <properties>
    <property name="bg layer" value="1"/>
   </properties>
  </object>
  <object id="508" gid="3392" x="576" y="272" width="16" height="16">
   <properties>
    <property name="bg layer" value="1"/>
   </properties>
  </object>
  <object id="586" gid="3392" x="752" y="320" width="16" height="16">
   <properties>
    <property name="bg layer" value="1"/>
   </properties>
  </object>
  <object id="877" gid="3392" x="960" y="304" width="16" height="16">
   <properties>
    <property name="bg layer" value="1"/>
   </properties>
  </object>
  <object id="893" gid="3392" x="1136" y="272" width="16" height="16">
   <properties>
    <property name="bg layer" value="1"/>
   </properties>
  </object>
  <object id="911" gid="3392" x="1280" y="336" width="16" height="16">
   <properties>
    <property name="bg layer" value="1"/>
   </properties>
  </object>
  <object id="452" gid="3392" x="272" y="336" width="16" height="16">
   <properties>
    <property name="bg layer" value="1"/>
   </properties>
  </object>
  <object id="506" gid="3392" x="576" y="288" width="16" height="16">
   <properties>
    <property name="bg layer" value="1"/>
   </properties>
  </object>
  <object id="584" gid="3392" x="752" y="336" width="16" height="16">
   <properties>
    <property name="bg layer" value="1"/>
   </properties>
  </object>
  <object id="876" gid="3392" x="960" y="320" width="16" height="16">
   <properties>
    <property name="bg layer" value="1"/>
   </properties>
  </object>
  <object id="892" gid="3392" x="1136" y="288" width="16" height="16">
   <properties>
    <property name="bg layer" value="1"/>
   </properties>
  </object>
  <object id="909" gid="3392" x="1280" y="352" width="16" height="16">
   <properties>
    <property name="bg layer" value="1"/>
   </properties>
  </object>
  <object id="539" gid="3392" x="832" y="432" width="16" height="16">
   <properties>
    <property name="bg layer" value="1"/>
   </properties>
  </object>
  <object id="546" gid="3392" x="928" y="432" width="16" height="16">
   <properties>
    <property name="bg layer" value="1"/>
   </properties>
  </object>
  <object id="571" gid="3392" x="1152" y="432" width="16" height="16">
   <properties>
    <property name="bg layer" value="1"/>
   </properties>
  </object>
  <object id="572" gid="3392" x="1232" y="416" width="16" height="16">
   <properties>
    <property name="bg layer" value="1"/>
   </properties>
  </object>
  <object id="573" gid="3392" x="1232" y="432" width="16" height="16">
   <properties>
    <property name="bg layer" value="1"/>
   </properties>
  </object>
  <object id="574" gid="3392" x="1280" y="432" width="16" height="16">
   <properties>
    <property name="bg layer" value="1"/>
   </properties>
  </object>
  <object id="453" gid="3392" x="272" y="352" width="16" height="16">
   <properties>
    <property name="bg layer" value="1"/>
   </properties>
  </object>
  <object id="504" gid="3392" x="576" y="304" width="16" height="16">
   <properties>
    <property name="bg layer" value="1"/>
   </properties>
  </object>
  <object id="582" gid="3392" x="752" y="352" width="16" height="16">
   <properties>
    <property name="bg layer" value="1"/>
   </properties>
  </object>
  <object id="875" gid="3392" x="960" y="336" width="16" height="16">
   <properties>
    <property name="bg layer" value="1"/>
   </properties>
  </object>
  <object id="891" gid="3392" x="1136" y="304" width="16" height="16">
   <properties>
    <property name="bg layer" value="1"/>
   </properties>
  </object>
  <object id="906" gid="3392" x="1280" y="368" width="16" height="16">
   <properties>
    <property name="bg layer" value="1"/>
   </properties>
  </object>
  <object id="454" gid="3392" x="272" y="368" width="16" height="16">
   <properties>
    <property name="bg layer" value="1"/>
   </properties>
  </object>
  <object id="502" gid="3392" x="576" y="320" width="16" height="16">
   <properties>
    <property name="bg layer" value="1"/>
   </properties>
  </object>
  <object id="578" gid="3392" x="752" y="368" width="16" height="16">
   <properties>
    <property name="bg layer" value="1"/>
   </properties>
  </object>
  <object id="455" gid="3392" x="416" y="272" width="16" height="16">
   <properties>
    <property name="bg layer" value="1"/>
   </properties>
  </object>
  <object id="456" gid="3392" x="416" y="288" width="16" height="16">
   <properties>
    <property name="bg layer" value="1"/>
   </properties>
  </object>
  <object id="457" gid="3392" x="416" y="304" width="16" height="16">
   <properties>
    <property name="bg layer" value="1"/>
   </properties>
  </object>
  <object id="458" gid="3392" x="416" y="320" width="16" height="16">
   <properties>
    <property name="bg layer" value="1"/>
   </properties>
  </object>
  <object id="459" gid="3392" x="416" y="336" width="16" height="16">
   <properties>
    <property name="bg layer" value="1"/>
   </properties>
  </object>
  <object id="460" gid="3392" x="416" y="352" width="16" height="16">
   <properties>
    <property name="bg layer" value="1"/>
   </properties>
  </object>
  <object id="461" gid="3391" x="288" y="288" width="16" height="16">
   <properties>
    <property name="bg layer" value="1"/>
   </properties>
  </object>
  <object id="511" gid="3391" x="592" y="240" width="16" height="16">
   <properties>
    <property name="bg layer" value="1"/>
   </properties>
  </object>
  <object id="591" gid="3391" x="768" y="288" width="16" height="16">
   <properties>
    <property name="bg layer" value="1"/>
   </properties>
  </object>
  <object id="885" gid="3391" x="992" y="272" width="16" height="16">
   <properties>
    <property name="bg layer" value="1"/>
   </properties>
  </object>
  <object id="902" gid="3391" x="1152" y="240" width="16" height="16">
   <properties>
    <property name="bg layer" value="1"/>
   </properties>
  </object>
  <object id="914" gid="3391" x="1296" y="304" width="16" height="16">
   <properties>
    <property name="bg layer" value="1"/>
   </properties>
  </object>
  <object id="593" gid="3391" x="768" y="272" width="16" height="16">
   <properties>
    <property name="bg layer" value="1"/>
   </properties>
  </object>
  <object id="886" gid="3391" x="992" y="256" width="16" height="16">
   <properties>
    <property name="bg layer" value="1"/>
   </properties>
  </object>
  <object id="903" gid="3391" x="1152" y="224" width="16" height="16">
   <properties>
    <property name="bg layer" value="1"/>
   </properties>
  </object>
  <object id="916" gid="3391" x="1296" y="288" width="16" height="16">
   <properties>
    <property name="bg layer" value="1"/>
   </properties>
  </object>
  <object id="462" gid="3391" x="288" y="304" width="16" height="16">
   <properties>
    <property name="bg layer" value="1"/>
   </properties>
  </object>
  <object id="509" gid="3391" x="592" y="256" width="16" height="16">
   <properties>
    <property name="bg layer" value="1"/>
   </properties>
  </object>
  <object id="589" gid="3391" x="768" y="304" width="16" height="16">
   <properties>
    <property name="bg layer" value="1"/>
   </properties>
  </object>
  <object id="884" gid="3391" x="992" y="288" width="16" height="16">
   <properties>
    <property name="bg layer" value="1"/>
   </properties>
  </object>
  <object id="901" gid="3391" x="1152" y="256" width="16" height="16">
   <properties>
    <property name="bg layer" value="1"/>
   </properties>
  </object>
  <object id="912" gid="3391" x="1296" y="320" width="16" height="16">
   <properties>
    <property name="bg layer" value="1"/>
   </properties>
  </object>
  <object id="463" gid="3391" x="288" y="320" width="16" height="16">
   <properties>
    <property name="bg layer" value="1"/>
   </properties>
  </object>
  <object id="507" gid="3391" x="592" y="272" width="16" height="16">
   <properties>
    <property name="bg layer" value="1"/>
   </properties>
  </object>
  <object id="587" gid="3391" x="768" y="320" width="16" height="16">
   <properties>
    <property name="bg layer" value="1"/>
   </properties>
  </object>
  <object id="883" gid="3391" x="992" y="304" width="16" height="16">
   <properties>
    <property name="bg layer" value="1"/>
   </properties>
  </object>
  <object id="900" gid="3391" x="1152" y="272" width="16" height="16">
   <properties>
    <property name="bg layer" value="1"/>
   </properties>
  </object>
  <object id="910" gid="3391" x="1296" y="336" width="16" height="16">
   <properties>
    <property name="bg layer" value="1"/>
   </properties>
  </object>
  <object id="464" gid="3391" x="288" y="336" width="16" height="16">
   <properties>
    <property name="bg layer" value="1"/>
   </properties>
  </object>
  <object id="505" gid="3391" x="592" y="288" width="16" height="16">
   <properties>
    <property name="bg layer" value="1"/>
   </properties>
  </object>
  <object id="585" gid="3391" x="768" y="336" width="16" height="16">
   <properties>
    <property name="bg layer" value="1"/>
   </properties>
  </object>
  <object id="882" gid="3391" x="992" y="320" width="16" height="16">
   <properties>
    <property name="bg layer" value="1"/>
   </properties>
  </object>
  <object id="899" gid="3391" x="1152" y="288" width="16" height="16">
   <properties>
    <property name="bg layer" value="1"/>
   </properties>
  </object>
  <object id="908" gid="3391" x="1296" y="352" width="16" height="16">
   <properties>
    <property name="bg layer" value="1"/>
   </properties>
  </object>
  <object id="540" gid="3391" x="880" y="432" width="16" height="16">
   <properties>
    <property name="bg layer" value="1"/>
   </properties>
  </object>
  <object id="547" gid="3391" x="944" y="432" width="16" height="16">
   <properties>
    <property name="bg layer" value="1"/>
   </properties>
  </object>
  <object id="575" gid="3391" x="1184" y="432" width="16" height="16">
   <properties>
    <property name="bg layer" value="1"/>
   </properties>
  </object>
  <object id="576" gid="3391" x="1248" y="416" width="16" height="16">
   <properties>
    <property name="bg layer" value="1"/>
   </properties>
  </object>
  <object id="577" gid="3391" x="1248" y="432" width="16" height="16">
   <properties>
    <property name="bg layer" value="1"/>
   </properties>
  </object>
  <object id="541" gid="3391" x="880" y="420" width="16" height="16">
   <properties>
    <property name="bg layer" value="1"/>
   </properties>
  </object>
  <object id="465" gid="3391" x="288" y="352" width="16" height="16">
   <properties>
    <property name="bg layer" value="1"/>
   </properties>
  </object>
  <object id="503" gid="3391" x="592" y="304" width="16" height="16">
   <properties>
    <property name="bg layer" value="1"/>
   </properties>
  </object>
  <object id="583" gid="3391" x="768" y="352" width="16" height="16">
   <properties>
    <property name="bg layer" value="1"/>
   </properties>
  </object>
  <object id="881" gid="3391" x="992" y="336" width="16" height="16">
   <properties>
    <property name="bg layer" value="1"/>
   </properties>
  </object>
  <object id="898" gid="3391" x="1152" y="304" width="16" height="16">
   <properties>
    <property name="bg layer" value="1"/>
   </properties>
  </object>
  <object id="904" gid="3391" x="1296" y="368" width="16" height="16">
   <properties>
    <property name="bg layer" value="1"/>
   </properties>
  </object>
  <object id="466" gid="3391" x="288" y="368" width="16" height="16">
   <properties>
    <property name="bg layer" value="1"/>
   </properties>
  </object>
  <object id="501" gid="3391" x="592" y="320" width="16" height="16">
   <properties>
    <property name="bg layer" value="1"/>
   </properties>
  </object>
  <object id="579" gid="3391" x="768" y="368" width="16" height="16">
   <properties>
    <property name="bg layer" value="1"/>
   </properties>
  </object>
  <object id="467" gid="3391" x="448" y="272" width="16" height="16">
   <properties>
    <property name="bg layer" value="1"/>
   </properties>
  </object>
  <object id="468" gid="3391" x="448" y="288" width="16" height="16">
   <properties>
    <property name="bg layer" value="1"/>
   </properties>
  </object>
  <object id="469" gid="3391" x="448" y="320" width="16" height="16">
   <properties>
    <property name="bg layer" value="1"/>
   </properties>
  </object>
  <object id="470" gid="3391" x="448" y="304" width="16" height="16">
   <properties>
    <property name="bg layer" value="1"/>
   </properties>
  </object>
  <object id="471" gid="3391" x="448" y="336" width="16" height="16">
   <properties>
    <property name="bg layer" value="1"/>
   </properties>
  </object>
  <object id="472" gid="3391" x="448" y="352" width="16" height="16">
   <properties>
    <property name="bg layer" value="1"/>
   </properties>
  </object>
  <object id="473" gid="3428" x="336" y="432" width="16" height="16">
   <properties>
    <property name="bg layer" value="1"/>
   </properties>
  </object>
  <object id="474" gid="3428" x="368" y="432" width="16" height="16">
   <properties>
    <property name="bg layer" value="1"/>
   </properties>
  </object>
  <object id="493" gid="3428" x="336" y="416" width="16" height="16">
   <properties>
    <property name="bg layer" value="1"/>
   </properties>
  </object>
  <object id="475" gid="3428" x="672" y="432" width="16" height="16">
   <properties>
    <property name="bg layer" value="1"/>
   </properties>
  </object>
  <object id="548" gid="3428" x="992" y="400" width="16" height="16">
   <properties>
    <property name="bg layer" value="1"/>
   </properties>
  </object>
  <object id="553" gid="3428" x="992" y="416" width="16" height="16">
   <properties>
    <property name="bg layer" value="1"/>
   </properties>
  </object>
  <object id="555" gid="3428" x="992" y="432" width="16" height="16">
   <properties>
    <property name="bg layer" value="1"/>
   </properties>
  </object>
  <object id="557" gid="3428" x="1024" y="416" width="16" height="16">
   <properties>
    <property name="bg layer" value="1"/>
   </properties>
  </object>
  <object id="559" gid="3428" x="1024" y="432" width="16" height="16">
   <properties>
    <property name="bg layer" value="1"/>
   </properties>
  </object>
  <object id="561" gid="3428" x="1056" y="432" width="16" height="16">
   <properties>
    <property name="bg layer" value="1"/>
   </properties>
  </object>
  <object id="476" gid="3426" x="224" y="432" width="16" height="16">
   <properties>
    <property name="bg layer" value="1"/>
    <property name="z index" type="int" value="15"/>
   </properties>
  </object>
  <object id="477" gid="3426" x="240" y="432" width="16" height="16">
   <properties>
    <property name="bg layer" value="1"/>
    <property name="z index" type="int" value="15"/>
   </properties>
  </object>
  <object id="478" gid="3426" x="496" y="416" width="16" height="16">
   <properties>
    <property name="bg layer" value="1"/>
    <property name="z index" type="int" value="15"/>
   </properties>
  </object>
  <object id="542" gid="3426" x="832" y="432" width="16" height="16">
   <properties>
    <property name="bg layer" value="1"/>
    <property name="z index" type="int" value="15"/>
   </properties>
  </object>
  <object id="543" gid="3426" x="848" y="432" width="16" height="16">
   <properties>
    <property name="bg layer" value="1"/>
    <property name="z index" type="int" value="15"/>
   </properties>
  </object>
  <object id="544" gid="3426" x="928" y="432" width="16" height="16">
   <properties>
    <property name="bg layer" value="1"/>
    <property name="z index" type="int" value="15"/>
   </properties>
  </object>
  <object id="545" gid="3426" x="944" y="432" width="16" height="16">
   <properties>
    <property name="bg layer" value="1"/>
    <property name="z index" type="int" value="15"/>
   </properties>
  </object>
  <object id="562" gid="3426" x="1152" y="432" width="16" height="16">
   <properties>
    <property name="bg layer" value="1"/>
    <property name="z index" type="int" value="15"/>
   </properties>
  </object>
  <object id="563" gid="3426" x="1168" y="432" width="16" height="16">
   <properties>
    <property name="bg layer" value="1"/>
    <property name="z index" type="int" value="15"/>
   </properties>
  </object>
  <object id="564" gid="3426" x="1184" y="432" width="16" height="16">
   <properties>
    <property name="bg layer" value="1"/>
    <property name="z index" type="int" value="15"/>
   </properties>
  </object>
  <object id="565" gid="3426" x="1232" y="416" width="16" height="16">
   <properties>
    <property name="bg layer" value="1"/>
    <property name="z index" type="int" value="15"/>
   </properties>
  </object>
  <object id="566" gid="3426" x="1248" y="416" width="16" height="16">
   <properties>
    <property name="bg layer" value="1"/>
    <property name="z index" type="int" value="15"/>
   </properties>
  </object>
  <object id="567" gid="3426" x="1280" y="432" width="16" height="16">
   <properties>
    <property name="bg layer" value="1"/>
    <property name="z index" type="int" value="15"/>
   </properties>
  </object>
  <object id="568" gid="3426" x="1296" y="432" width="16" height="16">
   <properties>
    <property name="bg layer" value="1"/>
    <property name="z index" type="int" value="15"/>
   </properties>
  </object>
  <object id="569" gid="3426" x="1312" y="432" width="16" height="16">
   <properties>
    <property name="bg layer" value="1"/>
    <property name="z index" type="int" value="15"/>
   </properties>
  </object>
  <object id="570" gid="3426" x="1328" y="432" width="16" height="16">
   <properties>
    <property name="bg layer" value="1"/>
    <property name="z index" type="int" value="15"/>
   </properties>
  </object>
  <object id="479" gid="3426" x="512" y="416" width="16" height="16">
   <properties>
    <property name="bg layer" value="1"/>
   </properties>
  </object>
  <object id="480" gid="3426" x="528" y="416" width="16" height="16">
   <properties>
    <property name="bg layer" value="1"/>
    <property name="z index" type="int" value="15"/>
   </properties>
  </object>
  <object id="481" gid="3425" x="272" y="368" width="16" height="16">
   <properties>
    <property name="bg layer" value="1"/>
    <property name="z index" type="int" value="15"/>
   </properties>
  </object>
  <object id="500" gid="3425" x="576" y="320" width="16" height="16">
   <properties>
    <property name="bg layer" value="1"/>
    <property name="z index" type="int" value="15"/>
   </properties>
  </object>
  <object id="580" gid="3425" x="752" y="368" width="16" height="16">
   <properties>
    <property name="bg layer" value="1"/>
    <property name="z index" type="int" value="15"/>
   </properties>
  </object>
  <object id="887" gid="3425" x="960" y="336" width="16" height="16">
   <properties>
    <property name="bg layer" value="1"/>
    <property name="z index" type="int" value="15"/>
   </properties>
  </object>
  <object id="890" gid="3425" x="1136" y="304" width="16" height="16">
   <properties>
    <property name="bg layer" value="1"/>
    <property name="z index" type="int" value="15"/>
   </properties>
  </object>
  <object id="907" gid="3425" x="1280" y="368" width="16" height="16">
   <properties>
    <property name="bg layer" value="1"/>
    <property name="z index" type="int" value="15"/>
   </properties>
  </object>
  <object id="888" gid="3425" x="976" y="336" width="16" height="16">
   <properties>
    <property name="bg layer" value="1"/>
    <property name="z index" type="int" value="15"/>
   </properties>
  </object>
  <object id="889" gid="3425" x="992" y="336" width="16" height="16">
   <properties>
    <property name="bg layer" value="1"/>
    <property name="z index" type="int" value="15"/>
   </properties>
  </object>
  <object id="897" gid="3425" x="1152" y="304" width="16" height="16">
   <properties>
    <property name="bg layer" value="1"/>
    <property name="z index" type="int" value="15"/>
   </properties>
  </object>
  <object id="905" gid="3425" x="1296" y="368" width="16" height="16">
   <properties>
    <property name="bg layer" value="1"/>
    <property name="z index" type="int" value="15"/>
   </properties>
  </object>
  <object id="482" gid="3425" x="288" y="368" width="16" height="16">
   <properties>
    <property name="bg layer" value="1"/>
    <property name="z index" type="int" value="15"/>
   </properties>
  </object>
  <object id="499" gid="3425" x="592" y="320" width="16" height="16">
   <properties>
    <property name="bg layer" value="1"/>
    <property name="z index" type="int" value="15"/>
   </properties>
  </object>
  <object id="581" gid="3425" x="768" y="368" width="16" height="16">
   <properties>
    <property name="bg layer" value="1"/>
    <property name="z index" type="int" value="15"/>
   </properties>
  </object>
  <object id="483" gid="3425" x="432" y="352" width="16" height="16">
   <properties>
    <property name="bg layer" value="1"/>
   </properties>
  </object>
  <object id="484" gid="3425" x="416" y="352" width="16" height="16">
   <properties>
    <property name="bg layer" value="1"/>
    <property name="z index" type="int" value="15"/>
   </properties>
  </object>
  <object id="485" gid="3425" x="448" y="352" width="16" height="16">
   <properties>
    <property name="bg layer" value="1"/>
    <property name="z index" type="int" value="15"/>
   </properties>
  </object>
  <object id="486" gid="3425" x="192" y="432" width="16" height="16">
   <properties>
    <property name="bg layer" value="1"/>
   </properties>
  </object>
  <object id="487" gid="3425" x="208" y="432" width="16" height="16">
   <properties>
    <property name="bg layer" value="1"/>
   </properties>
  </object>
  <object id="488" gid="3425" x="320" y="432" width="16" height="16">
   <properties>
    <property name="bg layer" value="1"/>
   </properties>
  </object>
  <object id="489" gid="3425" x="352" y="432" width="16" height="16">
   <properties>
    <property name="bg layer" value="1"/>
   </properties>
  </object>
  <object id="490" gid="3425" x="544" y="432" width="16" height="16">
   <properties>
    <property name="bg layer" value="1"/>
   </properties>
  </object>
  <object id="491" gid="3425" x="560" y="432" width="16" height="16">
   <properties>
    <property name="bg layer" value="1"/>
   </properties>
  </object>
  <object id="492" gid="3425" x="608" y="432" width="16" height="16">
   <properties>
    <property name="bg layer" value="1"/>
   </properties>
  </object>
  <object id="497" gid="3505" x="864" y="416" width="16" height="16">
   <properties>
    <property name="bg layer" value="0"/>
   </properties>
  </object>
  <object id="498" gid="3477" x="880" y="416" width="16" height="16">
   <properties>
    <property name="bg layer" value="0"/>
   </properties>
  </object>
  <object id="513" gid="16504" x="480" y="336" width="16" height="16">
   <properties>
    <property name="bg layer" value="1"/>
    <property name="color channel" value="2"/>
   </properties>
  </object>
  <object id="514" gid="16466" x="64" y="384" width="16" height="16">
   <properties>
    <property name="bg layer" value="0"/>
    <property name="color channel" value="1"/>
   </properties>
  </object>
  <object id="515" gid="16467" x="112" y="368" width="16" height="16">
   <properties>
    <property name="bg layer" value="0"/>
    <property name="color channel" value="1"/>
   </properties>
  </object>
  <object id="517" gid="16388" x="0" y="224" width="16" height="16">
   <properties>
    <property name="Channel" value="4"/>
    <property name="Color" type="color" value="#ff46535b"/>
    <property name="Color Blending" type="bool" value="true"/>
   </properties>
  </object>
  <object id="527" gid="31" x="480" y="432" width="16" height="16">
   <properties>
    <property name="bg layer" value="0"/>
   </properties>
  </object>
  <object id="532" gid="31" x="912" y="432" width="16" height="16">
   <properties>
    <property name="bg layer" value="0"/>
   </properties>
  </object>
  <object id="533" gid="31" x="1040" y="432" width="16" height="16">
   <properties>
    <property name="bg layer" value="0"/>
   </properties>
  </object>
  <object id="535" gid="3425" x="800" y="432" width="16" height="16">
   <properties>
    <property name="bg layer" value="1"/>
   </properties>
  </object>
  <object id="536" gid="3425" x="1264" y="432" width="16" height="16">
   <properties>
    <property name="bg layer" value="1"/>
   </properties>
  </object>
  <object id="594" gid="2301" x="832" y="320" width="16" height="16">
   <properties>
    <property name="bg layer" value="2"/>
   </properties>
  </object>
  <object id="595" gid="2307" x="848" y="320" width="16" height="16">
   <properties>
    <property name="bg layer" value="2"/>
   </properties>
  </object>
  <object id="596" gid="2302" x="720" y="336" width="16" height="16">
   <properties>
    <property name="bg layer" value="2"/>
   </properties>
  </object>
  <object id="597" gid="2307" x="608" y="320" width="16" height="16">
   <properties>
    <property name="bg layer" value="2"/>
   </properties>
  </object>
  <object id="598" gid="2308" x="512" y="304" width="16" height="16">
   <properties>
    <property name="bg layer" value="2"/>
    <property name="z index" type="int" value="15"/>
   </properties>
  </object>
  <object id="599" gid="2302" x="496" y="304" width="16" height="16">
   <properties>
    <property name="bg layer" value="2"/>
   </properties>
  </object>
  <object id="600" gid="2302" x="352" y="336" width="16" height="16">
   <properties>
    <property name="bg layer" value="2"/>
   </properties>
  </object>
  <object id="601" gid="2308" x="368" y="336" width="16" height="16">
   <properties>
    <property name="bg layer" value="2"/>
   </properties>
  </object>
  <object id="602" gid="5477" x="256" y="432" width="16" height="16">
   <properties>
    <property name="bg layer" value="2"/>
   </properties>
  </object>
  <object id="603" gid="5476" x="304" y="432" width="16" height="16">
   <properties>
    <property name="bg layer" value="1"/>
   </properties>
  </object>
  <object id="604" gid="5473" x="576" y="432" width="16" height="16">
   <properties>
    <property name="bg layer" value="2"/>
   </properties>
  </object>
  <object id="605" gid="5473" x="592" y="432" width="16" height="16">
   <properties>
    <property name="bg layer" value="2"/>
   </properties>
  </object>
  <object id="606" gid="5476" x="608" y="432" width="16" height="16">
   <properties>
    <property name="bg layer" value="1"/>
   </properties>
  </object>
  <object id="607" gid="5477" x="560" y="432" width="16" height="16">
   <properties>
    <property name="bg layer" value="1"/>
   </properties>
  </object>
  <object id="608" gid="5473" x="960" y="432" width="16" height="16">
   <properties>
    <property name="bg layer" value="2"/>
   </properties>
  </object>
  <object id="609" gid="5476" x="976" y="432" width="16" height="16">
   <properties>
    <property name="bg layer" value="2"/>
   </properties>
  </object>
  <object id="610" gid="5477" x="1280" y="384" width="16" height="16">
   <properties>
    <property name="bg layer" value="1"/>
   </properties>
  </object>
  <object id="611" gid="5105" x="512" y="304" width="16" height="16">
   <properties>
    <property name="bg layer" value="2"/>
   </properties>
  </object>
  <object id="612" gid="5105" x="640" y="320" width="16" height="16">
   <properties>
    <property name="bg layer" value="2"/>
   </properties>
  </object>
  <object id="614" gid="5105" x="896" y="320" width="16" height="16">
   <properties>
    <property name="bg layer" value="2"/>
   </properties>
  </object>
  <object id="613" gid="5110" x="832" y="320" width="16" height="16">
   <properties>
    <property name="bg layer" value="2"/>
   </properties>
  </object>
  <object id="626" gid="16505" x="240" y="352" width="16" height="16">
   <properties>
    <property name="bg layer" value="1"/>
    <property name="color channel" value="2"/>
   </properties>
  </object>
  <object id="628" gid="16505" x="724" y="368" width="16" height="16">
   <properties>
    <property name="bg layer" value="1"/>
    <property name="color channel" value="2"/>
   </properties>
  </object>
  <object id="631" gid="16505" x="1108" y="320" width="16" height="16">
   <properties>
    <property name="bg layer" value="1"/>
    <property name="color channel" value="2"/>
   </properties>
  </object>
  <object id="632" gid="16505" x="1320" y="368" width="16" height="16">
   <properties>
    <property name="bg layer" value="1"/>
    <property name="color channel" value="2"/>
   </properties>
  </object>
  <object id="627" gid="5105" x="256" y="336" width="16" height="16">
   <properties>
    <property name="bg layer" value="1"/>
    <property name="z index" type="int" value="15"/>
   </properties>
  </object>
  <object id="629" gid="126" x="724" y="368" width="16" height="16">
   <properties>
    <property name="bg layer" value="0"/>
   </properties>
  </object>
  <object id="630" gid="126" x="1108" y="320" width="16" height="16">
   <properties>
    <property name="bg layer" value="0"/>
   </properties>
  </object>
  <object id="633" gid="126" x="1320" y="368" width="16" height="16">
   <properties>
    <property name="bg layer" value="0"/>
   </properties>
  </object>
  <object id="634" gid="16467" x="416" y="400" width="16" height="16">
   <properties>
    <property name="bg layer" value="0"/>
    <property name="color channel" value="1"/>
   </properties>
  </object>
  <object id="635" gid="16466" x="656" y="352" width="16" height="16">
   <properties>
    <property name="bg layer" value="0"/>
    <property name="color channel" value="1"/>
   </properties>
  </object>
  <object id="636" gid="16465" x="912" y="376" width="16" height="16">
   <properties>
    <property name="bg layer" value="0"/>
    <property name="color channel" value="1"/>
   </properties>
  </object>
  <object id="637" gid="16467" x="1200" y="336" width="16" height="16">
   <properties>
    <property name="bg layer" value="0"/>
    <property name="color channel" value="1"/>
   </properties>
  </object>
  <object id="638" gid="16466" x="1232" y="352" width="16" height="16">
   <properties>
    <property name="bg layer" value="0"/>
    <property name="color channel" value="1"/>
   </properties>
  </object>
  <object id="639" gid="16467" x="1408" y="384" width="16" height="16">
   <properties>
    <property name="bg layer" value="0"/>
    <property name="color channel" value="1"/>
   </properties>
  </object>
  <object id="640" gid="16408" x="112" y="400" width="16" height="16">
   <properties>
    <property name="color channel" value="4"/>
   </properties>
  </object>
  <object id="641" gid="16408" x="208" y="304" width="16" height="16">
   <properties>
    <property name="color channel" value="4"/>
   </properties>
  </object>
  <object id="642" gid="16408" x="352" y="352" width="16" height="16">
   <properties>
    <property name="bg layer" value="0"/>
    <property name="color channel" value="4"/>
   </properties>
  </object>
  <object id="643" gid="16408" x="464" y="416" width="16" height="16">
   <properties>
    <property name="color channel" value="4"/>
   </properties>
  </object>
  <object id="644" gid="16408" x="608" y="368" width="16" height="16">
   <properties>
    <property name="bg layer" value="0"/>
    <property name="color channel" value="4"/>
   </properties>
  </object>
  <object id="645" gid="16408" x="768" y="416" width="16" height="16">
   <properties>
    <property name="color channel" value="4"/>
   </properties>
  </object>
  <object id="646" gid="16408" x="864" y="336" width="16" height="16">
   <properties>
    <property name="color channel" value="4"/>
   </properties>
  </object>
  <object id="647" gid="16408" x="976" y="384" width="16" height="16">
   <properties>
    <property name="bg layer" value="0"/>
    <property name="color channel" value="4"/>
   </properties>
  </object>
  <object id="648" gid="16408" x="1104" y="352" width="16" height="16">
   <properties>
    <property name="color channel" value="4"/>
   </properties>
  </object>
  <object id="649" gid="16408" x="1264" y="400" width="16" height="16">
   <properties>
    <property name="color channel" value="4"/>
   </properties>
  </object>
  <object id="650" gid="16408" x="1376" y="352" width="16" height="16">
   <properties>
    <property name="color channel" value="4"/>
   </properties>
  </object>
  <object id="655" gid="16437" x="1472" y="416" width="16" height="16"/>
  <object id="656" gid="16395" x="1504" y="432" width="16" height="16">
   <properties>
    <property name="bg layer" value="2"/>
   </properties>
  </object>
  <object id="657" gid="16400" x="1552" y="384" width="16" height="16">
   <properties>
    <property name="bg layer" value="2"/>
   </properties>
  </object>
  <object id="658" gid="16400" x="1616" y="384" width="16" height="16">
   <properties>
    <property name="bg layer" value="2"/>
   </properties>
  </object>
  <object id="659" gid="16399" x="1584" y="352" width="16" height="16">
   <properties>
    <property name="bg layer" value="2"/>
   </properties>
  </object>
  <object id="660" gid="16399" x="1648" y="352" width="16" height="16">
   <properties>
    <property name="bg layer" value="2"/>
   </properties>
  </object>
  <object id="661" gid="16395" x="1680" y="432" width="16" height="16">
   <properties>
    <property name="bg layer" value="2"/>
   </properties>
  </object>
  <object id="662" gid="16402" x="1744" y="400" width="16" height="16">
   <properties>
    <property name="bg layer" value="2"/>
   </properties>
  </object>
  <object id="663" gid="16402" x="1808" y="400" width="16" height="16">
   <properties>
    <property name="bg layer" value="2"/>
   </properties>
  </object>
  <object id="664" gid="16402" x="1776" y="304" width="16" height="16">
   <properties>
    <property name="bg layer" value="2"/>
    <property name="vflip" type="bool" value="true"/>
   </properties>
  </object>
  <object id="665" gid="16402" x="1840" y="304" width="16" height="16">
   <properties>
    <property name="bg layer" value="2"/>
    <property name="vflip" type="bool" value="true"/>
   </properties>
  </object>
  <object id="666" gid="16395" x="1904" y="432" width="16" height="16">
   <properties>
    <property name="bg layer" value="2"/>
   </properties>
  </object>
  <object id="667" gid="16386" x="1936" y="384" width="16" height="16"/>
  <object id="668" gid="16439" x="1936" y="384" width="16" height="16"/>
  <object id="669" gid="16388" x="176" y="128" width="16" height="16">
   <properties>
    <property name="Channel" value="BG"/>
    <property name="Color" type="color" value="#ff292e32"/>
    <property name="Frames" type="int" value="6"/>
   </properties>
  </object>
  <object id="676" gid="16388" x="336" y="128" width="16" height="16">
   <properties>
    <property name="Channel" value="BG"/>
    <property name="Color" type="color" value="#ff292e32"/>
    <property name="Frames" type="int" value="6"/>
   </properties>
  </object>
  <object id="683" gid="16388" x="656" y="128" width="16" height="16">
   <properties>
    <property name="Channel" value="BG"/>
    <property name="Color" type="color" value="#ff292e32"/>
    <property name="Frames" type="int" value="6"/>
   </properties>
  </object>
  <object id="691" gid="16388" x="976" y="128" width="16" height="16">
   <properties>
    <property name="Channel" value="BG"/>
    <property name="Color" type="color" value="#ff292e32"/>
    <property name="Frames" type="int" value="6"/>
   </properties>
  </object>
  <object id="695" gid="16388" x="1136" y="128" width="16" height="16">
   <properties>
    <property name="Channel" value="BG"/>
    <property name="Color" type="color" value="#ff292e32"/>
    <property name="Frames" type="int" value="6"/>
   </properties>
  </object>
  <object id="699" gid="16388" x="1296" y="128" width="16" height="16">
   <properties>
    <property name="Channel" value="BG"/>
    <property name="Color" type="color" value="#ff292e32"/>
    <property name="Frames" type="int" value="6"/>
   </properties>
  </object>
  <object id="687" gid="16388" x="816" y="128" width="16" height="16">
   <properties>
    <property name="Channel" value="BG"/>
    <property name="Color" type="color" value="#ff292e32"/>
    <property name="Frames" type="int" value="6"/>
   </properties>
  </object>
  <object id="679" gid="16388" x="496" y="128" width="16" height="16">
   <properties>
    <property name="Channel" value="BG"/>
    <property name="Color" type="color" value="#ff292e32"/>
    <property name="Frames" type="int" value="6"/>
   </properties>
  </object>
  <object id="670" gid="16388" x="176" y="160" width="16" height="16">
   <properties>
    <property name="Channel" value="OBJ"/>
    <property name="Color" type="color" value="#ffff9bb0"/>
    <property name="Frames" type="int" value="6"/>
   </properties>
  </object>
  <object id="674" gid="16388" x="336" y="160" width="16" height="16">
   <properties>
    <property name="Channel" value="OBJ"/>
    <property name="Color" type="color" value="#fffffc9b"/>
    <property name="Frames" type="int" value="6"/>
   </properties>
  </object>
  <object id="681" gid="16388" x="656" y="160" width="16" height="16">
   <properties>
    <property name="Channel" value="OBJ"/>
    <property name="Color" type="color" value="#ff9bebff"/>
    <property name="Frames" type="int" value="6"/>
   </properties>
  </object>
  <object id="689" gid="16388" x="976" y="160" width="16" height="16">
   <properties>
    <property name="Channel" value="OBJ"/>
    <property name="Color" type="color" value="#ffe5afff"/>
    <property name="Frames" type="int" value="6"/>
   </properties>
  </object>
  <object id="693" gid="16388" x="1136" y="160" width="16" height="16">
   <properties>
    <property name="Channel" value="OBJ"/>
    <property name="Color" type="color" value="#ffff9bda"/>
    <property name="Frames" type="int" value="6"/>
   </properties>
  </object>
  <object id="697" gid="16388" x="1296" y="160" width="16" height="16">
   <properties>
    <property name="Channel" value="OBJ"/>
    <property name="Color" type="color" value="#ffffaa9b"/>
    <property name="Frames" type="int" value="6"/>
   </properties>
  </object>
  <object id="685" gid="16388" x="816" y="160" width="16" height="16">
   <properties>
    <property name="Channel" value="OBJ"/>
    <property name="Color" type="color" value="#ff9babff"/>
    <property name="Frames" type="int" value="6"/>
   </properties>
  </object>
  <object id="677" gid="16388" x="496" y="160" width="16" height="16">
   <properties>
    <property name="Channel" value="OBJ"/>
    <property name="Color" type="color" value="#ff9bffcc"/>
    <property name="Frames" type="int" value="6"/>
   </properties>
  </object>
  <object id="671" gid="16388" x="193" y="128" width="16" height="16">
   <properties>
    <property name="Channel" value="BG"/>
    <property name="Color" type="color" value="#ff1b1e20"/>
    <property name="Frames" type="int" value="54"/>
   </properties>
  </object>
  <object id="675" gid="16388" x="353" y="128" width="16" height="16">
   <properties>
    <property name="Channel" value="BG"/>
    <property name="Color" type="color" value="#ff1b1e20"/>
    <property name="Frames" type="int" value="54"/>
   </properties>
  </object>
  <object id="684" gid="16388" x="673" y="128" width="16" height="16">
   <properties>
    <property name="Channel" value="BG"/>
    <property name="Color" type="color" value="#ff1b1e20"/>
    <property name="Frames" type="int" value="54"/>
   </properties>
  </object>
  <object id="692" gid="16388" x="993" y="128" width="16" height="16">
   <properties>
    <property name="Channel" value="BG"/>
    <property name="Color" type="color" value="#ff1b1e20"/>
    <property name="Frames" type="int" value="54"/>
   </properties>
  </object>
  <object id="696" gid="16388" x="1153" y="128" width="16" height="16">
   <properties>
    <property name="Channel" value="BG"/>
    <property name="Color" type="color" value="#ff1b1e20"/>
    <property name="Frames" type="int" value="54"/>
   </properties>
  </object>
  <object id="700" gid="16388" x="1313" y="128" width="16" height="16">
   <properties>
    <property name="Channel" value="BG"/>
    <property name="Color" type="color" value="#ff1b1e20"/>
    <property name="Frames" type="int" value="54"/>
   </properties>
  </object>
  <object id="688" gid="16388" x="833" y="128" width="16" height="16">
   <properties>
    <property name="Channel" value="BG"/>
    <property name="Color" type="color" value="#ff1b1e20"/>
    <property name="Frames" type="int" value="54"/>
   </properties>
  </object>
  <object id="680" gid="16388" x="513" y="128" width="16" height="16">
   <properties>
    <property name="Channel" value="BG"/>
    <property name="Color" type="color" value="#ff1b1e20"/>
    <property name="Frames" type="int" value="54"/>
   </properties>
  </object>
  <object id="672" gid="16388" x="193" y="160" width="16" height="16">
   <properties>
    <property name="Channel" value="OBJ"/>
    <property name="Color" type="color" value="#ffffffff"/>
    <property name="Frames" type="int" value="54"/>
   </properties>
  </object>
  <object id="673" gid="16388" x="353" y="160" width="16" height="16">
   <properties>
    <property name="Channel" value="OBJ"/>
    <property name="Color" type="color" value="#ffffffff"/>
    <property name="Frames" type="int" value="54"/>
   </properties>
  </object>
  <object id="682" gid="16388" x="673" y="160" width="16" height="16">
   <properties>
    <property name="Channel" value="OBJ"/>
    <property name="Color" type="color" value="#ffffffff"/>
    <property name="Frames" type="int" value="54"/>
   </properties>
  </object>
  <object id="690" gid="16388" x="993" y="160" width="16" height="16">
   <properties>
    <property name="Channel" value="OBJ"/>
    <property name="Color" type="color" value="#ffffffff"/>
    <property name="Frames" type="int" value="54"/>
   </properties>
  </object>
  <object id="694" gid="16388" x="1153" y="160" width="16" height="16">
   <properties>
    <property name="Channel" value="OBJ"/>
    <property name="Color" type="color" value="#ffffffff"/>
    <property name="Frames" type="int" value="54"/>
   </properties>
  </object>
  <object id="698" gid="16388" x="1313" y="160" width="16" height="16">
   <properties>
    <property name="Channel" value="OBJ"/>
    <property name="Color" type="color" value="#ffffffff"/>
    <property name="Frames" type="int" value="54"/>
   </properties>
  </object>
  <object id="686" gid="16388" x="833" y="160" width="16" height="16">
   <properties>
    <property name="Channel" value="OBJ"/>
    <property name="Color" type="color" value="#ffffffff"/>
    <property name="Frames" type="int" value="54"/>
   </properties>
  </object>
  <object id="678" gid="16388" x="513" y="160" width="16" height="16">
   <properties>
    <property name="Channel" value="OBJ"/>
    <property name="Color" type="color" value="#ffffffff"/>
    <property name="Frames" type="int" value="54"/>
   </properties>
  </object>
  <object id="702" gid="16388" x="1472" y="128" width="16" height="16">
   <properties>
    <property name="Channel" value="BG"/>
    <property name="Color" type="color" value="#ff000000"/>
    <property name="Frames" type="int" value="30"/>
   </properties>
  </object>
  <object id="703" gid="16388" x="1936" y="112" width="16" height="16">
   <properties>
    <property name="Channel" value="LINE"/>
    <property name="Color" type="color" value="#ffe0caff"/>
    <property name="Color Blending" type="bool" value="true"/>
    <property name="Frames" type="int" value="30"/>
   </properties>
  </object>
  <object id="865" gid="16388" x="2688" y="112" width="16" height="16">
   <properties>
    <property name="Channel" value="LINE"/>
    <property name="Color" type="color" value="#ffcaffe6"/>
    <property name="Color Blending" type="bool" value="true"/>
    <property name="Frames" type="int" value="30"/>
   </properties>
  </object>
  <object id="704" gid="16388" x="1936" y="128" width="16" height="16">
   <properties>
    <property name="Channel" value="BG"/>
    <property name="Color" type="color" value="#ff151417"/>
    <property name="Frames" type="int" value="30"/>
   </properties>
  </object>
  <object id="864" gid="16388" x="2688" y="128" width="16" height="16">
   <properties>
    <property name="Channel" value="BG"/>
    <property name="Color" type="color" value="#ff0e100f"/>
    <property name="Frames" type="int" value="30"/>
   </properties>
  </object>
  <object id="848" gid="16388" x="2048" y="128" width="16" height="16">
   <properties>
    <property name="Channel" value="BG"/>
    <property name="Color" type="color" value="#ff151417"/>
    <property name="Frames" type="int" value="48"/>
   </properties>
  </object>
  <object id="852" gid="16388" x="2224" y="128" width="16" height="16">
   <properties>
    <property name="Channel" value="BG"/>
    <property name="Color" type="color" value="#ff151417"/>
    <property name="Frames" type="int" value="48"/>
   </properties>
  </object>
  <object id="856" gid="16388" x="2400" y="128" width="16" height="16">
   <properties>
    <property name="Channel" value="BG"/>
    <property name="Color" type="color" value="#ff151417"/>
    <property name="Frames" type="int" value="48"/>
   </properties>
  </object>
  <object id="860" gid="16388" x="2576" y="128" width="16" height="16">
   <properties>
    <property name="Channel" value="BG"/>
    <property name="Color" type="color" value="#ff151417"/>
    <property name="Frames" type="int" value="48"/>
   </properties>
  </object>
  <object id="1025" gid="16388" x="2800" y="128" width="16" height="16">
   <properties>
    <property name="Channel" value="BG"/>
    <property name="Color" type="color" value="#ff0e100f"/>
    <property name="Frames" type="int" value="48"/>
   </properties>
  </object>
  <object id="1028" gid="16388" x="2976" y="128" width="16" height="16">
   <properties>
    <property name="Channel" value="BG"/>
    <property name="Color" type="color" value="#ff0e100f"/>
    <property name="Frames" type="int" value="48"/>
   </properties>
  </object>
  <object id="1036" gid="16388" x="3168" y="128" width="16" height="16">
   <properties>
    <property name="Channel" value="BG"/>
    <property name="Color" type="color" value="#ff0e100f"/>
    <property name="Frames" type="int" value="48"/>
   </properties>
  </object>
  <object id="1040" gid="16388" x="3360" y="128" width="16" height="16">
   <properties>
    <property name="Channel" value="BG"/>
    <property name="Color" type="color" value="#ff0e100f"/>
    <property name="Frames" type="int" value="48"/>
   </properties>
  </object>
  <object id="705" gid="16388" x="1936" y="176" width="16" height="16">
   <properties>
    <property name="Channel" value="1"/>
    <property name="Color" type="color" value="#ff060507"/>
    <property name="Color Blending" type="bool" value="true"/>
    <property name="Frames" type="int" value="30"/>
   </properties>
  </object>
  <object id="863" gid="16388" x="2688" y="176" width="16" height="16">
   <properties>
    <property name="Channel" value="1"/>
    <property name="Color" type="color" value="#ff060a09"/>
    <property name="Color Blending" type="bool" value="true"/>
    <property name="Frames" type="int" value="30"/>
   </properties>
  </object>
  <object id="706" gid="16388" x="1936" y="208" width="16" height="16">
   <properties>
    <property name="Channel" value="3"/>
    <property name="Color" type="color" value="#ffa898a3"/>
    <property name="Color Blending" type="bool" value="true"/>
    <property name="Frames" type="int" value="30"/>
   </properties>
  </object>
  <object id="1152" gid="16388" x="2688" y="208" width="16" height="16">
   <properties>
    <property name="Channel" value="3"/>
    <property name="Color" type="color" value="#ff8db092"/>
    <property name="Color Blending" type="bool" value="true"/>
    <property name="Frames" type="int" value="30"/>
   </properties>
  </object>
  <object id="711" gid="3427" x="2080" y="320" width="16" height="16">
   <properties>
    <property name="bg layer" value="0"/>
    <property name="z index" type="int" value="15"/>
   </properties>
  </object>
  <object id="712" gid="3427" x="2080" y="304" width="16" height="16">
   <properties>
    <property name="bg layer" value="0"/>
   </properties>
  </object>
  <object id="747" gid="3427" x="2480" y="432" width="16" height="16">
   <properties>
    <property name="bg layer" value="0"/>
   </properties>
  </object>
  <object id="713" gid="3427" x="2080" y="288" width="16" height="16">
   <properties>
    <property name="bg layer" value="0"/>
   </properties>
  </object>
  <object id="748" gid="3427" x="2480" y="416" width="16" height="16">
   <properties>
    <property name="bg layer" value="0"/>
   </properties>
  </object>
  <object id="751" gid="3427" x="2368" y="320" width="16" height="16">
   <properties>
    <property name="bg layer" value="0"/>
    <property name="z index" type="int" value="15"/>
   </properties>
  </object>
  <object id="714" gid="3427" x="2080" y="272" width="16" height="16">
   <properties>
    <property name="bg layer" value="0"/>
   </properties>
  </object>
  <object id="749" gid="3427" x="2480" y="400" width="16" height="16">
   <properties>
    <property name="bg layer" value="0"/>
   </properties>
  </object>
  <object id="752" gid="3427" x="2368" y="304" width="16" height="16">
   <properties>
    <property name="bg layer" value="0"/>
   </properties>
  </object>
  <object id="715" gid="3427" x="2080" y="256" width="16" height="16">
   <properties>
    <property name="bg layer" value="0"/>
   </properties>
  </object>
  <object id="918" gid="3427" x="2960" y="256" width="16" height="16">
   <properties>
    <property name="bg layer" value="0"/>
   </properties>
  </object>
  <object id="929" gid="3427" x="3312" y="416" width="16" height="16">
   <properties>
    <property name="bg layer" value="0"/>
    <property name="z index" type="int" value="15"/>
   </properties>
  </object>
  <object id="930" gid="3427" x="3312" y="432" width="16" height="16">
   <properties>
    <property name="bg layer" value="0"/>
   </properties>
  </object>
  <object id="919" gid="3427" x="2960" y="272" width="16" height="16">
   <properties>
    <property name="bg layer" value="0"/>
   </properties>
  </object>
  <object id="928" gid="3427" x="3312" y="304" width="16" height="16">
   <properties>
    <property name="bg layer" value="0"/>
   </properties>
  </object>
  <object id="920" gid="3427" x="2960" y="288" width="16" height="16">
   <properties>
    <property name="bg layer" value="0"/>
   </properties>
  </object>
  <object id="927" gid="3427" x="3312" y="320" width="16" height="16">
   <properties>
    <property name="bg layer" value="0"/>
   </properties>
  </object>
  <object id="921" gid="3427" x="2960" y="304" width="16" height="16">
   <properties>
    <property name="bg layer" value="0"/>
    <property name="z index" type="int" value="15"/>
   </properties>
  </object>
  <object id="926" gid="3427" x="3312" y="336" width="16" height="16">
   <properties>
    <property name="bg layer" value="0"/>
    <property name="z index" type="int" value="15"/>
   </properties>
  </object>
  <object id="922" gid="3427" x="2960" y="384" width="16" height="16">
   <properties>
    <property name="bg layer" value="0"/>
    <property name="z index" type="int" value="15"/>
   </properties>
  </object>
  <object id="923" gid="3427" x="2960" y="400" width="16" height="16">
   <properties>
    <property name="bg layer" value="0"/>
   </properties>
  </object>
  <object id="924" gid="3427" x="2960" y="416" width="16" height="16">
   <properties>
    <property name="bg layer" value="0"/>
   </properties>
  </object>
  <object id="925" gid="3427" x="2960" y="432" width="16" height="16">
   <properties>
    <property name="bg layer" value="0"/>
   </properties>
  </object>
  <object id="750" gid="3427" x="2480" y="384" width="16" height="16">
   <properties>
    <property name="bg layer" value="0"/>
    <property name="z index" type="int" value="15"/>
   </properties>
  </object>
  <object id="753" gid="3427" x="2368" y="288" width="16" height="16">
   <properties>
    <property name="bg layer" value="0"/>
   </properties>
  </object>
  <object id="716" gid="3389" x="2080" y="320" width="16" height="16">
   <properties>
    <property name="bg layer" value="0"/>
   </properties>
  </object>
  <object id="720" gid="3389" x="2272" y="336" width="16" height="16">
   <properties>
    <property name="bg layer" value="0"/>
   </properties>
  </object>
  <object id="762" gid="3389" x="2368" y="320" width="16" height="16">
   <properties>
    <property name="bg layer" value="0"/>
   </properties>
  </object>
  <object id="721" gid="3389" x="2288" y="336" width="16" height="16">
   <properties>
    <property name="bg layer" value="0"/>
   </properties>
  </object>
  <object id="754" gid="3389" x="2464" y="320" width="16" height="16">
   <properties>
    <property name="bg layer" value="0"/>
   </properties>
  </object>
  <object id="755" gid="3389" x="2496" y="320" width="16" height="16">
   <properties>
    <property name="bg layer" value="0"/>
   </properties>
  </object>
  <object id="756" gid="3389" x="2672" y="320" width="16" height="16">
   <properties>
    <property name="bg layer" value="0"/>
   </properties>
  </object>
  <object id="931" gid="3389" x="2768" y="288" width="16" height="16">
   <properties>
    <property name="bg layer" value="0"/>
   </properties>
  </object>
  <object id="932" gid="3389" x="2800" y="288" width="16" height="16">
   <properties>
    <property name="bg layer" value="0"/>
   </properties>
  </object>
  <object id="936" gid="3389" x="2960" y="304" width="16" height="16">
   <properties>
    <property name="bg layer" value="0"/>
   </properties>
  </object>
  <object id="938" gid="3389" x="3024" y="320" width="16" height="16">
   <properties>
    <property name="bg layer" value="0"/>
   </properties>
  </object>
  <object id="942" gid="3389" x="3248" y="336" width="16" height="16">
   <properties>
    <property name="bg layer" value="0"/>
   </properties>
  </object>
  <object id="943" gid="3389" x="3264" y="336" width="16" height="16">
   <properties>
    <property name="bg layer" value="0"/>
   </properties>
  </object>
  <object id="939" gid="3389" x="3072" y="320" width="16" height="16">
   <properties>
    <property name="bg layer" value="0"/>
   </properties>
  </object>
  <object id="945" gid="3389" x="3312" y="336" width="16" height="16">
   <properties>
    <property name="bg layer" value="0"/>
   </properties>
  </object>
  <object id="757" gid="3389" x="2704" y="320" width="16" height="16">
   <properties>
    <property name="bg layer" value="0"/>
   </properties>
  </object>
  <object id="717" gid="3390" x="2112" y="416" width="16" height="16">
   <properties>
    <property name="bg layer" value="0"/>
   </properties>
  </object>
  <object id="718" gid="3390" x="2128" y="416" width="16" height="16">
   <properties>
    <property name="bg layer" value="0"/>
   </properties>
  </object>
  <object id="722" gid="3390" x="2320" y="400" width="16" height="16">
   <properties>
    <property name="bg layer" value="0"/>
   </properties>
  </object>
  <object id="723" gid="3390" x="2368" y="400" width="16" height="16">
   <properties>
    <property name="bg layer" value="0"/>
   </properties>
  </object>
  <object id="758" gid="3390" x="2480" y="384" width="16" height="16">
   <properties>
    <property name="bg layer" value="0"/>
   </properties>
  </object>
  <object id="760" gid="3390" x="2672" y="384" width="16" height="16">
   <properties>
    <property name="bg layer" value="0"/>
   </properties>
  </object>
  <object id="933" gid="3390" x="2832" y="384" width="16" height="16">
   <properties>
    <property name="bg layer" value="0"/>
   </properties>
  </object>
  <object id="935" gid="3390" x="2960" y="384" width="16" height="16">
   <properties>
    <property name="bg layer" value="0"/>
   </properties>
  </object>
  <object id="940" gid="3390" x="3152" y="400" width="16" height="16">
   <properties>
    <property name="bg layer" value="0"/>
   </properties>
  </object>
  <object id="941" gid="3390" x="3184" y="400" width="16" height="16">
   <properties>
    <property name="bg layer" value="0"/>
   </properties>
  </object>
  <object id="944" gid="3390" x="3312" y="416" width="16" height="16">
   <properties>
    <property name="bg layer" value="0"/>
   </properties>
  </object>
  <object id="934" gid="3390" x="2848" y="384" width="16" height="16">
   <properties>
    <property name="bg layer" value="0"/>
   </properties>
  </object>
  <object id="761" gid="3390" x="2704" y="384" width="16" height="16">
   <properties>
    <property name="bg layer" value="0"/>
   </properties>
  </object>
  <object id="724" gid="16442" x="2688" y="352" width="16" height="16"/>
  <object id="725" gid="5110" x="2144" y="304" width="16" height="16">
   <properties>
    <property name="bg layer" value="1"/>
   </properties>
  </object>
  <object id="726" gid="5110" x="2336" y="336" width="16" height="16">
   <properties>
    <property name="bg layer" value="1"/>
   </properties>
  </object>
  <object id="727" gid="5105" x="2336" y="320" width="16" height="16">
   <properties>
    <property name="bg layer" value="1"/>
   </properties>
  </object>
  <object id="728" gid="49" x="2176" y="416" width="16" height="16">
   <properties>
    <property name="bg layer" value="1"/>
   </properties>
  </object>
  <object id="729" gid="49" x="2560" y="416" width="16" height="16">
   <properties>
    <property name="bg layer" value="1"/>
   </properties>
  </object>
  <object id="730" gid="50" x="2656" y="288" width="16" height="16">
   <properties>
    <property name="bg layer" value="1"/>
   </properties>
  </object>
  <object id="731" gid="5105" x="2432" y="432" width="16" height="16">
   <properties>
    <property name="bg layer" value="1"/>
   </properties>
  </object>
  <object id="732" gid="3425" x="2160" y="416" width="16" height="16">
   <properties>
    <property name="bg layer" value="1"/>
   </properties>
  </object>
  <object id="733" gid="3425" x="2176" y="416" width="16" height="16">
   <properties>
    <property name="bg layer" value="1"/>
   </properties>
  </object>
  <object id="734" gid="3425" x="2192" y="416" width="16" height="16">
   <properties>
    <property name="bg layer" value="1"/>
   </properties>
  </object>
  <object id="735" gid="3425" x="2240" y="416" width="16" height="16">
   <properties>
    <property name="bg layer" value="1"/>
   </properties>
  </object>
  <object id="736" gid="3425" x="2304" y="416" width="16" height="16">
   <properties>
    <property name="bg layer" value="1"/>
   </properties>
  </object>
  <object id="737" gid="3425" x="2400" y="432" width="16" height="16">
   <properties>
    <property name="bg layer" value="1"/>
   </properties>
  </object>
  <object id="738" gid="3425" x="2416" y="432" width="16" height="16">
   <properties>
    <property name="bg layer" value="1"/>
   </properties>
  </object>
  <object id="739" gid="3425" x="2432" y="432" width="16" height="16">
   <properties>
    <property name="bg layer" value="1"/>
   </properties>
  </object>
  <object id="740" gid="3425" x="2496" y="416" width="16" height="16">
   <properties>
    <property name="bg layer" value="1"/>
   </properties>
  </object>
  <object id="741" gid="3425" x="2512" y="416" width="16" height="16">
   <properties>
    <property name="bg layer" value="1"/>
   </properties>
  </object>
  <object id="742" gid="3425" x="2560" y="416" width="16" height="16">
   <properties>
    <property name="bg layer" value="1"/>
   </properties>
  </object>
  <object id="743" gid="3425" x="2576" y="416" width="16" height="16">
   <properties>
    <property name="bg layer" value="1"/>
   </properties>
  </object>
  <object id="744" gid="3425" x="2624" y="416" width="16" height="16">
   <properties>
    <property name="bg layer" value="1"/>
   </properties>
  </object>
  <object id="745" gid="3425" x="2640" y="416" width="16" height="16">
   <properties>
    <property name="bg layer" value="1"/>
   </properties>
  </object>
  <object id="746" gid="3425" x="2656" y="416" width="16" height="16">
   <properties>
    <property name="bg layer" value="1"/>
   </properties>
  </object>
  <object id="963" gid="3425" x="2752" y="416" width="16" height="16">
   <properties>
    <property name="bg layer" value="1"/>
   </properties>
  </object>
  <object id="964" gid="3425" x="2800" y="416" width="16" height="16">
   <properties>
    <property name="bg layer" value="1"/>
   </properties>
  </object>
  <object id="965" gid="3425" x="2816" y="416" width="16" height="16">
   <properties>
    <property name="bg layer" value="1"/>
   </properties>
  </object>
  <object id="966" gid="3425" x="2864" y="400" width="16" height="16">
   <properties>
    <property name="bg layer" value="1"/>
   </properties>
  </object>
  <object id="967" gid="3425" x="2880" y="400" width="16" height="16">
   <properties>
    <property name="bg layer" value="1"/>
   </properties>
  </object>
  <object id="969" gid="3425" x="2896" y="400" width="16" height="16">
   <properties>
    <property name="bg layer" value="1"/>
   </properties>
  </object>
  <object id="970" gid="3425" x="3008" y="416" width="16" height="16">
   <properties>
    <property name="bg layer" value="1"/>
   </properties>
  </object>
  <object id="971" gid="3425" x="3040" y="416" width="16" height="16">
   <properties>
    <property name="bg layer" value="1"/>
   </properties>
  </object>
  <object id="972" gid="3425" x="3056" y="416" width="16" height="16">
   <properties>
    <property name="bg layer" value="1"/>
   </properties>
  </object>
  <object id="973" gid="3425" x="3072" y="416" width="16" height="16">
   <properties>
    <property name="bg layer" value="1"/>
   </properties>
  </object>
  <object id="974" gid="3425" x="3120" y="416" width="16" height="16">
   <properties>
    <property name="bg layer" value="1"/>
   </properties>
  </object>
  <object id="975" gid="3425" x="3136" y="416" width="16" height="16">
   <properties>
    <property name="bg layer" value="1"/>
   </properties>
  </object>
  <object id="977" gid="3425" x="3200" y="432" width="16" height="16">
   <properties>
    <property name="bg layer" value="1"/>
   </properties>
  </object>
  <object id="978" gid="3425" x="3264" y="432" width="16" height="16">
   <properties>
    <property name="bg layer" value="1"/>
   </properties>
  </object>
  <object id="979" gid="3425" x="3280" y="432" width="16" height="16">
   <properties>
    <property name="bg layer" value="1"/>
   </properties>
  </object>
  <object id="980" gid="3425" x="3296" y="432" width="16" height="16">
   <properties>
    <property name="bg layer" value="1"/>
   </properties>
  </object>
  <object id="981" gid="3425" x="3328" y="432" width="16" height="16">
   <properties>
    <property name="bg layer" value="1"/>
   </properties>
  </object>
  <object id="982" gid="3425" x="3360" y="432" width="16" height="16">
   <properties>
    <property name="bg layer" value="1"/>
   </properties>
  </object>
  <object id="983" gid="3425" x="3376" y="432" width="16" height="16">
   <properties>
    <property name="bg layer" value="1"/>
   </properties>
  </object>
  <object id="984" gid="3425" x="3392" y="432" width="16" height="16">
   <properties>
    <property name="bg layer" value="1"/>
   </properties>
  </object>
  <object id="763" gid="3426" x="2144" y="304" width="16" height="16">
   <properties>
    <property name="bg layer" value="1"/>
   </properties>
  </object>
  <object id="764" gid="3426" x="2160" y="304" width="16" height="16">
   <properties>
    <property name="bg layer" value="1"/>
   </properties>
  </object>
  <object id="765" gid="3426" x="2176" y="304" width="16" height="16">
   <properties>
    <property name="bg layer" value="1"/>
   </properties>
  </object>
  <object id="766" gid="3426" x="2208" y="304" width="16" height="16">
   <properties>
    <property name="bg layer" value="1"/>
   </properties>
  </object>
  <object id="767" gid="3426" x="2336" y="320" width="16" height="16">
   <properties>
    <property name="bg layer" value="1"/>
   </properties>
  </object>
  <object id="768" gid="3426" x="2352" y="320" width="16" height="16">
   <properties>
    <property name="bg layer" value="1"/>
   </properties>
  </object>
  <object id="769" gid="3426" x="2384" y="288" width="16" height="16">
   <properties>
    <property name="bg layer" value="1"/>
   </properties>
  </object>
  <object id="770" gid="3426" x="2400" y="288" width="16" height="16">
   <properties>
    <property name="bg layer" value="1"/>
   </properties>
  </object>
  <object id="771" gid="3426" x="2416" y="288" width="16" height="16">
   <properties>
    <property name="bg layer" value="1"/>
   </properties>
  </object>
  <object id="772" gid="3426" x="2528" y="288" width="16" height="16">
   <properties>
    <property name="bg layer" value="1"/>
   </properties>
  </object>
  <object id="773" gid="3426" x="2560" y="288" width="16" height="16">
   <properties>
    <property name="bg layer" value="1"/>
   </properties>
  </object>
  <object id="774" gid="3426" x="2576" y="288" width="16" height="16">
   <properties>
    <property name="bg layer" value="1"/>
   </properties>
  </object>
  <object id="775" gid="3426" x="2592" y="288" width="16" height="16">
   <properties>
    <property name="bg layer" value="1"/>
   </properties>
  </object>
  <object id="776" gid="3426" x="2624" y="288" width="16" height="16">
   <properties>
    <property name="bg layer" value="1"/>
   </properties>
  </object>
  <object id="777" gid="3426" x="2640" y="288" width="16" height="16">
   <properties>
    <property name="bg layer" value="1"/>
   </properties>
  </object>
  <object id="778" gid="3426" x="2656" y="288" width="16" height="16">
   <properties>
    <property name="bg layer" value="1"/>
   </properties>
  </object>
  <object id="946" gid="3426" x="2720" y="288" width="16" height="16">
   <properties>
    <property name="bg layer" value="1"/>
   </properties>
  </object>
  <object id="947" gid="3426" x="2816" y="288" width="16" height="16">
   <properties>
    <property name="bg layer" value="1"/>
   </properties>
  </object>
  <object id="948" gid="3426" x="2848" y="288" width="16" height="16">
   <properties>
    <property name="bg layer" value="1"/>
   </properties>
  </object>
  <object id="949" gid="3426" x="2864" y="288" width="16" height="16">
   <properties>
    <property name="bg layer" value="1"/>
   </properties>
  </object>
  <object id="950" gid="3426" x="2880" y="288" width="16" height="16">
   <properties>
    <property name="bg layer" value="1"/>
   </properties>
  </object>
  <object id="951" gid="3426" x="2896" y="288" width="16" height="16">
   <properties>
    <property name="bg layer" value="1"/>
   </properties>
  </object>
  <object id="952" gid="3426" x="2912" y="288" width="16" height="16">
   <properties>
    <property name="bg layer" value="1"/>
   </properties>
  </object>
  <object id="953" gid="3426" x="2976" y="288" width="16" height="16">
   <properties>
    <property name="bg layer" value="1"/>
   </properties>
  </object>
  <object id="954" gid="3426" x="3104" y="320" width="16" height="16">
   <properties>
    <property name="bg layer" value="1"/>
   </properties>
  </object>
  <object id="955" gid="3426" x="3120" y="320" width="16" height="16">
   <properties>
    <property name="bg layer" value="1"/>
   </properties>
  </object>
  <object id="956" gid="3426" x="3136" y="320" width="16" height="16">
   <properties>
    <property name="bg layer" value="1"/>
   </properties>
  </object>
  <object id="957" gid="3426" x="3232" y="320" width="16" height="16">
   <properties>
    <property name="bg layer" value="1"/>
   </properties>
  </object>
  <object id="958" gid="3426" x="3280" y="304" width="16" height="16">
   <properties>
    <property name="bg layer" value="1"/>
   </properties>
  </object>
  <object id="959" gid="3426" x="3296" y="304" width="16" height="16">
   <properties>
    <property name="bg layer" value="1"/>
   </properties>
  </object>
  <object id="960" gid="3426" x="3360" y="320" width="16" height="16">
   <properties>
    <property name="bg layer" value="1"/>
   </properties>
  </object>
  <object id="961" gid="3426" x="3376" y="320" width="16" height="16">
   <properties>
    <property name="bg layer" value="1"/>
   </properties>
  </object>
  <object id="962" gid="3426" x="3392" y="320" width="16" height="16">
   <properties>
    <property name="bg layer" value="1"/>
   </properties>
  </object>
  <object id="779" gid="16536" x="2192" y="416" width="16" height="16">
   <properties>
    <property name="bg layer" value="1"/>
    <property name="color channel" value="3"/>
   </properties>
  </object>
  <object id="780" gid="16536" x="2144" y="304" width="16" height="16">
   <properties>
    <property name="bg layer" value="1"/>
    <property name="color channel" value="3"/>
    <property name="vflip" type="bool" value="true"/>
   </properties>
  </object>
  <object id="781" gid="16537" x="2224" y="304" width="16" height="16">
   <properties>
    <property name="bg layer" value="1"/>
    <property name="color channel" value="3"/>
    <property name="vflip" type="bool" value="true"/>
   </properties>
  </object>
  <object id="782" gid="16537" x="2256" y="416" width="16" height="16">
   <properties>
    <property name="bg layer" value="1"/>
    <property name="color channel" value="3"/>
   </properties>
  </object>
  <object id="783" gid="16536" x="2336" y="320" width="16" height="16">
   <properties>
    <property name="bg layer" value="1"/>
    <property name="color channel" value="3"/>
    <property name="vflip" type="bool" value="true"/>
   </properties>
  </object>
  <object id="784" gid="16536" x="2416" y="432" width="16" height="16">
   <properties>
    <property name="bg layer" value="1"/>
    <property name="color channel" value="3"/>
   </properties>
  </object>
  <object id="785" gid="16537" x="2400" y="288" width="16" height="16">
   <properties>
    <property name="bg layer" value="1"/>
    <property name="color channel" value="3"/>
    <property name="vflip" type="bool" value="true"/>
   </properties>
  </object>
  <object id="786" gid="5110" x="2400" y="304" width="16" height="16">
   <properties>
    <property name="bg layer" value="0"/>
   </properties>
  </object>
  <object id="787" gid="5105" x="2400" y="288" width="16" height="16">
   <properties>
    <property name="bg layer" value="1"/>
   </properties>
  </object>
  <object id="788" gid="16536" x="2544" y="288" width="16" height="16">
   <properties>
    <property name="bg layer" value="1"/>
    <property name="color channel" value="3"/>
    <property name="vflip" type="bool" value="true"/>
   </properties>
  </object>
  <object id="789" gid="16537" x="2640" y="288" width="16" height="16">
   <properties>
    <property name="bg layer" value="1"/>
    <property name="color channel" value="3"/>
    <property name="vflip" type="bool" value="true"/>
   </properties>
  </object>
  <object id="790" gid="16536" x="2608" y="416" width="16" height="16">
   <properties>
    <property name="bg layer" value="1"/>
    <property name="color channel" value="3"/>
   </properties>
  </object>
  <object id="791" gid="16537" x="2528" y="416" width="16" height="16">
   <properties>
    <property name="bg layer" value="1"/>
    <property name="color channel" value="3"/>
   </properties>
  </object>
  <object id="792" gid="16412" x="2000" y="336" width="16" height="16">
   <properties>
    <property name="color channel" value="2"/>
   </properties>
  </object>
  <object id="793" gid="16412" x="2096" y="384" width="16" height="16">
   <properties>
    <property name="color channel" value="2"/>
   </properties>
  </object>
  <object id="794" gid="16412" x="2176" y="320" width="16" height="16">
   <properties>
    <property name="color channel" value="2"/>
   </properties>
  </object>
  <object id="795" gid="16412" x="2288" y="400" width="16" height="16">
   <properties>
    <property name="color channel" value="2"/>
   </properties>
  </object>
  <object id="796" gid="16412" x="2336" y="336" width="16" height="16">
   <properties>
    <property name="color channel" value="2"/>
   </properties>
  </object>
  <object id="797" gid="16412" x="2576" y="400" width="16" height="16">
   <properties>
    <property name="color channel" value="2"/>
   </properties>
  </object>
  <object id="798" gid="16408" x="2000" y="400" width="16" height="16">
   <properties>
    <property name="color channel" value="4"/>
   </properties>
  </object>
  <object id="799" gid="16408" x="2192" y="336" width="16" height="16">
   <properties>
    <property name="color channel" value="4"/>
   </properties>
  </object>
  <object id="800" gid="16408" x="2432" y="416" width="16" height="16">
   <properties>
    <property name="color channel" value="4"/>
   </properties>
  </object>
  <object id="801" gid="16408" x="2528" y="304" width="16" height="16">
   <properties>
    <property name="color channel" value="4"/>
   </properties>
  </object>
  <object id="802" gid="16408" x="2640" y="368" width="16" height="16">
   <properties>
    <property name="color channel" value="4"/>
   </properties>
  </object>
  <object id="805" gid="16466" x="2048" y="400" width="16" height="16">
   <properties>
    <property name="color channel" value="1"/>
   </properties>
  </object>
  <object id="806" gid="16467" x="2128" y="336" width="16" height="16">
   <properties>
    <property name="color channel" value="1"/>
   </properties>
  </object>
  <object id="807" gid="16467" x="2256" y="400" width="16" height="16">
   <properties>
    <property name="color channel" value="1"/>
   </properties>
  </object>
  <object id="808" gid="16466" x="2400" y="336" width="16" height="16">
   <properties>
    <property name="color channel" value="1"/>
   </properties>
  </object>
  <object id="809" gid="16466" x="2624" y="384" width="16" height="16">
   <properties>
    <property name="color channel" value="1"/>
   </properties>
  </object>
  <object id="810" gid="16467" x="2576" y="368" width="16" height="16">
   <properties>
    <property name="color channel" value="1"/>
   </properties>
  </object>
  <object id="811" gid="16388" x="1600" y="192" width="16" height="16">
   <properties>
    <property name="Channel" value="2"/>
    <property name="Color" type="color" value="#ff635b70"/>
    <property name="Color Blending" type="bool" value="true"/>
    <property name="Copy color" type="bool" value="false"/>
    <property name="Copy from channel" value=""/>
   </properties>
  </object>
  <object id="1153" gid="16388" x="2688" y="192" width="16" height="16">
   <properties>
    <property name="Channel" value="2"/>
    <property name="Color" type="color" value="#ff526a5d"/>
    <property name="Color Blending" type="bool" value="true"/>
    <property name="Copy color" type="bool" value="false"/>
    <property name="Copy from channel" value=""/>
   </properties>
  </object>
  <object id="812" gid="16486" x="1968" y="352" width="16" height="16">
   <properties>
    <property name="color channel" value="1"/>
   </properties>
  </object>
  <object id="813" gid="16485" x="2064" y="400" width="16" height="16">
   <properties>
    <property name="color channel" value="1"/>
   </properties>
  </object>
  <object id="814" gid="16486" x="2128" y="336" width="16" height="16">
   <properties>
    <property name="color channel" value="1"/>
   </properties>
  </object>
  <object id="815" gid="16486" x="2240" y="400" width="16" height="16">
   <properties>
    <property name="color channel" value="1"/>
   </properties>
  </object>
  <object id="816" gid="16485" x="2320" y="352" width="16" height="16">
   <properties>
    <property name="color channel" value="1"/>
   </properties>
  </object>
  <object id="818" gid="16486" x="2464" y="336" width="16" height="16">
   <properties>
    <property name="color channel" value="1"/>
   </properties>
  </object>
  <object id="819" gid="16486" x="2608" y="400" width="16" height="16">
   <properties>
    <property name="color channel" value="1"/>
   </properties>
  </object>
  <object id="820" gid="16485" x="2640" y="336" width="16" height="16">
   <properties>
    <property name="color channel" value="1"/>
   </properties>
  </object>
  <object id="821" gid="16485" x="2544" y="400" width="16" height="16">
   <properties>
    <property name="color channel" value="1"/>
   </properties>
  </object>
  <object id="822" gid="16462" x="2128" y="400" width="16" height="16">
   <properties>
    <property name="bg layer" value="2"/>
    <property name="color channel" value="4"/>
   </properties>
  </object>
  <object id="823" gid="16462" x="2272" y="352" width="16" height="16">
   <properties>
    <property name="color channel" value="4"/>
    <property name="vflip" type="bool" value="true"/>
   </properties>
  </object>
  <object id="824" gid="16462" x="2336" y="384" width="16" height="16">
   <properties>
    <property name="color channel" value="4"/>
   </properties>
  </object>
  <object id="825" gid="16462" x="2368" y="336" width="16" height="16">
   <properties>
    <property name="color channel" value="4"/>
    <property name="vflip" type="bool" value="true"/>
   </properties>
  </object>
  <object id="826" gid="16462" x="2496" y="336" width="16" height="16">
   <properties>
    <property name="color channel" value="4"/>
    <property name="vflip" type="bool" value="true"/>
   </properties>
  </object>
  <object id="827" gid="16462" x="2672" y="368" width="16" height="16">
   <properties>
    <property name="bg layer" value="1"/>
    <property name="color channel" value="4"/>
   </properties>
  </object>
  <object id="828" gid="16462" x="2704" y="336" width="16" height="16">
   <properties>
    <property name="bg layer" value="1"/>
    <property name="color channel" value="4"/>
    <property name="vflip" type="bool" value="true"/>
   </properties>
  </object>
  <object id="829" gid="16505" x="2176" y="400" width="16" height="16">
   <properties>
    <property name="bg layer" value="0"/>
    <property name="color channel" value="BLACK"/>
    <property name="z index" type="int" value="15"/>
   </properties>
  </object>
  <object id="830" gid="126" x="2176" y="400" width="16" height="16">
   <properties>
    <property name="bg layer" value="0"/>
   </properties>
  </object>
  <object id="831" gid="16505" x="2224" y="320" width="16" height="16">
   <properties>
    <property name="bg layer" value="1"/>
    <property name="color channel" value="BLACK"/>
   </properties>
  </object>
  <object id="832" gid="16505" x="2416" y="408" width="16" height="16">
   <properties>
    <property name="bg layer" value="1"/>
    <property name="color channel" value="BLACK"/>
   </properties>
  </object>
  <object id="833" gid="126" x="2416" y="408" width="16" height="16">
   <properties>
    <property name="bg layer" value="0"/>
   </properties>
  </object>
  <object id="834" gid="16505" x="2512" y="384" width="16" height="16">
   <properties>
    <property name="bg layer" value="1"/>
    <property name="color channel" value="BLACK"/>
   </properties>
  </object>
  <object id="835" gid="16505" x="2592" y="312" width="16" height="16">
   <properties>
    <property name="bg layer" value="0"/>
    <property name="color channel" value="BLACK"/>
    <property name="z index" type="int" value="15"/>
   </properties>
  </object>
  <object id="836" gid="126" x="2592" y="312" width="16" height="16">
   <properties>
    <property name="bg layer" value="0"/>
   </properties>
  </object>
  <object id="837" gid="16513" x="2228" y="379" width="16" height="16">
   <properties>
    <property name="bg layer" value="0"/>
    <property name="color channel" value="3"/>
    <property name="enable rotation" type="bool" value="true"/>
    <property name="rotation angle" type="int" value="20"/>
   </properties>
  </object>
  <object id="841" gid="16513" x="2396" y="360" width="16" height="16">
   <properties>
    <property name="bg layer" value="0"/>
    <property name="color channel" value="3"/>
    <property name="enable rotation" type="bool" value="true"/>
    <property name="rotation angle" type="int" value="-20"/>
   </properties>
  </object>
  <object id="838" gid="16514" x="2235" y="381" width="16" height="16">
   <properties>
    <property name="bg layer" value="0"/>
    <property name="color channel" value="2"/>
    <property name="enable rotation" type="bool" value="true"/>
    <property name="rotation angle" type="int" value="20"/>
   </properties>
  </object>
  <object id="842" gid="16514" x="2402" y="357" width="16" height="16">
   <properties>
    <property name="bg layer" value="0"/>
    <property name="color channel" value="2"/>
    <property name="enable rotation" type="bool" value="true"/>
    <property name="rotation angle" type="int" value="-20"/>
   </properties>
  </object>
  <object id="839" gid="16459" x="2232" y="379" width="16" height="16">
   <properties>
    <property name="bg layer" value="0"/>
    <property name="color channel" value="3"/>
   </properties>
  </object>
  <object id="840" gid="16459" x="2399" y="360" width="16" height="16">
   <properties>
    <property name="bg layer" value="0"/>
    <property name="color channel" value="3"/>
   </properties>
  </object>
  <object id="843" gid="16459" x="2559" y="348" width="16" height="16">
   <properties>
    <property name="bg layer" value="0"/>
    <property name="color channel" value="3"/>
   </properties>
  </object>
  <object id="844" gid="16513" x="2556" y="347" width="16" height="16">
   <properties>
    <property name="bg layer" value="0"/>
    <property name="color channel" value="3"/>
   </properties>
  </object>
  <object id="845" gid="16514" x="2561" y="348" width="16" height="16">
   <properties>
    <property name="bg layer" value="0"/>
    <property name="color channel" value="2"/>
   </properties>
  </object>
  <object id="846" gid="16388" x="2032" y="128" width="16" height="16">
   <properties>
    <property name="Channel" value="BG"/>
    <property name="Color" type="color" value="#ff38353a"/>
   </properties>
  </object>
  <object id="853" gid="16388" x="2208" y="128" width="16" height="16">
   <properties>
    <property name="Channel" value="BG"/>
    <property name="Color" type="color" value="#ff38353a"/>
   </properties>
  </object>
  <object id="857" gid="16388" x="2384" y="128" width="16" height="16">
   <properties>
    <property name="Channel" value="BG"/>
    <property name="Color" type="color" value="#ff38353a"/>
   </properties>
  </object>
  <object id="861" gid="16388" x="2560" y="128" width="16" height="16">
   <properties>
    <property name="Channel" value="BG"/>
    <property name="Color" type="color" value="#ff38353a"/>
   </properties>
  </object>
  <object id="1024" gid="16388" x="2784" y="128" width="16" height="16">
   <properties>
    <property name="Channel" value="BG"/>
    <property name="Color" type="color" value="#ff28362f"/>
   </properties>
  </object>
  <object id="1029" gid="16388" x="2960" y="128" width="16" height="16">
   <properties>
    <property name="Channel" value="BG"/>
    <property name="Color" type="color" value="#ff28362f"/>
   </properties>
  </object>
  <object id="1037" gid="16388" x="3152" y="128" width="16" height="16">
   <properties>
    <property name="Channel" value="BG"/>
    <property name="Color" type="color" value="#ff28362f"/>
   </properties>
  </object>
  <object id="1041" gid="16388" x="3344" y="128" width="16" height="16">
   <properties>
    <property name="Channel" value="BG"/>
    <property name="Color" type="color" value="#ff28362f"/>
   </properties>
  </object>
  <object id="847" gid="16388" x="2032" y="160" width="16" height="16">
   <properties>
    <property name="Channel" value="OBJ"/>
    <property name="Color" type="color" value="#fffdff75"/>
   </properties>
  </object>
  <object id="851" gid="16388" x="2208" y="160" width="16" height="16">
   <properties>
    <property name="Channel" value="OBJ"/>
    <property name="Color" type="color" value="#fffdff75"/>
   </properties>
  </object>
  <object id="855" gid="16388" x="2384" y="160" width="16" height="16">
   <properties>
    <property name="Channel" value="OBJ"/>
    <property name="Color" type="color" value="#fffdff75"/>
   </properties>
  </object>
  <object id="859" gid="16388" x="2560" y="160" width="16" height="16">
   <properties>
    <property name="Channel" value="OBJ"/>
    <property name="Color" type="color" value="#fffdff75"/>
   </properties>
  </object>
  <object id="1023" gid="16388" x="2784" y="160" width="16" height="16">
   <properties>
    <property name="Channel" value="OBJ"/>
    <property name="Color" type="color" value="#fff6cd96"/>
   </properties>
  </object>
  <object id="1026" gid="16388" x="2960" y="160" width="16" height="16">
   <properties>
    <property name="Channel" value="OBJ"/>
    <property name="Color" type="color" value="#fff6cd96"/>
   </properties>
  </object>
  <object id="1034" gid="16388" x="3152" y="160" width="16" height="16">
   <properties>
    <property name="Channel" value="OBJ"/>
    <property name="Color" type="color" value="#fff6cd96"/>
   </properties>
  </object>
  <object id="1038" gid="16388" x="3344" y="160" width="16" height="16">
   <properties>
    <property name="Channel" value="OBJ"/>
    <property name="Color" type="color" value="#fff6cd96"/>
   </properties>
  </object>
  <object id="849" gid="16388" x="2048" y="160" width="16" height="16">
   <properties>
    <property name="Channel" value="OBJ"/>
    <property name="Color" type="color" value="#ffffffff"/>
    <property name="Frames" type="int" value="48"/>
   </properties>
  </object>
  <object id="850" gid="16388" x="2224" y="160" width="16" height="16">
   <properties>
    <property name="Channel" value="OBJ"/>
    <property name="Color" type="color" value="#ffffffff"/>
    <property name="Frames" type="int" value="48"/>
   </properties>
  </object>
  <object id="854" gid="16388" x="2400" y="160" width="16" height="16">
   <properties>
    <property name="Channel" value="OBJ"/>
    <property name="Color" type="color" value="#ffffffff"/>
    <property name="Frames" type="int" value="48"/>
   </properties>
  </object>
  <object id="858" gid="16388" x="2576" y="160" width="16" height="16">
   <properties>
    <property name="Channel" value="OBJ"/>
    <property name="Color" type="color" value="#ffffffff"/>
    <property name="Frames" type="int" value="48"/>
   </properties>
  </object>
  <object id="1022" gid="16388" x="2800" y="160" width="16" height="16">
   <properties>
    <property name="Channel" value="OBJ"/>
    <property name="Color" type="color" value="#ffffffff"/>
    <property name="Frames" type="int" value="48"/>
   </properties>
  </object>
  <object id="1027" gid="16388" x="2976" y="160" width="16" height="16">
   <properties>
    <property name="Channel" value="OBJ"/>
    <property name="Color" type="color" value="#ffffffff"/>
    <property name="Frames" type="int" value="48"/>
   </properties>
  </object>
  <object id="1035" gid="16388" x="3168" y="160" width="16" height="16">
   <properties>
    <property name="Channel" value="OBJ"/>
    <property name="Color" type="color" value="#ffffffff"/>
    <property name="Frames" type="int" value="48"/>
   </properties>
  </object>
  <object id="1039" gid="16388" x="3360" y="160" width="16" height="16">
   <properties>
    <property name="Channel" value="OBJ"/>
    <property name="Color" type="color" value="#ffffffff"/>
    <property name="Frames" type="int" value="48"/>
   </properties>
  </object>
  <object id="866" gid="16413" x="2960" y="344" width="16" height="16"/>
  <object id="868" gid="16411" x="3456" y="368" width="16" height="16"/>
  <object id="869" gid="49" x="2816" y="416" width="16" height="16">
   <properties>
    <property name="bg layer" value="0"/>
   </properties>
  </object>
  <object id="871" gid="49" x="3136" y="416" width="16" height="16">
   <properties>
    <property name="bg layer" value="0"/>
   </properties>
  </object>
  <object id="870" gid="49" x="2880" y="400" width="16" height="16">
   <properties>
    <property name="bg layer" value="0"/>
   </properties>
  </object>
  <object id="872" gid="221" x="3296" y="304" width="16" height="16">
   <properties>
    <property name="bg layer" value="0"/>
   </properties>
  </object>
  <object id="874" gid="50" x="3360" y="320" width="16" height="16">
   <properties>
    <property name="bg layer" value="0"/>
   </properties>
  </object>
  <object id="873" gid="220" x="3104" y="320" width="16" height="16">
   <properties>
    <property name="bg layer" value="0"/>
   </properties>
  </object>
  <object id="985" gid="16505" x="2725" y="304" width="16" height="16">
   <properties>
    <property name="bg layer" value="1"/>
    <property name="color channel" value="BLACK"/>
   </properties>
  </object>
  <object id="986" gid="126" x="2725" y="304" width="16" height="16">
   <properties>
    <property name="bg layer" value="0"/>
   </properties>
  </object>
  <object id="987" gid="16505" x="2880" y="384" width="16" height="16">
   <properties>
    <property name="bg layer" value="1"/>
    <property name="color channel" value="BLACK"/>
   </properties>
  </object>
  <object id="988" gid="16505" x="2992" y="400" width="16" height="16">
   <properties>
    <property name="bg layer" value="1"/>
    <property name="color channel" value="BLACK"/>
   </properties>
  </object>
  <object id="989" gid="16505" x="3216" y="336" width="16" height="16">
   <properties>
    <property name="bg layer" value="1"/>
    <property name="color channel" value="BLACK"/>
   </properties>
  </object>
  <object id="990" gid="16505" x="3424" y="416" width="16" height="16">
   <properties>
    <property name="bg layer" value="1"/>
    <property name="color channel" value="BLACK"/>
   </properties>
  </object>
  <object id="991" gid="16536" x="2784" y="416" width="16" height="16">
   <properties>
    <property name="bg layer" value="1"/>
    <property name="color channel" value="3"/>
   </properties>
  </object>
  <object id="992" gid="16537" x="2848" y="288" width="16" height="16">
   <properties>
    <property name="bg layer" value="1"/>
    <property name="color channel" value="3"/>
    <property name="vflip" type="bool" value="true"/>
   </properties>
  </object>
  <object id="999" gid="16537" x="3216" y="320" width="16" height="16">
   <properties>
    <property name="bg layer" value="1"/>
    <property name="color channel" value="3"/>
    <property name="vflip" type="bool" value="true"/>
   </properties>
  </object>
  <object id="995" gid="16537" x="2896" y="400" width="16" height="16">
   <properties>
    <property name="bg layer" value="1"/>
    <property name="color channel" value="3"/>
    <property name="vflip" type="bool" value="false"/>
   </properties>
  </object>
  <object id="996" gid="16537" x="3104" y="416" width="16" height="16">
   <properties>
    <property name="bg layer" value="1"/>
    <property name="color channel" value="3"/>
    <property name="vflip" type="bool" value="false"/>
   </properties>
  </object>
  <object id="993" gid="16536" x="2912" y="288" width="16" height="16">
   <properties>
    <property name="bg layer" value="1"/>
    <property name="color channel" value="3"/>
    <property name="vflip" type="bool" value="true"/>
   </properties>
  </object>
  <object id="998" gid="16536" x="3120" y="320" width="16" height="16">
   <properties>
    <property name="bg layer" value="1"/>
    <property name="color channel" value="3"/>
    <property name="vflip" type="bool" value="true"/>
   </properties>
  </object>
  <object id="1000" gid="16536" x="3424" y="320" width="16" height="16">
   <properties>
    <property name="bg layer" value="1"/>
    <property name="color channel" value="3"/>
    <property name="vflip" type="bool" value="true"/>
   </properties>
  </object>
  <object id="994" gid="16536" x="2992" y="416" width="16" height="16">
   <properties>
    <property name="bg layer" value="1"/>
    <property name="color channel" value="3"/>
   </properties>
  </object>
  <object id="997" gid="16536" x="3280" y="432" width="16" height="16">
   <properties>
    <property name="bg layer" value="1"/>
    <property name="color channel" value="3"/>
   </properties>
  </object>
  <object id="1001" gid="16465" x="2768" y="320" width="16" height="16">
   <properties>
    <property name="color channel" value="1"/>
   </properties>
  </object>
  <object id="1002" gid="16466" x="2896" y="352" width="16" height="16">
   <properties>
    <property name="color channel" value="1"/>
   </properties>
  </object>
  <object id="1003" gid="16467" x="3104" y="336" width="16" height="16">
   <properties>
    <property name="color channel" value="1"/>
   </properties>
  </object>
  <object id="1004" gid="16466" x="3232" y="400" width="16" height="16">
   <properties>
    <property name="color channel" value="1"/>
   </properties>
  </object>
  <object id="1005" gid="16467" x="3408" y="352" width="16" height="16">
   <properties>
    <property name="color channel" value="1"/>
   </properties>
  </object>
  <object id="1006" gid="16408" x="2768" y="400" width="16" height="16">
   <properties>
    <property name="color channel" value="4"/>
   </properties>
  </object>
  <object id="1007" gid="16408" x="2880" y="320" width="16" height="16">
   <properties>
    <property name="color channel" value="4"/>
   </properties>
  </object>
  <object id="1008" gid="16408" x="3056" y="384" width="16" height="16">
   <properties>
    <property name="color channel" value="4"/>
   </properties>
  </object>
  <object id="1009" gid="16408" x="3200" y="336" width="16" height="16">
   <properties>
    <property name="bg layer" value="2"/>
    <property name="color channel" value="4"/>
   </properties>
  </object>
  <object id="1010" gid="16408" x="3296" y="416" width="16" height="16">
   <properties>
    <property name="color channel" value="4"/>
   </properties>
  </object>
  <object id="1011" gid="16408" x="3408" y="352" width="16" height="16">
   <properties>
    <property name="bg layer" value="0"/>
    <property name="color channel" value="4"/>
   </properties>
  </object>
  <object id="1012" gid="16412" x="3072" y="400" width="16" height="16">
   <properties>
    <property name="color channel" value="2"/>
   </properties>
  </object>
  <object id="1013" gid="16412" x="3168" y="336" width="16" height="16">
   <properties>
    <property name="color channel" value="2"/>
   </properties>
  </object>
  <object id="1014" gid="16412" x="3296" y="400" width="16" height="16">
   <properties>
    <property name="color channel" value="2"/>
   </properties>
  </object>
  <object id="1015" gid="16412" x="2752" y="352" width="16" height="16">
   <properties>
    <property name="color channel" value="2"/>
   </properties>
  </object>
  <object id="1016" gid="16412" x="2896" y="304" width="16" height="16">
   <properties>
    <property name="color channel" value="2"/>
   </properties>
  </object>
  <object id="1017" gid="16462" x="2848" y="368" width="16" height="16">
   <properties>
    <property name="bg layer" value="2"/>
    <property name="color channel" value="4"/>
   </properties>
  </object>
  <object id="1018" gid="16462" x="2768" y="304" width="16" height="16">
   <properties>
    <property name="bg layer" value="2"/>
    <property name="color channel" value="4"/>
    <property name="vflip" type="bool" value="true"/>
   </properties>
  </object>
  <object id="1019" gid="16462" x="3039" y="337" width="16" height="16">
   <properties>
    <property name="bg layer" value="2"/>
    <property name="color channel" value="4"/>
    <property name="vflip" type="bool" value="true"/>
   </properties>
  </object>
  <object id="1020" gid="16462" x="3152" y="384" width="16" height="16">
   <properties>
    <property name="color channel" value="4"/>
   </properties>
  </object>
  <object id="1021" gid="16462" x="3248" y="352" width="16" height="16">
   <properties>
    <property name="bg layer" value="2"/>
    <property name="color channel" value="4"/>
    <property name="vflip" type="bool" value="true"/>
   </properties>
  </object>
  <object id="1044" gid="16388" x="3408" y="128" width="16" height="16">
   <properties>
    <property name="Channel" value="BG"/>
    <property name="Color" type="color" value="#ff040106"/>
    <property name="Frames" type="int" value="30"/>
   </properties>
  </object>
  <object id="1125" gid="16388" x="3552" y="128" width="16" height="16">
   <properties>
    <property name="Channel" value="BG"/>
    <property name="Color" type="color" value="#ff040106"/>
    <property name="Frames" type="int" value="30"/>
   </properties>
  </object>
  <object id="1127" gid="16388" x="3653" y="128" width="16" height="16">
   <properties>
    <property name="Channel" value="BG"/>
    <property name="Color" type="color" value="#ff040106"/>
    <property name="Frames" type="int" value="30"/>
   </properties>
  </object>
  <object id="1131" gid="16388" x="3759" y="128" width="16" height="16">
   <properties>
    <property name="Channel" value="BG"/>
    <property name="Color" type="color" value="#ff040106"/>
    <property name="Frames" type="int" value="30"/>
   </properties>
  </object>
  <object id="1135" gid="16388" x="3856" y="128" width="16" height="16">
   <properties>
    <property name="Channel" value="BG"/>
    <property name="Color" type="color" value="#ff040106"/>
    <property name="Frames" type="int" value="30"/>
   </properties>
  </object>
  <object id="1139" gid="16388" x="3952" y="128" width="16" height="16">
   <properties>
    <property name="Channel" value="BG"/>
    <property name="Color" type="color" value="#ff040106"/>
    <property name="Frames" type="int" value="30"/>
   </properties>
  </object>
  <object id="1143" gid="16388" x="4048" y="128" width="16" height="16">
   <properties>
    <property name="Channel" value="BG"/>
    <property name="Color" type="color" value="#ff040106"/>
    <property name="Frames" type="int" value="30"/>
   </properties>
  </object>
  <object id="1147" gid="16388" x="4144" y="128" width="16" height="16">
   <properties>
    <property name="Channel" value="BG"/>
    <property name="Color" type="color" value="#ff040106"/>
    <property name="Frames" type="int" value="30"/>
   </properties>
  </object>
  <object id="1045" gid="16388" x="3408" y="144" width="16" height="16">
   <properties>
    <property name="Channel" value="GROUND"/>
    <property name="Color" type="color" value="#ff000000"/>
    <property name="Frames" type="int" value="30"/>
   </properties>
  </object>
  <object id="1046" gid="16388" x="3408" y="112" width="16" height="16">
   <properties>
    <property name="Channel" value="LINE"/>
    <property name="Color" type="color" value="#fff0ff94"/>
    <property name="Frames" type="int" value="30"/>
   </properties>
  </object>
  <object id="1126" gid="16388" x="3552" y="112" width="16" height="16">
   <properties>
    <property name="Channel" value="LINE"/>
    <property name="Color" type="color" value="#fff0ff94"/>
    <property name="Frames" type="int" value="30"/>
   </properties>
  </object>
  <object id="1129" gid="16388" x="3653" y="112" width="16" height="16">
   <properties>
    <property name="Channel" value="LINE"/>
    <property name="Color" type="color" value="#fff0ff94"/>
    <property name="Frames" type="int" value="30"/>
   </properties>
  </object>
  <object id="1133" gid="16388" x="3759" y="112" width="16" height="16">
   <properties>
    <property name="Channel" value="LINE"/>
    <property name="Color" type="color" value="#fff0ff94"/>
    <property name="Frames" type="int" value="30"/>
   </properties>
  </object>
  <object id="1137" gid="16388" x="3856" y="112" width="16" height="16">
   <properties>
    <property name="Channel" value="LINE"/>
    <property name="Color" type="color" value="#fff0ff94"/>
    <property name="Frames" type="int" value="30"/>
   </properties>
  </object>
  <object id="1141" gid="16388" x="3952" y="112" width="16" height="16">
   <properties>
    <property name="Channel" value="LINE"/>
    <property name="Color" type="color" value="#fff0ff94"/>
    <property name="Frames" type="int" value="30"/>
   </properties>
  </object>
  <object id="1145" gid="16388" x="4048" y="112" width="16" height="16">
   <properties>
    <property name="Channel" value="LINE"/>
    <property name="Color" type="color" value="#fff0ff94"/>
    <property name="Frames" type="int" value="30"/>
   </properties>
  </object>
  <object id="1149" gid="16388" x="4144" y="112" width="16" height="16">
   <properties>
    <property name="Channel" value="LINE"/>
    <property name="Color" type="color" value="#fff0ff94"/>
    <property name="Frames" type="int" value="30"/>
   </properties>
  </object>
  <object id="1047" gid="16388" x="3392" y="160" width="16" height="16">
   <properties>
    <property name="Channel" value="OBJ"/>
    <property name="Color" type="color" value="#ff000000"/>
    <property name="Copy color" type="bool" value="true"/>
    <property name="Copy from channel" value="LINE"/>
    <property name="Frames" type="int" value="30"/>
   </properties>
  </object>
  <object id="1048" gid="16388" x="3408" y="208" width="16" height="16">
   <properties>
    <property name="Channel" value="3"/>
    <property name="Color" type="color" value="#ff33005d"/>
    <property name="Color Blending" type="bool" value="true"/>
    <property name="Frames" type="int" value="30"/>
   </properties>
  </object>
  <object id="1049" gid="16388" x="3408" y="192" width="16" height="16">
   <properties>
    <property name="Channel" value="2"/>
    <property name="Color" type="color" value="#ff1f0130"/>
    <property name="Color Blending" type="bool" value="true"/>
    <property name="Frames" type="int" value="30"/>
   </properties>
  </object>
  <object id="1050" gid="16388" x="3408" y="224" width="16" height="16">
   <properties>
    <property name="Channel" value="4"/>
    <property name="Color" type="color" value="#ff560c88"/>
    <property name="Color Blending" type="bool" value="true"/>
   </properties>
  </object>
  <object id="1051" gid="16388" x="3408" y="176" width="16" height="16">
   <properties>
    <property name="Channel" value="1"/>
    <property name="Color" type="color" value="#ff120318"/>
    <property name="Color Blending" type="bool" value="true"/>
    <property name="Frames" type="int" value="30"/>
   </properties>
  </object>
  <object id="1052" gid="16401" x="3616" y="400" width="16" height="16">
   <properties>
    <property name="bg layer" value="0"/>
   </properties>
  </object>
  <object id="1053" gid="16401" x="3648" y="336" width="16" height="16">
   <properties>
    <property name="bg layer" value="0"/>
   </properties>
  </object>
  <object id="1054" gid="16394" x="3680" y="400" width="16" height="16">
   <properties>
    <property name="bg layer" value="0"/>
   </properties>
  </object>
  <object id="1087" gid="16394" x="4160" y="400" width="16" height="16">
   <properties>
    <property name="bg layer" value="0"/>
   </properties>
  </object>
  <object id="1055" gid="5733" x="3792" y="384" width="16" height="16">
   <properties>
    <property name="bg layer" value="0"/>
   </properties>
  </object>
  <object id="1056" gid="3391" x="3792" y="400" width="16" height="16">
   <properties>
    <property name="bg layer" value="1"/>
    <property name="z index" type="int" value="0"/>
   </properties>
  </object>
  <object id="1057" gid="3391" x="3888" y="400" width="16" height="16">
   <properties>
    <property name="bg layer" value="1"/>
    <property name="z index" type="int" value="0"/>
   </properties>
  </object>
  <object id="1058" gid="3391" x="3888" y="416" width="16" height="16">
   <properties>
    <property name="bg layer" value="1"/>
    <property name="z index" type="int" value="0"/>
   </properties>
  </object>
  <object id="1059" gid="3391" x="3936" y="416" width="16" height="16">
   <properties>
    <property name="bg layer" value="1"/>
    <property name="z index" type="int" value="0"/>
   </properties>
  </object>
  <object id="1067" gid="3391" x="3936" y="416" width="16" height="16">
   <properties>
    <property name="bg layer" value="1"/>
    <property name="z index" type="int" value="0"/>
   </properties>
  </object>
  <object id="1060" gid="3391" x="4064" y="352" width="16" height="16">
   <properties>
    <property name="bg layer" value="1"/>
    <property name="z index" type="int" value="0"/>
   </properties>
  </object>
  <object id="1156" gid="3391" x="4400" y="400" width="16" height="16">
   <properties>
    <property name="bg layer" value="1"/>
    <property name="z index" type="int" value="0"/>
   </properties>
  </object>
  <object id="1163" gid="3391" x="4640" y="400" width="16" height="16">
   <properties>
    <property name="bg layer" value="1"/>
    <property name="z index" type="int" value="0"/>
   </properties>
  </object>
  <object id="1164" gid="3391" x="4672" y="416" width="16" height="16">
   <properties>
    <property name="bg layer" value="1"/>
    <property name="z index" type="int" value="0"/>
   </properties>
  </object>
  <object id="1165" gid="3391" x="4752" y="432" width="16" height="16">
   <properties>
    <property name="bg layer" value="1"/>
    <property name="z index" type="int" value="0"/>
   </properties>
  </object>
  <object id="1061" gid="3391" x="4144" y="336" width="16" height="16">
   <properties>
    <property name="bg layer" value="1"/>
    <property name="z index" type="int" value="0"/>
   </properties>
  </object>
  <object id="1062" gid="3409" x="4064" y="352" width="16" height="16">
   <properties>
    <property name="bg layer" value="1"/>
    <property name="z index" type="int" value="15"/>
   </properties>
  </object>
  <object id="1071" gid="3409" x="3472" y="336" width="16" height="16">
   <properties>
    <property name="bg layer" value="1"/>
    <property name="z index" type="int" value="15"/>
   </properties>
  </object>
  <object id="1063" gid="3409" x="4128" y="336" width="16" height="16">
   <properties>
    <property name="bg layer" value="1"/>
    <property name="z index" type="int" value="15"/>
   </properties>
  </object>
  <object id="1064" gid="3409" x="4144" y="336" width="16" height="16">
   <properties>
    <property name="bg layer" value="1"/>
    <property name="z index" type="int" value="15"/>
   </properties>
  </object>
  <object id="1065" gid="3410" x="3888" y="400" width="16" height="16">
   <properties>
    <property name="bg layer" value="1"/>
    <property name="z index" type="int" value="15"/>
   </properties>
  </object>
  <object id="1157" gid="3410" x="4384" y="400" width="16" height="16">
   <properties>
    <property name="bg layer" value="1"/>
    <property name="z index" type="int" value="15"/>
   </properties>
  </object>
  <object id="1158" gid="3410" x="4400" y="400" width="16" height="16">
   <properties>
    <property name="bg layer" value="1"/>
    <property name="z index" type="int" value="15"/>
   </properties>
  </object>
  <object id="1162" gid="3410" x="4448" y="416" width="16" height="16">
   <properties>
    <property name="bg layer" value="1"/>
    <property name="z index" type="int" value="15"/>
   </properties>
  </object>
  <object id="1170" gid="3409" x="4464" y="320" width="16" height="16">
   <properties>
    <property name="bg layer" value="1"/>
    <property name="z index" type="int" value="15"/>
   </properties>
  </object>
  <object id="1171" gid="3409" x="4672" y="336" width="16" height="16">
   <properties>
    <property name="bg layer" value="1"/>
    <property name="z index" type="int" value="15"/>
   </properties>
  </object>
  <object id="1172" gid="3409" x="4688" y="336" width="16" height="16">
   <properties>
    <property name="bg layer" value="1"/>
    <property name="z index" type="int" value="15"/>
   </properties>
  </object>
  <object id="1166" gid="3410" x="4672" y="416" width="16" height="16">
   <properties>
    <property name="bg layer" value="1"/>
    <property name="z index" type="int" value="15"/>
   </properties>
  </object>
  <object id="1167" gid="3410" x="4720" y="432" width="16" height="16">
   <properties>
    <property name="bg layer" value="1"/>
    <property name="z index" type="int" value="15"/>
   </properties>
  </object>
  <object id="1168" gid="3410" x="4736" y="432" width="16" height="16">
   <properties>
    <property name="bg layer" value="1"/>
    <property name="z index" type="int" value="15"/>
   </properties>
  </object>
  <object id="1169" gid="3410" x="4752" y="432" width="16" height="16">
   <properties>
    <property name="bg layer" value="1"/>
    <property name="z index" type="int" value="15"/>
   </properties>
  </object>
  <object id="1066" gid="3410" x="3776" y="400" width="16" height="16">
   <properties>
    <property name="bg layer" value="1"/>
    <property name="z index" type="int" value="15"/>
   </properties>
  </object>
  <object id="1068" gid="3410" x="3792" y="400" width="16" height="16">
   <properties>
    <property name="bg layer" value="1"/>
    <property name="z index" type="int" value="15"/>
   </properties>
  </object>
  <object id="1069" gid="3410" x="3520" y="400" width="16" height="16">
   <properties>
    <property name="bg layer" value="1"/>
    <property name="z index" type="int" value="15"/>
   </properties>
  </object>
  <object id="1070" gid="3410" x="3456" y="400" width="16" height="16">
   <properties>
    <property name="bg layer" value="1"/>
    <property name="z index" type="int" value="15"/>
   </properties>
  </object>
  <object id="1072" gid="16403" x="3968" y="368" width="16" height="16">
   <properties>
    <property name="bg layer" value="0"/>
   </properties>
  </object>
  <object id="1073" gid="16486" x="3968" y="368" width="16" height="16">
   <properties>
    <property name="bg layer" value="1"/>
    <property name="color channel" value="4"/>
   </properties>
  </object>
  <object id="1080" gid="16486" x="3680" y="400" width="16" height="16">
   <properties>
    <property name="bg layer" value="1"/>
    <property name="color channel" value="4"/>
   </properties>
  </object>
  <object id="1085" gid="16486" x="4160" y="400" width="16" height="16">
   <properties>
    <property name="bg layer" value="1"/>
    <property name="color channel" value="4"/>
   </properties>
  </object>
  <object id="1078" gid="16486" x="3648" y="336" width="16" height="16">
   <properties>
    <property name="bg layer" value="1"/>
    <property name="color channel" value="4"/>
   </properties>
  </object>
  <object id="1076" gid="16486" x="3616" y="400" width="16" height="16">
   <properties>
    <property name="bg layer" value="1"/>
    <property name="color channel" value="4"/>
   </properties>
  </object>
  <object id="1074" gid="16502" x="3968" y="368" width="16" height="16">
   <properties>
    <property name="bg layer" value="1"/>
    <property name="color channel" value="1"/>
   </properties>
  </object>
  <object id="1079" gid="16502" x="3680" y="400" width="16" height="16">
   <properties>
    <property name="bg layer" value="1"/>
    <property name="color channel" value="1"/>
   </properties>
  </object>
  <object id="1086" gid="16502" x="4160" y="400" width="16" height="16">
   <properties>
    <property name="bg layer" value="1"/>
    <property name="color channel" value="1"/>
   </properties>
  </object>
  <object id="1077" gid="16502" x="3648" y="336" width="16" height="16">
   <properties>
    <property name="bg layer" value="1"/>
    <property name="color channel" value="1"/>
   </properties>
  </object>
  <object id="1075" gid="16502" x="3616" y="400" width="16" height="16">
   <properties>
    <property name="bg layer" value="1"/>
    <property name="color channel" value="1"/>
   </properties>
  </object>
  <object id="1081" gid="16393" x="3568" y="432" width="16" height="16">
   <properties>
    <property name="bg layer" value="1"/>
    <property name="color channel" value="1"/>
   </properties>
  </object>
  <object id="1109" gid="16393" x="3520" y="320" width="16" height="16">
   <properties>
    <property name="bg layer" value="1"/>
    <property name="color channel" value="1"/>
    <property name="vflip" type="bool" value="true"/>
   </properties>
  </object>
  <object id="1082" gid="16463" x="3728" y="432" width="16" height="16">
   <properties>
    <property name="bg layer" value="1"/>
    <property name="color channel" value="1"/>
   </properties>
  </object>
  <object id="1110" gid="16463" x="3680" y="320" width="16" height="16">
   <properties>
    <property name="bg layer" value="1"/>
    <property name="color channel" value="1"/>
    <property name="vflip" type="bool" value="true"/>
   </properties>
  </object>
  <object id="1113" gid="16463" x="3952" y="320" width="16" height="16">
   <properties>
    <property name="bg layer" value="1"/>
    <property name="color channel" value="1"/>
    <property name="vflip" type="bool" value="true"/>
   </properties>
  </object>
  <object id="1083" gid="16393" x="3840" y="432" width="16" height="16">
   <properties>
    <property name="bg layer" value="1"/>
    <property name="color channel" value="1"/>
   </properties>
  </object>
  <object id="1084" gid="16464" x="3952" y="432" width="16" height="16">
   <properties>
    <property name="bg layer" value="1"/>
    <property name="color channel" value="1"/>
   </properties>
  </object>
  <object id="1111" gid="16464" x="3728" y="320" width="16" height="16">
   <properties>
    <property name="bg layer" value="1"/>
    <property name="color channel" value="1"/>
    <property name="vflip" type="bool" value="true"/>
   </properties>
  </object>
  <object id="1088" gid="16462" x="4016" y="432" width="16" height="16">
   <properties>
    <property name="bg layer" value="1"/>
    <property name="color channel" value="1"/>
   </properties>
  </object>
  <object id="1112" gid="16462" x="3792" y="320" width="16" height="16">
   <properties>
    <property name="bg layer" value="1"/>
    <property name="color channel" value="1"/>
    <property name="vflip" type="bool" value="true"/>
   </properties>
  </object>
  <object id="1089" gid="16463" x="4176" y="432" width="16" height="16">
   <properties>
    <property name="bg layer" value="1"/>
    <property name="color channel" value="1"/>
   </properties>
  </object>
  <object id="1090" gid="16480" x="3984" y="438" width="16" height="16">
   <properties>
    <property name="bg layer" value="2"/>
    <property name="color channel" value="4"/>
   </properties>
  </object>
  <object id="1091" gid="16479" x="4096" y="440" width="16" height="16">
   <properties>
    <property name="bg layer" value="2"/>
    <property name="color channel" value="4"/>
   </properties>
  </object>
  <object id="1200" gid="16479" x="4496" y="440" width="16" height="16">
   <properties>
    <property name="bg layer" value="2"/>
    <property name="color channel" value="4"/>
   </properties>
  </object>
  <object id="1092" gid="16479" x="3616" y="440" width="16" height="16">
   <properties>
    <property name="bg layer" value="2"/>
    <property name="color channel" value="4"/>
   </properties>
  </object>
  <object id="1093" gid="16480" x="3680" y="438" width="16" height="16">
   <properties>
    <property name="bg layer" value="2"/>
    <property name="color channel" value="4"/>
   </properties>
  </object>
  <object id="1094" gid="16479" x="3568" y="312" width="16" height="16">
   <properties>
    <property name="bg layer" value="2"/>
    <property name="color channel" value="4"/>
   </properties>
  </object>
  <object id="1097" gid="16479" x="3872" y="312" width="16" height="16">
   <properties>
    <property name="bg layer" value="1"/>
    <property name="color channel" value="4"/>
   </properties>
  </object>
  <object id="1095" gid="16480" x="3632" y="314" width="16" height="16">
   <properties>
    <property name="bg layer" value="2"/>
    <property name="color channel" value="4"/>
   </properties>
  </object>
  <object id="1096" gid="16480" x="3760" y="314" width="16" height="16">
   <properties>
    <property name="bg layer" value="1"/>
    <property name="color channel" value="4"/>
   </properties>
  </object>
  <object id="1099" gid="16491" x="3597" y="342" width="16" height="16">
   <properties>
    <property name="bg layer" value="0"/>
   </properties>
  </object>
  <object id="1106" gid="16491" x="3827" y="393" width="16" height="16">
   <properties>
    <property name="bg layer" value="0"/>
   </properties>
  </object>
  <object id="1108" gid="16491" x="4006" y="358" width="16" height="16">
   <properties>
    <property name="bg layer" value="0"/>
   </properties>
  </object>
  <object id="1179" gid="16491" x="4348" y="391" width="16" height="16">
   <properties>
    <property name="bg layer" value="0"/>
   </properties>
  </object>
  <object id="1184" gid="16491" x="4592" y="384" width="16" height="16">
   <properties>
    <property name="bg layer" value="0"/>
   </properties>
  </object>
  <object id="1100" gid="16502" x="3597" y="342" width="16" height="16">
   <properties>
    <property name="bg layer" value="1"/>
    <property name="color channel" value="1"/>
   </properties>
  </object>
  <object id="1105" gid="16502" x="3827" y="393" width="16" height="16">
   <properties>
    <property name="bg layer" value="1"/>
    <property name="color channel" value="1"/>
   </properties>
  </object>
  <object id="1107" gid="16502" x="4006" y="358" width="16" height="16">
   <properties>
    <property name="bg layer" value="1"/>
    <property name="color channel" value="1"/>
   </properties>
  </object>
  <object id="1178" gid="16502" x="4348" y="391" width="16" height="16">
   <properties>
    <property name="bg layer" value="1"/>
    <property name="color channel" value="1"/>
   </properties>
  </object>
  <object id="1185" gid="16502" x="4592" y="384" width="16" height="16">
   <properties>
    <property name="bg layer" value="1"/>
    <property name="color channel" value="1"/>
   </properties>
  </object>
  <object id="1114" gid="16466" x="3519" y="346" width="16" height="16">
   <properties>
    <property name="bg layer" value="0"/>
    <property name="color channel" value="3"/>
   </properties>
  </object>
  <object id="1118" gid="16466" x="3934" y="340" width="16" height="16">
   <properties>
    <property name="bg layer" value="0"/>
    <property name="color channel" value="3"/>
   </properties>
  </object>
  <object id="1115" gid="16467" x="3556" y="398" width="16" height="16">
   <properties>
    <property name="bg layer" value="0"/>
    <property name="color channel" value="4"/>
   </properties>
  </object>
  <object id="1116" gid="16467" x="3728" y="384" width="16" height="16">
   <properties>
    <property name="color channel" value="4"/>
   </properties>
  </object>
  <object id="1117" gid="16467" x="3794" y="344" width="16" height="16">
   <properties>
    <property name="bg layer" value="0"/>
    <property name="color channel" value="4"/>
   </properties>
  </object>
  <object id="1119" gid="16467" x="3974" y="411" width="16" height="16">
   <properties>
    <property name="bg layer" value="0"/>
    <property name="color channel" value="4"/>
   </properties>
  </object>
  <object id="1120" gid="16467" x="4080" y="400" width="16" height="16">
   <properties>
    <property name="bg layer" value="0"/>
    <property name="color channel" value="4"/>
   </properties>
  </object>
  <object id="1121" gid="16514" x="4128" y="384" width="16" height="16">
   <properties>
    <property name="color channel" value="3"/>
   </properties>
  </object>
  <object id="1187" gid="16514" x="4392" y="360" width="16" height="16">
   <properties>
    <property name="color channel" value="3"/>
   </properties>
  </object>
  <object id="1189" gid="16514" x="4671" y="370" width="16" height="16">
   <properties>
    <property name="color channel" value="3"/>
   </properties>
  </object>
  <object id="1122" gid="16460" x="4128" y="384" width="16" height="16">
   <properties>
    <property name="color channel" value="1"/>
   </properties>
  </object>
  <object id="1186" gid="16460" x="4392" y="360" width="16" height="16">
   <properties>
    <property name="color channel" value="1"/>
   </properties>
  </object>
  <object id="1188" gid="16460" x="4671" y="370" width="16" height="16">
   <properties>
    <property name="color channel" value="1"/>
   </properties>
  </object>
  <object id="1175" gid="16460" x="4272" y="352" width="16" height="16">
   <properties>
    <property name="color channel" value="1"/>
   </properties>
  </object>
  <object id="1182" gid="16460" x="4464" y="368" width="16" height="16">
   <properties>
    <property name="color channel" value="1"/>
   </properties>
  </object>
  <object id="1208" gid="16460" x="4583" y="346" width="16" height="16">
   <properties>
    <property name="bg layer" value="0"/>
    <property name="color channel" value="1"/>
   </properties>
  </object>
  <object id="1123" gid="16388" x="3536" y="128" width="16" height="16">
   <properties>
    <property name="Channel" value="BG"/>
    <property name="Color" type="color" value="#ff26082d"/>
   </properties>
  </object>
  <object id="1128" gid="16388" x="3637" y="128" width="16" height="16">
   <properties>
    <property name="Channel" value="BG"/>
    <property name="Color" type="color" value="#ff26082d"/>
   </properties>
  </object>
  <object id="1132" gid="16388" x="3743" y="128" width="16" height="16">
   <properties>
    <property name="Channel" value="BG"/>
    <property name="Color" type="color" value="#ff26082d"/>
   </properties>
  </object>
  <object id="1136" gid="16388" x="3840" y="128" width="16" height="16">
   <properties>
    <property name="Channel" value="BG"/>
    <property name="Color" type="color" value="#ff26082d"/>
   </properties>
  </object>
  <object id="1140" gid="16388" x="3936" y="128" width="16" height="16">
   <properties>
    <property name="Channel" value="BG"/>
    <property name="Color" type="color" value="#ff26082d"/>
   </properties>
  </object>
  <object id="1144" gid="16388" x="4032" y="128" width="16" height="16">
   <properties>
    <property name="Channel" value="BG"/>
    <property name="Color" type="color" value="#ff26082d"/>
   </properties>
  </object>
  <object id="1148" gid="16388" x="4128" y="128" width="16" height="16">
   <properties>
    <property name="Channel" value="BG"/>
    <property name="Color" type="color" value="#ff26082d"/>
   </properties>
  </object>
  <object id="1124" gid="16388" x="3536" y="112" width="16" height="16">
   <properties>
    <property name="Channel" value="LINE"/>
    <property name="Color" type="color" value="#ffff585f"/>
   </properties>
  </object>
  <object id="1130" gid="16388" x="3637" y="112" width="16" height="16">
   <properties>
    <property name="Channel" value="LINE"/>
    <property name="Color" type="color" value="#ffff585f"/>
   </properties>
  </object>
  <object id="1134" gid="16388" x="3743" y="112" width="16" height="16">
   <properties>
    <property name="Channel" value="LINE"/>
    <property name="Color" type="color" value="#ffff585f"/>
   </properties>
  </object>
  <object id="1138" gid="16388" x="3840" y="112" width="16" height="16">
   <properties>
    <property name="Channel" value="LINE"/>
    <property name="Color" type="color" value="#ffff585f"/>
   </properties>
  </object>
  <object id="1142" gid="16388" x="3936" y="112" width="16" height="16">
   <properties>
    <property name="Channel" value="LINE"/>
    <property name="Color" type="color" value="#ffff585f"/>
   </properties>
  </object>
  <object id="1146" gid="16388" x="4032" y="112" width="16" height="16">
   <properties>
    <property name="Channel" value="LINE"/>
    <property name="Color" type="color" value="#ffff585f"/>
   </properties>
  </object>
  <object id="1150" gid="16388" x="4128" y="112" width="16" height="16">
   <properties>
    <property name="Channel" value="LINE"/>
    <property name="Color" type="color" value="#ffff585f"/>
   </properties>
  </object>
  <object id="1151" gid="16414" x="3312" y="376" width="16" height="16">
   <properties>
    <property name="bg layer" value="0"/>
   </properties>
  </object>
  <object id="1155" gid="16387" x="4224" y="368" width="16" height="16"/>
  <object id="1159" gid="16395" x="4752" y="416" width="16" height="16"/>
  <object id="1160" gid="16404" x="4544" y="384" width="16" height="16"/>
  <object id="1161" gid="16404" x="4560" y="384" width="16" height="16"/>
  <object id="1173" gid="16501" x="4272" y="240" width="16" height="16">
   <properties>
    <property name="bg layer" value="1"/>
    <property name="color channel" value="1"/>
   </properties>
  </object>
  <object id="1174" gid="16490" x="4272" y="240" width="16" height="16">
   <properties>
    <property name="bg layer" value="0"/>
   </properties>
  </object>
  <object id="1177" gid="16461" x="4304" y="381" width="16" height="16">
   <properties>
    <property name="color channel" value="1"/>
   </properties>
  </object>
  <object id="1183" gid="16461" x="4516" y="365" width="16" height="16">
   <properties>
    <property name="color channel" value="1"/>
   </properties>
  </object>
  <object id="1190" gid="16461" x="4734" y="389" width="16" height="16">
   <properties>
    <property name="color channel" value="1"/>
   </properties>
  </object>
  <object id="1191" gid="16518" x="4464" y="336" width="16" height="16">
   <properties>
    <property name="bg layer" value="0"/>
    <property name="color channel" value="BLACK"/>
    <property name="vflip" type="bool" value="true"/>
   </properties>
  </object>
  <object id="1192" gid="16518" x="4480" y="336" width="16" height="16">
   <properties>
    <property name="bg layer" value="0"/>
    <property name="color channel" value="BLACK"/>
    <property name="vflip" type="bool" value="true"/>
   </properties>
  </object>
  <object id="1193" gid="16518" x="4672" y="352" width="16" height="16">
   <properties>
    <property name="bg layer" value="0"/>
    <property name="color channel" value="BLACK"/>
    <property name="vflip" type="bool" value="true"/>
   </properties>
  </object>
  <object id="1194" gid="16518" x="4688" y="352" width="16" height="16">
   <properties>
    <property name="bg layer" value="0"/>
    <property name="color channel" value="BLACK"/>
    <property name="vflip" type="bool" value="true"/>
   </properties>
  </object>
  <object id="1195" gid="16518" x="4768" y="432" width="16" height="16">
   <properties>
    <property name="bg layer" value="0"/>
    <property name="color channel" value="BLACK"/>
   </properties>
  </object>
  <object id="1196" gid="16518" x="4784" y="432" width="16" height="16">
   <properties>
    <property name="bg layer" value="0"/>
    <property name="color channel" value="BLACK"/>
   </properties>
  </object>
  <object id="1197" gid="16518" x="4800" y="432" width="16" height="16">
   <properties>
    <property name="bg layer" value="0"/>
    <property name="color channel" value="BLACK"/>
   </properties>
  </object>
  <object id="1198" gid="16518" x="4816" y="432" width="16" height="16">
   <properties>
    <property name="bg layer" value="0"/>
    <property name="color channel" value="BLACK"/>
   </properties>
  </object>
  <object id="1245" gid="16518" x="4832" y="432" width="16" height="16">
   <properties>
    <property name="bg layer" value="0"/>
    <property name="color channel" value="BLACK"/>
   </properties>
  </object>
  <object id="1199" gid="16393" x="4416" y="432" width="16" height="16">
   <properties>
    <property name="bg layer" value="1"/>
    <property name="color channel" value="1"/>
   </properties>
  </object>
  <object id="1201" gid="16393" x="4515" y="432" width="16" height="16">
   <properties>
    <property name="bg layer" value="1"/>
    <property name="color channel" value="1"/>
   </properties>
  </object>
  <object id="1202" gid="16463" x="4576" y="432" width="16" height="16">
   <properties>
    <property name="bg layer" value="1"/>
    <property name="color channel" value="1"/>
   </properties>
  </object>
  <object id="1203" gid="16466" x="4320" y="320" width="16" height="16">
   <properties>
    <property name="color channel" value="3"/>
   </properties>
  </object>
  <object id="1204" gid="16467" x="4365" y="337" width="16" height="16">
   <properties>
    <property name="color channel" value="4"/>
   </properties>
  </object>
  <object id="1205" gid="16467" x="4432" y="336" width="16" height="16">
   <properties>
    <property name="color channel" value="4"/>
   </properties>
  </object>
  <object id="1206" gid="16467" x="4506" y="401" width="16" height="16">
   <properties>
    <property name="color channel" value="4"/>
   </properties>
  </object>
  <object id="1207" gid="16467" x="4540" y="325" width="16" height="16">
   <properties>
    <property name="color channel" value="4"/>
   </properties>
  </object>
  <object id="1209" gid="16467" x="4592" y="307" width="16" height="16">
   <properties>
    <property name="color channel" value="4"/>
   </properties>
  </object>
  <object id="1210" gid="16467" x="4720" y="336" width="16" height="16">
   <properties>
    <property name="color channel" value="4"/>
   </properties>
  </object>
  <object id="1212" gid="16388" x="4192" y="128" width="16" height="16">
   <properties>
    <property name="Channel" value="BG"/>
    <property name="Color" type="color" value="#ff060101"/>
    <property name="Frames" type="int" value="30"/>
   </properties>
  </object>
  <object id="1223" gid="16388" x="4244" y="128" width="16" height="16">
   <properties>
    <property name="Channel" value="BG"/>
    <property name="Color" type="color" value="#ff060101"/>
    <property name="Frames" type="int" value="30"/>
   </properties>
  </object>
  <object id="1225" gid="16388" x="4340" y="128" width="16" height="16">
   <properties>
    <property name="Channel" value="BG"/>
    <property name="Color" type="color" value="#ff060101"/>
    <property name="Frames" type="int" value="30"/>
   </properties>
  </object>
  <object id="1229" gid="16388" x="4436" y="128" width="16" height="16">
   <properties>
    <property name="Channel" value="BG"/>
    <property name="Color" type="color" value="#ff060101"/>
    <property name="Frames" type="int" value="30"/>
   </properties>
  </object>
  <object id="1233" gid="16388" x="4532" y="128" width="16" height="16">
   <properties>
    <property name="Channel" value="BG"/>
    <property name="Color" type="color" value="#ff060101"/>
    <property name="Frames" type="int" value="30"/>
   </properties>
  </object>
  <object id="1237" gid="16388" x="4628" y="128" width="16" height="16">
   <properties>
    <property name="Channel" value="BG"/>
    <property name="Color" type="color" value="#ff060101"/>
    <property name="Frames" type="int" value="30"/>
   </properties>
  </object>
  <object id="1241" gid="16388" x="4724" y="128" width="16" height="16">
   <properties>
    <property name="Channel" value="BG"/>
    <property name="Color" type="color" value="#ff060101"/>
    <property name="Frames" type="int" value="30"/>
   </properties>
  </object>
  <object id="1213" gid="16388" x="4192" y="112" width="16" height="16">
   <properties>
    <property name="Channel" value="LINE"/>
    <property name="Color" type="color" value="#ff94ffcf"/>
    <property name="Color Blending" type="bool" value="true"/>
    <property name="Frames" type="int" value="30"/>
   </properties>
  </object>
  <object id="1224" gid="16388" x="4244" y="112" width="16" height="16">
   <properties>
    <property name="Channel" value="LINE"/>
    <property name="Color" type="color" value="#ff94ffcf"/>
    <property name="Color Blending" type="bool" value="true"/>
    <property name="Frames" type="int" value="30"/>
   </properties>
  </object>
  <object id="1227" gid="16388" x="4340" y="112" width="16" height="16">
   <properties>
    <property name="Channel" value="LINE"/>
    <property name="Color" type="color" value="#ff94ffcf"/>
    <property name="Color Blending" type="bool" value="true"/>
    <property name="Frames" type="int" value="30"/>
   </properties>
  </object>
  <object id="1231" gid="16388" x="4436" y="112" width="16" height="16">
   <properties>
    <property name="Channel" value="LINE"/>
    <property name="Color" type="color" value="#ff94ffcf"/>
    <property name="Color Blending" type="bool" value="true"/>
    <property name="Frames" type="int" value="30"/>
   </properties>
  </object>
  <object id="1235" gid="16388" x="4532" y="112" width="16" height="16">
   <properties>
    <property name="Channel" value="LINE"/>
    <property name="Color" type="color" value="#ff94ffcf"/>
    <property name="Color Blending" type="bool" value="true"/>
    <property name="Frames" type="int" value="30"/>
   </properties>
  </object>
  <object id="1239" gid="16388" x="4628" y="112" width="16" height="16">
   <properties>
    <property name="Channel" value="LINE"/>
    <property name="Color" type="color" value="#ff94ffcf"/>
    <property name="Color Blending" type="bool" value="true"/>
    <property name="Frames" type="int" value="30"/>
   </properties>
  </object>
  <object id="1243" gid="16388" x="4724" y="112" width="16" height="16">
   <properties>
    <property name="Channel" value="LINE"/>
    <property name="Color" type="color" value="#ff94ffcf"/>
    <property name="Color Blending" type="bool" value="true"/>
    <property name="Frames" type="int" value="30"/>
   </properties>
  </object>
  <object id="1214" gid="16388" x="4192" y="144" width="16" height="16">
   <properties>
    <property name="Channel" value="GROUND"/>
    <property name="Color" type="color" value="#ff000000"/>
    <property name="Frames" type="int" value="30"/>
   </properties>
  </object>
  <object id="1215" gid="16388" x="4192" y="176" width="16" height="16">
   <properties>
    <property name="Channel" value="1"/>
    <property name="Color" type="color" value="#ff100303"/>
    <property name="Color Blending" type="bool" value="true"/>
    <property name="Frames" type="int" value="30"/>
   </properties>
  </object>
  <object id="1216" gid="16388" x="4192" y="192" width="16" height="16">
   <properties>
    <property name="Channel" value="2"/>
    <property name="Color" type="color" value="#ff300101"/>
    <property name="Color Blending" type="bool" value="true"/>
    <property name="Frames" type="int" value="30"/>
   </properties>
  </object>
  <object id="1217" gid="16388" x="4192" y="208" width="16" height="16">
   <properties>
    <property name="Channel" value="3"/>
    <property name="Color" type="color" value="#ff5d0000"/>
    <property name="Color Blending" type="bool" value="true"/>
    <property name="Frames" type="int" value="30"/>
   </properties>
  </object>
  <object id="1218" gid="16388" x="4192" y="224" width="16" height="16">
   <properties>
    <property name="Channel" value="4"/>
    <property name="Color" type="color" value="#ff880e0c"/>
    <property name="Color Blending" type="bool" value="true"/>
    <property name="Frames" type="int" value="30"/>
   </properties>
  </object>
  <object id="1219" gid="16388" x="4228" y="112" width="16" height="16">
   <properties>
    <property name="Channel" value="LINE"/>
    <property name="Color" type="color" value="#ffd5ff58"/>
   </properties>
  </object>
  <object id="1228" gid="16388" x="4324" y="112" width="16" height="16">
   <properties>
    <property name="Channel" value="LINE"/>
    <property name="Color" type="color" value="#ffd5ff58"/>
   </properties>
  </object>
  <object id="1232" gid="16388" x="4420" y="112" width="16" height="16">
   <properties>
    <property name="Channel" value="LINE"/>
    <property name="Color" type="color" value="#ffd5ff58"/>
   </properties>
  </object>
  <object id="1236" gid="16388" x="4516" y="112" width="16" height="16">
   <properties>
    <property name="Channel" value="LINE"/>
    <property name="Color" type="color" value="#ffd5ff58"/>
   </properties>
  </object>
  <object id="1240" gid="16388" x="4612" y="112" width="16" height="16">
   <properties>
    <property name="Channel" value="LINE"/>
    <property name="Color" type="color" value="#ffd5ff58"/>
   </properties>
  </object>
  <object id="1244" gid="16388" x="4708" y="112" width="16" height="16">
   <properties>
    <property name="Channel" value="LINE"/>
    <property name="Color" type="color" value="#ffd5ff58"/>
   </properties>
  </object>
  <object id="1220" gid="16388" x="4228" y="128" width="16" height="16">
   <properties>
    <property name="Channel" value="BG"/>
    <property name="Color" type="color" value="#ff2d0809"/>
   </properties>
  </object>
  <object id="1226" gid="16388" x="4324" y="128" width="16" height="16">
   <properties>
    <property name="Channel" value="BG"/>
    <property name="Color" type="color" value="#ff2d0809"/>
   </properties>
  </object>
  <object id="1230" gid="16388" x="4420" y="128" width="16" height="16">
   <properties>
    <property name="Channel" value="BG"/>
    <property name="Color" type="color" value="#ff2d0809"/>
   </properties>
  </object>
  <object id="1234" gid="16388" x="4516" y="128" width="16" height="16">
   <properties>
    <property name="Channel" value="BG"/>
    <property name="Color" type="color" value="#ff2d0809"/>
   </properties>
  </object>
  <object id="1238" gid="16388" x="4612" y="128" width="16" height="16">
   <properties>
    <property name="Channel" value="BG"/>
    <property name="Color" type="color" value="#ff2d0809"/>
   </properties>
  </object>
  <object id="1242" gid="16388" x="4708" y="128" width="16" height="16">
   <properties>
    <property name="Channel" value="BG"/>
    <property name="Color" type="color" value="#ff2d0809"/>
   </properties>
  </object>
  <object id="1246" gid="16438" x="4816" y="336" width="16" height="16"/>
  <object id="1247" gid="16404" x="4848" y="384" width="16" height="16">
   <properties>
    <property name="bg layer" value="2"/>
   </properties>
  </object>
  <object id="1248" gid="16404" x="4864" y="384" width="16" height="16">
   <properties>
    <property name="bg layer" value="2"/>
   </properties>
  </object>
  <object id="1249" gid="16402" x="4896" y="368" width="16" height="16">
   <properties>
    <property name="bg layer" value="2"/>
   </properties>
  </object>
  <object id="1250" gid="16402" x="4912" y="368" width="16" height="16">
   <properties>
    <property name="bg layer" value="2"/>
   </properties>
  </object>
  <object id="1251" gid="16402" x="4928" y="384" width="16" height="16">
   <properties>
    <property name="bg layer" value="2"/>
   </properties>
  </object>
  <object id="1252" gid="16402" x="4944" y="384" width="16" height="16">
   <properties>
    <property name="bg layer" value="2"/>
   </properties>
  </object>
  <object id="1253" gid="16402" x="4960" y="384" width="16" height="16">
   <properties>
    <property name="bg layer" value="2"/>
   </properties>
  </object>
  <object id="1254" gid="16402" x="4912" y="336" width="16" height="16">
   <properties>
    <property name="bg layer" value="2"/>
    <property name="vflip" type="bool" value="true"/>
   </properties>
  </object>
  <object id="1255" gid="16402" x="4928" y="336" width="16" height="16">
   <properties>
    <property name="bg layer" value="2"/>
    <property name="vflip" type="bool" value="true"/>
   </properties>
  </object>
  <object id="1256" gid="16402" x="4944" y="336" width="16" height="16">
   <properties>
    <property name="bg layer" value="2"/>
    <property name="vflip" type="bool" value="true"/>
   </properties>
  </object>
  <object id="1257" gid="16402" x="4960" y="336" width="16" height="16">
   <properties>
    <property name="bg layer" value="2"/>
    <property name="vflip" type="bool" value="true"/>
   </properties>
  </object>
  <object id="1258" gid="16402" x="4976" y="336" width="16" height="16">
   <properties>
    <property name="bg layer" value="2"/>
    <property name="vflip" type="bool" value="true"/>
   </properties>
  </object>
  <object id="1259" gid="16404" x="4976" y="368" width="16" height="16">
   <properties>
    <property name="bg layer" value="2"/>
   </properties>
  </object>
  <object id="1260" gid="16404" x="4992" y="368" width="16" height="16">
   <properties>
    <property name="bg layer" value="2"/>
   </properties>
  </object>
  <object id="1261" gid="16404" x="5024" y="352" width="16" height="16">
   <properties>
    <property name="bg layer" value="2"/>
   </properties>
  </object>
  <object id="1262" gid="16404" x="5040" y="352" width="16" height="16">
   <properties>
    <property name="bg layer" value="2"/>
   </properties>
  </object>
  <object id="1264" gid="16439" x="5072" y="320" width="16" height="16"/>
  <object id="1265" gid="16457" x="5072" y="320" width="16" height="16"/>
  <object id="1266" gid="16394" x="5280" y="272" width="16" height="16">
   <properties>
    <property name="bg layer" value="0"/>
   </properties>
  </object>
  <object id="1267" gid="16394" x="5280" y="368" width="16" height="16">
   <properties>
    <property name="bg layer" value="0"/>
   </properties>
  </object>
  <object id="1269" gid="16400" x="5504" y="352" width="16" height="16">
   <properties>
    <property name="bg layer" value="0"/>
    <property name="enable rotation" type="bool" value="true"/>
    <property name="rotation angle" type="int" value="90"/>
   </properties>
  </object>
  <object id="1270" gid="16399" x="5504" y="288" width="16" height="16">
   <properties>
    <property name="bg layer" value="0"/>
    <property name="enable rotation" type="bool" value="true"/>
    <property name="rotation angle" type="int" value="-90"/>
   </properties>
  </object>
  <object id="1271" gid="16394" x="5536" y="320" width="16" height="16">
   <properties>
    <property name="bg layer" value="0"/>
   </properties>
  </object>
  <object id="1272" gid="16513" x="5248" y="320" width="16" height="16">
   <properties>
    <property name="bg layer" value="0"/>
    <property name="color channel" value="3"/>
   </properties>
  </object>
  <object id="1277" gid="16513" x="5456" y="320" width="16" height="16">
   <properties>
    <property name="bg layer" value="0"/>
    <property name="color channel" value="3"/>
   </properties>
  </object>
  <object id="1289" gid="16513" x="5696" y="320" width="16" height="16">
   <properties>
    <property name="bg layer" value="0"/>
    <property name="color channel" value="3"/>
   </properties>
  </object>
  <object id="1273" gid="16486" x="5248" y="320" width="16" height="16">
   <properties>
    <property name="bg layer" value="1"/>
    <property name="color channel" value="4"/>
   </properties>
  </object>
  <object id="1276" gid="16486" x="5456" y="320" width="16" height="16">
   <properties>
    <property name="bg layer" value="1"/>
    <property name="color channel" value="4"/>
   </properties>
  </object>
  <object id="1290" gid="16486" x="5696" y="320" width="16" height="16">
   <properties>
    <property name="bg layer" value="1"/>
    <property name="color channel" value="4"/>
   </properties>
  </object>
  <object id="1274" gid="16501" x="5248" y="320" width="16" height="16">
   <properties>
    <property name="bg layer" value="1"/>
    <property name="color channel" value="1"/>
    <property name="z index" type="int" value="15"/>
   </properties>
  </object>
  <object id="1275" gid="16501" x="5456" y="320" width="16" height="16">
   <properties>
    <property name="bg layer" value="1"/>
    <property name="color channel" value="1"/>
    <property name="z index" type="int" value="15"/>
   </properties>
  </object>
  <object id="1291" gid="16501" x="5696" y="320" width="16" height="16">
   <properties>
    <property name="bg layer" value="1"/>
    <property name="color channel" value="1"/>
    <property name="z index" type="int" value="15"/>
   </properties>
  </object>
  <object id="1278" gid="16501" x="5504" y="352" width="16" height="16">
   <properties>
    <property name="bg layer" value="1"/>
    <property name="color channel" value="1"/>
   </properties>
  </object>
  <object id="1279" gid="16501" x="5504" y="288" width="16" height="16">
   <properties>
    <property name="bg layer" value="1"/>
    <property name="color channel" value="1"/>
   </properties>
  </object>
  <object id="1280" gid="16502" x="5536" y="320" width="16" height="16">
   <properties>
    <property name="bg layer" value="1"/>
    <property name="color channel" value="4"/>
   </properties>
  </object>
  <object id="1282" gid="16502" x="5280" y="368" width="16" height="16">
   <properties>
    <property name="bg layer" value="1"/>
    <property name="color channel" value="4"/>
   </properties>
  </object>
  <object id="1281" gid="16502" x="5280" y="272" width="16" height="16">
   <properties>
    <property name="bg layer" value="1"/>
    <property name="color channel" value="4"/>
   </properties>
  </object>
  <object id="1283" gid="16436" x="5125" y="280" width="16" height="16">
   <properties>
    <property name="color channel" value="4"/>
    <property name="enable rotation" type="bool" value="true"/>
    <property name="rotation angle" type="int" value="11"/>
   </properties>
  </object>
  <object id="1284" gid="16436" x="5163" y="348" width="16" height="16">
   <properties>
    <property name="color channel" value="4"/>
   </properties>
  </object>
  <object id="1285" gid="16436" x="5306" y="304" width="16" height="16">
   <properties>
    <property name="color channel" value="4"/>
   </properties>
  </object>
  <object id="1286" gid="16436" x="5361" y="319" width="16" height="16">
   <properties>
    <property name="color channel" value="4"/>
   </properties>
  </object>
  <object id="1287" gid="16436" x="5568" y="352" width="16" height="16">
   <properties>
    <property name="color channel" value="4"/>
   </properties>
  </object>
  <object id="1288" gid="16436" x="5646" y="304" width="16" height="16">
   <properties>
    <property name="color channel" value="4"/>
    <property name="enable rotation" type="bool" value="true"/>
    <property name="rotation angle" type="int" value="-9"/>
   </properties>
  </object>
  <object id="1292" gid="16466" x="5136" y="320" width="16" height="16">
   <properties>
    <property name="color channel" value="1"/>
   </properties>
  </object>
  <object id="1293" gid="16467" x="5184" y="306" width="16" height="16">
   <properties>
    <property name="color channel" value="1"/>
   </properties>
  </object>
  <object id="1294" gid="16467" x="5440" y="352" width="16" height="16">
   <properties>
    <property name="color channel" value="1"/>
   </properties>
  </object>
  <object id="1295" gid="16467" x="5584" y="304" width="16" height="16">
   <properties>
    <property name="color channel" value="1"/>
   </properties>
  </object>
  <object id="1296" gid="16536" x="5456" y="384" width="16" height="16">
   <properties>
    <property name="bg layer" value="2"/>
    <property name="color channel" value="LBG"/>
   </properties>
  </object>
  <object id="1297" gid="16537" x="5568" y="384" width="16" height="16">
   <properties>
    <property name="bg layer" value="2"/>
    <property name="color channel" value="LBG"/>
   </properties>
  </object>
  <object id="1298" gid="16537" x="5568" y="256" width="16" height="16">
   <properties>
    <property name="bg layer" value="2"/>
    <property name="color channel" value="LBG"/>
    <property name="vflip" type="bool" value="true"/>
   </properties>
  </object>
  <object id="1305" gid="16442" x="5760" y="320" width="16" height="16"/>
  <object id="1306" gid="16458" x="5760" y="320" width="16" height="16"/>
  <object id="1307" gid="16505" x="5796" y="370" width="16" height="16">
   <properties>
    <property name="bg layer" value="0"/>
    <property name="color channel" value="BLACK"/>
    <property name="z index" type="int" value="15"/>
   </properties>
  </object>
  <object id="1364" gid="16505" x="6072" y="260" width="16" height="16">
   <properties>
    <property name="bg layer" value="0"/>
    <property name="color channel" value="BLACK"/>
    <property name="z index" type="int" value="15"/>
   </properties>
  </object>
  <object id="1368" gid="16505" x="6404" y="267" width="16" height="16">
   <properties>
    <property name="bg layer" value="0"/>
    <property name="color channel" value="BLACK"/>
    <property name="z index" type="int" value="15"/>
   </properties>
  </object>
  <object id="1361" gid="16505" x="5928" y="255" width="16" height="16">
   <properties>
    <property name="bg layer" value="0"/>
    <property name="color channel" value="BLACK"/>
    <property name="z index" type="int" value="15"/>
   </properties>
  </object>
  <object id="1365" gid="16505" x="5832" y="259" width="16" height="16">
   <properties>
    <property name="bg layer" value="0"/>
    <property name="color channel" value="BLACK"/>
    <property name="z index" type="int" value="15"/>
   </properties>
  </object>
  <object id="1311" gid="16505" x="6074" y="351" width="16" height="16">
   <properties>
    <property name="bg layer" value="0"/>
    <property name="color channel" value="BLACK"/>
    <property name="z index" type="int" value="15"/>
   </properties>
  </object>
  <object id="1312" gid="16505" x="6171" y="363" width="16" height="16">
   <properties>
    <property name="bg layer" value="0"/>
    <property name="color channel" value="BLACK"/>
    <property name="z index" type="int" value="15"/>
   </properties>
  </object>
  <object id="1321" gid="16505" x="6349" y="352" width="16" height="16">
   <properties>
    <property name="bg layer" value="0"/>
    <property name="color channel" value="BLACK"/>
    <property name="z index" type="int" value="15"/>
   </properties>
  </object>
  <object id="1322" gid="16505" x="6446" y="340" width="16" height="16">
   <properties>
    <property name="bg layer" value="0"/>
    <property name="color channel" value="BLACK"/>
    <property name="z index" type="int" value="15"/>
   </properties>
  </object>
  <object id="1309" gid="16467" x="5760" y="368" width="16" height="16">
   <properties>
    <property name="color channel" value="1"/>
   </properties>
  </object>
  <object id="1389" gid="16467" x="5904" y="349" width="16" height="16">
   <properties>
    <property name="color channel" value="1"/>
   </properties>
  </object>
  <object id="1390" gid="16467" x="6000" y="258" width="16" height="16">
   <properties>
    <property name="color channel" value="1"/>
   </properties>
  </object>
  <object id="1310" gid="16466" x="5792" y="288" width="16" height="16">
   <properties>
    <property name="color channel" value="1"/>
   </properties>
  </object>
  <object id="1313" gid="16501" x="5796" y="370" width="16" height="16">
   <properties>
    <property name="bg layer" value="1"/>
    <property name="color channel" value="1"/>
   </properties>
  </object>
  <object id="1363" gid="16501" x="6072" y="260" width="16" height="16">
   <properties>
    <property name="bg layer" value="1"/>
    <property name="color channel" value="1"/>
   </properties>
  </object>
  <object id="1369" gid="16501" x="6404" y="267" width="16" height="16">
   <properties>
    <property name="bg layer" value="1"/>
    <property name="color channel" value="1"/>
   </properties>
  </object>
  <object id="1360" gid="16501" x="5928" y="255" width="16" height="16">
   <properties>
    <property name="bg layer" value="1"/>
    <property name="color channel" value="1"/>
   </properties>
  </object>
  <object id="1366" gid="16501" x="5832" y="259" width="16" height="16">
   <properties>
    <property name="bg layer" value="1"/>
    <property name="color channel" value="1"/>
   </properties>
  </object>
  <object id="1315" gid="16501" x="6171" y="363" width="16" height="16">
   <properties>
    <property name="bg layer" value="1"/>
    <property name="color channel" value="1"/>
   </properties>
  </object>
  <object id="1320" gid="16501" x="6349" y="352" width="16" height="16">
   <properties>
    <property name="bg layer" value="1"/>
    <property name="color channel" value="1"/>
   </properties>
  </object>
  <object id="1323" gid="16501" x="6446" y="340" width="16" height="16">
   <properties>
    <property name="bg layer" value="1"/>
    <property name="color channel" value="1"/>
   </properties>
  </object>
  <object id="1314" gid="16501" x="6074" y="351" width="16" height="16">
   <properties>
    <property name="bg layer" value="1"/>
    <property name="color channel" value="1"/>
   </properties>
  </object>
  <object id="1316" gid="126" x="5796" y="370" width="16" height="16">
   <properties>
    <property name="bg layer" value="0"/>
   </properties>
  </object>
  <object id="1362" gid="126" x="6072" y="260" width="16" height="16">
   <properties>
    <property name="bg layer" value="0"/>
   </properties>
  </object>
  <object id="1370" gid="126" x="6404" y="267" width="16" height="16">
   <properties>
    <property name="bg layer" value="0"/>
   </properties>
  </object>
  <object id="1359" gid="126" x="5928" y="255" width="16" height="16">
   <properties>
    <property name="bg layer" value="0"/>
   </properties>
  </object>
  <object id="1367" gid="126" x="5832" y="259" width="16" height="16">
   <properties>
    <property name="bg layer" value="0"/>
   </properties>
  </object>
  <object id="1317" gid="126" x="6074" y="351" width="16" height="16">
   <properties>
    <property name="bg layer" value="0"/>
   </properties>
  </object>
  <object id="1318" gid="126" x="6171" y="363" width="16" height="16">
   <properties>
    <property name="bg layer" value="0"/>
   </properties>
  </object>
  <object id="1319" gid="126" x="6349" y="352" width="16" height="16">
   <properties>
    <property name="bg layer" value="0"/>
   </properties>
  </object>
  <object id="1324" gid="126" x="6446" y="340" width="16" height="16">
   <properties>
    <property name="bg layer" value="0"/>
   </properties>
  </object>
  <object id="1325" gid="3461" x="5760" y="384" width="16" height="16">
   <properties>
    <property name="bg layer" value="1"/>
   </properties>
  </object>
  <object id="1326" gid="3461" x="5776" y="384" width="16" height="16">
   <properties>
    <property name="bg layer" value="1"/>
   </properties>
  </object>
  <object id="1327" gid="3461" x="5824" y="384" width="16" height="16">
   <properties>
    <property name="bg layer" value="1"/>
   </properties>
  </object>
  <object id="1328" gid="3461" x="5840" y="384" width="16" height="16">
   <properties>
    <property name="bg layer" value="1"/>
   </properties>
  </object>
  <object id="1329" gid="3461" x="5856" y="384" width="16" height="16">
   <properties>
    <property name="bg layer" value="1"/>
   </properties>
  </object>
  <object id="1330" gid="3461" x="5920" y="384" width="16" height="16">
   <properties>
    <property name="bg layer" value="1"/>
   </properties>
  </object>
  <object id="1331" gid="3461" x="5936" y="384" width="16" height="16">
   <properties>
    <property name="bg layer" value="1"/>
   </properties>
  </object>
  <object id="1332" gid="3461" x="6048" y="384" width="16" height="16">
   <properties>
    <property name="bg layer" value="1"/>
   </properties>
  </object>
  <object id="1333" gid="3461" x="6064" y="384" width="16" height="16">
   <properties>
    <property name="bg layer" value="1"/>
   </properties>
  </object>
  <object id="1334" gid="3461" x="6112" y="384" width="16" height="16">
   <properties>
    <property name="bg layer" value="1"/>
   </properties>
  </object>
  <object id="1335" gid="3461" x="6128" y="384" width="16" height="16">
   <properties>
    <property name="bg layer" value="1"/>
   </properties>
  </object>
  <object id="1336" gid="3461" x="6192" y="384" width="16" height="16">
   <properties>
    <property name="bg layer" value="1"/>
   </properties>
  </object>
  <object id="1337" gid="3461" x="6208" y="384" width="16" height="16">
   <properties>
    <property name="bg layer" value="1"/>
   </properties>
  </object>
  <object id="1338" gid="3461" x="6272" y="384" width="16" height="16">
   <properties>
    <property name="bg layer" value="1"/>
   </properties>
  </object>
  <object id="1339" gid="3461" x="6288" y="384" width="16" height="16">
   <properties>
    <property name="bg layer" value="1"/>
   </properties>
  </object>
  <object id="1340" gid="3461" x="6304" y="384" width="16" height="16">
   <properties>
    <property name="bg layer" value="1"/>
   </properties>
  </object>
  <object id="1341" gid="3462" x="5744" y="240" width="16" height="16">
   <properties>
    <property name="bg layer" value="1"/>
   </properties>
  </object>
  <object id="1342" gid="3462" x="5760" y="240" width="16" height="16">
   <properties>
    <property name="bg layer" value="1"/>
   </properties>
  </object>
  <object id="1343" gid="3462" x="5808" y="240" width="16" height="16">
   <properties>
    <property name="bg layer" value="1"/>
   </properties>
  </object>
  <object id="1344" gid="3462" x="5824" y="240" width="16" height="16">
   <properties>
    <property name="bg layer" value="1"/>
   </properties>
  </object>
  <object id="1345" gid="3462" x="5840" y="240" width="16" height="16">
   <properties>
    <property name="bg layer" value="1"/>
   </properties>
  </object>
  <object id="1346" gid="3462" x="5904" y="240" width="16" height="16">
   <properties>
    <property name="bg layer" value="1"/>
   </properties>
  </object>
  <object id="1347" gid="3462" x="5920" y="240" width="16" height="16">
   <properties>
    <property name="bg layer" value="1"/>
   </properties>
  </object>
  <object id="1348" gid="3462" x="6032" y="240" width="16" height="16">
   <properties>
    <property name="bg layer" value="1"/>
   </properties>
  </object>
  <object id="1349" gid="3462" x="6048" y="240" width="16" height="16">
   <properties>
    <property name="bg layer" value="1"/>
   </properties>
  </object>
  <object id="1350" gid="3462" x="6064" y="240" width="16" height="16">
   <properties>
    <property name="bg layer" value="1"/>
   </properties>
  </object>
  <object id="1351" gid="3462" x="6096" y="240" width="16" height="16">
   <properties>
    <property name="bg layer" value="1"/>
   </properties>
  </object>
  <object id="1352" gid="3462" x="6112" y="240" width="16" height="16">
   <properties>
    <property name="bg layer" value="1"/>
   </properties>
  </object>
  <object id="1353" gid="3462" x="6176" y="240" width="16" height="16">
   <properties>
    <property name="bg layer" value="1"/>
   </properties>
  </object>
  <object id="1354" gid="3462" x="6192" y="240" width="16" height="16">
   <properties>
    <property name="bg layer" value="1"/>
   </properties>
  </object>
  <object id="1355" gid="3462" x="6256" y="240" width="16" height="16">
   <properties>
    <property name="bg layer" value="1"/>
   </properties>
  </object>
  <object id="1356" gid="3462" x="6272" y="240" width="16" height="16">
   <properties>
    <property name="bg layer" value="1"/>
   </properties>
  </object>
  <object id="1358" gid="3462" x="6288" y="240" width="16" height="16">
   <properties>
    <property name="bg layer" value="1"/>
   </properties>
  </object>
  <object id="1371" gid="16400" x="5968" y="288" width="16" height="16">
   <properties>
    <property name="bg layer" value="0"/>
   </properties>
  </object>
  <object id="1372" gid="16501" x="5968" y="288" width="16" height="16">
   <properties>
    <property name="bg layer" value="0"/>
    <property name="color channel" value="1"/>
    <property name="z index" type="int" value="15"/>
   </properties>
  </object>
  <object id="1373" gid="16399" x="6048" y="304" width="16" height="16">
   <properties>
    <property name="bg layer" value="0"/>
   </properties>
  </object>
  <object id="1374" gid="16501" x="6048" y="304" width="16" height="16">
   <properties>
    <property name="bg layer" value="0"/>
    <property name="color channel" value="1"/>
    <property name="z index" type="int" value="15"/>
   </properties>
  </object>
  <object id="1375" gid="16513" x="5856" y="304" width="16" height="16">
   <properties>
    <property name="bg layer" value="0"/>
    <property name="color channel" value="3"/>
   </properties>
  </object>
  <object id="1380" gid="16513" x="6147" y="294" width="16" height="16">
   <properties>
    <property name="bg layer" value="0"/>
    <property name="color channel" value="3"/>
   </properties>
  </object>
  <object id="1381" gid="16513" x="6371" y="299" width="16" height="16">
   <properties>
    <property name="bg layer" value="0"/>
    <property name="color channel" value="3"/>
   </properties>
  </object>
  <object id="1376" gid="16486" x="5856" y="304" width="16" height="16">
   <properties>
    <property name="bg layer" value="1"/>
    <property name="color channel" value="BLACK"/>
   </properties>
  </object>
  <object id="1379" gid="16486" x="6147" y="294" width="16" height="16">
   <properties>
    <property name="bg layer" value="1"/>
    <property name="color channel" value="BLACK"/>
   </properties>
  </object>
  <object id="1382" gid="16486" x="6371" y="299" width="16" height="16">
   <properties>
    <property name="bg layer" value="1"/>
    <property name="color channel" value="BLACK"/>
   </properties>
  </object>
  <object id="1377" gid="16501" x="5856" y="304" width="16" height="16">
   <properties>
    <property name="bg layer" value="1"/>
    <property name="color channel" value="1"/>
    <property name="z index" type="int" value="15"/>
   </properties>
  </object>
  <object id="1378" gid="16501" x="6147" y="294" width="16" height="16">
   <properties>
    <property name="bg layer" value="1"/>
    <property name="color channel" value="1"/>
    <property name="z index" type="int" value="15"/>
   </properties>
  </object>
  <object id="1383" gid="16501" x="6371" y="299" width="16" height="16">
   <properties>
    <property name="bg layer" value="1"/>
    <property name="color channel" value="1"/>
    <property name="z index" type="int" value="15"/>
   </properties>
  </object>
  <object id="1384" gid="16467" x="6448" y="259" width="16" height="16">
   <properties>
    <property name="color channel" value="1"/>
   </properties>
  </object>
  <object id="1386" gid="16467" x="6224" y="352" width="16" height="16">
   <properties>
    <property name="color channel" value="1"/>
   </properties>
  </object>
  <object id="1385" gid="16465" x="6336" y="269" width="16" height="16">
   <properties>
    <property name="color channel" value="1"/>
   </properties>
  </object>
  <object id="1387" gid="16466" x="6144" y="256" width="16" height="16">
   <properties>
    <property name="color channel" value="1"/>
   </properties>
  </object>
  <object id="1388" gid="16466" x="5968" y="339" width="16" height="16">
   <properties>
    <property name="color channel" value="1"/>
   </properties>
  </object>
  <object id="1391" gid="16388" x="4832" y="128" width="16" height="16">
   <properties>
    <property name="Channel" value="BG"/>
    <property name="Color" type="color" value="#ff121212"/>
    <property name="Frames" type="int" value="30"/>
   </properties>
  </object>
  <object id="1404" gid="16388" x="5040" y="128" width="16" height="16">
   <properties>
    <property name="Channel" value="BG"/>
    <property name="Color" type="color" value="#ff010601"/>
    <property name="Frames" type="int" value="30"/>
   </properties>
  </object>
  <object id="1445" gid="16388" x="5744" y="128" width="16" height="16">
   <properties>
    <property name="Channel" value="BG"/>
    <property name="Color" type="color" value="#ff010506"/>
    <property name="Frames" type="int" value="30"/>
   </properties>
  </object>
  <object id="1450" gid="16388" x="5826" y="128" width="16" height="16">
   <properties>
    <property name="Channel" value="BG"/>
    <property name="Color" type="color" value="#ff010506"/>
    <property name="Frames" type="int" value="24"/>
   </properties>
  </object>
  <object id="1455" gid="16388" x="5923" y="128" width="16" height="16">
   <properties>
    <property name="Channel" value="BG"/>
    <property name="Color" type="color" value="#ff010506"/>
    <property name="Frames" type="int" value="24"/>
   </properties>
  </object>
  <object id="1458" gid="16388" x="6020" y="128" width="16" height="16">
   <properties>
    <property name="Channel" value="BG"/>
    <property name="Color" type="color" value="#ff010506"/>
    <property name="Frames" type="int" value="24"/>
   </properties>
  </object>
  <object id="1462" gid="16388" x="6111" y="128" width="16" height="16">
   <properties>
    <property name="Channel" value="BG"/>
    <property name="Color" type="color" value="#ff010506"/>
    <property name="Frames" type="int" value="24"/>
   </properties>
  </object>
  <object id="1466" gid="16388" x="6207" y="128" width="16" height="16">
   <properties>
    <property name="Channel" value="BG"/>
    <property name="Color" type="color" value="#ff010506"/>
    <property name="Frames" type="int" value="24"/>
   </properties>
  </object>
  <object id="1470" gid="16388" x="6303" y="128" width="16" height="16">
   <properties>
    <property name="Channel" value="BG"/>
    <property name="Color" type="color" value="#ff010506"/>
    <property name="Frames" type="int" value="24"/>
   </properties>
  </object>
  <object id="1474" gid="16388" x="6401" y="128" width="16" height="16">
   <properties>
    <property name="Channel" value="BG"/>
    <property name="Color" type="color" value="#ff010506"/>
    <property name="Frames" type="int" value="24"/>
   </properties>
  </object>
  <object id="1452" gid="16388" x="5810" y="128" width="16" height="16">
   <properties>
    <property name="Channel" value="BG"/>
    <property name="Color" type="color" value="#ff005453"/>
    <property name="Frames" type="int" value="0"/>
   </properties>
  </object>
  <object id="1454" gid="16388" x="5907" y="128" width="16" height="16">
   <properties>
    <property name="Channel" value="BG"/>
    <property name="Color" type="color" value="#ff005453"/>
    <property name="Frames" type="int" value="0"/>
   </properties>
  </object>
  <object id="1459" gid="16388" x="6004" y="128" width="16" height="16">
   <properties>
    <property name="Channel" value="BG"/>
    <property name="Color" type="color" value="#ff005453"/>
    <property name="Frames" type="int" value="0"/>
   </properties>
  </object>
  <object id="1463" gid="16388" x="6095" y="128" width="16" height="16">
   <properties>
    <property name="Channel" value="BG"/>
    <property name="Color" type="color" value="#ff005453"/>
    <property name="Frames" type="int" value="0"/>
   </properties>
  </object>
  <object id="1467" gid="16388" x="6191" y="128" width="16" height="16">
   <properties>
    <property name="Channel" value="BG"/>
    <property name="Color" type="color" value="#ff005453"/>
    <property name="Frames" type="int" value="0"/>
   </properties>
  </object>
  <object id="1471" gid="16388" x="6287" y="128" width="16" height="16">
   <properties>
    <property name="Channel" value="BG"/>
    <property name="Color" type="color" value="#ff005453"/>
    <property name="Frames" type="int" value="0"/>
   </properties>
  </object>
  <object id="1475" gid="16388" x="6385" y="128" width="16" height="16">
   <properties>
    <property name="Channel" value="BG"/>
    <property name="Color" type="color" value="#ff005453"/>
    <property name="Frames" type="int" value="0"/>
   </properties>
  </object>
  <object id="1478" gid="16388" x="6497" y="128" width="16" height="16">
   <properties>
    <property name="Channel" value="BG"/>
    <property name="Color" type="color" value="#ff2b2e4d"/>
    <property name="Frames" type="int" value="0"/>
   </properties>
  </object>
  <object id="1406" gid="16388" x="5072" y="128" width="16" height="16">
   <properties>
    <property name="Channel" value="BG"/>
    <property name="Color" type="color" value="#ff010601"/>
    <property name="Frames" type="int" value="24"/>
   </properties>
  </object>
  <object id="1411" gid="16388" x="5158" y="128" width="16" height="16">
   <properties>
    <property name="Channel" value="BG"/>
    <property name="Color" type="color" value="#ff010601"/>
    <property name="Frames" type="int" value="24"/>
   </properties>
  </object>
  <object id="1414" gid="16388" x="5257" y="128" width="16" height="16">
   <properties>
    <property name="Channel" value="BG"/>
    <property name="Color" type="color" value="#ff010601"/>
    <property name="Frames" type="int" value="24"/>
   </properties>
  </object>
  <object id="1418" gid="16388" x="5350" y="128" width="16" height="16">
   <properties>
    <property name="Channel" value="BG"/>
    <property name="Color" type="color" value="#ff010601"/>
    <property name="Frames" type="int" value="24"/>
   </properties>
  </object>
  <object id="1422" gid="16388" x="5438" y="128" width="16" height="16">
   <properties>
    <property name="Channel" value="BG"/>
    <property name="Color" type="color" value="#ff010601"/>
    <property name="Frames" type="int" value="24"/>
   </properties>
  </object>
  <object id="1426" gid="16388" x="5534" y="128" width="16" height="16">
   <properties>
    <property name="Channel" value="BG"/>
    <property name="Color" type="color" value="#ff010601"/>
    <property name="Frames" type="int" value="24"/>
   </properties>
  </object>
  <object id="1430" gid="16388" x="5631" y="128" width="16" height="16">
   <properties>
    <property name="Channel" value="BG"/>
    <property name="Color" type="color" value="#ff010601"/>
    <property name="Frames" type="int" value="24"/>
   </properties>
  </object>
  <object id="1434" gid="16388" x="5727" y="128" width="16" height="16">
   <properties>
    <property name="Channel" value="BG"/>
    <property name="Color" type="color" value="#ff010601"/>
    <property name="Frames" type="int" value="24"/>
   </properties>
  </object>
  <object id="1408" gid="16388" x="5056" y="128" width="16" height="16">
   <properties>
    <property name="Channel" value="BG"/>
    <property name="Color" type="color" value="#ff435400"/>
    <property name="Frames" type="int" value="0"/>
   </properties>
  </object>
  <object id="1410" gid="16388" x="5142" y="128" width="16" height="16">
   <properties>
    <property name="Channel" value="BG"/>
    <property name="Color" type="color" value="#ff435400"/>
    <property name="Frames" type="int" value="0"/>
   </properties>
  </object>
  <object id="1415" gid="16388" x="5241" y="128" width="16" height="16">
   <properties>
    <property name="Channel" value="BG"/>
    <property name="Color" type="color" value="#ff435400"/>
    <property name="Frames" type="int" value="0"/>
   </properties>
  </object>
  <object id="1419" gid="16388" x="5334" y="128" width="16" height="16">
   <properties>
    <property name="Channel" value="BG"/>
    <property name="Color" type="color" value="#ff435400"/>
    <property name="Frames" type="int" value="0"/>
   </properties>
  </object>
  <object id="1423" gid="16388" x="5422" y="128" width="16" height="16">
   <properties>
    <property name="Channel" value="BG"/>
    <property name="Color" type="color" value="#ff435400"/>
    <property name="Frames" type="int" value="0"/>
   </properties>
  </object>
  <object id="1427" gid="16388" x="5518" y="128" width="16" height="16">
   <properties>
    <property name="Channel" value="BG"/>
    <property name="Color" type="color" value="#ff435400"/>
    <property name="Frames" type="int" value="0"/>
   </properties>
  </object>
  <object id="1431" gid="16388" x="5615" y="128" width="16" height="16">
   <properties>
    <property name="Channel" value="BG"/>
    <property name="Color" type="color" value="#ff435400"/>
    <property name="Frames" type="int" value="0"/>
   </properties>
  </object>
  <object id="1435" gid="16388" x="5711" y="128" width="16" height="16">
   <properties>
    <property name="Channel" value="BG"/>
    <property name="Color" type="color" value="#ff435400"/>
    <property name="Frames" type="int" value="0"/>
   </properties>
  </object>
  <object id="1392" gid="16388" x="4832" y="112" width="16" height="16">
   <properties>
    <property name="Channel" value="LINE"/>
    <property name="Color" type="color" value="#fff9fefc"/>
    <property name="Color Blending" type="bool" value="true"/>
    <property name="Frames" type="int" value="30"/>
   </properties>
  </object>
  <object id="1405" gid="16388" x="5040" y="112" width="16" height="16">
   <properties>
    <property name="Channel" value="LINE"/>
    <property name="Color" type="color" value="#ffdeff94"/>
    <property name="Color Blending" type="bool" value="true"/>
    <property name="Frames" type="int" value="30"/>
   </properties>
  </object>
  <object id="1407" gid="16388" x="5072" y="112" width="16" height="16">
   <properties>
    <property name="Channel" value="LINE"/>
    <property name="Color" type="color" value="#ffdeff94"/>
    <property name="Color Blending" type="bool" value="true"/>
    <property name="Frames" type="int" value="24"/>
   </properties>
  </object>
  <object id="1413" gid="16388" x="5158" y="112" width="16" height="16">
   <properties>
    <property name="Channel" value="LINE"/>
    <property name="Color" type="color" value="#ffdeff94"/>
    <property name="Color Blending" type="bool" value="true"/>
    <property name="Frames" type="int" value="24"/>
   </properties>
  </object>
  <object id="1416" gid="16388" x="5257" y="112" width="16" height="16">
   <properties>
    <property name="Channel" value="LINE"/>
    <property name="Color" type="color" value="#ffdeff94"/>
    <property name="Color Blending" type="bool" value="true"/>
    <property name="Frames" type="int" value="24"/>
   </properties>
  </object>
  <object id="1420" gid="16388" x="5350" y="112" width="16" height="16">
   <properties>
    <property name="Channel" value="LINE"/>
    <property name="Color" type="color" value="#ffdeff94"/>
    <property name="Color Blending" type="bool" value="true"/>
    <property name="Frames" type="int" value="24"/>
   </properties>
  </object>
  <object id="1424" gid="16388" x="5438" y="112" width="16" height="16">
   <properties>
    <property name="Channel" value="LINE"/>
    <property name="Color" type="color" value="#ffdeff94"/>
    <property name="Color Blending" type="bool" value="true"/>
    <property name="Frames" type="int" value="24"/>
   </properties>
  </object>
  <object id="1428" gid="16388" x="5534" y="112" width="16" height="16">
   <properties>
    <property name="Channel" value="LINE"/>
    <property name="Color" type="color" value="#ffdeff94"/>
    <property name="Color Blending" type="bool" value="true"/>
    <property name="Frames" type="int" value="24"/>
   </properties>
  </object>
  <object id="1432" gid="16388" x="5631" y="112" width="16" height="16">
   <properties>
    <property name="Channel" value="LINE"/>
    <property name="Color" type="color" value="#ffdeff94"/>
    <property name="Color Blending" type="bool" value="true"/>
    <property name="Frames" type="int" value="24"/>
   </properties>
  </object>
  <object id="1409" gid="16388" x="5056" y="112" width="16" height="16">
   <properties>
    <property name="Channel" value="LINE"/>
    <property name="Color" type="color" value="#ff5efaff"/>
    <property name="Color Blending" type="bool" value="true"/>
    <property name="Frames" type="int" value="0"/>
   </properties>
  </object>
  <object id="1412" gid="16388" x="5142" y="112" width="16" height="16">
   <properties>
    <property name="Channel" value="LINE"/>
    <property name="Color" type="color" value="#ff5efaff"/>
    <property name="Color Blending" type="bool" value="true"/>
    <property name="Frames" type="int" value="0"/>
   </properties>
  </object>
  <object id="1417" gid="16388" x="5241" y="112" width="16" height="16">
   <properties>
    <property name="Channel" value="LINE"/>
    <property name="Color" type="color" value="#ff5efaff"/>
    <property name="Color Blending" type="bool" value="true"/>
    <property name="Frames" type="int" value="0"/>
   </properties>
  </object>
  <object id="1421" gid="16388" x="5334" y="112" width="16" height="16">
   <properties>
    <property name="Channel" value="LINE"/>
    <property name="Color" type="color" value="#ff5efaff"/>
    <property name="Color Blending" type="bool" value="true"/>
    <property name="Frames" type="int" value="0"/>
   </properties>
  </object>
  <object id="1425" gid="16388" x="5422" y="112" width="16" height="16">
   <properties>
    <property name="Channel" value="LINE"/>
    <property name="Color" type="color" value="#ff5efaff"/>
    <property name="Color Blending" type="bool" value="true"/>
    <property name="Frames" type="int" value="0"/>
   </properties>
  </object>
  <object id="1429" gid="16388" x="5518" y="112" width="16" height="16">
   <properties>
    <property name="Channel" value="LINE"/>
    <property name="Color" type="color" value="#ff5efaff"/>
    <property name="Color Blending" type="bool" value="true"/>
    <property name="Frames" type="int" value="0"/>
   </properties>
  </object>
  <object id="1433" gid="16388" x="5615" y="112" width="16" height="16">
   <properties>
    <property name="Channel" value="LINE"/>
    <property name="Color" type="color" value="#ff5efaff"/>
    <property name="Color Blending" type="bool" value="true"/>
    <property name="Frames" type="int" value="0"/>
   </properties>
  </object>
  <object id="1437" gid="16388" x="5711" y="112" width="16" height="16">
   <properties>
    <property name="Channel" value="LINE"/>
    <property name="Color" type="color" value="#ff5efaff"/>
    <property name="Color Blending" type="bool" value="true"/>
    <property name="Frames" type="int" value="0"/>
   </properties>
  </object>
  <object id="1438" gid="16388" x="5696" y="112" width="16" height="16">
   <properties>
    <property name="Channel" value="LINE"/>
    <property name="Color" type="color" value="#ff94e4ff"/>
    <property name="Color Blending" type="bool" value="true"/>
    <property name="Frames" type="int" value="30"/>
   </properties>
  </object>
  <object id="1439" gid="16388" x="5727" y="112" width="16" height="16">
   <properties>
    <property name="Channel" value="LINE"/>
    <property name="Color" type="color" value="#ff94e4ff"/>
    <property name="Color Blending" type="bool" value="true"/>
    <property name="Frames" type="int" value="24"/>
   </properties>
  </object>
  <object id="1451" gid="16388" x="5826" y="112" width="16" height="16">
   <properties>
    <property name="Channel" value="LINE"/>
    <property name="Color" type="color" value="#ff94e4ff"/>
    <property name="Color Blending" type="bool" value="true"/>
    <property name="Frames" type="int" value="24"/>
   </properties>
  </object>
  <object id="1457" gid="16388" x="5923" y="112" width="16" height="16">
   <properties>
    <property name="Channel" value="LINE"/>
    <property name="Color" type="color" value="#ff94e4ff"/>
    <property name="Color Blending" type="bool" value="true"/>
    <property name="Frames" type="int" value="24"/>
   </properties>
  </object>
  <object id="1460" gid="16388" x="6020" y="112" width="16" height="16">
   <properties>
    <property name="Channel" value="LINE"/>
    <property name="Color" type="color" value="#ff94e4ff"/>
    <property name="Color Blending" type="bool" value="true"/>
    <property name="Frames" type="int" value="24"/>
   </properties>
  </object>
  <object id="1464" gid="16388" x="6111" y="112" width="16" height="16">
   <properties>
    <property name="Channel" value="LINE"/>
    <property name="Color" type="color" value="#ff94e4ff"/>
    <property name="Color Blending" type="bool" value="true"/>
    <property name="Frames" type="int" value="24"/>
   </properties>
  </object>
  <object id="1468" gid="16388" x="6207" y="112" width="16" height="16">
   <properties>
    <property name="Channel" value="LINE"/>
    <property name="Color" type="color" value="#ff94e4ff"/>
    <property name="Color Blending" type="bool" value="true"/>
    <property name="Frames" type="int" value="24"/>
   </properties>
  </object>
  <object id="1472" gid="16388" x="6303" y="112" width="16" height="16">
   <properties>
    <property name="Channel" value="LINE"/>
    <property name="Color" type="color" value="#ff94e4ff"/>
    <property name="Color Blending" type="bool" value="true"/>
    <property name="Frames" type="int" value="24"/>
   </properties>
  </object>
  <object id="1476" gid="16388" x="6401" y="112" width="16" height="16">
   <properties>
    <property name="Channel" value="LINE"/>
    <property name="Color" type="color" value="#ff94e4ff"/>
    <property name="Color Blending" type="bool" value="true"/>
    <property name="Frames" type="int" value="24"/>
   </properties>
  </object>
  <object id="1453" gid="16388" x="5810" y="112" width="16" height="16">
   <properties>
    <property name="Channel" value="LINE"/>
    <property name="Color" type="color" value="#ffffba5e"/>
    <property name="Color Blending" type="bool" value="true"/>
    <property name="Frames" type="int" value="0"/>
   </properties>
  </object>
  <object id="1456" gid="16388" x="5907" y="112" width="16" height="16">
   <properties>
    <property name="Channel" value="LINE"/>
    <property name="Color" type="color" value="#ffffba5e"/>
    <property name="Color Blending" type="bool" value="true"/>
    <property name="Frames" type="int" value="0"/>
   </properties>
  </object>
  <object id="1461" gid="16388" x="6004" y="112" width="16" height="16">
   <properties>
    <property name="Channel" value="LINE"/>
    <property name="Color" type="color" value="#ffffba5e"/>
    <property name="Color Blending" type="bool" value="true"/>
    <property name="Frames" type="int" value="0"/>
   </properties>
  </object>
  <object id="1465" gid="16388" x="6095" y="112" width="16" height="16">
   <properties>
    <property name="Channel" value="LINE"/>
    <property name="Color" type="color" value="#ffffba5e"/>
    <property name="Color Blending" type="bool" value="true"/>
    <property name="Frames" type="int" value="0"/>
   </properties>
  </object>
  <object id="1469" gid="16388" x="6191" y="112" width="16" height="16">
   <properties>
    <property name="Channel" value="LINE"/>
    <property name="Color" type="color" value="#ffffba5e"/>
    <property name="Color Blending" type="bool" value="true"/>
    <property name="Frames" type="int" value="0"/>
   </properties>
  </object>
  <object id="1473" gid="16388" x="6287" y="112" width="16" height="16">
   <properties>
    <property name="Channel" value="LINE"/>
    <property name="Color" type="color" value="#ffffba5e"/>
    <property name="Color Blending" type="bool" value="true"/>
    <property name="Frames" type="int" value="0"/>
   </properties>
  </object>
  <object id="1477" gid="16388" x="6385" y="112" width="16" height="16">
   <properties>
    <property name="Channel" value="LINE"/>
    <property name="Color" type="color" value="#ffffba5e"/>
    <property name="Color Blending" type="bool" value="true"/>
    <property name="Frames" type="int" value="0"/>
   </properties>
  </object>
  <object id="1479" gid="16388" x="6497" y="112" width="16" height="16">
   <properties>
    <property name="Channel" value="LINE"/>
    <property name="Color" type="color" value="#ff5effed"/>
    <property name="Color Blending" type="bool" value="true"/>
    <property name="Frames" type="int" value="0"/>
   </properties>
  </object>
  <object id="1393" gid="16388" x="4832" y="144" width="16" height="16">
   <properties>
    <property name="Channel" value="GROUND"/>
    <property name="Color" type="color" value="#ff000000"/>
    <property name="Frames" type="int" value="30"/>
   </properties>
  </object>
  <object id="1403" gid="16388" x="5040" y="144" width="16" height="16">
   <properties>
    <property name="Channel" value="GROUND"/>
    <property name="Color" type="color" value="#ff000000"/>
    <property name="Frames" type="int" value="30"/>
   </properties>
  </object>
  <object id="1444" gid="16388" x="5744" y="144" width="16" height="16">
   <properties>
    <property name="Channel" value="GROUND"/>
    <property name="Color" type="color" value="#ff000000"/>
    <property name="Frames" type="int" value="30"/>
   </properties>
  </object>
  <object id="1395" gid="16388" x="4832" y="176" width="16" height="16">
   <properties>
    <property name="Channel" value="1"/>
    <property name="Color" type="color" value="#ff0d0c0c"/>
    <property name="Color Blending" type="bool" value="true"/>
    <property name="Frames" type="int" value="30"/>
   </properties>
  </object>
  <object id="1402" gid="16388" x="5040" y="176" width="16" height="16">
   <properties>
    <property name="Channel" value="1"/>
    <property name="Color" type="color" value="#ff051003"/>
    <property name="Color Blending" type="bool" value="true"/>
    <property name="Frames" type="int" value="30"/>
   </properties>
  </object>
  <object id="1443" gid="16388" x="5744" y="176" width="16" height="16">
   <properties>
    <property name="Channel" value="1"/>
    <property name="Color" type="color" value="#ff030f10"/>
    <property name="Color Blending" type="bool" value="true"/>
    <property name="Frames" type="int" value="30"/>
   </properties>
  </object>
  <object id="1396" gid="16388" x="4832" y="192" width="16" height="16">
   <properties>
    <property name="Channel" value="2"/>
    <property name="Color" type="color" value="#ff1a1919"/>
    <property name="Color Blending" type="bool" value="true"/>
    <property name="Frames" type="int" value="30"/>
   </properties>
  </object>
  <object id="1401" gid="16388" x="5040" y="192" width="16" height="16">
   <properties>
    <property name="Channel" value="2"/>
    <property name="Color" type="color" value="#ff033001"/>
    <property name="Color Blending" type="bool" value="true"/>
    <property name="Frames" type="int" value="30"/>
   </properties>
  </object>
  <object id="1442" gid="16388" x="5744" y="192" width="16" height="16">
   <properties>
    <property name="Channel" value="2"/>
    <property name="Color" type="color" value="#ff012830"/>
    <property name="Color Blending" type="bool" value="true"/>
    <property name="Frames" type="int" value="30"/>
   </properties>
  </object>
  <object id="1397" gid="16388" x="4832" y="208" width="16" height="16">
   <properties>
    <property name="Channel" value="3"/>
    <property name="Color" type="color" value="#ff504848"/>
    <property name="Color Blending" type="bool" value="true"/>
    <property name="Frames" type="int" value="30"/>
   </properties>
  </object>
  <object id="1400" gid="16388" x="5040" y="208" width="16" height="16">
   <properties>
    <property name="Channel" value="3"/>
    <property name="Color" type="color" value="#ff135d00"/>
    <property name="Color Blending" type="bool" value="true"/>
    <property name="Frames" type="int" value="30"/>
   </properties>
  </object>
  <object id="1441" gid="16388" x="5744" y="208" width="16" height="16">
   <properties>
    <property name="Channel" value="3"/>
    <property name="Color" type="color" value="#ff004a5d"/>
    <property name="Color Blending" type="bool" value="true"/>
    <property name="Frames" type="int" value="30"/>
   </properties>
  </object>
  <object id="1398" gid="16388" x="4832" y="224" width="16" height="16">
   <properties>
    <property name="Channel" value="4"/>
    <property name="Color" type="color" value="#ff8e8b8b"/>
    <property name="Color Blending" type="bool" value="true"/>
    <property name="Frames" type="int" value="30"/>
   </properties>
  </object>
  <object id="1399" gid="16388" x="5040" y="224" width="16" height="16">
   <properties>
    <property name="Channel" value="4"/>
    <property name="Color" type="color" value="#ff4c880c"/>
    <property name="Color Blending" type="bool" value="true"/>
    <property name="Frames" type="int" value="30"/>
   </properties>
  </object>
  <object id="1440" gid="16388" x="5744" y="224" width="16" height="16">
   <properties>
    <property name="Channel" value="4"/>
    <property name="Color" type="color" value="#ff0c7e88"/>
    <property name="Color Blending" type="bool" value="true"/>
    <property name="Frames" type="int" value="30"/>
   </properties>
  </object>
  <object id="1481" gid="16545" x="6672" y="368" width="16" height="16">
   <properties>
    <property name="bg layer" value="0"/>
   </properties>
  </object>
  <object id="1482" gid="16545" x="6736" y="368" width="16" height="16">
   <properties>
    <property name="bg layer" value="0"/>
   </properties>
  </object>
  <object id="1483" gid="16399" x="5765" y="320" width="16" height="16"/>
  <object id="1484" gid="16438" x="6496" y="336" width="16" height="16">
   <properties>
    <property name="bg layer" value="0"/>
   </properties>
  </object>
  <object id="1485" gid="16387" x="6512" y="336" width="16" height="16">
   <properties>
    <property name="bg layer" value="0"/>
   </properties>
  </object>
  <object id="1486" gid="16510" x="6512" y="336" width="16" height="16">
   <properties>
    <property name="bg layer" value="1"/>
    <property name="color channel" value="3"/>
   </properties>
  </object>
  <object id="1487" gid="16388" x="6512" y="176" width="16" height="16">
   <properties>
    <property name="Channel" value="1"/>
    <property name="Color" type="color" value="#ff171b52"/>
   </properties>
  </object>
  <object id="1488" gid="16388" x="6512" y="224" width="16" height="16">
   <properties>
    <property name="Channel" value="4"/>
    <property name="Color" type="color" value="#ff0c0c3e"/>
   </properties>
  </object>
  <object id="1489" gid="16388" x="6512" y="192" width="16" height="16">
   <properties>
    <property name="Channel" value="2"/>
    <property name="Color" type="color" value="#ff293386"/>
    <property name="Color Blending" type="bool" value="true"/>
   </properties>
  </object>
  <object id="1490" gid="16388" x="6512" y="208" width="16" height="16">
   <properties>
    <property name="Channel" value="3"/>
    <property name="Color" type="color" value="#ff6668db"/>
    <property name="Color Blending" type="bool" value="true"/>
   </properties>
  </object>
  <object id="1491" gid="16388" x="6512" y="128" width="16" height="16">
   <properties>
    <property name="Channel" value="BG"/>
    <property name="Color" type="color" value="#ff030327"/>
   </properties>
  </object>
  <object id="1724" gid="16388" x="6592" y="128" width="16" height="16">
   <properties>
    <property name="Channel" value="BG"/>
    <property name="Color" type="color" value="#ff030327"/>
    <property name="Frames" type="int" value="24"/>
   </properties>
  </object>
  <object id="1751" gid="16388" x="6912" y="128" width="16" height="16">
   <properties>
    <property name="Channel" value="BG"/>
    <property name="Color" type="color" value="#ff030327"/>
    <property name="Frames" type="int" value="24"/>
   </properties>
  </object>
  <object id="1733" gid="16388" x="6672" y="128" width="16" height="16">
   <properties>
    <property name="Channel" value="BG"/>
    <property name="Color" type="color" value="#ff030327"/>
    <property name="Frames" type="int" value="24"/>
   </properties>
  </object>
  <object id="1748" gid="16388" x="6992" y="128" width="16" height="16">
   <properties>
    <property name="Channel" value="BG"/>
    <property name="Color" type="color" value="#ff030327"/>
    <property name="Frames" type="int" value="24"/>
   </properties>
  </object>
  <object id="1736" gid="16388" x="6752" y="128" width="16" height="16">
   <properties>
    <property name="Channel" value="BG"/>
    <property name="Color" type="color" value="#ff030327"/>
    <property name="Frames" type="int" value="24"/>
   </properties>
  </object>
  <object id="1746" gid="16388" x="7072" y="128" width="16" height="16">
   <properties>
    <property name="Channel" value="BG"/>
    <property name="Color" type="color" value="#ff030327"/>
    <property name="Frames" type="int" value="24"/>
   </properties>
  </object>
  <object id="1740" gid="16388" x="6832" y="128" width="16" height="16">
   <properties>
    <property name="Channel" value="BG"/>
    <property name="Color" type="color" value="#ff030327"/>
    <property name="Frames" type="int" value="24"/>
   </properties>
  </object>
  <object id="1744" gid="16388" x="7152" y="128" width="16" height="16">
   <properties>
    <property name="Channel" value="BG"/>
    <property name="Color" type="color" value="#ff170327"/>
    <property name="Frames" type="int" value="0"/>
   </properties>
  </object>
  <object id="1782" gid="16388" x="7232" y="128" width="16" height="16">
   <properties>
    <property name="Channel" value="BG"/>
    <property name="Color" type="color" value="#ff170327"/>
    <property name="Frames" type="int" value="24"/>
   </properties>
  </object>
  <object id="1784" gid="16388" x="7312" y="128" width="16" height="16">
   <properties>
    <property name="Channel" value="BG"/>
    <property name="Color" type="color" value="#ff170327"/>
    <property name="Frames" type="int" value="24"/>
   </properties>
  </object>
  <object id="1786" gid="16388" x="7392" y="128" width="16" height="16">
   <properties>
    <property name="Channel" value="BG"/>
    <property name="Color" type="color" value="#ff170327"/>
    <property name="Frames" type="int" value="24"/>
   </properties>
  </object>
  <object id="1788" gid="16388" x="7472" y="128" width="16" height="16">
   <properties>
    <property name="Channel" value="BG"/>
    <property name="Color" type="color" value="#ff170327"/>
    <property name="Frames" type="int" value="24"/>
   </properties>
  </object>
  <object id="1790" gid="16388" x="7552" y="128" width="16" height="16">
   <properties>
    <property name="Channel" value="BG"/>
    <property name="Color" type="color" value="#ff170327"/>
    <property name="Frames" type="int" value="24"/>
   </properties>
  </object>
  <object id="1730" gid="16388" x="6576" y="128" width="16" height="16">
   <properties>
    <property name="Channel" value="BG"/>
    <property name="Color" type="color" value="#ff2b2e4d"/>
   </properties>
  </object>
  <object id="1750" gid="16388" x="6896" y="128" width="16" height="16">
   <properties>
    <property name="Channel" value="BG"/>
    <property name="Color" type="color" value="#ff2b2e4d"/>
   </properties>
  </object>
  <object id="1766" gid="16388" x="7216" y="128" width="16" height="16">
   <properties>
    <property name="Channel" value="BG"/>
    <property name="Color" type="color" value="#ff2b2e4d"/>
   </properties>
  </object>
  <object id="1777" gid="16388" x="7536" y="128" width="16" height="16">
   <properties>
    <property name="Channel" value="BG"/>
    <property name="Color" type="color" value="#ff2b2e4d"/>
   </properties>
  </object>
  <object id="1732" gid="16388" x="6656" y="128" width="16" height="16">
   <properties>
    <property name="Channel" value="BG"/>
    <property name="Color" type="color" value="#ff2b2e4d"/>
   </properties>
  </object>
  <object id="1749" gid="16388" x="6976" y="128" width="16" height="16">
   <properties>
    <property name="Channel" value="BG"/>
    <property name="Color" type="color" value="#ff2b2e4d"/>
   </properties>
  </object>
  <object id="1765" gid="16388" x="7296" y="128" width="16" height="16">
   <properties>
    <property name="Channel" value="BG"/>
    <property name="Color" type="color" value="#ff2b2e4d"/>
   </properties>
  </object>
  <object id="1737" gid="16388" x="6736" y="128" width="16" height="16">
   <properties>
    <property name="Channel" value="BG"/>
    <property name="Color" type="color" value="#ff2b2e4d"/>
   </properties>
  </object>
  <object id="1747" gid="16388" x="7056" y="128" width="16" height="16">
   <properties>
    <property name="Channel" value="BG"/>
    <property name="Color" type="color" value="#ff2b2e4d"/>
   </properties>
  </object>
  <object id="1763" gid="16388" x="7376" y="128" width="16" height="16">
   <properties>
    <property name="Channel" value="BG"/>
    <property name="Color" type="color" value="#ff2b2e4d"/>
   </properties>
  </object>
  <object id="1741" gid="16388" x="6816" y="128" width="16" height="16">
   <properties>
    <property name="Channel" value="BG"/>
    <property name="Color" type="color" value="#ff2b2e4d"/>
   </properties>
  </object>
  <object id="1745" gid="16388" x="7136" y="128" width="16" height="16">
   <properties>
    <property name="Channel" value="BG"/>
    <property name="Color" type="color" value="#ff2b2e4d"/>
   </properties>
  </object>
  <object id="1761" gid="16388" x="7456" y="128" width="16" height="16">
   <properties>
    <property name="Channel" value="BG"/>
    <property name="Color" type="color" value="#ff2b2e4d"/>
   </properties>
  </object>
  <object id="1492" gid="16388" x="6512" y="112" width="16" height="16">
   <properties>
    <property name="Channel" value="LINE"/>
    <property name="Color" type="color" value="#ff9083ff"/>
    <property name="Color Blending" type="bool" value="true"/>
   </properties>
  </object>
  <object id="1725" gid="16388" x="6592" y="112" width="16" height="16">
   <properties>
    <property name="Channel" value="LINE"/>
    <property name="Color" type="color" value="#ff9083ff"/>
    <property name="Color Blending" type="bool" value="true"/>
    <property name="Frames" type="int" value="24"/>
   </properties>
  </object>
  <object id="1759" gid="16388" x="6912" y="112" width="16" height="16">
   <properties>
    <property name="Channel" value="LINE"/>
    <property name="Color" type="color" value="#ff9083ff"/>
    <property name="Color Blending" type="bool" value="true"/>
    <property name="Frames" type="int" value="24"/>
   </properties>
  </object>
  <object id="1735" gid="16388" x="6672" y="112" width="16" height="16">
   <properties>
    <property name="Channel" value="LINE"/>
    <property name="Color" type="color" value="#ff9083ff"/>
    <property name="Color Blending" type="bool" value="true"/>
    <property name="Frames" type="int" value="24"/>
   </properties>
  </object>
  <object id="1756" gid="16388" x="6992" y="112" width="16" height="16">
   <properties>
    <property name="Channel" value="LINE"/>
    <property name="Color" type="color" value="#ff9083ff"/>
    <property name="Color Blending" type="bool" value="true"/>
    <property name="Frames" type="int" value="24"/>
   </properties>
  </object>
  <object id="1738" gid="16388" x="6752" y="112" width="16" height="16">
   <properties>
    <property name="Channel" value="LINE"/>
    <property name="Color" type="color" value="#ff9083ff"/>
    <property name="Color Blending" type="bool" value="true"/>
    <property name="Frames" type="int" value="24"/>
   </properties>
  </object>
  <object id="1754" gid="16388" x="7072" y="112" width="16" height="16">
   <properties>
    <property name="Channel" value="LINE"/>
    <property name="Color" type="color" value="#ff9083ff"/>
    <property name="Color Blending" type="bool" value="true"/>
    <property name="Frames" type="int" value="24"/>
   </properties>
  </object>
  <object id="1742" gid="16388" x="6832" y="112" width="16" height="16">
   <properties>
    <property name="Channel" value="LINE"/>
    <property name="Color" type="color" value="#ff9083ff"/>
    <property name="Color Blending" type="bool" value="true"/>
    <property name="Frames" type="int" value="24"/>
   </properties>
  </object>
  <object id="1752" gid="16388" x="7152" y="112" width="16" height="16">
   <properties>
    <property name="Channel" value="LINE"/>
    <property name="Color" type="color" value="#ffc083ff"/>
    <property name="Color Blending" type="bool" value="true"/>
    <property name="Frames" type="int" value="0"/>
   </properties>
  </object>
  <object id="1783" gid="16388" x="7232" y="112" width="16" height="16">
   <properties>
    <property name="Channel" value="LINE"/>
    <property name="Color" type="color" value="#ffc083ff"/>
    <property name="Color Blending" type="bool" value="true"/>
    <property name="Frames" type="int" value="24"/>
   </properties>
  </object>
  <object id="1785" gid="16388" x="7312" y="112" width="16" height="16">
   <properties>
    <property name="Channel" value="LINE"/>
    <property name="Color" type="color" value="#ffc083ff"/>
    <property name="Color Blending" type="bool" value="true"/>
    <property name="Frames" type="int" value="24"/>
   </properties>
  </object>
  <object id="1787" gid="16388" x="7392" y="112" width="16" height="16">
   <properties>
    <property name="Channel" value="LINE"/>
    <property name="Color" type="color" value="#ffc083ff"/>
    <property name="Color Blending" type="bool" value="true"/>
    <property name="Frames" type="int" value="24"/>
   </properties>
  </object>
  <object id="1789" gid="16388" x="7472" y="112" width="16" height="16">
   <properties>
    <property name="Channel" value="LINE"/>
    <property name="Color" type="color" value="#ffc083ff"/>
    <property name="Color Blending" type="bool" value="true"/>
    <property name="Frames" type="int" value="24"/>
   </properties>
  </object>
  <object id="1791" gid="16388" x="7552" y="112" width="16" height="16">
   <properties>
    <property name="Channel" value="LINE"/>
    <property name="Color" type="color" value="#ffc083ff"/>
    <property name="Color Blending" type="bool" value="true"/>
    <property name="Frames" type="int" value="24"/>
   </properties>
  </object>
  <object id="1731" gid="16388" x="6576" y="112" width="16" height="16">
   <properties>
    <property name="Channel" value="LINE"/>
    <property name="Color" type="color" value="#ffff5ecf"/>
    <property name="Color Blending" type="bool" value="true"/>
   </properties>
  </object>
  <object id="1758" gid="16388" x="6896" y="112" width="16" height="16">
   <properties>
    <property name="Channel" value="LINE"/>
    <property name="Color" type="color" value="#ffff5ecf"/>
    <property name="Color Blending" type="bool" value="true"/>
   </properties>
  </object>
  <object id="1774" gid="16388" x="7216" y="112" width="16" height="16">
   <properties>
    <property name="Channel" value="LINE"/>
    <property name="Color" type="color" value="#ffff5ecf"/>
    <property name="Color Blending" type="bool" value="true"/>
   </properties>
  </object>
  <object id="1779" gid="16388" x="7536" y="112" width="16" height="16">
   <properties>
    <property name="Channel" value="LINE"/>
    <property name="Color" type="color" value="#ffff5ecf"/>
    <property name="Color Blending" type="bool" value="true"/>
   </properties>
  </object>
  <object id="1734" gid="16388" x="6656" y="112" width="16" height="16">
   <properties>
    <property name="Channel" value="LINE"/>
    <property name="Color" type="color" value="#ffe45eff"/>
    <property name="Color Blending" type="bool" value="true"/>
   </properties>
  </object>
  <object id="1757" gid="16388" x="6976" y="112" width="16" height="16">
   <properties>
    <property name="Channel" value="LINE"/>
    <property name="Color" type="color" value="#ffe45eff"/>
    <property name="Color Blending" type="bool" value="true"/>
   </properties>
  </object>
  <object id="1773" gid="16388" x="7296" y="112" width="16" height="16">
   <properties>
    <property name="Channel" value="LINE"/>
    <property name="Color" type="color" value="#ffe45eff"/>
    <property name="Color Blending" type="bool" value="true"/>
   </properties>
  </object>
  <object id="1739" gid="16388" x="6736" y="112" width="16" height="16">
   <properties>
    <property name="Channel" value="LINE"/>
    <property name="Color" type="color" value="#ff77ff5e"/>
    <property name="Color Blending" type="bool" value="true"/>
   </properties>
  </object>
  <object id="1755" gid="16388" x="7056" y="112" width="16" height="16">
   <properties>
    <property name="Channel" value="LINE"/>
    <property name="Color" type="color" value="#ff77ff5e"/>
    <property name="Color Blending" type="bool" value="true"/>
   </properties>
  </object>
  <object id="1771" gid="16388" x="7376" y="112" width="16" height="16">
   <properties>
    <property name="Channel" value="LINE"/>
    <property name="Color" type="color" value="#ff77ff5e"/>
    <property name="Color Blending" type="bool" value="true"/>
   </properties>
  </object>
  <object id="1743" gid="16388" x="6816" y="112" width="16" height="16">
   <properties>
    <property name="Channel" value="LINE"/>
    <property name="Color" type="color" value="#ff5effed"/>
    <property name="Color Blending" type="bool" value="true"/>
   </properties>
  </object>
  <object id="1753" gid="16388" x="7136" y="112" width="16" height="16">
   <properties>
    <property name="Channel" value="LINE"/>
    <property name="Color" type="color" value="#ff5effed"/>
    <property name="Color Blending" type="bool" value="true"/>
   </properties>
  </object>
  <object id="1769" gid="16388" x="7456" y="112" width="16" height="16">
   <properties>
    <property name="Channel" value="LINE"/>
    <property name="Color" type="color" value="#ff5effed"/>
    <property name="Color Blending" type="bool" value="true"/>
   </properties>
  </object>
  <object id="1493" gid="16388" x="6514" y="144" width="16" height="16">
   <properties>
    <property name="Channel" value="GROUND"/>
    <property name="Color" type="color" value="#ff000000"/>
    <property name="Copy color" type="bool" value="true"/>
    <property name="Copy from channel" value="BG"/>
   </properties>
  </object>
  <object id="1494" gid="5733" x="6880" y="416" width="16" height="16">
   <properties>
    <property name="bg layer" value="1"/>
    <property name="z index" type="int" value="15"/>
   </properties>
  </object>
  <object id="1495" gid="16401" x="7424" y="384" width="16" height="16">
   <properties>
    <property name="bg layer" value="0"/>
   </properties>
  </object>
  <object id="1496" gid="16549" x="7488" y="304" width="16" height="16"/>
  <object id="1497" gid="16401" x="7536" y="368" width="16" height="16">
   <properties>
    <property name="bg layer" value="0"/>
   </properties>
  </object>
  <object id="1498" gid="16401" x="6928" y="416" width="16" height="16">
   <properties>
    <property name="bg layer" value="0"/>
   </properties>
  </object>
  <object id="1499" gid="16394" x="6992" y="416" width="16" height="16">
   <properties>
    <property name="bg layer" value="0"/>
   </properties>
  </object>
  <object id="1500" gid="16485" x="7536" y="368" width="16" height="16">
   <properties>
    <property name="bg layer" value="1"/>
    <property name="color channel" value="BLACK"/>
    <property name="hflip" type="bool" value="true"/>
    <property name="z index" type="int" value="15"/>
   </properties>
  </object>
  <object id="1511" gid="16485" x="7424" y="384" width="16" height="16">
   <properties>
    <property name="bg layer" value="1"/>
    <property name="color channel" value="BLACK"/>
    <property name="hflip" type="bool" value="true"/>
    <property name="z index" type="int" value="15"/>
   </properties>
  </object>
  <object id="1509" gid="16485" x="6992" y="416" width="16" height="16">
   <properties>
    <property name="bg layer" value="1"/>
    <property name="color channel" value="BLACK"/>
    <property name="hflip" type="bool" value="true"/>
    <property name="z index" type="int" value="15"/>
   </properties>
  </object>
  <object id="1507" gid="16485" x="6736" y="368" width="16" height="16">
   <properties>
    <property name="bg layer" value="1"/>
    <property name="color channel" value="BLACK"/>
    <property name="hflip" type="bool" value="true"/>
    <property name="z index" type="int" value="15"/>
   </properties>
  </object>
  <object id="1505" gid="16485" x="6672" y="368" width="16" height="16">
   <properties>
    <property name="bg layer" value="1"/>
    <property name="color channel" value="BLACK"/>
    <property name="hflip" type="bool" value="true"/>
    <property name="z index" type="int" value="15"/>
   </properties>
  </object>
  <object id="1503" gid="16485" x="6928" y="416" width="16" height="16">
   <properties>
    <property name="bg layer" value="1"/>
    <property name="color channel" value="BLACK"/>
    <property name="hflip" type="bool" value="true"/>
    <property name="z index" type="int" value="15"/>
   </properties>
  </object>
  <object id="1501" gid="16485" x="7536" y="368" width="16" height="16">
   <properties>
    <property name="bg layer" value="1"/>
    <property name="color channel" value="2"/>
   </properties>
  </object>
  <object id="1510" gid="16485" x="7424" y="384" width="16" height="16">
   <properties>
    <property name="bg layer" value="1"/>
    <property name="color channel" value="2"/>
   </properties>
  </object>
  <object id="1508" gid="16485" x="6992" y="416" width="16" height="16">
   <properties>
    <property name="bg layer" value="1"/>
    <property name="color channel" value="2"/>
   </properties>
  </object>
  <object id="1506" gid="16485" x="6736" y="368" width="16" height="16">
   <properties>
    <property name="bg layer" value="1"/>
    <property name="color channel" value="2"/>
   </properties>
  </object>
  <object id="1504" gid="16485" x="6672" y="368" width="16" height="16">
   <properties>
    <property name="bg layer" value="1"/>
    <property name="color channel" value="2"/>
   </properties>
  </object>
  <object id="1502" gid="16485" x="6928" y="416" width="16" height="16">
   <properties>
    <property name="bg layer" value="1"/>
    <property name="color channel" value="2"/>
   </properties>
  </object>
  <object id="1512" gid="16404" x="7536" y="400" width="16" height="16">
   <properties>
    <property name="bg layer" value="0"/>
   </properties>
  </object>
  <object id="1513" gid="16404" x="7552" y="400" width="16" height="16">
   <properties>
    <property name="bg layer" value="0"/>
   </properties>
  </object>
  <object id="1514" gid="5731" x="7440" y="320" width="16" height="16">
   <properties>
    <property name="bg layer" value="0"/>
   </properties>
  </object>
  <object id="1515" gid="16402" x="7616" y="400" width="16" height="16">
   <properties>
    <property name="bg layer" value="2"/>
   </properties>
  </object>
  <object id="1516" gid="16402" x="7664" y="384" width="16" height="16">
   <properties>
    <property name="bg layer" value="2"/>
   </properties>
  </object>
  <object id="1517" gid="16402" x="7664" y="352" width="16" height="16">
   <properties>
    <property name="bg layer" value="2"/>
    <property name="vflip" type="bool" value="true"/>
   </properties>
  </object>
  <object id="1518" gid="16402" x="7648" y="352" width="16" height="16">
   <properties>
    <property name="bg layer" value="2"/>
    <property name="vflip" type="bool" value="true"/>
   </properties>
  </object>
  <object id="1519" gid="16402" x="7632" y="352" width="16" height="16">
   <properties>
    <property name="bg layer" value="2"/>
    <property name="vflip" type="bool" value="true"/>
   </properties>
  </object>
  <object id="1520" gid="16402" x="7680" y="352" width="16" height="16">
   <properties>
    <property name="bg layer" value="2"/>
    <property name="vflip" type="bool" value="true"/>
   </properties>
  </object>
  <object id="1521" gid="16402" x="7680" y="336" width="16" height="16">
   <properties>
    <property name="bg layer" value="2"/>
    <property name="vflip" type="bool" value="true"/>
   </properties>
  </object>
  <object id="1522" gid="16402" x="7696" y="336" width="16" height="16">
   <properties>
    <property name="bg layer" value="2"/>
    <property name="vflip" type="bool" value="true"/>
   </properties>
  </object>
  <object id="1523" gid="3425" x="6544" y="384" width="16" height="16">
   <properties>
    <property name="bg layer" value="1"/>
   </properties>
  </object>
  <object id="1524" gid="3425" x="6576" y="400" width="16" height="16">
   <properties>
    <property name="bg layer" value="1"/>
   </properties>
  </object>
  <object id="1525" gid="3425" x="6624" y="400" width="16" height="16">
   <properties>
    <property name="bg layer" value="1"/>
   </properties>
  </object>
  <object id="1526" gid="3425" x="6672" y="400" width="16" height="16">
   <properties>
    <property name="bg layer" value="1"/>
   </properties>
  </object>
  <object id="1527" gid="3425" x="6688" y="400" width="16" height="16">
   <properties>
    <property name="bg layer" value="1"/>
   </properties>
  </object>
  <object id="1528" gid="3425" x="6832" y="432" width="16" height="16">
   <properties>
    <property name="bg layer" value="1"/>
   </properties>
  </object>
  <object id="1529" gid="3425" x="6896" y="432" width="16" height="16">
   <properties>
    <property name="bg layer" value="1"/>
   </properties>
  </object>
  <object id="1530" gid="3425" x="6976" y="432" width="16" height="16">
   <properties>
    <property name="bg layer" value="1"/>
   </properties>
  </object>
  <object id="1531" gid="3425" x="6992" y="432" width="16" height="16">
   <properties>
    <property name="bg layer" value="1"/>
   </properties>
  </object>
  <object id="1532" gid="3425" x="7072" y="416" width="16" height="16">
   <properties>
    <property name="bg layer" value="1"/>
   </properties>
  </object>
  <object id="1533" gid="3425" x="7120" y="432" width="16" height="16">
   <properties>
    <property name="bg layer" value="1"/>
   </properties>
  </object>
  <object id="1534" gid="3425" x="7136" y="432" width="16" height="16">
   <properties>
    <property name="bg layer" value="1"/>
   </properties>
  </object>
  <object id="1535" gid="3425" x="7152" y="432" width="16" height="16">
   <properties>
    <property name="bg layer" value="1"/>
   </properties>
  </object>
  <object id="1536" gid="3425" x="7232" y="432" width="16" height="16">
   <properties>
    <property name="bg layer" value="1"/>
   </properties>
  </object>
  <object id="1537" gid="3425" x="7312" y="416" width="16" height="16">
   <properties>
    <property name="bg layer" value="1"/>
   </properties>
  </object>
  <object id="1538" gid="3425" x="7376" y="416" width="16" height="16">
   <properties>
    <property name="bg layer" value="1"/>
   </properties>
  </object>
  <object id="1539" gid="3425" x="7456" y="416" width="16" height="16">
   <properties>
    <property name="bg layer" value="1"/>
   </properties>
  </object>
  <object id="1540" gid="3425" x="7472" y="416" width="16" height="16">
   <properties>
    <property name="bg layer" value="1"/>
   </properties>
  </object>
  <object id="1541" gid="5981" x="6832" y="432" width="16" height="16">
   <properties>
    <property name="bg layer" value="1"/>
    <property name="z index" type="int" value="15"/>
   </properties>
  </object>
  <object id="1542" gid="5981" x="7312" y="416" width="16" height="16">
   <properties>
    <property name="bg layer" value="1"/>
    <property name="z index" type="int" value="15"/>
   </properties>
  </object>
  <object id="1543" gid="16399" x="6960" y="352" width="16" height="16">
   <properties>
    <property name="bg layer" value="0"/>
    <property name="enable rotation" type="bool" value="true"/>
    <property name="rotation angle" type="int" value="-90"/>
   </properties>
  </object>
  <object id="1544" gid="16510" x="6960" y="352" width="16" height="16">
   <properties>
    <property name="bg layer" value="1"/>
    <property name="color channel" value="3"/>
   </properties>
  </object>
  <object id="1545" gid="16408" x="6576" y="352" width="16" height="16">
   <properties>
    <property name="color channel" value="3"/>
   </properties>
  </object>
  <object id="1546" gid="16408" x="6640" y="256" width="16" height="16">
   <properties>
    <property name="color channel" value="3"/>
   </properties>
  </object>
  <object id="1547" gid="16408" x="6720" y="256" width="16" height="16">
   <properties>
    <property name="color channel" value="3"/>
   </properties>
  </object>
  <object id="1549" gid="16408" x="6784" y="352" width="16" height="16">
   <properties>
    <property name="color channel" value="3"/>
   </properties>
  </object>
  <object id="1550" gid="16408" x="6880" y="368" width="16" height="16">
   <properties>
    <property name="color channel" value="3"/>
   </properties>
  </object>
  <object id="1551" gid="16408" x="6896" y="256" width="16" height="16">
   <properties>
    <property name="bg layer" value="0"/>
    <property name="color channel" value="3"/>
   </properties>
  </object>
  <object id="1552" gid="16408" x="7024" y="352" width="16" height="16">
   <properties>
    <property name="bg layer" value="0"/>
    <property name="color channel" value="3"/>
   </properties>
  </object>
  <object id="1553" gid="16408" x="7120" y="384" width="16" height="16">
   <properties>
    <property name="color channel" value="3"/>
   </properties>
  </object>
  <object id="1554" gid="16408" x="7264" y="304" width="16" height="16">
   <properties>
    <property name="color channel" value="3"/>
   </properties>
  </object>
  <object id="1555" gid="16408" x="7328" y="368" width="16" height="16">
   <properties>
    <property name="bg layer" value="0"/>
    <property name="color channel" value="3"/>
   </properties>
  </object>
  <object id="1556" gid="16408" x="7488" y="336" width="16" height="16">
   <properties>
    <property name="color channel" value="3"/>
   </properties>
  </object>
  <object id="1557" gid="16412" x="6560" y="320" width="16" height="16">
   <properties>
    <property name="bg layer" value="0"/>
    <property name="color channel" value="3"/>
   </properties>
  </object>
  <object id="1558" gid="16412" x="6736" y="272" width="16" height="16">
   <properties>
    <property name="bg layer" value="0"/>
    <property name="color channel" value="3"/>
   </properties>
  </object>
  <object id="1559" gid="16412" x="6928" y="384" width="16" height="16">
   <properties>
    <property name="color channel" value="3"/>
   </properties>
  </object>
  <object id="1560" gid="16412" x="7056" y="320" width="16" height="16">
   <properties>
    <property name="color channel" value="3"/>
   </properties>
  </object>
  <object id="1561" gid="16412" x="7248" y="368" width="16" height="16">
   <properties>
    <property name="color channel" value="3"/>
   </properties>
  </object>
  <object id="1562" gid="16412" x="7392" y="320" width="16" height="16">
   <properties>
    <property name="color channel" value="3"/>
   </properties>
  </object>
  <object id="1563" gid="16412" x="7584" y="384" width="16" height="16">
   <properties>
    <property name="color channel" value="3"/>
   </properties>
  </object>
  <object id="1565" gid="16466" x="6608" y="320" width="16" height="16">
   <properties>
    <property name="color channel" value="3"/>
   </properties>
  </object>
  <object id="1566" gid="16467" x="6704" y="336" width="16" height="16">
   <properties>
    <property name="color channel" value="3"/>
   </properties>
  </object>
  <object id="1567" gid="16467" x="6848" y="288" width="16" height="16">
   <properties>
    <property name="color channel" value="3"/>
   </properties>
  </object>
  <object id="1568" gid="16466" x="6896" y="240" width="16" height="16">
   <properties>
    <property name="color channel" value="3"/>
   </properties>
  </object>
  <object id="1569" gid="16474" x="6928" y="272" width="16" height="16"/>
  <object id="1570" gid="16474" x="912" y="376" width="16" height="16">
   <properties>
    <property name="bg layer" value="2"/>
   </properties>
  </object>
  <object id="1571" gid="16403" x="6864" y="224" width="16" height="16"/>
  <object id="1572" gid="16403" x="6832" y="240" width="16" height="16"/>
  <object id="1573" gid="16403" x="6800" y="256" width="16" height="16"/>
  <object id="1574" gid="16401" x="6784" y="208" width="16" height="16"/>
  <object id="1575" gid="16467" x="6960" y="384" width="16" height="16">
   <properties>
    <property name="color channel" value="3"/>
   </properties>
  </object>
  <object id="1576" gid="16466" x="7088" y="336" width="16" height="16">
   <properties>
    <property name="color channel" value="3"/>
   </properties>
  </object>
  <object id="1578" gid="16467" x="7216" y="384" width="16" height="16">
   <properties>
    <property name="color channel" value="3"/>
   </properties>
  </object>
  <object id="1579" gid="16466" x="7312" y="288" width="16" height="16">
   <properties>
    <property name="color channel" value="3"/>
   </properties>
  </object>
  <object id="1580" gid="16467" x="7392" y="400" width="16" height="16">
   <properties>
    <property name="color channel" value="3"/>
   </properties>
  </object>
  <object id="1581" gid="16467" x="7552" y="336" width="16" height="16">
   <properties>
    <property name="color channel" value="3"/>
   </properties>
  </object>
  <object id="1582" gid="16466" x="7600" y="352" width="16" height="16">
   <properties>
    <property name="bg layer" value="2"/>
    <property name="color channel" value="3"/>
   </properties>
  </object>
  <object id="1583" gid="16437" x="7712" y="368" width="16" height="16">
   <properties>
    <property name="bg layer" value="2"/>
   </properties>
  </object>
  <object id="1584" gid="16439" x="7808" y="352" width="16" height="16"/>
  <object id="1585" gid="16386" x="7808" y="352" width="16" height="16"/>
  <object id="1586" gid="3412" x="6496" y="368" width="16" height="16">
   <properties>
    <property name="bg layer" value="1"/>
    <property name="z index" type="int" value="15"/>
   </properties>
  </object>
  <object id="1587" gid="3412" x="6496" y="384" width="16" height="16">
   <properties>
    <property name="bg layer" value="1"/>
    <property name="z index" type="int" value="15"/>
   </properties>
  </object>
  <object id="1588" gid="3412" x="6496" y="400" width="16" height="16">
   <properties>
    <property name="bg layer" value="1"/>
    <property name="z index" type="int" value="15"/>
   </properties>
  </object>
  <object id="1589" gid="3412" x="6496" y="416" width="16" height="16"/>
  <object id="1590" gid="3412" x="6496" y="432" width="16" height="16"/>
  <object id="1591" gid="3412" x="6560" y="384" width="16" height="16">
   <properties>
    <property name="bg layer" value="1"/>
    <property name="z index" type="int" value="15"/>
   </properties>
  </object>
  <object id="1592" gid="3412" x="6560" y="400" width="16" height="16">
   <properties>
    <property name="bg layer" value="1"/>
    <property name="z index" type="int" value="15"/>
   </properties>
  </object>
  <object id="1593" gid="3412" x="6560" y="416" width="16" height="16">
   <properties>
    <property name="bg layer" value="1"/>
    <property name="z index" type="int" value="15"/>
   </properties>
  </object>
  <object id="1594" gid="3412" x="6560" y="432" width="16" height="16">
   <properties>
    <property name="bg layer" value="1"/>
    <property name="z index" type="int" value="15"/>
   </properties>
  </object>
  <object id="1595" gid="3412" x="6592" y="400" width="16" height="16">
   <properties>
    <property name="bg layer" value="1"/>
    <property name="z index" type="int" value="15"/>
   </properties>
  </object>
  <object id="1596" gid="3412" x="6592" y="416" width="16" height="16">
   <properties>
    <property name="bg layer" value="1"/>
    <property name="z index" type="int" value="15"/>
   </properties>
  </object>
  <object id="1597" gid="3412" x="6592" y="432" width="16" height="16">
   <properties>
    <property name="bg layer" value="1"/>
    <property name="z index" type="int" value="15"/>
   </properties>
  </object>
  <object id="1598" gid="3412" x="6512" y="240" width="16" height="16">
   <properties>
    <property name="bg layer" value="1"/>
    <property name="z index" type="int" value="15"/>
   </properties>
  </object>
  <object id="1599" gid="3412" x="6512" y="256" width="16" height="16">
   <properties>
    <property name="bg layer" value="1"/>
    <property name="z index" type="int" value="15"/>
   </properties>
  </object>
  <object id="1600" gid="3412" x="6512" y="272" width="16" height="16">
   <properties>
    <property name="bg layer" value="1"/>
    <property name="z index" type="int" value="15"/>
   </properties>
  </object>
  <object id="1601" gid="3412" x="6512" y="288" width="16" height="16">
   <properties>
    <property name="bg layer" value="1"/>
    <property name="z index" type="int" value="15"/>
   </properties>
  </object>
  <object id="1602" gid="3412" x="6512" y="304" width="16" height="16">
   <properties>
    <property name="bg layer" value="1"/>
    <property name="z index" type="int" value="15"/>
   </properties>
  </object>
  <object id="1607" gid="3412" x="6784" y="400" width="16" height="16">
   <properties>
    <property name="bg layer" value="1"/>
    <property name="z index" type="int" value="15"/>
   </properties>
  </object>
  <object id="1608" gid="3412" x="6784" y="416" width="16" height="16">
   <properties>
    <property name="bg layer" value="1"/>
    <property name="z index" type="int" value="15"/>
   </properties>
  </object>
  <object id="1609" gid="3412" x="6784" y="432" width="16" height="16">
   <properties>
    <property name="bg layer" value="1"/>
    <property name="z index" type="int" value="15"/>
   </properties>
  </object>
  <object id="1610" gid="3412" x="6864" y="432" width="16" height="16">
   <properties>
    <property name="bg layer" value="1"/>
    <property name="z index" type="int" value="15"/>
   </properties>
  </object>
  <object id="1611" gid="3411" x="6528" y="304" width="16" height="16">
   <properties>
    <property name="bg layer" value="1"/>
    <property name="z index" type="int" value="15"/>
   </properties>
  </object>
  <object id="1612" gid="3411" x="6528" y="288" width="16" height="16">
   <properties>
    <property name="bg layer" value="1"/>
    <property name="z index" type="int" value="15"/>
   </properties>
  </object>
  <object id="1613" gid="3411" x="6528" y="272" width="16" height="16">
   <properties>
    <property name="bg layer" value="1"/>
    <property name="z index" type="int" value="15"/>
   </properties>
  </object>
  <object id="1614" gid="3411" x="6528" y="256" width="16" height="16">
   <properties>
    <property name="bg layer" value="1"/>
    <property name="z index" type="int" value="15"/>
   </properties>
  </object>
  <object id="1615" gid="3411" x="6528" y="240" width="16" height="16">
   <properties>
    <property name="bg layer" value="1"/>
    <property name="z index" type="int" value="15"/>
   </properties>
  </object>
  <object id="1620" gid="3411" x="6528" y="368" width="16" height="16">
   <properties>
    <property name="bg layer" value="1"/>
    <property name="z index" type="int" value="15"/>
   </properties>
  </object>
  <object id="1621" gid="3411" x="6528" y="384" width="16" height="16">
   <properties>
    <property name="bg layer" value="1"/>
    <property name="z index" type="int" value="15"/>
   </properties>
  </object>
  <object id="1622" gid="3411" x="6528" y="400" width="16" height="16">
   <properties>
    <property name="bg layer" value="1"/>
    <property name="z index" type="int" value="15"/>
   </properties>
  </object>
  <object id="1623" gid="3411" x="6528" y="416" width="16" height="16">
   <properties>
    <property name="bg layer" value="1"/>
    <property name="z index" type="int" value="15"/>
   </properties>
  </object>
  <object id="1624" gid="3411" x="6528" y="432" width="16" height="16">
   <properties>
    <property name="bg layer" value="1"/>
    <property name="z index" type="int" value="15"/>
   </properties>
  </object>
  <object id="1625" gid="3411" x="6560" y="384" width="16" height="16">
   <properties>
    <property name="bg layer" value="1"/>
    <property name="z index" type="int" value="15"/>
   </properties>
  </object>
  <object id="1626" gid="3411" x="6560" y="400" width="16" height="16">
   <properties>
    <property name="bg layer" value="1"/>
    <property name="z index" type="int" value="15"/>
   </properties>
  </object>
  <object id="1627" gid="3411" x="6560" y="432" width="16" height="16">
   <properties>
    <property name="bg layer" value="1"/>
    <property name="z index" type="int" value="15"/>
   </properties>
  </object>
  <object id="1628" gid="3411" x="6560" y="416" width="16" height="16">
   <properties>
    <property name="bg layer" value="1"/>
    <property name="z index" type="int" value="15"/>
   </properties>
  </object>
  <object id="1629" gid="3411" x="6608" y="400" width="16" height="16">
   <properties>
    <property name="bg layer" value="1"/>
    <property name="z index" type="int" value="15"/>
   </properties>
  </object>
  <object id="1630" gid="3411" x="6608" y="416" width="16" height="16">
   <properties>
    <property name="bg layer" value="1"/>
    <property name="z index" type="int" value="15"/>
   </properties>
  </object>
  <object id="1631" gid="3411" x="6608" y="432" width="16" height="16">
   <properties>
    <property name="bg layer" value="1"/>
    <property name="z index" type="int" value="15"/>
   </properties>
  </object>
  <object id="1632" gid="3411" x="6816" y="400" width="16" height="16">
   <properties>
    <property name="bg layer" value="1"/>
    <property name="z index" type="int" value="15"/>
   </properties>
  </object>
  <object id="1633" gid="3411" x="6816" y="416" width="16" height="16">
   <properties>
    <property name="bg layer" value="1"/>
    <property name="z index" type="int" value="15"/>
   </properties>
  </object>
  <object id="1634" gid="3411" x="6816" y="432" width="16" height="16">
   <properties>
    <property name="bg layer" value="1"/>
    <property name="z index" type="int" value="15"/>
   </properties>
  </object>
  <object id="1635" gid="3411" x="6880" y="416" width="16" height="16">
   <properties>
    <property name="bg layer" value="1"/>
    <property name="z index" type="int" value="15"/>
   </properties>
  </object>
  <object id="1636" gid="3411" x="6880" y="432" width="16" height="16">
   <properties>
    <property name="bg layer" value="1"/>
    <property name="z index" type="int" value="15"/>
   </properties>
  </object>
  <object id="1637" gid="3411" x="7056" y="400" width="16" height="16">
   <properties>
    <property name="bg layer" value="1"/>
    <property name="z index" type="int" value="15"/>
   </properties>
  </object>
  <object id="1638" gid="3411" x="7056" y="416" width="16" height="16">
   <properties>
    <property name="bg layer" value="1"/>
    <property name="z index" type="int" value="15"/>
   </properties>
  </object>
  <object id="1639" gid="3411" x="7056" y="432" width="16" height="16">
   <properties>
    <property name="bg layer" value="1"/>
    <property name="z index" type="int" value="15"/>
   </properties>
  </object>
  <object id="1640" gid="3411" x="7104" y="416" width="16" height="16">
   <properties>
    <property name="bg layer" value="1"/>
    <property name="z index" type="int" value="15"/>
   </properties>
  </object>
  <object id="1641" gid="3411" x="7104" y="432" width="16" height="16">
   <properties>
    <property name="bg layer" value="1"/>
    <property name="z index" type="int" value="15"/>
   </properties>
  </object>
  <object id="1642" gid="3411" x="7216" y="432" width="16" height="16">
   <properties>
    <property name="bg layer" value="1"/>
    <property name="z index" type="int" value="15"/>
   </properties>
  </object>
  <object id="1643" gid="3411" x="7296" y="400" width="16" height="16">
   <properties>
    <property name="bg layer" value="1"/>
    <property name="z index" type="int" value="15"/>
   </properties>
  </object>
  <object id="1644" gid="3411" x="7296" y="416" width="16" height="16">
   <properties>
    <property name="bg layer" value="1"/>
    <property name="z index" type="int" value="15"/>
   </properties>
  </object>
  <object id="1645" gid="3411" x="7296" y="432" width="16" height="16">
   <properties>
    <property name="bg layer" value="1"/>
    <property name="z index" type="int" value="15"/>
   </properties>
  </object>
  <object id="1646" gid="3411" x="7360" y="416" width="16" height="16">
   <properties>
    <property name="bg layer" value="1"/>
    <property name="z index" type="int" value="15"/>
   </properties>
  </object>
  <object id="1647" gid="3411" x="7360" y="432" width="16" height="16">
   <properties>
    <property name="bg layer" value="1"/>
    <property name="z index" type="int" value="15"/>
   </properties>
  </object>
  <object id="1648" gid="3411" x="7552" y="416" width="16" height="16">
   <properties>
    <property name="bg layer" value="1"/>
    <property name="z index" type="int" value="15"/>
   </properties>
  </object>
  <object id="1649" gid="3411" x="7552" y="432" width="16" height="16">
   <properties>
    <property name="bg layer" value="1"/>
    <property name="z index" type="int" value="15"/>
   </properties>
  </object>
  <object id="1650" gid="3411" x="7488" y="208" width="16" height="16">
   <properties>
    <property name="bg layer" value="1"/>
    <property name="z index" type="int" value="15"/>
   </properties>
  </object>
  <object id="1651" gid="3411" x="7488" y="224" width="16" height="16">
   <properties>
    <property name="bg layer" value="1"/>
    <property name="z index" type="int" value="15"/>
   </properties>
  </object>
  <object id="1652" gid="3411" x="7488" y="240" width="16" height="16">
   <properties>
    <property name="bg layer" value="1"/>
    <property name="z index" type="int" value="15"/>
   </properties>
  </object>
  <object id="1653" gid="3411" x="7488" y="256" width="16" height="16">
   <properties>
    <property name="bg layer" value="1"/>
    <property name="z index" type="int" value="15"/>
   </properties>
  </object>
  <object id="1654" gid="3411" x="7488" y="272" width="16" height="16">
   <properties>
    <property name="bg layer" value="1"/>
    <property name="z index" type="int" value="15"/>
   </properties>
  </object>
  <object id="1655" gid="3411" x="7488" y="288" width="16" height="16">
   <properties>
    <property name="bg layer" value="1"/>
    <property name="z index" type="int" value="15"/>
   </properties>
  </object>
  <object id="1656" gid="3411" x="7488" y="304" width="16" height="16">
   <properties>
    <property name="bg layer" value="1"/>
    <property name="z index" type="int" value="15"/>
   </properties>
  </object>
  <object id="1657" gid="3412" x="7536" y="416" width="16" height="16">
   <properties>
    <property name="bg layer" value="1"/>
    <property name="z index" type="int" value="15"/>
   </properties>
  </object>
  <object id="1658" gid="3412" x="7536" y="432" width="16" height="16">
   <properties>
    <property name="bg layer" value="1"/>
    <property name="z index" type="int" value="15"/>
   </properties>
  </object>
  <object id="1659" gid="3412" x="7440" y="208" width="16" height="16">
   <properties>
    <property name="bg layer" value="1"/>
    <property name="z index" type="int" value="15"/>
   </properties>
  </object>
  <object id="1660" gid="3412" x="7440" y="224" width="16" height="16">
   <properties>
    <property name="bg layer" value="1"/>
    <property name="z index" type="int" value="15"/>
   </properties>
  </object>
  <object id="1661" gid="3412" x="7440" y="240" width="16" height="16">
   <properties>
    <property name="bg layer" value="1"/>
    <property name="z index" type="int" value="15"/>
   </properties>
  </object>
  <object id="1662" gid="3412" x="7440" y="256" width="16" height="16">
   <properties>
    <property name="bg layer" value="1"/>
    <property name="z index" type="int" value="15"/>
   </properties>
  </object>
  <object id="1663" gid="3412" x="7440" y="272" width="16" height="16">
   <properties>
    <property name="bg layer" value="1"/>
    <property name="z index" type="int" value="15"/>
   </properties>
  </object>
  <object id="1664" gid="3412" x="7440" y="288" width="16" height="16">
   <properties>
    <property name="bg layer" value="1"/>
    <property name="z index" type="int" value="15"/>
   </properties>
  </object>
  <object id="1665" gid="3412" x="7440" y="304" width="16" height="16">
   <properties>
    <property name="bg layer" value="1"/>
    <property name="z index" type="int" value="15"/>
   </properties>
  </object>
  <object id="1666" gid="3412" x="7440" y="320" width="16" height="16">
   <properties>
    <property name="bg layer" value="1"/>
    <property name="z index" type="int" value="15"/>
   </properties>
  </object>
  <object id="1667" gid="3412" x="7328" y="416" width="16" height="16">
   <properties>
    <property name="bg layer" value="1"/>
    <property name="z index" type="int" value="15"/>
   </properties>
  </object>
  <object id="1668" gid="3412" x="7328" y="432" width="16" height="16">
   <properties>
    <property name="bg layer" value="1"/>
    <property name="z index" type="int" value="15"/>
   </properties>
  </object>
  <object id="1669" gid="3412" x="7280" y="400" width="16" height="16">
   <properties>
    <property name="bg layer" value="1"/>
    <property name="z index" type="int" value="15"/>
   </properties>
  </object>
  <object id="1670" gid="3412" x="7280" y="416" width="16" height="16">
   <properties>
    <property name="bg layer" value="1"/>
    <property name="z index" type="int" value="15"/>
   </properties>
  </object>
  <object id="1671" gid="3412" x="7280" y="432" width="16" height="16">
   <properties>
    <property name="bg layer" value="1"/>
    <property name="z index" type="int" value="15"/>
   </properties>
  </object>
  <object id="1672" gid="3412" x="7168" y="432" width="16" height="16">
   <properties>
    <property name="bg layer" value="1"/>
    <property name="z index" type="int" value="15"/>
   </properties>
  </object>
  <object id="1673" gid="3412" x="7056" y="400" width="16" height="16">
   <properties>
    <property name="bg layer" value="1"/>
    <property name="z index" type="int" value="15"/>
   </properties>
  </object>
  <object id="1674" gid="3412" x="7056" y="416" width="16" height="16">
   <properties>
    <property name="bg layer" value="1"/>
    <property name="z index" type="int" value="15"/>
   </properties>
  </object>
  <object id="1675" gid="3412" x="7056" y="432" width="16" height="16">
   <properties>
    <property name="bg layer" value="1"/>
    <property name="z index" type="int" value="15"/>
   </properties>
  </object>
  <object id="1676" gid="3412" x="7088" y="416" width="16" height="16">
   <properties>
    <property name="bg layer" value="1"/>
    <property name="z index" type="int" value="15"/>
   </properties>
  </object>
  <object id="1677" gid="3412" x="7088" y="432" width="16" height="16">
   <properties>
    <property name="bg layer" value="1"/>
    <property name="z index" type="int" value="15"/>
   </properties>
  </object>
  <object id="1678" gid="3389" x="6512" y="304" width="16" height="16">
   <properties>
    <property name="bg layer" value="1"/>
   </properties>
  </object>
  <object id="1679" gid="3389" x="6528" y="304" width="16" height="16">
   <properties>
    <property name="bg layer" value="1"/>
   </properties>
  </object>
  <object id="1680" gid="3390" x="6496" y="368" width="16" height="16">
   <properties>
    <property name="bg layer" value="1"/>
   </properties>
  </object>
  <object id="1681" gid="3390" x="6512" y="368" width="16" height="16">
   <properties>
    <property name="bg layer" value="1"/>
   </properties>
  </object>
  <object id="1682" gid="3390" x="6528" y="368" width="16" height="16">
   <properties>
    <property name="bg layer" value="1"/>
   </properties>
  </object>
  <object id="1683" gid="3390" x="7328" y="416" width="16" height="16">
   <properties>
    <property name="bg layer" value="1"/>
   </properties>
  </object>
  <object id="1699" gid="3390" x="7280" y="400" width="16" height="16">
   <properties>
    <property name="bg layer" value="1"/>
   </properties>
  </object>
  <object id="1697" gid="3390" x="7200" y="432" width="16" height="16">
   <properties>
    <property name="bg layer" value="1"/>
   </properties>
  </object>
  <object id="1694" gid="3390" x="7184" y="432" width="16" height="16">
   <properties>
    <property name="bg layer" value="1"/>
   </properties>
  </object>
  <object id="1693" gid="3390" x="7168" y="432" width="16" height="16">
   <properties>
    <property name="bg layer" value="1"/>
   </properties>
  </object>
  <object id="1692" gid="3390" x="7104" y="416" width="16" height="16">
   <properties>
    <property name="bg layer" value="1"/>
   </properties>
  </object>
  <object id="1691" gid="3390" x="7088" y="416" width="16" height="16">
   <properties>
    <property name="bg layer" value="1"/>
   </properties>
  </object>
  <object id="1690" gid="3390" x="7056" y="400" width="16" height="16">
   <properties>
    <property name="bg layer" value="1"/>
   </properties>
  </object>
  <object id="1689" gid="3390" x="6816" y="400" width="16" height="16">
   <properties>
    <property name="bg layer" value="1"/>
   </properties>
  </object>
  <object id="1688" gid="3390" x="6800" y="400" width="16" height="16">
   <properties>
    <property name="bg layer" value="1"/>
   </properties>
  </object>
  <object id="1687" gid="3390" x="6784" y="400" width="16" height="16">
   <properties>
    <property name="bg layer" value="1"/>
   </properties>
  </object>
  <object id="1686" gid="3390" x="6608" y="400" width="16" height="16">
   <properties>
    <property name="bg layer" value="1"/>
   </properties>
  </object>
  <object id="1685" gid="3390" x="6592" y="400" width="16" height="16">
   <properties>
    <property name="bg layer" value="1"/>
   </properties>
  </object>
  <object id="1684" gid="3390" x="6560" y="384" width="16" height="16">
   <properties>
    <property name="bg layer" value="1"/>
   </properties>
  </object>
  <object id="1695" gid="3390" x="7344" y="416" width="16" height="16">
   <properties>
    <property name="bg layer" value="1"/>
   </properties>
  </object>
  <object id="1702" gid="3390" x="7536" y="416" width="16" height="16">
   <properties>
    <property name="bg layer" value="1"/>
   </properties>
  </object>
  <object id="1700" gid="3390" x="7360" y="416" width="16" height="16">
   <properties>
    <property name="bg layer" value="1"/>
   </properties>
  </object>
  <object id="1701" gid="3390" x="7552" y="416" width="16" height="16">
   <properties>
    <property name="bg layer" value="1"/>
   </properties>
  </object>
  <object id="1698" gid="3390" x="7296" y="400" width="16" height="16">
   <properties>
    <property name="bg layer" value="1"/>
   </properties>
  </object>
  <object id="1696" gid="3390" x="7216" y="432" width="16" height="16">
   <properties>
    <property name="bg layer" value="1"/>
   </properties>
  </object>
  <object id="1703" gid="3389" x="7472" y="304" width="16" height="16">
   <properties>
    <property name="bg layer" value="1"/>
   </properties>
  </object>
  <object id="1704" gid="3389" x="7488" y="304" width="16" height="16">
   <properties>
    <property name="bg layer" value="1"/>
   </properties>
  </object>
  <object id="1705" gid="16426" x="6573" y="304" width="16" height="16">
   <properties>
    <property name="bg layer" value="0"/>
   </properties>
  </object>
  <object id="1709" gid="16426" x="6861" y="336" width="16" height="16">
   <properties>
    <property name="bg layer" value="0"/>
   </properties>
  </object>
  <object id="1713" gid="16426" x="7245" y="338" width="16" height="16">
   <properties>
    <property name="bg layer" value="0"/>
   </properties>
  </object>
  <object id="1706" gid="16393" x="6579" y="288" width="16" height="16">
   <properties>
    <property name="bg layer" value="1"/>
    <property name="color channel" value="3"/>
    <property name="enable rotation" type="bool" value="true"/>
    <property name="rotation angle" type="int" value="15"/>
   </properties>
  </object>
  <object id="1710" gid="16393" x="6867" y="320" width="16" height="16">
   <properties>
    <property name="bg layer" value="1"/>
    <property name="color channel" value="3"/>
    <property name="enable rotation" type="bool" value="true"/>
    <property name="rotation angle" type="int" value="15"/>
   </properties>
  </object>
  <object id="1714" gid="16393" x="7250" y="322" width="16" height="16">
   <properties>
    <property name="bg layer" value="1"/>
    <property name="color channel" value="3"/>
    <property name="enable rotation" type="bool" value="true"/>
    <property name="rotation angle" type="int" value="15"/>
   </properties>
  </object>
  <object id="1708" gid="16393" x="6807" y="291" width="16" height="16">
   <properties>
    <property name="bg layer" value="1"/>
    <property name="color channel" value="3"/>
    <property name="enable rotation" type="bool" value="true"/>
    <property name="rotation angle" type="int" value="-15"/>
   </properties>
  </object>
  <object id="1716" gid="16393" x="7366" y="289" width="16" height="16">
   <properties>
    <property name="bg layer" value="1"/>
    <property name="color channel" value="3"/>
    <property name="enable rotation" type="bool" value="true"/>
    <property name="rotation angle" type="int" value="-15"/>
   </properties>
  </object>
  <object id="1712" gid="16393" x="6998" y="288" width="16" height="16">
   <properties>
    <property name="bg layer" value="1"/>
    <property name="color channel" value="3"/>
    <property name="enable rotation" type="bool" value="true"/>
    <property name="rotation angle" type="int" value="-15"/>
   </properties>
  </object>
  <object id="1707" gid="16426" x="6813" y="307" width="16" height="16"/>
  <object id="1711" gid="16426" x="7005" y="304" width="16" height="16"/>
  <object id="1715" gid="16426" x="7373" y="304" width="16" height="16">
   <properties>
    <property name="bg layer" value="0"/>
    <property name="hflip" type="bool" value="true"/>
   </properties>
  </object>
  <object id="1717" gid="16513" x="6640" y="368" width="16" height="16">
   <properties>
    <property name="color channel" value="BLACK"/>
    <property name="enable rotation" type="bool" value="true"/>
    <property name="rotation angle" type="int" value="-24"/>
   </properties>
  </object>
  <object id="1719" gid="16513" x="6848" y="384" width="16" height="16">
   <properties>
    <property name="color channel" value="BLACK"/>
    <property name="enable rotation" type="bool" value="true"/>
    <property name="rotation angle" type="int" value="24"/>
   </properties>
  </object>
  <object id="1721" gid="16513" x="7312" y="368" width="16" height="16">
   <properties>
    <property name="color channel" value="BLACK"/>
    <property name="enable rotation" type="bool" value="true"/>
    <property name="rotation angle" type="int" value="24"/>
   </properties>
  </object>
  <object id="1720" gid="16513" x="7008" y="384" width="16" height="16">
   <properties>
    <property name="color channel" value="BLACK"/>
    <property name="enable rotation" type="bool" value="true"/>
    <property name="rotation angle" type="int" value="-66"/>
   </properties>
  </object>
  <object id="1722" gid="16513" x="7440" y="352" width="16" height="16">
   <properties>
    <property name="color channel" value="BLACK"/>
    <property name="enable rotation" type="bool" value="true"/>
    <property name="rotation angle" type="int" value="-66"/>
   </properties>
  </object>
  <object id="1723" gid="16513" x="7520" y="336" width="16" height="16">
   <properties>
    <property name="color channel" value="BLACK"/>
    <property name="enable rotation" type="bool" value="true"/>
    <property name="rotation angle" type="int" value="66"/>
   </properties>
  </object>
  <object id="1792" gid="16388" x="7152" y="176" width="16" height="16">
   <properties>
    <property name="Channel" value="1"/>
    <property name="Color" type="color" value="#ff220938"/>
    <property name="Color Blending" type="bool" value="true"/>
   </properties>
  </object>
  <object id="1793" gid="16388" x="7152" y="192" width="16" height="16">
   <properties>
    <property name="Channel" value="2"/>
    <property name="Color" type="color" value="#ff532986"/>
    <property name="Color Blending" type="bool" value="true"/>
   </properties>
  </object>
  <object id="1794" gid="16388" x="7152" y="208" width="16" height="16">
   <properties>
    <property name="Channel" value="3"/>
    <property name="Color" type="color" value="#ffa166db"/>
   </properties>
  </object>
  <object id="1795" gid="16388" x="7792" y="176" width="16" height="16">
   <properties>
    <property name="Channel" value="1"/>
    <property name="Color" type="color" value="#ff070200"/>
    <property name="Color Blending" type="bool" value="true"/>
   </properties>
  </object>
  <object id="1796" gid="16388" x="7792" y="192" width="16" height="16">
   <properties>
    <property name="Channel" value="2"/>
    <property name="Color" type="color" value="#ff941f00"/>
   </properties>
  </object>
  <object id="1797" gid="16388" x="7792" y="208" width="16" height="16">
   <properties>
    <property name="Channel" value="3"/>
    <property name="Color" type="color" value="#ffff6542"/>
    <property name="Color Blending" type="bool" value="true"/>
   </properties>
  </object>
  <object id="1798" gid="16388" x="7792" y="112" width="16" height="16">
   <properties>
    <property name="Channel" value="LINE"/>
    <property name="Color" type="color" value="#ffff795d"/>
    <property name="Color Blending" type="bool" value="true"/>
   </properties>
  </object>
  <object id="1799" gid="16388" x="7792" y="128" width="16" height="16">
   <properties>
    <property name="Channel" value="BG"/>
    <property name="Color" type="color" value="#ff240800"/>
   </properties>
  </object>
  <object id="1801" gid="3390" x="6872" y="424" width="16" height="16">
   <properties>
    <property name="bg layer" value="1"/>
    <property name="enable rotation" type="bool" value="true"/>
    <property name="rotation angle" type="int" value="-26"/>
   </properties>
  </object>
  <object id="1812" gid="3426" x="7998" y="398" width="16" height="16">
   <properties>
    <property name="bg layer" value="1"/>
    <property name="enable rotation" type="bool" value="true"/>
    <property name="rotation angle" type="int" value="-45"/>
   </properties>
  </object>
  <object id="1840" gid="3426" x="8478" y="430" width="16" height="16">
   <properties>
    <property name="bg layer" value="1"/>
    <property name="enable rotation" type="bool" value="true"/>
    <property name="rotation angle" type="int" value="-45"/>
   </properties>
  </object>
  <object id="1830" gid="3426" x="8228" y="416" width="16" height="16">
   <properties>
    <property name="bg layer" value="1"/>
    <property name="enable rotation" type="bool" value="true"/>
    <property name="rotation angle" type="int" value="45"/>
   </properties>
  </object>
  <object id="1803" gid="3423" x="6856" y="432" width="16" height="16">
   <properties>
    <property name="bg layer" value="1"/>
    <property name="enable rotation" type="bool" value="true"/>
    <property name="rotation angle" type="int" value="-26"/>
   </properties>
  </object>
  <object id="1810" gid="3435" x="7986" y="408" width="16" height="16">
   <properties>
    <property name="bg layer" value="1"/>
    <property name="enable rotation" type="bool" value="true"/>
    <property name="rotation angle" type="int" value="-45"/>
   </properties>
  </object>
  <object id="1839" gid="3435" x="8466" y="440" width="16" height="16">
   <properties>
    <property name="bg layer" value="1"/>
    <property name="enable rotation" type="bool" value="true"/>
    <property name="rotation angle" type="int" value="-45"/>
   </properties>
  </object>
  <object id="1831" gid="3435" x="8216" y="404" width="16" height="16">
   <properties>
    <property name="bg layer" value="1"/>
    <property name="enable rotation" type="bool" value="true"/>
    <property name="rotation angle" type="int" value="45"/>
   </properties>
  </object>
  <object id="1804" gid="3424" x="6888" y="418" width="16" height="16">
   <properties>
    <property name="bg layer" value="1"/>
    <property name="enable rotation" type="bool" value="true"/>
    <property name="rotation angle" type="int" value="-26"/>
   </properties>
  </object>
  <object id="1811" gid="3436" x="8009" y="386" width="16" height="16">
   <properties>
    <property name="bg layer" value="1"/>
    <property name="enable rotation" type="bool" value="true"/>
    <property name="rotation angle" type="int" value="-45"/>
   </properties>
  </object>
  <object id="1842" gid="3436" x="8489" y="418" width="16" height="16">
   <properties>
    <property name="bg layer" value="1"/>
    <property name="enable rotation" type="bool" value="true"/>
    <property name="rotation angle" type="int" value="-45"/>
   </properties>
  </object>
  <object id="1832" gid="3436" x="8240" y="428" width="16" height="16">
   <properties>
    <property name="bg layer" value="1"/>
    <property name="enable rotation" type="bool" value="true"/>
    <property name="rotation angle" type="int" value="45"/>
   </properties>
  </object>
  <object id="1805" gid="3389" x="7448" y="310" width="16" height="16">
   <properties>
    <property name="bg layer" value="1"/>
    <property name="enable rotation" type="bool" value="true"/>
    <property name="rotation angle" type="int" value="-26"/>
   </properties>
  </object>
  <object id="1806" gid="3421" x="7432" y="318" width="16" height="16">
   <properties>
    <property name="bg layer" value="1"/>
    <property name="enable rotation" type="bool" value="true"/>
    <property name="rotation angle" type="int" value="-26"/>
   </properties>
  </object>
  <object id="1807" gid="3422" x="7464" y="302" width="16" height="16">
   <properties>
    <property name="bg layer" value="1"/>
    <property name="enable rotation" type="bool" value="true"/>
    <property name="rotation angle" type="int" value="-26"/>
   </properties>
  </object>
  <object id="1808" gid="3391" x="8048" y="432" width="16" height="16">
   <properties>
    <property name="bg layer" value="1"/>
   </properties>
  </object>
  <object id="1816" gid="3391" x="8224" y="288" width="16" height="16">
   <properties>
    <property name="bg layer" value="1"/>
   </properties>
  </object>
  <object id="1817" gid="3391" x="8224" y="304" width="16" height="16">
   <properties>
    <property name="bg layer" value="1"/>
   </properties>
  </object>
  <object id="1820" gid="3391" x="8416" y="288" width="16" height="16">
   <properties>
    <property name="bg layer" value="1"/>
   </properties>
  </object>
  <object id="1818" gid="3423" x="8224" y="320" width="16" height="16">
   <properties>
    <property name="bg layer" value="1"/>
   </properties>
  </object>
  <object id="1819" gid="3423" x="8416" y="304" width="16" height="16">
   <properties>
    <property name="bg layer" value="1"/>
   </properties>
  </object>
  <object id="1809" gid="3421" x="8048" y="416" width="16" height="16">
   <properties>
    <property name="bg layer" value="1"/>
   </properties>
  </object>
  <object id="1821" gid="3421" x="8288" y="432" width="16" height="16">
   <properties>
    <property name="bg layer" value="1"/>
   </properties>
  </object>
  <object id="1822" gid="16495" x="7980" y="395" width="16" height="16">
   <properties>
    <property name="bg layer" value="0"/>
    <property name="enable rotation" type="bool" value="true"/>
    <property name="rotation angle" type="int" value="-45"/>
   </properties>
  </object>
  <object id="1841" gid="16495" x="8460" y="427" width="16" height="16">
   <properties>
    <property name="bg layer" value="0"/>
    <property name="enable rotation" type="bool" value="true"/>
    <property name="rotation angle" type="int" value="-45"/>
   </properties>
  </object>
  <object id="1823" gid="16495" x="7996" y="379" width="16" height="16">
   <properties>
    <property name="bg layer" value="0"/>
    <property name="enable rotation" type="bool" value="true"/>
    <property name="rotation angle" type="int" value="-45"/>
   </properties>
  </object>
  <object id="1843" gid="16495" x="8476" y="411" width="16" height="16">
   <properties>
    <property name="bg layer" value="0"/>
    <property name="enable rotation" type="bool" value="true"/>
    <property name="rotation angle" type="int" value="-45"/>
   </properties>
  </object>
  <object id="1824" gid="16495" x="8229" y="395" width="16" height="16">
   <properties>
    <property name="bg layer" value="0"/>
    <property name="enable rotation" type="bool" value="true"/>
    <property name="rotation angle" type="int" value="45"/>
   </properties>
  </object>
  <object id="1825" gid="16495" x="8245" y="411" width="16" height="16">
   <properties>
    <property name="bg layer" value="0"/>
    <property name="enable rotation" type="bool" value="true"/>
    <property name="rotation angle" type="int" value="45"/>
   </properties>
  </object>
  <object id="1826" gid="16495" x="8117" y="324" width="16" height="16">
   <properties>
    <property name="bg layer" value="0"/>
    <property name="enable rotation" type="bool" value="true"/>
    <property name="rotation angle" type="int" value="135"/>
   </properties>
  </object>
  <object id="1845" gid="16495" x="8469" y="340" width="16" height="16">
   <properties>
    <property name="bg layer" value="0"/>
    <property name="enable rotation" type="bool" value="true"/>
    <property name="rotation angle" type="int" value="135"/>
   </properties>
  </object>
  <object id="1827" gid="16495" x="8133" y="308" width="16" height="16">
   <properties>
    <property name="bg layer" value="0"/>
    <property name="enable rotation" type="bool" value="true"/>
    <property name="rotation angle" type="int" value="135"/>
   </properties>
  </object>
  <object id="1847" gid="16495" x="8485" y="324" width="16" height="16">
   <properties>
    <property name="bg layer" value="0"/>
    <property name="enable rotation" type="bool" value="true"/>
    <property name="rotation angle" type="int" value="135"/>
   </properties>
  </object>
  <object id="1828" gid="16495" x="8347" y="357" width="16" height="16">
   <properties>
    <property name="bg layer" value="0"/>
    <property name="enable rotation" type="bool" value="true"/>
    <property name="rotation angle" type="int" value="225"/>
   </properties>
  </object>
  <object id="1829" gid="16495" x="8363" y="373" width="16" height="16">
   <properties>
    <property name="bg layer" value="0"/>
    <property name="enable rotation" type="bool" value="true"/>
    <property name="rotation angle" type="int" value="225"/>
   </properties>
  </object>
  <object id="1833" gid="3425" x="8115" y="304" width="16" height="16">
   <properties>
    <property name="bg layer" value="1"/>
    <property name="enable rotation" type="bool" value="true"/>
    <property name="rotation angle" type="int" value="-45"/>
   </properties>
  </object>
  <object id="1848" gid="3425" x="8467" y="320" width="16" height="16">
   <properties>
    <property name="bg layer" value="1"/>
    <property name="enable rotation" type="bool" value="true"/>
    <property name="rotation angle" type="int" value="-45"/>
   </properties>
  </object>
  <object id="1836" gid="3425" x="8366" y="354" width="16" height="16">
   <properties>
    <property name="bg layer" value="1"/>
    <property name="enable rotation" type="bool" value="true"/>
    <property name="rotation angle" type="int" value="45"/>
   </properties>
  </object>
  <object id="1838" gid="3433" x="8354" y="342" width="16" height="16">
   <properties>
    <property name="bg layer" value="1"/>
    <property name="enable rotation" type="bool" value="true"/>
    <property name="rotation angle" type="int" value="45"/>
   </properties>
  </object>
  <object id="1837" gid="3434" x="8377" y="365" width="16" height="16">
   <properties>
    <property name="bg layer" value="1"/>
    <property name="enable rotation" type="bool" value="true"/>
    <property name="rotation angle" type="int" value="45"/>
   </properties>
  </object>
  <object id="1834" gid="3433" x="8104" y="316" width="16" height="16">
   <properties>
    <property name="bg layer" value="1"/>
    <property name="enable rotation" type="bool" value="true"/>
    <property name="rotation angle" type="int" value="-45"/>
   </properties>
  </object>
  <object id="1846" gid="3433" x="8456" y="332" width="16" height="16">
   <properties>
    <property name="bg layer" value="1"/>
    <property name="enable rotation" type="bool" value="true"/>
    <property name="rotation angle" type="int" value="-45"/>
   </properties>
  </object>
  <object id="1835" gid="3434" x="8128" y="292" width="16" height="16">
   <properties>
    <property name="bg layer" value="1"/>
    <property name="enable rotation" type="bool" value="true"/>
    <property name="rotation angle" type="int" value="-45"/>
   </properties>
  </object>
  <object id="1849" gid="3434" x="8480" y="308" width="16" height="16">
   <properties>
    <property name="bg layer" value="1"/>
    <property name="enable rotation" type="bool" value="true"/>
    <property name="rotation angle" type="int" value="-45"/>
   </properties>
  </object>
 </objectgroup>
</map>
