<?xml version="1.0" encoding="UTF-8"?>
<map version="1.10" tiledversion="1.11.2" orientation="orthogonal" renderorder="right-down" width="302" height="27" tilewidth="16" tileheight="16" infinite="0" nextlayerid="8" nextobjectid="1020">
 <editorsettings>
  <export target="beastmode.json" format="json"/>
 </editorsettings>
 <properties>
  <property name="BG" type="color" value="#ff323232"/>
  <property name="Background Type" type="int" value="0"/>
  <property name="COL1" type="color" value="#ff098a00"/>
  <property name="COL2" type="color" value="#ff004d05"/>
  <property name="COL3" type="color" value="#ff000000"/>
  <property name="COL4" type="color" value="#ff323232"/>
  <property name="Difficulty" value="EASY"/>
  <property name="GROUND" type="color" value="#ff3f3f3f"/>
  <property name="Gamemode" type="int" value="0"/>
  <property name="Ground Type" type="int" value="0"/>
  <property name="Level name" value="BEAST MODE"/>
  <property name="OBJ" type="color" value="#ff14ff00"/>
  <property name="Song" value="STEREOMA"/>
  <property name="Speed" type="int" value="1"/>
  <property name="Stars" type="int" value="2"/>
 </properties>
 <tileset firstgid="1" source="famidash.tsx"/>
 <tileset firstgid="16385" source="sprites.tsx"/>
 <layer id="4" name="l2" width="302" height="27">
  <data encoding="csv">
1,1,1,1,1,1,1,1,1,1,1,1,1,1,1,1,1,1,1,1,1,1,1,1,1,1,1,1,1,1,1,1,1,1,1,1,1,1,1,1,1,1,1,1,1,1,1,1,1,1,1,1,1,1,1,1,1,1,1,1,1,1,1,1,1,1,1,1,1,1,1,1,1,1,1,1,1,1,1,1,1,1,1,1,1,1,1,1,1,1,1,1,1,1,1,1,1,1,1,1,1,1,1,1,1,1,1,1,1,1,1,1,1,1,1,1,1,1,1,1,1,1,1,1,1,1,1,1,1,1,1,1,1,1,1,1,1,1,1,1,1,1,1,1,1,1,1,1,1,1,1,1,1,1,1,1,1,1,1,1,1,1,1,1,1,1,1,1,1,1,1,1,1,1,1,1,1,1,1,1,1,1,1,1,1,1,1,1,1,1,1,1,1,1,1,1,1,1,1,1,1,1,1,1,1,1,1,1,1,1,1,1,1,1,1,1,1,1,1,1,1,1,1,1,1,1,1,1,1,1,1,1,1,1,1,1,1,1,1,1,1,1,1,1,1,1,1,1,1,1,1,1,1,1,1,1,1,1,1,1,1,1,1,1,1,1,1,1,1,1,1,1,1,1,1,1,1,1,1,1,1,1,1,1,1,1,1,1,1,1,1,1,1,1,1,1,1,1,1,1,1,1,
1,1,1,1,1,1,1,1,1,1,1,1,1,1,1,1,1,1,1,1,1,1,1,1,1,1,1,1,1,1,1,1,1,1,1,1,1,1,1,1,1,1,1,1,1,1,1,1,1,1,1,1,1,1,1,1,1,1,1,1,1,1,1,1,1,1,1,1,1,1,1,1,1,1,1,1,1,1,1,1,1,1,1,1,1,1,1,1,1,1,1,1,1,1,1,1,1,1,1,1,1,1,1,1,1,1,1,1,1,1,1,1,1,1,1,1,1,1,1,1,1,1,1,1,1,1,1,1,1,1,1,1,1,1,1,1,1,1,1,1,1,1,1,1,1,1,1,1,1,1,1,1,1,1,1,1,1,1,1,1,1,1,1,1,1,1,1,1,1,1,1,1,1,1,1,1,1,1,1,1,1,1,1,1,1,1,1,1,1,1,1,1,1,1,1,1,1,1,1,1,1,1,1,1,1,1,1,1,1,1,1,1,1,1,1,1,1,1,1,1,1,1,1,1,1,1,1,1,1,1,1,1,1,1,1,1,1,1,1,1,1,1,1,1,1,1,1,1,1,1,1,1,1,1,1,1,1,1,1,1,1,1,1,1,1,1,1,1,1,1,1,1,1,1,1,1,1,1,1,1,1,1,1,1,1,1,1,1,1,1,1,1,1,1,1,1,1,1,1,1,1,1,
1,1,1,1,1,1,1,1,1,1,1,1,1,1,1,1,1,1,1,1,1,1,1,1,1,1,1,1,1,1,1,1,1,1,1,1,1,1,1,1,1,1,1,1,1,1,1,1,1,1,1,1,1,1,1,1,1,1,1,1,1,1,1,1,1,1,1,1,1,1,1,1,1,1,1,1,1,1,1,1,1,1,1,1,1,1,1,1,1,1,1,1,1,1,1,1,1,1,1,1,1,1,1,1,1,1,1,1,1,1,1,1,1,1,1,1,1,1,1,1,1,1,1,1,1,1,1,1,1,1,1,1,1,1,1,1,1,1,1,1,1,1,1,1,1,1,1,1,1,1,1,1,1,1,1,1,1,1,1,1,1,1,1,1,1,1,1,1,1,1,1,1,1,1,1,1,1,1,1,1,1,1,1,1,1,1,1,1,1,1,1,1,1,1,1,1,1,1,1,1,1,1,1,1,1,1,1,1,1,1,1,1,1,1,1,1,1,1,1,1,1,1,1,1,1,1,1,1,1,1,1,1,1,1,1,1,1,1,1,1,1,1,1,1,1,1,1,1,1,1,1,1,1,1,1,1,1,1,1,1,1,1,1,1,1,1,1,1,1,1,1,1,1,1,1,1,1,1,1,1,1,1,1,1,1,1,1,1,1,1,1,1,1,1,1,1,1,1,1,1,1,1,
1,1,1,1,1,1,1,1,1,1,1,1,1,1,1,1,1,1,1,1,1,1,1,1,1,1,1,1,1,1,1,1,1,1,1,1,1,1,1,1,1,1,1,1,1,1,1,1,1,1,1,1,1,1,1,1,1,1,1,1,1,1,1,1,1,1,1,1,1,1,1,1,1,1,1,1,1,1,1,1,1,1,1,1,1,1,1,1,1,1,1,1,1,1,1,1,1,1,1,1,1,1,1,1,1,1,1,1,1,1,1,1,1,1,1,1,1,1,1,1,1,1,1,1,1,1,1,1,1,1,1,1,1,1,1,1,1,1,1,1,1,1,1,1,1,1,1,1,1,1,1,1,1,1,1,1,1,1,1,1,1,1,1,1,1,1,1,1,1,1,1,1,1,1,1,1,1,1,1,1,1,1,1,1,1,1,1,1,1,1,1,1,1,1,1,1,1,1,1,1,1,1,1,1,1,1,1,1,1,1,1,1,1,1,1,1,1,1,1,1,1,1,1,1,1,1,1,1,1,1,1,1,1,1,1,1,1,1,1,1,1,1,1,1,1,1,1,1,1,1,1,1,1,1,1,1,1,1,1,1,1,1,1,1,1,1,1,1,1,1,1,1,1,1,1,1,1,1,1,1,1,1,1,1,1,1,1,1,1,1,1,1,1,1,1,1,1,1,1,1,1,1,
1,1,1,1,1,1,1,1,1,1,1,1,1,1,1,1,1,1,1,1,1,1,1,1,1,1,1,1,1,1,1,1,1,1,1,1,1,1,1,1,1,1,1,1,1,1,1,1,1,1,1,1,1,1,1,1,1,1,1,1,1,1,1,1,1,1,1,1,1,1,1,1,1,1,1,1,1,1,1,1,1,1,1,1,1,1,1,1,1,1,1,1,1,1,1,1,1,1,1,1,1,1,1,1,1,1,1,1,1,1,1,1,1,1,1,1,1,1,1,1,1,1,1,1,1,1,1,1,1,1,1,1,1,1,1,1,1,1,1,1,1,1,1,1,1,1,1,1,1,1,1,1,1,1,1,1,1,1,1,1,1,1,1,1,1,1,1,1,1,1,1,1,1,1,1,1,1,1,1,1,1,1,1,1,1,1,1,1,1,1,1,1,1,1,1,1,1,1,1,1,1,1,1,1,1,1,1,1,1,1,1,1,1,1,1,1,1,1,1,1,1,1,1,1,1,1,1,1,1,1,1,1,1,1,1,1,1,1,1,1,1,1,1,1,1,1,1,1,1,1,1,1,1,1,1,1,1,1,1,1,1,1,1,1,1,1,1,1,1,1,1,1,1,1,1,1,1,1,1,1,1,1,1,1,1,1,1,1,1,1,1,1,1,1,1,1,1,1,1,1,1,1,
1,1,1,1,1,1,1,1,1,1,1,1,1,1,1,1,1,1,1,1,1,1,1,1,1,1,1,1,1,1,1,1,1,1,1,1,1,1,1,1,1,1,1,1,1,1,1,1,1,1,1,1,1,1,1,1,1,1,1,1,1,1,1,1,1,1,1,1,1,1,1,1,1,1,1,1,1,1,1,1,1,1,1,1,1,1,1,1,1,1,1,1,1,1,1,1,1,1,1,1,1,1,1,1,1,1,1,1,1,1,1,1,1,1,1,1,1,1,1,1,1,1,1,1,1,1,1,1,1,1,1,1,1,1,1,1,1,1,1,1,1,1,1,1,1,1,1,1,1,1,1,1,1,1,1,1,1,1,1,1,1,1,1,1,1,1,1,1,1,1,1,1,1,1,1,1,1,1,1,1,1,1,1,1,1,1,1,1,1,1,1,1,1,1,1,1,1,1,1,1,1,1,1,1,1,1,1,1,1,1,1,1,1,1,1,1,1,1,1,1,1,1,1,1,1,1,1,1,1,1,1,1,1,1,1,1,1,1,1,1,1,1,1,1,1,1,1,1,1,1,1,1,1,1,1,1,1,1,1,1,1,1,1,1,1,1,1,1,1,1,1,1,1,1,1,1,1,1,1,1,1,1,1,1,1,1,1,1,1,1,1,1,1,1,1,1,1,1,1,1,1,1,
1,1,1,1,1,1,1,1,1,1,1,1,1,1,1,1,1,1,1,1,1,1,1,1,1,1,1,1,1,1,1,1,1,1,1,1,1,1,1,1,1,1,1,1,1,1,1,1,1,1,1,1,1,1,1,1,1,1,1,1,1,1,1,1,1,1,1,1,1,1,1,1,1,1,1,1,1,1,1,1,1,1,1,1,1,1,1,1,1,1,1,1,1,1,1,1,1,1,1,1,1,1,1,1,1,1,1,1,1,1,1,1,1,1,1,1,1,1,1,1,1,1,1,1,1,1,1,1,1,1,1,1,1,1,1,1,1,1,1,1,1,1,1,1,1,1,1,1,1,1,1,1,1,1,1,1,1,1,1,1,1,1,1,1,1,1,1,1,1,1,1,1,1,1,1,1,1,1,1,1,1,1,1,1,1,1,1,1,1,1,1,1,1,1,1,1,1,1,1,1,1,1,1,1,1,1,1,1,1,1,1,1,1,1,1,1,1,1,1,1,1,1,1,1,1,1,1,1,1,1,1,1,1,1,1,1,1,1,1,1,1,1,1,1,1,1,1,1,1,1,1,1,1,1,1,1,1,1,1,1,1,1,1,1,1,1,1,1,1,1,1,1,1,1,1,1,1,1,1,1,1,1,1,1,1,1,1,1,1,1,1,1,1,1,1,1,1,1,1,1,1,1,
1,1,1,1,1,1,1,1,1,1,1,1,1,1,1,1,1,1,1,1,1,1,1,1,1,1,1,1,1,1,1,1,1,1,1,1,1,1,1,1,1,1,1,1,1,1,1,1,1,1,1,1,1,1,1,1,1,1,1,1,1,1,1,1,1,1,1,1,1,1,1,1,1,1,1,1,1,1,1,1,1,1,1,1,1,1,1,1,1,1,1,1,1,1,1,1,1,1,1,1,1,1,1,1,1,1,1,1,1,1,1,1,1,1,1,1,1,1,1,1,1,1,1,1,1,1,1,1,1,1,1,1,1,1,1,1,1,1,1,1,1,1,1,1,1,1,1,1,1,1,1,1,1,1,1,1,1,1,1,1,1,1,1,1,1,1,1,1,1,1,1,1,1,1,1,1,1,1,1,1,1,1,1,1,1,1,1,1,1,1,1,1,1,1,1,1,1,1,1,1,1,1,1,1,1,1,1,1,1,1,1,1,1,1,1,1,1,1,1,1,1,1,1,1,1,1,1,1,1,1,1,1,1,1,1,1,1,1,1,1,1,1,1,1,1,1,1,1,1,1,1,1,1,1,1,1,1,1,1,1,1,1,1,1,1,1,1,1,1,1,1,1,1,1,1,1,1,1,1,1,1,1,1,1,1,1,1,1,1,1,1,1,1,1,1,1,1,1,1,1,1,1,
1,1,1,1,1,1,1,1,1,1,1,1,1,1,1,1,1,1,1,1,1,1,1,1,1,1,1,1,1,1,1,1,1,1,1,1,1,1,1,1,1,1,1,1,1,1,1,1,1,1,1,1,1,1,1,1,1,1,1,1,1,1,1,1,1,1,1,1,1,1,1,1,1,1,1,1,1,1,1,1,1,1,1,1,1,1,1,1,1,1,1,1,1,1,1,1,1,1,1,1,1,1,1,1,1,1,1,1,1,1,1,1,1,1,1,1,1,1,1,1,1,1,1,1,1,1,1,1,1,1,1,1,1,1,1,1,1,1,1,1,1,1,1,1,1,1,1,1,1,1,1,1,1,1,1,1,1,1,1,1,1,1,1,1,1,1,1,1,1,1,1,1,1,1,1,1,1,1,1,1,1,1,1,1,1,1,1,1,1,1,1,1,1,1,1,1,1,1,1,1,1,1,1,1,1,1,1,1,1,1,1,1,1,1,1,1,1,1,1,1,1,1,1,1,1,1,1,1,1,1,1,1,1,1,1,1,1,1,1,1,1,1,1,1,1,1,1,1,1,1,1,1,1,1,1,1,1,1,1,1,1,1,1,1,1,1,1,1,1,1,1,1,1,1,1,1,1,1,1,1,1,1,1,1,1,1,1,1,1,1,1,1,1,1,1,1,1,1,1,1,1,1,
1,1,1,1,1,1,1,1,1,1,1,1,1,1,1,1,1,1,1,1,1,1,1,1,1,1,1,1,1,1,1,1,1,1,1,1,1,1,1,1,1,1,1,1,1,1,1,1,1,1,1,1,1,1,1,1,1,1,1,1,1,1,1,1,1,1,1,1,1,1,1,1,1,1,1,1,1,1,1,1,1,1,1,1,1,1,1,1,1,1,1,1,1,1,1,1,1,1,1,1,1,1,1,1,1,1,1,1,1,1,1,1,1,1,1,1,1,1,1,1,1,1,1,1,1,1,1,1,1,1,1,1,1,1,1,1,1,1,1,1,1,1,1,1,1,1,1,1,1,1,1,1,1,1,1,1,1,1,1,1,1,1,1,1,1,1,1,1,1,1,1,1,1,1,1,1,1,1,1,1,1,1,1,1,1,1,1,1,1,1,1,1,1,1,1,1,1,1,1,1,1,1,1,1,1,1,1,1,1,1,1,1,1,1,1,1,1,1,1,1,1,1,1,1,1,1,1,1,1,1,1,1,1,1,1,1,1,1,1,1,1,1,1,1,1,1,1,1,1,1,1,1,1,1,1,1,1,1,1,1,1,1,1,1,1,1,1,1,1,1,1,1,1,1,1,1,1,1,1,1,1,1,1,1,1,1,1,1,1,1,1,1,1,1,1,1,1,1,1,1,1,1,
1,1,1,1,1,1,1,1,1,1,1,1,1,1,1,1,1,1,1,1,1,1,1,1,1,1,1,1,1,1,1,1,1,1,1,1,1,1,1,1,1,1,1,1,1,1,1,1,1,1,1,1,1,1,1,1,1,1,1,1,1,1,1,1,1,1,1,1,1,1,1,1,1,1,1,1,1,1,1,1,1,1,1,1,1,1,1,1,1,1,1,1,1,1,1,1,1,1,1,1,1,1,1,1,1,1,1,1,1,1,1,1,1,1,1,1,1,1,1,1,1,1,1,1,1,1,1,1,1,1,1,1,1,1,1,1,1,1,1,1,1,1,1,1,1,1,1,1,1,1,1,1,1,1,1,1,1,1,1,1,1,1,1,1,1,1,1,1,1,1,1,1,1,1,1,1,1,1,1,1,1,1,1,1,1,1,1,1,1,1,1,1,1,1,1,1,1,1,1,1,1,1,1,1,1,1,1,1,1,1,1,1,1,1,1,1,1,1,1,1,1,1,1,1,1,1,1,1,1,1,1,1,1,1,1,1,1,1,1,1,1,1,1,1,1,1,1,1,1,1,1,1,1,1,1,1,1,1,1,1,1,1,1,1,1,1,1,1,1,1,1,1,1,1,1,1,1,1,1,1,1,1,1,1,1,1,1,1,1,1,1,1,1,1,1,1,1,1,1,1,1,1,
1,1,1,1,1,1,1,1,1,1,1,1,1,1,1,1,1,1,1,1,1,1,1,1,1,1,1,1,1,1,1,1,1,1,1,1,1,1,1,1,1,1,1,1,1,1,1,1,1,1,1,1,1,1,1,1,1,1,1,1,1,1,1,1,1,1,1,1,1,1,1,1,1,1,1,1,1,1,1,1,1,1,1,1,1,1,1,1,1,1,1,1,1,1,1,1,1,1,1,1,1,1,1,1,1,1,1,1,1,1,1,1,1,1,1,1,1,1,1,1,1,1,1,1,1,1,1,1,1,1,1,1,1,1,1,1,1,1,1,1,1,1,1,1,1,1,1,1,1,1,1,1,1,1,1,1,1,1,1,1,1,1,1,1,1,1,1,1,1,1,1,1,1,1,1,1,1,1,1,1,1,1,1,1,1,1,1,1,1,1,1,1,1,1,1,1,1,1,1,1,1,1,1,1,1,1,1,1,1,1,1,1,1,1,1,1,1,1,1,1,1,1,1,1,1,1,1,1,1,1,1,1,1,1,1,1,1,1,1,1,1,1,1,1,1,1,1,1,1,1,1,1,1,1,1,1,1,1,1,1,1,1,1,1,1,1,1,1,1,1,1,1,1,1,1,1,1,1,1,1,1,1,1,1,1,1,1,1,1,1,1,1,1,1,1,1,1,1,1,1,1,1,
1,1,1,1,1,1,1,1,1,1,1,1,1,1,1,1,1,1,1,1,1,1,1,1,1,1,1,1,1,1,1,1,1,1,1,1,1,1,1,1,1,1,1,1,1,1,1,1,1,1,1,1,1,1,1,1,1,1,1,1,1,1,1,1,1,1,1,1,1,1,1,1,1,1,1,1,1,1,1,1,1,1,1,1,1,1,1,1,1,1,1,1,1,1,1,1,1,1,1,1,1,1,1,1,1,1,1,1,1,1,1,1,1,1,1,1,1,1,1,1,1,1,1,1,1,1,1,1,1,1,1,1,1,1,1,1,1,1,1,1,1,1,1,1,1,1,1,1,1,1,1,1,1,1,1,1,1,1,1,1,1,1,1,1,1,1,1,1,1,1,1,1,1,1,1,1,1,1,1,1,1,1,1,1,1,1,1,1,1,1,1,1,1,1,1,1,1,1,1,1,1,1,1,1,1,1,1,1,1,1,1,1,1,1,1,1,1,1,1,1,1,1,1,1,1,1,1,1,1,1,1,1,1,1,1,1,1,1,1,1,1,1,1,1,1,1,1,1,1,1,1,1,1,1,1,1,1,1,1,1,1,1,1,1,1,1,1,1,1,1,1,1,1,1,1,1,1,1,1,1,1,1,1,1,1,1,1,1,1,1,1,1,1,1,1,1,1,1,1,1,1,1,
1,1,1,1,1,1,1,1,1,1,1,1,1,1,1,1,1,1,1,1,1,1,1,1,1,1,1,1,1,1,1,1,1,1,1,1,1,1,1,1,1,1,1,1,1,1,1,1,1,1,1,1,1,1,1,1,1,1,1,1,1,1,1,1,1,1,1,1,1,1,1,1,1,1,1,1,1,1,1,1,1,1,1,1,1,1,1,1,1,1,1,1,1,1,1,1,1,1,1,1,1,1,1,1,1,1,1,1,1,1,1,1,1,1,1,1,1,1,1,1,1,1,1,1,1,1,1,1,1,1,1,1,1,1,1,1,1,1,1,1,1,1,1,1,1,1,1,1,1,1,1,1,1,1,1,1,1,1,1,1,1,1,1,1,1,1,1,1,1,1,1,1,1,1,1,1,1,1,1,1,1,1,1,1,1,1,1,1,1,1,1,1,1,1,1,1,1,1,1,1,1,1,1,1,1,1,1,1,1,1,1,1,1,1,1,1,1,1,1,1,1,1,1,1,1,1,1,1,1,1,1,1,1,1,1,1,1,1,1,1,1,1,1,1,1,1,1,1,1,1,1,1,1,1,1,1,1,1,1,1,1,1,1,1,1,1,1,1,1,1,1,1,1,1,1,1,1,1,1,1,1,1,1,1,1,1,1,1,1,1,1,1,1,1,1,1,1,1,1,1,1,1,
1,1,1,1,1,1,1,1,1,1,1,1,1,1,1,1,1,1,1,1,1,1,1,1,1,1,1,1,1,1,1,1,1,1,1,1,1,1,1,1,1,1,1,1,1,1,1,1,1,1,1,1,1,1,1,1,1,1,1,1,1,1,1,1,1,1,1,1,1,692,874,698,874,698,874,698,869,1,1,1,1,1,1,1,1,1,1,1,1,1,1,1,1,1,1,1,1,1,1,1,1,1,1,1,1,1,1,1,1,1,1,1,1,1,1,1,1,1,1,1,1,1,1,1,1,1,1,1,1,1,1,1,1,1,1,1,1,1,1,1,1,1,1,1,1,1,1,1,1,1,1,1,1,1,1,1,1,1,1,1,1,1,1,1,1,1,1,1,1,1,1,1,1,1,1,1,1,1,1,1,1,1,1,1,1,1,1,1,1,1,1,1,1,1,1,1,1,1,1,1,1,1,1,1,1,1,1,1,1,1,1,1,1,1,1,1,1,1,1,1,1,1,1,1,1,1,1,1,1,1,1,1,1,1,1,1,1,1,1,1,1,1,1,1,1,1,1,1,1,1,1,1,1,1,1,1,1,1,1,1,1,1,1,1,1,1,1,1,1,1,1,1,1,1,1,1,1,1,1,1,1,1,1,1,1,1,1,1,1,1,1,1,1,1,1,1,1,1,1,1,1,1,
1,1,1,1,1,1,1,1,1,1,1,1,1,1,1,1,1,1,1,1,1,1,1,1,1,1,1,1,1,1,1,1,1,1,1,1,1,1,1,1,1,1,1,1,1,1,1,1,1,1,1,1,1,1,1,1,1,1,1,1,1,1,1,1,1,1,1,1,1,868,698,874,698,874,698,874,693,1,1,1,1,1,1,1,1,1,1,1,1,1,1,1,1,1,1,1,1,1,1,1,1,1,1,1,1,1,1,1,1,1,1,1,1,1,1,1,1,1,1,1,1,1,1,1,1,1,1,1,1,1,1,1,1,1,1,1,1,1,1,1,1,1,1,1,1,1,1,1,1,1,1,1,1,1,1,1,1,1,1,1,1,1,1,1,1,1,1,1,1,1,1,1,1,1,1,1,1,1,1,1,1,1,1,1,1,1,1,1,1,1,1,1,1,1,1,1,1,1,1,1,1,1,1,1,1,1,1,1,1,1,1,1,1,1,1,1,1,1,1,1,1,1,1,1,1,1,1,1,1,1,1,1,1,1,1,1,1,1,1,1,1,1,1,1,1,1,1,1,1,1,1,1,1,1,1,1,1,1,1,1,1,1,1,1,1,1,1,1,1,1,1,1,1,1,1,1,1,1,1,1,1,1,1,1,1,1,1,1,1,1,1,1,1,1,1,1,1,1,1,1,1,1,
1,1,1,1,1,1,1,1,1,1,1,1,1,1,1,1,1,1,1,1,1,1,1,1,1,1,1,1,1,1,1,1,1,1,1,1,1,1,1,1,1,1,1,1,1,1,1,1,1,1,1,1,1,1,1,1,1,1,1,1,1,1,1,1,1,1,1,1,1,692,874,698,874,698,874,698,869,1,1,1,1,1,1,1,1,1,1,1,1,1,1,1,1,1,1,1,1,1,1,1,1,1,1,1,1,1,1,1,1,1,1,1,1,1,1,1,1,1,1,1,1,1,1,1,1,1,1,1,1,1,1,1,1,1,1,1,1,1,1,1,1,1,1,1,1,1,1,1,1,1,1,1,1,1,1,1,1,1,1,1,1,1,1,1,1,1,1,1,1,1,1,1,1,1,1,1,1,1,1,1,1,1,1,1,1,1,1,1,1,1,1,1,1,1,1,1,1,1,1,1,1,1,1,1,1,1,1,1,1,1,1,1,1,1,1,1,1,1,1,1,1,1,1,1,1,1,1,1,1,1,1,1,1,1,1,1,1,1,1,1,1,1,1,1,1,1,1,1,1,1,1,1,1,1,1,1,1,1,1,1,1,1,1,1,1,1,1,1,1,1,1,1,1,1,1,1,1,1,1,1,1,1,1,1,1,1,1,1,1,1,1,1,1,1,1,1,1,1,1,1,1,1,
1,1,1,1,1,1,1,1,1,1,1,1,1,1,1,1,1,1,1,1,1,1,1,1,1,1,1,1,1,1,1,1,1,1,1,1,1,1,1,1,1,1,1,1,1,1,1,1,1,1,1,1,1,1,1,1,1,1,1,1,1,1,1,1,1,1,1,1,1,868,698,874,698,874,698,874,693,1,1,1,1,1,1,1,1,1,1,1,1,1,1,1,1,1,1,1,1,1,1,1,1,1,1,1,1,1,1,1,1,1,1,1,1,1,1,1,1,1,1,1,1,1,1,1,1,1,1,1,1,1,1,1,1,1,1,1,1,1,1,1,1,1,1,1,1,1,1,1,1,1,1,1,1,1,1,1,1,1,1,1,1,1,1,1,1,1,1,1,1,1,1,1,1,1,1,1,1,1,1,1,1,1,1,1,1,1,1,1,1,1,1,1,1,1,1,1,1,1,1,1,1,1,1,1,1,1,1,1,1,1,1,1,1,1,1,1,1,1,1,1,1,1,1,1,1,1,1,1,1,1,1,1,1,1,1,1,1,1,1,1,1,1,1,1,1,1,1,1,1,1,1,3473,1,1,1,1,1,1,1,1,1,1,1,1,1,1,1,1,1,1,1,1,1,1,1,1,1,1,1,1,1,1,1,1,1,1,1,1,1,1,1,1,1,1,1,1,1,1,1,1,1,1,
1,1,1,1,1,1,1,1,1,1,1,1,1,1,1,1,1,1,1,1,1,1,1,1,1,1,1,1,1,1,1,1,1,1,1,1,1,1,1,1,1,1,1,1,1,1,1,1,1,1,1,1,1,1,1,1,1,1,1,1,1,1,1,1,1,1,1,1,1,692,874,698,874,698,874,698,869,1,1,1,1,1,1,1,1,1,1,1,1,1,1,1,1,1,1,1,1,1,1,1,1,1,1,1,1,1,1,1,1,1,689,1,1,1,1,1,1,1,1,1,1,1,1,1,1,1,1,1,1,1,1,1,1,1,1,1,1,1,1,1,1,1,1,1,1,1,1,1,1,1,1,1,1,1,1,1,1,1,689,1,1,1,1,1,1,1,1,1,1,1,1,1,1,1,1,1,1,1,1,1,1,1,1,1,1,1,1,1,1,1,1,1,1,1,1,1,1,1,1,1,1,689,1,1,1,1,1,1,1,1,1,1,1,1,1,1,1,1,1,1,1,1,1,1,1,1,1,1,1,1,1,1,1,1,1,1,1,1,1,1,3473,1,1,1,1,1,1,1,1,1,1,1,1,3473,1,1,1,1,1,1,1,1,1,1,1,1,1,1,1,1,1,1,1,1,1,1,1,1,1,1,1,1,1,1,1,1,1,1,1,1,1,1,1,1,1,1,1,1,1,1,1,1,
1,1,1,1,1,1,1,1,1,1,1,1,1,1,1,1,1,1,1,1,1,1,1,1,1,1,1,1,1,1,1,1,1,1,1,1,1,1,1,1,1,1,1,1,1,1,1,1,1,1,1,1,1,1,1,1,1,1,1,1,1,1,1,1,1,1,1,1,1,868,698,874,698,874,698,874,693,1,1,1,1,1,1,1,1,1,1,1,1,1,1,1,1,1,1,1,1,1,1,1,1,1,1,1,1,1,1,1,1,1,1,1,1,1,1,1,1,1,1,1,1,1,1,1,1,1,1,1,1,1,1,1,1,1,1,1,1,1,1,1,1,1,1,1,1,1,1,1,1,1,1,1,1,1,1,1,1,1,1,1,865,1,1,1,1,1,1,1,1,1,1,1,1,1,1,1,1,1,1,1,1,1,1,1,1,1,1,1,1,1,1,1,1,1,1,1,1,1,1,1,1,1,1,865,1,1,1,1,1,1,1,1,1,1,1,1,1,1,1,1,1,1,1,1,1,1,1,1,1,1,1,1,1,1,1,1,1,1,1,1,1,1,1,1,1,1,1,1,1,3441,1,1,1,1,1,3473,1,1,1,1,1,1,1,1,1,1,1,1,1,1,1,1,1,1,1,1,1,1,1,1,1,1,1,1,1,1,1,1,1,1,1,1,1,1,1,1,1,1,1,1,1,1,
1,1,1,1,1,1,1,1,1,1,1,1,1,1,1,1,1,1,1,1,1,1,1,1,1,1,1,1,1,1,1,1,1,1,1,1,1,1,1,1,1,1,1,1,1,1,1,1,1,1,1,1,1,1,1,1,1,1,1,1,1,1,1,1,1,1,1,1,1,696,867,691,867,691,867,691,873,1,1,1,1,1,1,1,1,689,1,1,1,1,1,1,1,1,1,1,1,1,1,1,1,1,1,1,1,1,1,1,3441,1,1,1,1,1,1,1,1,1,1,1,1,1,1,1,1,1,1,1,1,1,1,1,1,1,1,1,1,1,1,1,1,1,1,1,1,1,1,1,1,1,1,1,1,1,1,1,3441,1,1,1,1,1,689,1,1,1,1,1,1,1,1,1,1,1,1,1,1,1,1,1,1,1,1,1,1,1,1,1,1,1,1,1,1,1,1,1,1,1,1,3441,1,1,1,1,1,1,1,1,1,1,1,1,1,1,1,1,689,1,1,1,1,1,1,1,1,1,1,1,1,1,1,1,1,1,1,1,1,1,3441,1,1,1,1,1,1,3441,1,1,1,3473,1,3441,1,1,1,0,1,1,1,1,1,1,1,1,1,1,1,1,1,1,1,1,1,1,1,1,1,1,1,1,1,1,1,1,1,1,1,3441,1,1,1,1,1,1,1,1,1,1,1,1,1,1,
1,1,1,1,1,1,1,1,1,1,1,1,1,1,1,1,1,1,1,1,1,1,1,1,1,1,1,1,1,1,1,1,1,1,1,1,1,1,1,1,1,1,1,1,1,1,1,1,1,1,1,1,1,1,1,1,1,1,1,1,1,1,1,1,1,1,1,1,1,1,1,1,1,1,1,1,1,1,1,1,1,1,1,1,1,1,1,1,1,3441,1,1,1,1,1,1,1,1,1,1,1,1,1,1,1,1,1,1,699,1,1,3441,3441,1,1,1,1,1,1,1,1,1,1,1,1,1,1,1,1,1,1,1,1,1,1,1,1,1,1,1,1,1,1,1,1,1,1,1,1,1,1,1,3441,1,1,1,699,1,3441,1,1,1,1,1,865,1,1,1,1,1,1,1,1,1,1,1,1,1,1,1,1,1,1,1,1,1,1,1,1,1,1,1,1,1,1,1,1,1,1,699,1,3441,1,1,1,1,1,1,3441,3441,1,1,1,1,1,1,1,1,865,1,1,1,1,1,1,1,1,1,1,1,1,1,1,1,1,1,1,1,3473,1,1,3441,1,1,1,3473,1,1,1,1,1,3473,1,3441,1,1,1,1,1,1,3441,1,1,1,1,1,1,1,1,1,1,1,1,1,1,1,3441,1,1,1,1,1,1,3441,1,1,1,3473,0,1,1,1,1,1,1,1,1,1,1,1,1,1,
1,1,1,1,1,1,1,1,1,1,1,1,1,1,1,1,1,1,1,1,1,1,1,1,1,1,1,1,1,1,1,1,1,1,1,1,1,1,1,1,1,1,1,1,1,1,1,1,1,1,1,701,880,704,880,704,880,704,878,1,1,1,1,1,1,1,1,1,1,1,1,1,1,1,1,1,1,1,1,1,1,1,1,3441,1,1,1,1,1,699,1,1,1,1,1,1,1,1,1,1,1,1,1,1,1,1,1,1,879,1,1,694,871,1,1,1,3441,3441,3441,3441,3441,3441,3441,3441,3441,3441,3441,3441,1,1,1,1,1,1,1,1,1,1,1,1,1,1,1,1,1,1,1,1,1,1,1,1,699,1,1,1,879,1,699,1,3441,1,1,1,1,1,1,1,1,1,3441,1,1,1,1,1,1,1,1,1,1,1,1,1,1,1,1,1,1,1,1,1,1,1,1,1,1,1,1,879,1,699,1,3441,3441,3441,1,1,694,871,1,1,1,1,3441,1,1,1,1,1,1,1,1,1,1,1,1,1,1,1,1,1,1,1,1,1,1,1,1,1,1,3473,1,1,1,1,1,1,1,1,1,1,1,3473,1,3441,3441,1,1,1,3473,1,1,1,1,1,1,1,1,1,1,1,1,1,1,1,3473,1,1,3441,1,1,1,3473,1,1,1,1,1,1,1,1,1,1,1,1,1,1,1,1,1,1,
1,1,1,1,1,1,1,1,1,1,1,1,1,1,1,1,1,1,1,1,1,1,1,1,1,1,1,1,1,1,1,1,1,1,1,1,1,1,1,1,1,1,1,1,1,1,1,1,1,1,1,1,1,1,1,1,1,1,1,1,1,1,1,1,1,1,1,1,1,1,1,1,1,1,1,1,1,1,1,1,1,1,1,699,1,1,3441,1,1,879,1,1,1,1,3441,3441,3441,3441,3441,3441,1,1,1,3441,1,1,1,1,703,3461,3461,868,693,3461,3461,3461,694,866,690,866,690,866,690,866,690,866,690,871,1,1,1,1,3441,3441,3441,3441,3441,3441,3441,3441,3441,3441,3441,3441,3441,3441,3441,3441,1,1,1,1,879,3461,3461,3461,703,3461,879,1,699,1,3441,1,1,1,1,1,1,1,699,1,1,1,1,3441,3441,3441,3441,3441,3441,3441,3441,3441,3441,3441,3441,3441,3441,3441,3441,3441,3441,3441,3441,3441,1,1,1,703,3461,879,3461,870,690,871,3461,3461,868,693,3461,3461,3461,3461,699,1,3441,1,1,1,1,1,1,1,1,1,1,1,1,1,1,1,1,1,1,1,1,1,1,1,1,1,1,1,1,1,1,1,1,1,1,1,1,1,1,3473,3473,1,1,1,1,1,1,1,1,3441,3441,3441,3441,3441,3441,3441,3441,3441,1,1,1,1,1,3473,1,1,1,1,1,1,1,1,1,1,1,1,1,1,1,1,1,1,1,1,1,1,
1,1,1,1,1,1,1,1,1,1,1,1,1,1,1,1,1,1,1,1,1,1,1,1,1,1,1,1,1,1,1,1,1,1,1,1,1,3441,1,1,1,1,1,1,1,1,1,1,1,1,1,1,1,1,1,1,1,1,1,1,1,1,1,1,1,1,1,694,866,690,866,690,866,690,866,690,866,690,871,3461,3461,3461,3461,879,3461,3461,699,3461,3461,703,3461,3461,3461,3461,694,866,690,866,690,871,3461,3461,3461,699,3461,3461,3461,3461,879,1,1,692,869,1,1,1,868,698,874,698,874,698,874,698,874,698,874,693,3461,3461,3461,3461,694,866,690,866,690,866,690,866,690,866,690,866,690,866,690,871,3461,3461,3461,3461,703,1,1,1,879,1,703,3461,879,3461,699,1,3441,3441,1,1,1,1,879,3461,3461,3461,3461,694,866,690,866,690,866,690,866,690,866,690,866,690,866,690,866,690,866,690,866,695,3461,3461,3461,879,1,703,1,692,874,693,1,1,692,869,1,1,1,1,879,3461,699,1,3441,3441,1,1,1,3441,3441,3441,3441,3441,3441,3441,3441,3441,3441,3441,3441,1,1,1,1,1,1,1,1,1,1,1,1,1,1,1,1,1,1,1,1,1,1,1,1,1,1,1,1,1,1,3478,3474,3474,3474,3474,3474,3474,3474,3481,1,1,1,1,1,1,1,1,1,1,1,1,1,1,1,1,1,1,1,1,1,1,1,1,1,1,1,1,
1,1,1,1,1,1,1,1,1,1,1,1,1,1,1,1,1,1,1,1,1,1,1,1,1,1,1,1,1,1,1,1,1,1,1,1,1,699,1,3441,1,1,1,1,1,1,1,1,1,1,1,1,1,1,1,1,1,1,1,1,1,1,1,1,1,1,1,868,698,874,698,874,698,874,698,874,698,874,693,1,1,1,1,703,1,1,879,1,1,879,1,1,1,1,868,698,874,698,874,693,1,1,1,879,1,1,1,1,703,1,1,868,693,1,1,1,692,874,698,874,698,874,698,874,698,874,698,869,1,1,1,1,868,698,874,698,874,698,874,698,874,698,874,698,874,698,874,693,1,1,1,1,879,1,1,1,703,1,879,1,703,1,879,3461,694,871,3461,3461,3461,3461,703,1,1,1,1,868,698,874,698,874,698,874,698,874,698,874,698,874,698,874,698,874,698,874,698,869,1,1,1,703,1,879,1,868,698,869,1,1,868,693,1,1,1,1,703,1,879,3461,694,871,3461,3461,3461,694,866,690,866,690,866,690,866,690,866,690,871,3461,3461,3461,3461,3461,3461,3461,3461,3461,3461,3461,3461,3461,3461,3461,3461,3461,3461,3461,3461,3461,3461,3461,3461,3461,3461,3461,3461,3461,3461,3475,1,1,1,1,1,1,1,3477,3461,3461,3461,3461,3461,3461,3461,3461,3461,3461,3461,3461,3461,3461,3461,3461,3461,3461,3465,1,1,1,1,1,1,1,1,1,
1,1,1,1,1,1,1,1,1,1,1,1,1,1,1,1,1,1,1,1,1,1,1,1,1,1,1,1,1,1,1,1,1,1,1,1,1,879,3461,699,1,1,1,1,1,1,1,1,1,1,1,1,1,1,1,1,1,1,1,1,1,1,1,1,1,1,1,692,874,698,874,698,874,698,874,698,874,698,869,1,1,1,1,879,1,1,703,1,1,703,1,1,1,1,692,874,698,874,698,869,1,1,1,703,1,1,1,1,879,1,1,692,869,1,1,1,868,698,874,698,874,698,874,698,874,698,874,693,1,1,1,1,692,874,698,874,698,874,698,874,698,874,698,874,698,874,698,869,1,1,1,1,703,1,1,1,879,1,703,1,879,1,703,1,868,693,1,1,1,1,879,1,1,1,1,692,874,698,874,698,874,698,874,698,874,698,874,698,874,698,874,698,874,698,874,693,1,1,1,879,1,703,1,692,874,693,1,1,692,869,1,1,1,1,879,1,703,1,868,693,1,1,1,868,698,874,698,874,698,874,698,874,698,874,693,1,1,1,1,1,1,1,1,1,1,1,1,1,1,1,1,1,1,1,1,1,1,1,1,1,1,1,1,1,1,1,1,1,1,1,1,1,1,1,1,1,1,1,1,1,1,1,1,1,1,1,1,1,1,1,1,1,3464,1,1,1,1,1,1,1,1,1
</data>
 </layer>
 <layer id="1" name="l1" width="302" height="27">
  <data encoding="csv">
1,1,1,1,1,1,1,1,1,1,1,1,1,1,1,1,1,1,1,1,1,1,1,1,1,1,1,1,1,1,1,1,1,1,1,1,1,1,1,1,1,1,1,1,1,1,1,1,1,1,1,1,1,1,1,1,1,1,1,1,1,1,1,1,1,1,1,1,1,1,1,1,1,1,1,1,1,1,1,1,1,1,1,1,1,1,1,1,1,1,1,1,1,1,1,1,1,1,1,1,1,1,1,1,1,1,1,1,1,1,1,1,1,1,1,1,1,1,1,1,1,1,1,1,1,1,1,1,1,1,1,1,1,1,1,1,1,1,1,1,1,1,1,1,1,1,1,1,1,1,1,1,1,1,1,1,1,1,1,1,1,1,1,1,1,1,1,1,1,1,1,1,1,1,1,1,1,1,1,1,1,1,1,1,1,1,1,1,1,1,1,1,1,1,1,1,1,1,1,1,1,1,1,1,1,1,1,1,1,1,1,1,1,1,1,1,1,1,1,1,1,1,1,1,1,1,1,1,1,1,1,1,1,1,1,1,1,1,1,1,1,1,1,1,1,1,1,1,1,1,1,1,1,1,1,1,1,1,1,1,1,1,1,1,1,1,1,1,1,1,1,1,1,1,1,1,1,1,1,1,1,1,1,1,1,1,1,1,1,1,1,1,1,1,1,1,1,1,1,1,1,58,
1,1,1,1,1,1,1,1,1,1,1,1,1,1,1,1,1,1,1,1,1,1,1,1,1,1,1,1,1,1,1,1,1,1,1,1,1,1,1,1,1,1,1,1,1,1,1,1,1,1,1,1,1,1,1,1,1,1,1,1,1,1,1,1,1,1,1,1,1,1,1,1,1,1,1,1,1,1,1,1,1,1,1,1,1,1,1,1,1,1,1,1,1,1,1,1,1,1,1,1,1,1,1,1,1,1,1,1,1,1,1,1,1,1,1,1,1,1,1,1,1,1,1,1,1,1,1,1,1,1,1,1,1,1,1,1,1,1,1,1,1,1,1,1,1,1,1,1,1,1,1,1,1,1,1,1,1,1,1,1,1,1,1,1,1,1,1,1,1,1,1,1,1,1,1,1,1,1,1,1,1,1,1,1,1,1,1,1,1,1,1,1,1,1,1,1,1,1,1,1,1,1,1,1,1,1,1,1,1,1,1,1,1,1,1,1,1,1,1,1,1,1,1,1,1,1,1,1,1,1,1,1,1,1,1,1,1,1,1,1,1,1,1,1,1,1,1,1,1,1,1,1,1,1,1,1,1,1,1,1,1,1,1,1,1,1,1,1,1,1,1,1,1,1,1,1,1,1,1,1,1,1,1,1,1,1,1,1,1,1,1,1,1,1,1,1,1,1,1,1,1,58,
1,1,1,1,1,1,1,1,1,1,1,1,1,1,1,1,1,1,1,1,1,1,1,1,1,1,1,1,1,1,1,1,1,1,1,1,1,1,1,1,1,1,1,1,1,1,1,1,1,1,1,1,1,1,1,1,1,1,1,1,1,1,1,1,1,1,1,1,1,1,1,1,1,1,1,1,1,1,1,1,1,1,1,1,1,1,1,1,1,1,1,1,1,1,1,1,1,1,1,1,1,1,1,1,1,1,1,1,1,1,1,1,1,1,1,1,1,1,1,1,1,1,1,1,1,1,1,1,1,1,1,1,1,1,1,1,1,1,1,1,1,1,1,1,1,1,1,1,1,1,1,1,1,1,1,1,1,1,1,1,1,1,1,1,1,1,1,1,1,1,1,1,1,1,1,1,1,1,1,1,1,1,1,1,1,1,1,1,1,1,1,1,1,1,1,1,1,1,1,1,1,1,1,1,1,1,1,1,1,1,1,1,1,1,1,1,1,1,1,1,1,1,1,1,1,1,1,1,1,1,1,1,1,1,1,1,1,1,1,1,1,1,1,1,1,1,1,1,1,1,1,1,1,1,1,1,1,1,1,1,1,1,1,1,1,1,1,1,1,1,1,1,1,1,1,1,1,1,1,1,1,1,1,1,1,1,1,1,1,1,1,1,1,1,1,1,1,1,1,1,1,58,
1,1,1,1,1,1,1,1,1,1,1,1,1,1,1,1,1,1,1,1,1,1,1,1,1,1,1,1,1,1,1,1,1,1,1,1,1,1,1,1,1,1,1,1,1,1,1,1,1,1,1,1,1,1,1,1,1,1,1,1,1,1,1,1,1,1,1,1,1,1,1,1,1,1,1,1,1,1,1,1,1,1,1,1,1,1,1,1,1,1,1,1,1,1,1,1,1,1,1,1,1,1,1,1,1,1,1,1,1,1,1,1,1,1,1,1,1,1,1,1,1,1,1,1,1,1,1,1,1,1,1,1,1,1,1,1,1,1,1,1,1,1,1,1,1,1,1,1,1,1,1,1,1,1,1,1,1,1,1,1,1,1,1,1,1,1,1,1,1,1,1,1,1,1,1,1,1,1,1,1,1,1,1,1,1,1,1,1,1,1,1,1,1,1,1,1,1,1,1,1,1,1,1,1,1,1,1,1,1,1,1,1,1,1,1,1,1,1,1,1,1,1,1,1,1,1,1,1,1,1,1,1,1,1,1,1,1,1,1,1,1,1,1,1,1,1,1,1,1,1,1,1,1,1,1,1,1,1,1,1,1,1,1,1,1,1,1,1,1,1,1,1,1,1,1,1,1,1,1,1,1,1,1,1,1,1,1,1,1,1,1,1,1,1,1,1,1,1,1,1,1,58,
1,1,1,1,1,1,1,1,1,1,1,1,1,1,1,1,1,1,1,1,1,1,1,1,1,1,1,1,1,1,1,1,1,1,1,1,1,1,1,1,1,1,1,1,1,1,1,1,1,1,1,1,1,1,1,1,1,1,1,1,1,1,1,1,1,1,1,1,1,1,1,1,1,1,1,1,1,1,1,1,1,1,1,1,1,1,1,1,1,1,1,1,1,1,1,1,1,1,1,1,1,1,1,1,1,1,1,1,1,1,1,1,1,1,1,1,1,1,1,1,1,1,1,1,1,1,1,1,1,1,1,1,1,1,1,1,1,1,1,1,1,1,1,1,1,1,1,1,1,1,1,1,1,1,1,1,1,1,1,1,1,1,1,1,1,1,1,1,1,1,1,1,1,1,1,1,1,1,1,1,1,1,1,1,1,1,1,1,1,1,1,1,1,1,1,1,1,1,1,1,1,1,1,1,1,1,1,1,1,1,1,1,1,1,1,1,1,1,1,1,1,1,1,1,1,1,1,1,1,1,1,1,1,1,1,1,1,1,1,1,1,1,1,1,1,1,1,1,1,1,1,1,1,1,1,1,1,1,1,1,1,1,1,1,1,1,1,1,1,1,1,1,1,1,1,1,1,1,1,1,1,1,1,1,1,1,1,1,1,1,1,1,1,1,1,1,1,1,1,1,1,58,
1,1,1,1,1,1,1,1,1,1,1,1,1,1,1,1,1,1,1,1,1,1,1,1,1,1,1,1,1,1,1,1,1,1,1,1,1,1,1,1,1,1,1,1,1,1,1,1,1,1,1,1,1,1,1,1,1,1,1,1,1,1,1,1,1,1,1,1,1,1,1,1,1,1,1,1,1,1,1,1,1,1,1,1,1,1,1,1,1,1,1,1,1,1,1,1,1,1,1,1,1,1,1,1,1,1,1,1,1,1,1,1,1,1,1,1,1,1,1,1,1,1,1,1,1,1,1,1,1,1,1,1,1,1,1,1,1,1,1,1,1,1,1,1,1,1,1,1,1,1,1,1,1,1,1,1,1,1,1,1,1,1,1,1,1,1,1,1,1,1,1,1,1,1,1,1,1,1,1,1,1,1,1,1,1,1,1,1,1,1,1,1,1,1,1,1,1,1,1,1,1,1,1,1,1,1,1,1,1,1,1,1,1,1,1,1,1,1,1,1,1,1,1,1,1,1,1,1,1,1,1,1,1,1,1,1,1,1,1,1,1,1,1,1,1,1,1,1,1,1,1,1,1,1,1,1,1,1,1,1,1,1,1,1,1,1,1,1,1,1,1,1,1,1,1,1,1,1,1,1,1,1,1,1,1,1,1,1,1,1,1,1,1,1,1,1,1,1,1,1,1,58,
1,1,1,1,1,1,1,1,1,1,1,1,1,1,1,1,1,1,1,1,1,1,1,1,1,1,1,1,1,1,1,1,1,1,1,1,1,1,1,1,1,1,1,1,1,1,1,1,1,1,1,1,1,1,1,1,1,1,1,1,1,1,1,1,1,1,1,1,1,1,1,1,1,1,1,1,1,1,1,1,1,1,1,1,1,1,1,1,1,1,1,1,1,1,1,1,1,1,1,1,1,1,1,1,1,1,1,1,1,1,1,1,1,1,1,1,1,1,1,1,1,1,1,1,1,1,1,1,1,1,1,1,1,1,1,1,1,1,1,1,1,1,1,1,1,1,1,1,1,1,1,1,1,1,1,1,1,1,1,1,1,1,1,1,1,1,1,1,1,1,1,1,1,1,1,1,1,1,1,1,1,1,1,1,1,1,1,1,1,1,1,1,1,1,1,1,1,1,1,1,1,1,1,1,1,1,1,1,1,1,1,1,1,1,1,1,1,1,1,1,1,1,1,1,1,1,1,1,1,1,1,1,1,1,1,1,1,1,1,1,1,1,1,1,1,1,1,1,1,1,1,1,1,1,1,1,1,1,1,1,1,1,1,1,1,1,1,1,1,1,1,1,1,1,1,1,1,1,1,1,1,1,1,1,1,1,1,1,1,1,1,1,1,1,1,1,1,1,1,1,1,58,
1,1,1,1,1,1,1,1,1,1,1,1,1,1,1,1,1,1,1,1,1,1,1,1,1,1,1,1,1,1,1,1,1,1,1,1,1,1,1,1,1,1,1,1,1,1,1,1,1,1,1,1,1,1,1,1,1,1,1,1,1,1,1,1,1,1,1,1,1,1,1,1,1,1,1,1,1,1,1,1,1,1,1,1,1,1,1,1,1,1,1,1,1,1,1,1,1,1,1,1,1,1,1,1,1,1,1,1,1,1,1,1,1,1,1,1,1,1,1,1,1,1,1,1,1,1,1,1,1,1,1,1,1,1,1,1,1,1,1,1,1,1,1,1,1,1,1,1,1,1,1,1,1,1,1,1,1,1,1,1,1,1,1,1,1,1,1,1,1,1,1,1,1,1,1,1,1,1,1,1,1,1,1,1,1,1,1,1,1,1,1,1,1,1,1,1,1,1,1,1,1,1,1,1,1,1,1,1,1,1,1,1,1,1,1,1,1,1,1,1,1,1,1,1,1,1,1,1,1,1,1,1,1,1,1,1,1,1,1,1,1,1,1,1,1,1,1,1,1,1,1,1,1,1,1,1,1,1,1,1,1,1,1,1,1,1,1,1,1,1,1,1,1,1,1,1,1,1,1,1,1,1,1,1,1,1,1,1,1,1,1,1,1,1,1,1,1,1,1,1,1,58,
1,1,1,1,1,1,1,1,1,1,1,1,1,1,1,1,1,1,1,1,1,1,1,1,1,1,1,1,1,1,1,1,1,1,1,1,1,1,1,1,1,1,1,1,1,1,1,1,1,1,1,1,1,1,1,1,1,1,1,1,1,1,1,1,1,1,1,1,1,1,1,1,1,1,1,1,1,1,1,1,1,1,1,1,1,1,1,1,1,1,1,1,1,1,1,1,1,1,1,1,1,1,1,1,1,1,1,1,1,1,1,1,1,1,1,1,1,1,1,1,1,1,1,1,1,1,1,1,1,1,1,1,1,1,1,1,1,1,1,1,1,1,1,1,1,1,1,1,1,1,1,1,1,1,1,1,1,1,1,1,1,1,1,1,1,1,1,1,1,1,1,1,1,1,1,1,1,1,1,1,1,1,1,1,1,1,1,1,1,1,1,1,1,1,1,1,1,1,1,1,1,1,1,1,1,1,1,1,1,1,1,1,1,1,1,1,1,1,1,1,1,1,1,1,1,1,1,1,1,1,1,1,1,1,1,1,1,1,1,1,1,1,1,1,1,1,1,1,1,1,1,1,1,1,1,1,1,1,1,1,1,1,1,1,1,1,1,1,1,1,1,1,1,1,1,1,1,1,1,1,1,1,1,1,1,1,1,1,1,1,1,1,1,1,1,1,1,1,1,1,1,58,
1,1,1,1,1,1,1,1,1,1,1,1,1,1,1,1,1,1,1,1,1,1,1,1,1,1,1,1,1,1,1,1,1,1,1,1,1,1,1,1,1,1,1,1,1,1,1,1,1,1,1,1,1,1,1,1,1,1,1,1,1,1,1,1,1,1,1,1,1,1,1,1,1,1,1,1,1,1,1,1,1,1,1,1,1,1,1,1,1,1,1,1,1,1,1,1,1,1,1,1,1,1,1,1,1,1,1,1,1,1,1,1,1,1,1,1,1,1,1,1,1,1,1,1,1,1,1,1,1,1,1,1,1,1,1,1,1,1,1,1,1,1,1,1,1,1,1,1,1,1,1,1,1,1,1,1,1,1,1,1,1,1,1,1,1,1,1,1,1,1,1,1,1,1,1,1,1,1,1,1,1,1,1,1,1,1,1,1,1,1,1,1,1,1,1,1,1,1,1,1,1,1,1,1,1,1,1,1,1,1,1,1,1,1,1,1,1,1,1,1,1,1,1,1,1,1,1,1,1,1,1,1,1,1,1,1,1,1,1,1,1,1,1,1,1,1,1,1,1,1,1,1,1,1,1,1,1,1,1,1,1,1,1,1,1,1,1,1,1,1,1,1,1,1,1,1,1,1,1,1,1,1,1,1,1,1,1,1,1,1,1,1,1,1,1,1,1,1,1,1,1,58,
1,1,1,1,1,1,1,1,1,1,1,1,1,1,1,1,1,1,1,1,1,1,1,1,1,1,1,1,1,1,1,1,1,1,1,1,1,1,1,1,1,1,1,1,1,1,1,1,1,1,1,1,1,1,1,1,1,1,1,1,1,1,1,1,1,1,1,1,1,1,1,1,1,1,1,1,1,1,1,1,1,1,1,1,1,1,1,1,1,1,1,1,1,1,1,1,1,1,1,1,1,1,1,1,1,1,1,1,1,1,1,1,1,1,1,1,1,1,1,1,1,1,1,1,1,1,1,1,1,1,1,1,1,1,1,1,1,1,1,1,1,1,1,1,1,1,1,1,1,1,1,1,1,1,1,1,1,1,1,1,1,1,1,1,1,1,1,1,1,1,1,1,1,1,1,1,1,1,1,1,1,1,1,1,1,1,1,1,1,1,1,1,1,1,1,1,1,1,1,1,1,1,1,1,1,1,1,1,1,1,1,1,1,1,1,1,1,1,1,1,1,1,1,1,1,1,1,1,1,1,1,1,1,1,1,1,1,1,1,1,1,1,1,1,1,1,1,1,1,1,1,1,1,1,1,1,1,1,1,1,1,1,1,1,1,1,1,1,1,1,1,1,1,1,1,1,1,1,1,1,1,1,1,1,1,1,1,1,1,1,1,1,1,1,1,1,1,1,1,1,1,58,
1,1,1,1,1,1,1,1,1,1,1,1,1,1,1,1,1,1,1,1,1,1,1,1,1,1,1,1,1,1,1,1,1,1,1,1,1,1,1,1,1,1,1,1,1,1,1,1,1,1,1,1,1,1,1,1,1,1,1,1,1,1,1,1,1,1,1,1,1,1,1,1,1,1,1,1,1,1,1,1,1,1,1,1,1,1,1,1,1,1,1,1,1,1,1,1,1,1,1,1,1,1,1,1,1,1,1,1,1,1,1,1,1,1,1,1,1,1,1,1,1,1,1,1,1,1,1,1,1,1,1,1,1,1,1,1,1,1,1,1,1,1,1,1,1,1,1,1,1,1,1,1,1,1,1,1,1,1,1,1,1,1,1,1,1,1,1,1,1,1,1,1,1,1,1,1,1,1,1,1,1,1,1,1,1,1,1,1,1,1,1,1,1,1,1,1,1,1,1,1,1,1,1,1,1,1,1,1,1,1,1,1,1,1,1,1,1,1,1,1,1,1,1,1,1,1,1,1,1,1,1,1,1,1,1,1,1,1,1,1,1,1,1,1,1,1,1,1,1,1,1,1,1,1,1,1,1,1,1,1,1,1,1,1,1,1,1,1,1,1,1,1,1,1,1,1,1,1,1,1,1,1,1,1,1,1,1,1,1,1,1,1,1,1,1,1,1,1,1,1,1,58,
1,1,1,1,1,1,1,1,1,1,1,1,1,1,1,1,1,1,1,1,1,1,1,1,1,1,1,1,1,1,1,1,1,1,1,1,1,1,1,1,1,1,1,1,1,1,1,1,1,1,1,1,1,1,1,1,1,1,1,1,1,1,1,1,1,1,1,1,1,1,1,1,1,1,1,1,1,1,1,1,1,1,1,1,1,1,1,1,1,1,1,1,1,1,1,1,1,1,1,1,1,1,1,1,1,1,1,1,1,1,1,1,1,1,1,1,1,1,1,1,1,1,1,1,1,1,1,1,1,1,1,1,1,1,1,1,1,1,1,1,1,1,1,1,1,1,1,1,1,1,1,1,1,1,1,1,1,1,1,1,1,1,1,1,1,1,1,1,1,1,1,1,1,1,1,1,1,1,1,1,1,1,1,1,1,1,1,1,1,1,1,1,1,1,1,1,1,1,1,1,1,1,1,1,1,1,1,1,1,1,1,1,1,1,1,1,1,1,1,1,1,1,1,1,1,1,1,1,1,1,1,1,1,1,1,1,1,1,1,1,1,1,1,1,1,1,1,1,1,1,1,1,1,1,1,1,1,1,1,1,1,1,1,1,1,1,1,1,1,1,1,1,1,1,1,1,1,1,1,1,1,1,1,1,1,1,1,1,1,1,1,1,1,1,1,1,1,1,1,1,1,58,
1,1,1,1,1,1,1,1,1,1,1,1,1,1,1,1,1,1,1,1,1,1,1,1,1,1,1,1,1,1,1,1,1,1,1,1,1,1,1,1,1,1,1,1,1,1,1,1,1,1,1,1,1,1,1,1,1,1,1,1,1,1,1,1,1,1,1,1,1,1,1,1,1,1,1,1,1,1,1,1,1,1,1,1,1,1,1,1,1,1,1,1,1,1,1,1,1,1,1,1,1,1,1,1,1,1,1,1,1,1,1,1,1,1,1,1,1,1,1,1,1,1,1,1,1,1,1,1,1,1,1,1,1,1,1,1,1,1,1,1,1,1,1,1,1,1,1,1,1,1,1,1,1,1,1,1,1,1,1,1,1,1,1,1,1,1,1,1,1,1,1,1,1,1,1,1,1,1,1,1,1,1,1,1,1,1,1,1,1,1,1,1,1,1,1,1,1,1,1,1,1,1,1,1,1,1,1,1,1,1,1,1,1,1,1,1,1,1,1,1,1,1,1,1,1,1,1,1,1,1,1,1,1,1,1,1,1,1,1,1,1,1,1,1,1,1,1,1,1,1,1,1,1,1,1,1,1,1,1,1,1,1,1,1,1,1,1,1,1,1,1,1,1,1,1,1,1,1,1,1,1,1,1,1,1,1,1,1,1,1,1,1,1,1,1,1,1,1,1,1,1,58,
1,1,1,1,1,1,1,1,1,1,1,1,1,1,1,1,1,1,1,1,1,1,1,1,1,1,1,1,1,1,1,1,1,1,1,1,1,1,1,1,1,1,1,1,1,1,1,1,1,1,1,1,1,1,1,1,1,1,1,1,1,1,1,1,1,1,1,1,1,3475,1,1,1,1,1,1,3477,1,1,1,1,1,1,1,1,1,1,1,1,1,1,1,1,1,1,1,1,1,1,1,1,1,1,1,1,1,1,1,1,1,1,1,1,1,1,1,1,1,1,1,1,1,1,1,1,1,1,1,1,1,1,1,1,1,1,1,1,1,1,1,1,1,1,1,1,1,1,1,1,1,1,1,1,1,1,1,1,1,1,1,1,1,1,1,1,1,1,1,1,1,1,1,1,1,1,1,1,1,1,1,1,1,1,1,1,1,1,1,1,1,1,1,1,1,1,1,1,1,1,1,1,1,1,1,1,1,1,1,1,1,1,1,1,1,1,1,1,1,1,1,1,1,1,1,1,1,1,1,1,1,1,1,1,1,1,1,1,1,1,1,1,1,1,1,1,1,1,1,1,1,1,1,1,1,1,1,1,1,1,1,1,1,1,1,1,1,1,1,1,1,1,1,1,1,1,1,1,1,1,1,1,1,1,1,1,1,1,1,1,1,1,1,1,1,1,1,1,1,1,1,1,58,
1,1,1,1,1,1,1,1,1,1,1,1,1,1,1,1,1,1,1,1,1,1,1,1,1,1,1,1,1,1,1,1,1,1,1,1,1,1,1,1,1,1,1,1,1,1,1,1,1,1,1,1,1,1,1,1,1,1,1,1,1,1,1,1,1,1,1,1,1,3475,1,1,1,1,1,1,3477,1,1,1,1,1,1,1,1,1,1,1,1,1,1,1,1,1,1,1,1,1,1,1,1,1,1,1,1,1,1,1,1,1,1,1,1,1,1,1,1,1,1,1,1,1,1,1,1,1,1,1,1,1,1,1,1,1,1,1,1,1,1,1,1,1,1,1,1,1,1,1,1,1,1,1,1,1,1,1,1,1,1,1,1,1,1,1,1,1,1,1,1,1,1,1,1,1,1,1,1,1,1,1,1,1,1,1,1,1,1,1,1,1,1,1,1,1,1,1,1,1,1,1,1,1,1,1,1,1,1,1,1,1,1,1,1,1,1,1,1,1,1,1,1,1,1,1,1,1,1,1,1,1,1,1,1,1,1,1,1,1,1,1,1,1,1,1,1,1,1,1,1,1,1,1,1,1,1,1,1,1,1,1,1,1,1,1,1,1,1,1,1,1,1,1,1,1,1,1,1,1,1,1,1,1,1,1,1,1,1,1,1,1,1,1,1,1,1,1,1,1,1,1,1,58,
1,1,1,1,1,1,1,1,1,1,1,1,1,1,1,1,1,1,1,1,1,1,1,1,1,1,1,1,1,1,1,1,1,1,1,1,1,1,1,1,1,1,1,1,1,1,1,1,1,1,1,1,1,1,1,1,1,1,1,1,1,1,1,1,1,1,1,1,1,3475,1,1,1,1,1,1,3477,1,1,1,1,1,1,1,1,1,1,1,1,1,1,1,1,1,1,1,1,1,1,1,1,1,1,1,1,1,1,1,1,1,1,1,1,1,1,1,1,1,1,1,1,1,1,1,1,1,1,1,1,1,1,1,1,1,1,1,1,1,1,1,1,1,1,1,1,1,1,1,1,1,1,1,1,1,1,1,1,1,1,1,1,1,1,1,1,1,1,1,1,1,1,1,1,1,1,1,1,1,1,1,1,1,1,1,1,1,1,1,1,1,1,1,1,1,1,1,1,1,1,1,1,1,1,1,1,1,1,1,1,1,1,1,1,1,1,1,1,1,1,1,1,1,1,1,1,1,1,1,1,1,1,1,1,1,1,1,1,1,1,1,1,1,1,1,1,1,1,1,1,1,1,1,1,1,1,1,1,1,1,1,1,1,1,1,1,1,1,1,1,1,1,1,1,1,1,1,1,1,1,1,1,1,1,1,1,1,1,1,1,1,1,1,1,1,1,1,1,1,1,1,1,58,
1,1,1,1,1,1,1,1,1,1,1,1,1,1,1,1,1,1,1,1,1,1,1,1,1,1,1,1,1,1,1,1,1,1,1,1,1,1,1,1,1,1,1,1,1,1,1,1,1,1,1,1,1,1,1,1,1,1,1,1,1,1,1,1,1,1,1,1,1,3475,1,1,1,1,1,1,3477,1,1,1,1,1,1,1,1,1,1,1,1,1,1,1,1,1,1,1,1,1,1,1,1,1,1,1,1,1,1,1,1,1,1,1,1,1,1,1,1,1,1,1,1,1,1,1,1,1,1,1,1,1,1,1,1,1,1,1,1,1,1,1,1,1,1,1,1,1,1,1,1,1,1,1,1,1,1,1,1,1,1,1,1,1,1,1,1,1,1,1,1,1,1,1,1,1,1,1,1,1,1,1,1,1,1,1,1,1,1,1,1,1,1,1,1,1,1,1,1,1,1,1,1,1,1,1,1,1,1,1,1,1,1,1,1,1,1,1,1,1,1,1,1,1,1,1,1,1,1,1,1,1,1,1,1,1,1,1,1,1,1,1,1,1,1,1,1,1,1,1,1,1,1,1,1,1,1,1,1,1,1,1,1,1,1,1,1,1,1,1,1,1,1,1,1,1,1,1,1,1,1,1,1,1,1,1,1,1,1,1,1,1,1,1,1,1,1,1,1,1,1,1,1,58,
1,1,1,1,1,1,1,1,1,1,1,1,1,1,1,1,1,1,1,1,1,1,1,1,1,1,1,1,1,1,1,1,1,1,1,1,1,1,1,1,1,1,1,1,1,1,1,1,1,1,1,1,1,1,1,1,1,1,1,1,1,1,1,1,1,1,1,1,1,3475,1,1,1,1,1,1,3477,1,1,1,1,1,1,1,1,1,1,1,1,1,1,1,1,1,1,1,1,1,1,1,1,1,1,1,1,1,1,1,1,1,3473,1,1,1,1,1,1,1,1,1,1,1,1,1,1,1,1,1,1,1,1,1,1,1,1,1,1,1,1,1,1,1,1,1,1,1,1,1,1,1,1,1,1,1,1,1,1,1,3473,1,1,1,1,1,1,1,1,1,1,1,1,1,1,1,1,1,1,1,1,1,1,1,1,1,1,1,1,1,1,1,1,1,1,1,1,1,1,1,1,1,1,3473,1,1,1,1,1,1,1,1,1,1,1,1,1,1,1,1,1,1,1,1,1,1,1,1,1,1,1,1,1,1,1,1,1,1,1,1,1,1,1,1,1,1,1,1,1,1,1,1,1,400,1,1,1,1,1,1,1,1,1,1,1,1,1,1,1,1,1,1,1,1,1,1,1,1,1,1,1,1,1,1,1,1,1,1,1,1,1,1,1,1,1,1,1,1,1,1,1,1,1,58,
1,1,1,1,1,1,1,1,1,1,1,1,1,1,1,1,1,1,1,1,1,1,1,1,1,1,1,1,1,1,1,1,1,1,1,1,1,1,1,1,1,1,1,1,1,1,1,1,1,1,1,1,1,1,1,1,1,1,1,1,1,1,1,1,1,1,1,1,1,3475,1,1,1,1,1,1,3477,1,1,1,1,1,1,1,1,1,1,1,1,1,1,1,1,1,1,1,1,1,1,1,1,1,1,1,1,1,1,1,1,1,1110,1,1,1,1,1,1,1,1,1,1,1,1,1,1,1,1,1,1,1,1,1,1,1,1,1,1,1,1,1,1,1,1,1,1,1,1,1,1,1,1,1,1,1,1,1,1,1,1110,1,3473,1,1,1,1,1,1,1,1,1,1,1,1,1,1,1,1,1,1,1,1,1,1,1,1,1,1,1,1,1,1,1,1,1,1,1,1,1,1,1,1,1110,1,3473,1,1,1,1,1,1,1,1,1,1,1,1,1,1,1,1,1,1,1,1,1,1,1,1,1,1,1,1,1,1,1,1,1,1,1,1,400,1,1,1,1,1,1,1,1,1,1,1,1,400,1,1,1,1,1,1,1,1,1,1,1,1,1,1,1,1,1,1,1,1,1,1,1,1,1,1,1,1,1,1,1,1,1,1,1,1,1,1,1,1,1,1,1,1,1,1,1,58,
1,1,1,1,1,1,1,1,1,1,1,1,1,1,1,1,1,1,1,1,1,1,1,1,1,1,1,1,1,1,1,1,1,1,1,1,1,1,1,1,1,1,1,1,1,1,1,1,1,1,1,1,1,1,1,1,1,1,1,1,1,1,1,1,1,1,1,1,1,3479,3476,3476,3476,3476,3476,3476,3480,1,1,1,1,1,1,1,1,3473,1,1,1,1,1,1,1,1,1,1,1,1,1,1,1,1,1,1,1,1,1,1,1,1,1,1,1,1,1,1,1,1,1,1,1,1,1,1,1,1,1,1,1,1,1,1,1,1,1,1,1,1,1,1,1,1,1,1,1,1,1,1,1,1,1,1,1,1,1,1,1,1,1,1,1110,1,3473,1,1,1,1,1,1,1,1,1,1,1,1,1,1,1,1,1,1,1,1,1,1,1,1,1,1,1,1,1,1,1,1,1,1,1,1,1,1,1,1,1110,1,1,1,1,1,1,1,1,1,1,1,1,3473,1,1,1,1,1,1,1,1,1,1,1,1,1,1,1,1,1,1,1,1,1,1,1,1,1,1,1,1,1,1,1,1,1,1,1,1,1,1,400,1,1,1,1,1,1,1,1,1,1,1,1,1,1,1,1,1,1,1,1,1,1,1,1,1,1,1,1,1,1,1,1,1,1,1,1,1,1,1,1,1,1,1,1,1,58,
1,1,1,1,1,1,1,1,1,1,1,1,1,1,1,1,1,1,1,1,1,1,1,1,1,1,1,1,1,1,1,1,1,1,1,1,1,1,1,1,1,1,1,1,1,1,1,1,1,1,1,1,1,1,1,1,1,1,1,1,1,1,1,1,1,1,1,1,1,1,1,1,1,1,1,1,1,1,1,1,1,1,1,1,1,1110,1,1,1,1,1,1,1,1,1,1,1,1,1,1,1,1,1,1,1,1,1,1,3482,1,1,1,1,1,1,1,1,1,1,1,1,1,1,1,1,1,1,1,1,1,1,1,1,1,1,1,1,1,1,1,1,1,1,1,1,1,1,1,1,1,1,1,1,1,1,1,3482,1,1,1,1,1,1110,1,3473,1,1,1,1,1,1,1,1,1,1,1,1,1,1,1,1,1,1,1,1,1,1,1,1,1,1,1,1,1,1,1,1,1,1,3482,1,1,1,1,1,1,1,1,1,1,1,1,1,1,1,1,1110,1,3473,1,1,1,1,1,1,1,1,1,1,1,1,1,1,1,1,1,1,1,1,1,1,1,1,1,1,1,1,1,1,1,1,1,1,1,1,1,1,1,1,1,1,1,1,1,1,1,1,1,1,1,1,1,1,1,1,1,1,1,1,1,1,1,1,1,1,1,1,1,1,1,1,1,1,1,1,1,1,1,1,1,1,58,
1,1,1,1,1,1,1,1,1,1,1,1,1,1,1,1,1,1,1,1,1,1,1,1,1,1,1,1,1,1,1,1,1,1,1,1,1,1,1,1,1,1,1,1,1,1,1,1,1,1,1,3483,3487,3487,3487,3487,3487,3487,3485,1,1,1,1,1,1,1,1,1,1,1,1,1,1,1,1,1,1,1,1,1,1,1,1,1,1,1,1,1,1,3482,1,1,1,1,1,1,1,1,1,1,1,1,1,1,1,1,1,1,3486,1,1,3478,3481,1,1,1,1,1,1,1109,1109,1,1,1,1,1,1,1,1,1,1,1,1,1,1,1,1,1,1,1,1,1,1,1,1,1,1,1,1,1,1,1,3482,1,1,1,3486,1,3482,1,1,1,1,1,1110,1,1,1,1,1,1,1,1,1,1,1,1,1,1,1,1,1,1,1,1,1,1,1,1,1,1,1,1,1,1,1,1,1,1,3486,1,3482,1,1,1,1,1,1,3478,3481,1,1,1,1,1,1,1,1,1110,1,1,1,1,1,1,1,1,1,1,1,1,1,1,1,1,1,1,1,1,1,1,1,1,1,1,1,1,1,1,1,1,1,1,1,1,1,1,1,1,1,1,1,1,1,1,1,1,1,1,1,1,1,1,1,1,1,1,1,1,1,1,1,1,1,1,1,1,1,1,1,1,1,1,1,1,1,1,1,1,1,1,58,
1,1,1,1,1,1,1,1,1,1,1,1,1,1,1,1,1,1,1,1,1,1,1,1,1,1,1,1,1,1,1,1,1,1,1,1,1,1,1,1,1,1,1,1,1,1,1,1,1,1,1,1118,1118,1118,1118,1118,1118,1118,1118,1,1,1,1,1,1,1,1,1,1,1,1,1,1,1,1,1,1,1,1,1,1,1,1,3482,1,1,1,1,1,3486,1,1,1,1,1,1,1,1,1,1,1,1,1,1,1,1,1,1,3486,5577,5577,3475,3477,5577,5577,5577,3478,3474,3474,3474,3474,3474,3474,3474,3474,3474,3474,3481,1,1,1,1,1,1,1,1,1,1,1,1,1,1,1,1109,1109,1,1,1,1,1,1,1,3486,5577,5577,5577,3486,5577,3486,1,3482,1,1,1,1,1,1,1,1,1,3482,1,1,1,1,1,1,1,1,1,1,1,1109,1109,1,1,1,1,1,1,1,1109,1109,1,1,1,1,1,1,3486,5577,3486,5577,3478,3474,3481,5577,5577,3475,3477,5577,5577,5577,5577,3482,1,1,1,1,1,1,1,1,1,1,1,1,1,1,1,1,1,1,1,1,1,1,1,1,1,1,1,1,1,1,1,1,1,1,1,1,1,1,1,1,1,1,1,1,1,1,1,1,1,1,1,1,1,1,399,399,1,1,1,1,1,1,1,1,1,1,1,1,1,1,1,1,1,1,1,1,1,1,1,1,1,1,1,1,1,1,58,
1,1,1,1,1,1,1,1,1,1,1,1,1,1,1,1,1,1,1,1,1,1,1,1,1,1,1,1,1,1,1,1,1,1,1,1,1,1,1,1,1,1,1,1,1,1,1,1,1,1,1,1,1,1,1,1,1,1,1,1,1,1,1,1,1,1,1,3478,3474,3474,3474,3474,3474,3474,3474,3474,3474,3474,3481,5577,5577,5577,5577,3486,5577,5577,3482,5577,5577,3486,5577,5577,5577,5577,3478,3474,3474,3474,3474,3481,5577,5577,5577,3482,5577,5577,5577,5577,3486,126,126,3475,3477,126,126,126,3475,1,1,1,1,1,1,1,1,1,1,3477,5577,5577,5577,5577,3478,3474,3474,3474,3474,3474,3474,3474,3474,3474,3474,3474,3474,3474,3474,3481,5577,5577,5577,5577,3486,126,126,126,3486,126,3486,5577,3486,5577,3482,1,1,1,1,1,1,1,3486,5577,5577,5577,5577,3478,3474,3474,3474,3474,3474,3474,3474,3474,3474,3474,3474,3474,3474,3474,3474,3474,3474,3474,3474,3481,5577,5577,5577,3486,126,3486,126,3475,1,3477,126,126,3475,3477,126,126,126,126,3486,5577,3482,1,1,1,1,1,1,1,1,1,1,1,1,1,1,1,1,0,1,1,1,1,1,1,1,1,1,1,1,1,1,1,1,1,1,1,1,1,1,1,1,1,1,1,1,1,1,1,1,1,1,1,1,1,1,1,1,1,1,1,1,1,1,1,1,1,1,1,1,1,1,1,1,1,1,1,1,1,1,1,1,1,1,1,1,58,
1,1,1,1,1,1,1,1,1,1,1,1,1,1,1,1,1,1,1,1,1,1,1,1,1,1,1,1,1,1,1,1,1,1,1,1,1,3482,1,1,1,1,1,1,1,1,1,1,1,1,1,1,1,1,1,1,1,1,1,1,1,1,1,1,1,1,1,3475,1,1,1,1,1,1,1,1,1,1,3477,126,126,126,126,3486,126,126,3486,126,126,3486,126,126,126,126,3475,1,1,1,1,3477,126,126,126,3486,126,126,126,126,3486,126,126,3475,3477,126,126,126,3475,1,1,1,1,1,1,1,1,1,1,3477,126,126,126,126,3475,1,1,1,1,1,1,1,1,1,1,1,1,1,1,3477,126,126,126,126,3486,126,126,126,3486,126,3486,126,3486,126,3486,5577,3478,3481,5577,5577,5577,5577,3486,126,126,126,126,3475,1,1,1,1,1,1,1,1,1,1,1,1,1,1,1,1,1,1,1,3477,126,126,126,3486,126,3486,126,3475,1,3477,126,126,3475,3477,126,126,126,126,3486,126,3486,5577,3478,3481,5577,5577,5577,3478,3474,3474,3474,3474,3474,3474,3474,3474,3474,3474,3481,5577,5577,5577,5577,5577,5577,5577,5577,5577,5577,5577,5577,5577,5577,5577,5577,5577,5577,5577,5577,5577,5577,5577,5577,5577,5577,5577,5577,5577,5577,1,1,1,1,1,1,1,1,1,5577,5577,5577,5577,5577,5577,5577,5577,5577,5577,5577,5577,5577,5577,5577,5577,5577,5577,5581,1,1,1,1,1,1,1,1,58,
1,1,1,1,1,1,1,1109,1109,1109,1109,1,1,1,1109,1,1,1,1,1,1,1,1,1,1,1,1109,1109,1109,1109,1,1,1,1,1,1,1109,3486,5577,3482,1,1,1,1,1,1,1,1,1,1,1,1,1,1,1,1,1,1,1,1,1,1,1,1,1,1113,1109,3475,1,1,1,1,1,1,1,1,1,1,3477,126,126,126,126,3486,126,126,3486,126,126,3486,126,126,126,126,3475,1,1,1,1,3477,126,126,126,3486,126,126,126,126,3486,126,126,3475,3477,126,126,126,3475,1,1,1,1,1,1,1,1,1,1,3477,126,126,126,126,3475,1,1,1,1,1,1,1,1,1,1,1,1,1,1,3477,126,126,126,126,3486,126,126,126,3486,126,3486,126,3486,126,3486,126,3475,3477,126,126,126,126,3486,126,126,126,126,3475,1,1,1,1,1,1,1,1,1,1,1,1,1,1,1,1,1,1,1,3477,126,126,126,3486,126,3486,126,3475,1,3477,126,126,3475,3477,126,126,126,126,3486,126,3486,126,3475,3477,126,126,126,3475,1,1,1,1,1,1,1,1,1,1,3477,126,126,126,126,126,126,126,126,126,126,126,126,126,126,126,126,126,126,126,126,126,126,126,126,126,126,126,126,126,126,0,0,0,0,0,0,1,1,1,126,126,126,126,126,126,126,126,126,126,126,126,126,126,126,126,126,126,5579,1,1,1,1,1,1,1,1,58
</data>
 </layer>
 <objectgroup id="7" name="SP">
  <object id="422" gid="16395" x="96" y="432" width="16" height="16"/>
  <object id="423" gid="16396" x="272" y="432" width="16" height="16"/>
  <object id="424" gid="16516" x="296" y="432" width="16" height="16">
   <properties>
    <property name="color channel" value="3"/>
   </properties>
  </object>
  <object id="425" gid="16395" x="400" y="432" width="16" height="16"/>
  <object id="426" gid="16396" x="544" y="432" width="16" height="16"/>
  <object id="446" gid="16395" x="714" y="432" width="16" height="16"/>
  <object id="447" gid="1109" x="730" y="432" width="16" height="16"/>
  <object id="448" gid="1109" x="746" y="432" width="16" height="16"/>
  <object id="449" gid="1109" x="762" y="432" width="16" height="16"/>
  <object id="450" gid="1109" x="778" y="432" width="16" height="16"/>
  <object id="483" gid="16395" x="1024" y="432" width="16" height="16"/>
  <object id="701" gid="689" x="608" y="363" width="16" height="16"/>
  <object id="702" gid="865" x="640" y="379" width="16" height="16"/>
  <object id="703" gid="1110" x="608" y="379" width="16" height="16">
   <properties>
    <property name="vflip" type="bool" value="false"/>
   </properties>
  </object>
  <object id="704" gid="1110" x="640" y="395" width="16" height="16">
   <properties>
    <property name="vflip" type="bool" value="false"/>
   </properties>
  </object>
  <object id="705" gid="16393" x="640" y="363" width="16" height="16"/>
  <object id="706" gid="16393" x="608" y="347" width="16" height="16"/>
  <object id="707" gid="3473" x="640" y="379" width="16" height="16"/>
  <object id="708" gid="3473" x="608" y="363" width="16" height="16"/>
  <object id="710" gid="16513" x="96" y="416" width="16" height="16">
   <properties>
    <property name="enable rotation" type="bool" value="true"/>
    <property name="rotation angle" type="int" value="90"/>
   </properties>
  </object>
  <object id="711" gid="16513" x="400" y="416" width="16" height="16">
   <properties>
    <property name="enable rotation" type="bool" value="true"/>
    <property name="rotation angle" type="int" value="90"/>
   </properties>
  </object>
  <object id="712" gid="16395" x="840" y="432" width="16" height="16"/>
  <object id="713" gid="16492" x="840" y="416" width="16" height="16"/>
  <object id="714" gid="16395" x="912" y="432" width="16" height="16"/>
  <object id="715" gid="16492" x="913" y="411" width="16" height="16"/>
  <object id="716" gid="16396" x="960" y="432" width="16" height="16"/>
  <object id="717" gid="16396" x="808" y="432" width="16" height="16"/>
  <object id="718" gid="16396" x="872" y="432" width="16" height="16"/>
  <object id="719" gid="16393" x="816" y="352" width="16" height="16"/>
  <object id="720" gid="16393" x="928" y="352" width="16" height="16"/>
  <object id="721" gid="16443" x="853" y="349" width="16" height="16">
   <properties>
    <property name="bg layer" value="2"/>
   </properties>
  </object>
  <object id="722" gid="16444" x="893" y="346" width="16" height="16">
   <properties>
    <property name="bg layer" value="2"/>
   </properties>
  </object>
  <object id="723" gid="16396" x="1088" y="384" width="16" height="16"/>
  <object id="724" gid="16513" x="1024" y="416" width="16" height="16">
   <properties>
    <property name="enable rotation" type="bool" value="true"/>
    <property name="rotation angle" type="int" value="90"/>
   </properties>
  </object>
  <object id="725" gid="16513" x="1248" y="368" width="16" height="16">
   <properties>
    <property name="enable rotation" type="bool" value="true"/>
    <property name="rotation angle" type="int" value="90"/>
   </properties>
  </object>
  <object id="726" gid="16395" x="1248" y="384" width="16" height="16"/>
  <object id="728" gid="16397" x="672" y="432" width="16" height="16"/>
  <object id="729" gid="16393" x="1360" y="320" width="16" height="16"/>
  <object id="743" gid="16393" x="1760" y="288" width="16" height="16"/>
  <object id="730" gid="16528" x="1288" y="400" width="16" height="16">
   <properties>
    <property name="bg layer" value="2"/>
   </properties>
  </object>
  <object id="731" gid="16528" x="1464" y="400" width="16" height="16">
   <properties>
    <property name="bg layer" value="2"/>
   </properties>
  </object>
  <object id="732" gid="16444" x="1286" y="399" width="16" height="16">
   <properties>
    <property name="bg layer" value="2"/>
    <property name="z index" type="int" value="12"/>
   </properties>
  </object>
  <object id="733" gid="16445" x="1347" y="398" width="16" height="16">
   <properties>
    <property name="bg layer" value="2"/>
    <property name="z index" type="int" value="12"/>
   </properties>
  </object>
  <object id="734" gid="16443" x="1467" y="400" width="16" height="16">
   <properties>
    <property name="bg layer" value="2"/>
    <property name="z index" type="int" value="12"/>
   </properties>
  </object>
  <object id="735" gid="16396" x="1328" y="368" width="16" height="16">
   <properties>
    <property name="bg layer" value="0"/>
   </properties>
  </object>
  <object id="736" gid="16396" x="1424" y="352" width="16" height="16">
   <properties>
    <property name="bg layer" value="0"/>
   </properties>
  </object>
  <object id="744" gid="16396" x="1728" y="336" width="16" height="16">
   <properties>
    <property name="bg layer" value="0"/>
   </properties>
  </object>
  <object id="746" gid="16396" x="1882" y="368" width="16" height="16">
   <properties>
    <property name="bg layer" value="0"/>
   </properties>
  </object>
  <object id="747" gid="16396" x="1958" y="368" width="16" height="16">
   <properties>
    <property name="bg layer" value="0"/>
   </properties>
  </object>
  <object id="755" gid="16396" x="2176" y="384" width="16" height="16">
   <properties>
    <property name="bg layer" value="0"/>
   </properties>
  </object>
  <object id="760" gid="16396" x="2432" y="352" width="16" height="16">
   <properties>
    <property name="bg layer" value="0"/>
   </properties>
  </object>
  <object id="761" gid="16396" x="2496" y="336" width="16" height="16">
   <properties>
    <property name="bg layer" value="0"/>
   </properties>
  </object>
  <object id="775" gid="16396" x="2720" y="368" width="16" height="16">
   <properties>
    <property name="bg layer" value="0"/>
   </properties>
  </object>
  <object id="777" gid="16396" x="2888" y="384" width="16" height="16">
   <properties>
    <property name="bg layer" value="0"/>
   </properties>
  </object>
  <object id="778" gid="16396" x="3032" y="384" width="16" height="16">
   <properties>
    <property name="bg layer" value="0"/>
   </properties>
  </object>
  <object id="781" gid="16396" x="3184" y="336" width="16" height="16">
   <properties>
    <property name="bg layer" value="0"/>
   </properties>
  </object>
  <object id="782" gid="16396" x="3277" y="368" width="16" height="16">
   <properties>
    <property name="bg layer" value="0"/>
   </properties>
  </object>
  <object id="738" gid="16395" x="1648" y="384" width="16" height="16">
   <properties>
    <property name="bg layer" value="0"/>
   </properties>
  </object>
  <object id="751" gid="16395" x="2032" y="368" width="16" height="16">
   <properties>
    <property name="bg layer" value="0"/>
   </properties>
  </object>
  <object id="758" gid="16395" x="2352" y="384" width="16" height="16">
   <properties>
    <property name="bg layer" value="0"/>
   </properties>
  </object>
  <object id="767" gid="16395" x="2640" y="400" width="16" height="16">
   <properties>
    <property name="bg layer" value="0"/>
   </properties>
  </object>
  <object id="779" gid="16395" x="3120" y="384" width="16" height="16">
   <properties>
    <property name="bg layer" value="0"/>
   </properties>
  </object>
  <object id="805" gid="16395" x="3744" y="400" width="16" height="16">
   <properties>
    <property name="bg layer" value="0"/>
   </properties>
  </object>
  <object id="813" gid="16395" x="4592" y="336" width="16" height="16">
   <properties>
    <property name="bg layer" value="0"/>
   </properties>
  </object>
  <object id="739" gid="16513" x="1648" y="368" width="16" height="16">
   <properties>
    <property name="enable rotation" type="bool" value="true"/>
    <property name="rotation angle" type="int" value="90"/>
   </properties>
  </object>
  <object id="752" gid="16513" x="2032" y="352" width="16" height="16">
   <properties>
    <property name="enable rotation" type="bool" value="true"/>
    <property name="rotation angle" type="int" value="90"/>
   </properties>
  </object>
  <object id="759" gid="16513" x="2352" y="368" width="16" height="16">
   <properties>
    <property name="enable rotation" type="bool" value="true"/>
    <property name="rotation angle" type="int" value="90"/>
   </properties>
  </object>
  <object id="768" gid="16513" x="2640" y="384" width="16" height="16">
   <properties>
    <property name="enable rotation" type="bool" value="true"/>
    <property name="rotation angle" type="int" value="90"/>
   </properties>
  </object>
  <object id="780" gid="16513" x="3120" y="368" width="16" height="16">
   <properties>
    <property name="enable rotation" type="bool" value="true"/>
    <property name="rotation angle" type="int" value="90"/>
   </properties>
  </object>
  <object id="806" gid="16513" x="3744" y="384" width="16" height="16">
   <properties>
    <property name="enable rotation" type="bool" value="true"/>
    <property name="rotation angle" type="int" value="90"/>
   </properties>
  </object>
  <object id="814" gid="16513" x="4592" y="320" width="16" height="16">
   <properties>
    <property name="enable rotation" type="bool" value="true"/>
    <property name="rotation angle" type="int" value="90"/>
   </properties>
  </object>
  <object id="740" gid="16444" x="1618" y="400" width="16" height="16">
   <properties>
    <property name="bg layer" value="2"/>
    <property name="z index" type="int" value="12"/>
   </properties>
  </object>
  <object id="741" gid="16443" x="1688" y="398" width="16" height="16">
   <properties>
    <property name="bg layer" value="2"/>
    <property name="z index" type="int" value="12"/>
   </properties>
  </object>
  <object id="742" gid="16528" x="1692" y="400" width="16" height="16">
   <properties>
    <property name="bg layer" value="2"/>
   </properties>
  </object>
  <object id="754" gid="16528" x="2072" y="400" width="16" height="16">
   <properties>
    <property name="bg layer" value="2"/>
   </properties>
  </object>
  <object id="745" gid="16445" x="1830" y="384" width="16" height="16">
   <properties>
    <property name="bg layer" value="2"/>
    <property name="z index" type="int" value="12"/>
   </properties>
  </object>
  <object id="748" gid="1109" x="1976" y="368" width="16" height="16">
   <properties>
    <property name="bg layer" value="0"/>
   </properties>
  </object>
  <object id="757" gid="1109" x="2214" y="384" width="16" height="16">
   <properties>
    <property name="bg layer" value="0"/>
   </properties>
  </object>
  <object id="749" gid="1109" x="1992" y="368" width="16" height="16">
   <properties>
    <property name="bg layer" value="0"/>
   </properties>
  </object>
  <object id="756" gid="1109" x="2230" y="384" width="16" height="16">
   <properties>
    <property name="bg layer" value="0"/>
   </properties>
  </object>
  <object id="799" gid="1109" x="3686" y="402" width="16" height="16">
   <properties>
    <property name="bg layer" value="1"/>
   </properties>
  </object>
  <object id="803" gid="1109" x="3698" y="400" width="16" height="16">
   <properties>
    <property name="bg layer" value="1"/>
   </properties>
  </object>
  <object id="804" gid="1109" x="3710" y="402" width="16" height="16">
   <properties>
    <property name="bg layer" value="1"/>
   </properties>
  </object>
  <object id="753" gid="16444" x="2067" y="397" width="16" height="16">
   <properties>
    <property name="bg layer" value="2"/>
    <property name="z index" type="int" value="12"/>
   </properties>
  </object>
  <object id="774" gid="16444" x="2464" y="384" width="16" height="16">
   <properties>
    <property name="bg layer" value="2"/>
    <property name="z index" type="int" value="12"/>
   </properties>
  </object>
  <object id="785" gid="16444" x="3152" y="400" width="16" height="16">
   <properties>
    <property name="bg layer" value="2"/>
    <property name="z index" type="int" value="12"/>
   </properties>
  </object>
  <object id="788" gid="16444" x="3308" y="382" width="16" height="16">
   <properties>
    <property name="bg layer" value="2"/>
    <property name="z index" type="int" value="12"/>
   </properties>
  </object>
  <object id="763" gid="16393" x="2528" y="288" width="16" height="16"/>
  <object id="764" gid="16393" x="2560" y="304" width="16" height="16"/>
  <object id="765" gid="16393" x="2592" y="320" width="16" height="16"/>
  <object id="766" gid="16393" x="2624" y="336" width="16" height="16"/>
  <object id="769" gid="16443" x="2392" y="398" width="16" height="16">
   <properties>
    <property name="bg layer" value="2"/>
    <property name="z index" type="int" value="12"/>
   </properties>
  </object>
  <object id="771" gid="16443" x="2682" y="416" width="16" height="16">
   <properties>
    <property name="bg layer" value="2"/>
    <property name="z index" type="int" value="12"/>
   </properties>
  </object>
  <object id="776" gid="16443" x="2762" y="398" width="16" height="16">
   <properties>
    <property name="bg layer" value="2"/>
    <property name="z index" type="int" value="12"/>
   </properties>
  </object>
  <object id="789" gid="16443" x="3386" y="381" width="16" height="16">
   <properties>
    <property name="bg layer" value="2"/>
    <property name="z index" type="int" value="12"/>
   </properties>
  </object>
  <object id="770" gid="16528" x="2392" y="400" width="16" height="16">
   <properties>
    <property name="bg layer" value="2"/>
   </properties>
  </object>
  <object id="791" gid="16528" x="3384" y="384" width="16" height="16">
   <properties>
    <property name="bg layer" value="2"/>
   </properties>
  </object>
  <object id="783" gid="16393" x="3248" y="304" width="16" height="16"/>
  <object id="784" gid="16393" x="3216" y="288" width="16" height="16"/>
  <object id="786" gid="16529" x="3152" y="400" width="16" height="16">
   <properties>
    <property name="bg layer" value="2"/>
   </properties>
  </object>
  <object id="796" gid="16529" x="3536" y="416" width="16" height="16">
   <properties>
    <property name="bg layer" value="2"/>
   </properties>
  </object>
  <object id="790" gid="16396" x="3424" y="368" width="16" height="16">
   <properties>
    <property name="bg layer" value="0"/>
   </properties>
  </object>
  <object id="797" gid="16396" x="3579" y="400" width="16" height="16">
   <properties>
    <property name="bg layer" value="0"/>
   </properties>
  </object>
  <object id="798" gid="16396" x="3664" y="400" width="16" height="16">
   <properties>
    <property name="bg layer" value="0"/>
   </properties>
  </object>
  <object id="815" gid="16396" x="4366" y="384" width="16" height="16">
   <properties>
    <property name="bg layer" value="0"/>
   </properties>
  </object>
  <object id="793" gid="16393" x="3456" y="320" width="16" height="16"/>
  <object id="794" gid="16393" x="3488" y="336" width="16" height="16"/>
  <object id="795" gid="16444" x="3537" y="414" width="16" height="16">
   <properties>
    <property name="bg layer" value="2"/>
    <property name="z index" type="int" value="12"/>
   </properties>
  </object>
  <object id="800" gid="3474" x="3712" y="416" width="16" height="16">
   <properties>
    <property name="bg layer" value="0"/>
   </properties>
  </object>
  <object id="801" gid="3474" x="3696" y="416" width="16" height="16">
   <properties>
    <property name="bg layer" value="0"/>
   </properties>
  </object>
  <object id="802" gid="3474" x="3680" y="416" width="16" height="16">
   <properties>
    <property name="bg layer" value="0"/>
   </properties>
  </object>
  <object id="807" gid="16393" x="3840" y="288" width="16" height="16">
   <properties>
    <property name="color channel" value="4"/>
   </properties>
  </object>
  <object id="810" gid="16393" x="4016" y="272" width="16" height="16">
   <properties>
    <property name="color channel" value="4"/>
   </properties>
  </object>
  <object id="811" gid="16393" x="4048" y="288" width="16" height="16">
   <properties>
    <property name="color channel" value="4"/>
   </properties>
  </object>
  <object id="812" gid="16393" x="4080" y="304" width="16" height="16">
   <properties>
    <property name="color channel" value="4"/>
   </properties>
  </object>
  <object id="819" gid="16393" x="4437" y="301" width="16" height="16">
   <properties>
    <property name="color channel" value="4"/>
   </properties>
  </object>
  <object id="816" gid="3473" x="4437" y="317" width="16" height="16"/>
  <object id="818" gid="16522" x="4437" y="333" width="16" height="16">
   <properties>
    <property name="bg layer" value="0"/>
    <property name="vflip" type="bool" value="true"/>
   </properties>
  </object>
  <object id="820" gid="16389" x="3808" y="417" width="16" height="16">
   <properties>
    <property name="bg layer" value="2"/>
    <property name="color channel" value="4"/>
   </properties>
  </object>
  <object id="823" gid="16389" x="3984" y="417" width="16" height="16">
   <properties>
    <property name="bg layer" value="2"/>
    <property name="color channel" value="4"/>
   </properties>
  </object>
  <object id="825" gid="16389" x="4176" y="417" width="16" height="16">
   <properties>
    <property name="bg layer" value="2"/>
    <property name="color channel" value="4"/>
   </properties>
  </object>
  <object id="826" gid="16389" x="4416" y="417" width="16" height="16">
   <properties>
    <property name="bg layer" value="2"/>
    <property name="color channel" value="4"/>
   </properties>
  </object>
  <object id="827" gid="16389" x="4512" y="417" width="16" height="16">
   <properties>
    <property name="bg layer" value="2"/>
    <property name="color channel" value="4"/>
   </properties>
  </object>
  <object id="828" gid="16389" x="4608" y="417" width="16" height="16">
   <properties>
    <property name="bg layer" value="2"/>
    <property name="color channel" value="4"/>
   </properties>
  </object>
  <object id="821" gid="16504" x="3836" y="416" width="16" height="16">
   <properties>
    <property name="bg layer" value="2"/>
    <property name="color channel" value="4"/>
   </properties>
  </object>
  <object id="822" gid="16505" x="3952" y="416" width="16" height="16">
   <properties>
    <property name="bg layer" value="2"/>
    <property name="color channel" value="4"/>
   </properties>
  </object>
  <object id="824" gid="16390" x="4096" y="417" width="16" height="16">
   <properties>
    <property name="bg layer" value="2"/>
    <property name="color channel" value="4"/>
   </properties>
  </object>
  <object id="830" gid="16388" x="0" y="272" width="16" height="16">
   <properties>
    <property name="Channel" value="1"/>
    <property name="Color" type="color" value="#ff098a00"/>
    <property name="Color Blending" type="bool" value="true"/>
   </properties>
  </object>
  <object id="875" gid="16388" x="976" y="272" width="16" height="16">
   <properties>
    <property name="Channel" value="1"/>
    <property name="Color" type="color" value="#ff2f0052"/>
    <property name="Color Blending" type="bool" value="true"/>
    <property name="Frames" type="int" value="90"/>
   </properties>
  </object>
  <object id="887" gid="16388" x="1240" y="272" width="16" height="16">
   <properties>
    <property name="Channel" value="1"/>
    <property name="Color" type="color" value="#ff098a00"/>
    <property name="Color Blending" type="bool" value="true"/>
    <property name="Frames" type="int" value="0"/>
   </properties>
  </object>
  <object id="908" gid="16388" x="1443" y="272" width="16" height="16">
   <properties>
    <property name="Channel" value="1"/>
    <property name="Color" type="color" value="#ff098a00"/>
    <property name="Color Blending" type="bool" value="true"/>
    <property name="Frames" type="int" value="60"/>
   </properties>
  </object>
  <object id="977" gid="16388" x="2691" y="272" width="16" height="16">
   <properties>
    <property name="Channel" value="1"/>
    <property name="Color" type="color" value="#ff098a00"/>
    <property name="Color Blending" type="bool" value="true"/>
    <property name="Frames" type="int" value="60"/>
   </properties>
  </object>
  <object id="941" gid="16388" x="2077" y="272" width="16" height="16">
   <properties>
    <property name="Channel" value="1"/>
    <property name="Color" type="color" value="#ff098a00"/>
    <property name="Color Blending" type="bool" value="true"/>
    <property name="Frames" type="int" value="60"/>
   </properties>
  </object>
  <object id="962" gid="16388" x="2417" y="272" width="16" height="16">
   <properties>
    <property name="Channel" value="1"/>
    <property name="Color" type="color" value="#ff098a00"/>
    <property name="Color Blending" type="bool" value="true"/>
    <property name="Frames" type="int" value="60"/>
   </properties>
  </object>
  <object id="925" gid="16388" x="2275" y="272" width="16" height="16">
   <properties>
    <property name="Channel" value="1"/>
    <property name="Color" type="color" value="#ff098a00"/>
    <property name="Color Blending" type="bool" value="true"/>
    <property name="Frames" type="int" value="36"/>
   </properties>
  </object>
  <object id="990" gid="16388" x="2927" y="272" width="16" height="16">
   <properties>
    <property name="Channel" value="1"/>
    <property name="Color" type="color" value="#ff098a00"/>
    <property name="Color Blending" type="bool" value="true"/>
    <property name="Frames" type="int" value="36"/>
   </properties>
  </object>
  <object id="914" gid="16388" x="1376" y="272" width="16" height="16">
   <properties>
    <property name="Channel" value="1"/>
    <property name="Color" type="color" value="#ffffd200"/>
    <property name="Color Blending" type="bool" value="true"/>
    <property name="Frames" type="int" value="12"/>
   </properties>
  </object>
  <object id="976" gid="16388" x="2624" y="272" width="16" height="16">
   <properties>
    <property name="Channel" value="1"/>
    <property name="Color" type="color" value="#ffffd200"/>
    <property name="Color Blending" type="bool" value="true"/>
    <property name="Frames" type="int" value="12"/>
   </properties>
  </object>
  <object id="940" gid="16388" x="2010" y="272" width="16" height="16">
   <properties>
    <property name="Channel" value="1"/>
    <property name="Color" type="color" value="#ff00f9ff"/>
    <property name="Color Blending" type="bool" value="true"/>
    <property name="Frames" type="int" value="12"/>
   </properties>
  </object>
  <object id="1004" gid="16388" x="3272" y="272" width="16" height="16">
   <properties>
    <property name="Channel" value="1"/>
    <property name="Color" type="color" value="#ff48e2ff"/>
    <property name="Color Blending" type="bool" value="false"/>
    <property name="Frames" type="int" value="0"/>
   </properties>
  </object>
  <object id="1011" gid="16388" x="3288" y="272" width="16" height="16">
   <properties>
    <property name="Channel" value="1"/>
    <property name="Color" type="color" value="#ff003f4e"/>
    <property name="Color Blending" type="bool" value="false"/>
    <property name="Frames" type="int" value="180"/>
   </properties>
  </object>
  <object id="963" gid="16388" x="2384" y="272" width="16" height="16">
   <properties>
    <property name="Channel" value="1"/>
    <property name="Color" type="color" value="#ff0ecf00"/>
    <property name="Color Blending" type="bool" value="true"/>
    <property name="Frames" type="int" value="6"/>
   </properties>
  </object>
  <object id="924" gid="16388" x="2208" y="272" width="16" height="16">
   <properties>
    <property name="Channel" value="1"/>
    <property name="Color" type="color" value="#ffffd200"/>
    <property name="Color Blending" type="bool" value="true"/>
    <property name="Frames" type="int" value="12"/>
   </properties>
  </object>
  <object id="991" gid="16388" x="2860" y="272" width="16" height="16">
   <properties>
    <property name="Channel" value="1"/>
    <property name="Color" type="color" value="#ffffd200"/>
    <property name="Color Blending" type="bool" value="true"/>
    <property name="Frames" type="int" value="12"/>
   </properties>
  </object>
  <object id="831" gid="16388" x="0" y="288" width="16" height="16">
   <properties>
    <property name="Channel" value="2"/>
    <property name="Color" type="color" value="#ff004d05"/>
    <property name="Color Blending" type="bool" value="true"/>
   </properties>
  </object>
  <object id="874" gid="16388" x="976" y="288" width="16" height="16">
   <properties>
    <property name="Channel" value="2"/>
    <property name="Color" type="color" value="#ff1f0039"/>
    <property name="Color Blending" type="bool" value="true"/>
    <property name="Frames" type="int" value="90"/>
   </properties>
  </object>
  <object id="886" gid="16388" x="1240" y="288" width="16" height="16">
   <properties>
    <property name="Channel" value="2"/>
    <property name="Color" type="color" value="#ff004d05"/>
    <property name="Color Blending" type="bool" value="true"/>
    <property name="Frames" type="int" value="0"/>
   </properties>
  </object>
  <object id="907" gid="16388" x="1443" y="288" width="16" height="16">
   <properties>
    <property name="Channel" value="2"/>
    <property name="Color" type="color" value="#ff004d05"/>
    <property name="Color Blending" type="bool" value="true"/>
    <property name="Frames" type="int" value="60"/>
   </properties>
  </object>
  <object id="975" gid="16388" x="2691" y="288" width="16" height="16">
   <properties>
    <property name="Channel" value="2"/>
    <property name="Color" type="color" value="#ff004d05"/>
    <property name="Color Blending" type="bool" value="true"/>
    <property name="Frames" type="int" value="60"/>
   </properties>
  </object>
  <object id="939" gid="16388" x="2077" y="288" width="16" height="16">
   <properties>
    <property name="Channel" value="2"/>
    <property name="Color" type="color" value="#ff004d05"/>
    <property name="Color Blending" type="bool" value="true"/>
    <property name="Frames" type="int" value="60"/>
   </properties>
  </object>
  <object id="960" gid="16388" x="2417" y="288" width="16" height="16">
   <properties>
    <property name="Channel" value="2"/>
    <property name="Color" type="color" value="#ff004d05"/>
    <property name="Color Blending" type="bool" value="true"/>
    <property name="Frames" type="int" value="60"/>
   </properties>
  </object>
  <object id="923" gid="16388" x="2275" y="288" width="16" height="16">
   <properties>
    <property name="Channel" value="2"/>
    <property name="Color" type="color" value="#ff004d05"/>
    <property name="Color Blending" type="bool" value="true"/>
    <property name="Frames" type="int" value="36"/>
   </properties>
  </object>
  <object id="988" gid="16388" x="2927" y="288" width="16" height="16">
   <properties>
    <property name="Channel" value="2"/>
    <property name="Color" type="color" value="#ff004d05"/>
    <property name="Color Blending" type="bool" value="true"/>
    <property name="Frames" type="int" value="36"/>
   </properties>
  </object>
  <object id="913" gid="16388" x="1376" y="288" width="16" height="16">
   <properties>
    <property name="Channel" value="2"/>
    <property name="Color" type="color" value="#ffff8200"/>
    <property name="Color Blending" type="bool" value="true"/>
    <property name="Frames" type="int" value="12"/>
   </properties>
  </object>
  <object id="974" gid="16388" x="2624" y="288" width="16" height="16">
   <properties>
    <property name="Channel" value="2"/>
    <property name="Color" type="color" value="#ffff8200"/>
    <property name="Color Blending" type="bool" value="true"/>
    <property name="Frames" type="int" value="12"/>
   </properties>
  </object>
  <object id="938" gid="16388" x="2010" y="288" width="16" height="16">
   <properties>
    <property name="Channel" value="2"/>
    <property name="Color" type="color" value="#ff00d6e5"/>
    <property name="Color Blending" type="bool" value="true"/>
    <property name="Frames" type="int" value="12"/>
   </properties>
  </object>
  <object id="1003" gid="16388" x="3272" y="288" width="16" height="16">
   <properties>
    <property name="Channel" value="2"/>
    <property name="Color" type="color" value="#ff00bfe4"/>
    <property name="Color Blending" type="bool" value="false"/>
    <property name="Frames" type="int" value="0"/>
   </properties>
  </object>
  <object id="1010" gid="16388" x="3288" y="288" width="16" height="16">
   <properties>
    <property name="Channel" value="2"/>
    <property name="Color" type="color" value="#ff002f39"/>
    <property name="Color Blending" type="bool" value="false"/>
    <property name="Frames" type="int" value="180"/>
   </properties>
  </object>
  <object id="961" gid="16388" x="2384" y="288" width="16" height="16">
   <properties>
    <property name="Channel" value="2"/>
    <property name="Color" type="color" value="#ff007406"/>
    <property name="Color Blending" type="bool" value="true"/>
    <property name="Frames" type="int" value="6"/>
   </properties>
  </object>
  <object id="922" gid="16388" x="2208" y="288" width="16" height="16">
   <properties>
    <property name="Channel" value="2"/>
    <property name="Color" type="color" value="#ffff8200"/>
    <property name="Color Blending" type="bool" value="true"/>
    <property name="Frames" type="int" value="12"/>
   </properties>
  </object>
  <object id="989" gid="16388" x="2860" y="288" width="16" height="16">
   <properties>
    <property name="Channel" value="2"/>
    <property name="Color" type="color" value="#ffff8200"/>
    <property name="Color Blending" type="bool" value="true"/>
    <property name="Frames" type="int" value="12"/>
   </properties>
  </object>
  <object id="832" gid="16388" x="0" y="320" width="16" height="16">
   <properties>
    <property name="Channel" value="4"/>
    <property name="Color" type="color" value="#ff000000"/>
    <property name="Color Blending" type="bool" value="true"/>
    <property name="Copy color" type="bool" value="true"/>
    <property name="Copy from channel" value="P1"/>
   </properties>
  </object>
  <object id="915" gid="16388" x="984" y="320" width="16" height="16">
   <properties>
    <property name="Channel" value="4"/>
    <property name="Color" type="color" value="#ff000000"/>
    <property name="Color Blending" type="bool" value="true"/>
    <property name="Copy color" type="bool" value="true"/>
    <property name="Copy from channel" value="BG"/>
   </properties>
  </object>
  <object id="833" gid="16388" x="0" y="208" width="16" height="16">
   <properties>
    <property name="Channel" value="LINE"/>
    <property name="Color" type="color" value="#ff00ff04"/>
    <property name="Color Blending" type="bool" value="true"/>
   </properties>
  </object>
  <object id="835" gid="16388" x="97" y="208" width="16" height="16">
   <properties>
    <property name="Channel" value="LINE"/>
    <property name="Color" type="color" value="#ff00ff04"/>
    <property name="Color Blending" type="bool" value="true"/>
    <property name="Frames" type="int" value="60"/>
   </properties>
  </object>
  <object id="852" gid="16388" x="401" y="208" width="16" height="16">
   <properties>
    <property name="Channel" value="LINE"/>
    <property name="Color" type="color" value="#ff00ff04"/>
    <property name="Color Blending" type="bool" value="true"/>
    <property name="Frames" type="int" value="60"/>
   </properties>
  </object>
  <object id="862" gid="16388" x="722" y="208" width="16" height="16">
   <properties>
    <property name="Channel" value="LINE"/>
    <property name="Color" type="color" value="#ff00ff04"/>
    <property name="Color Blending" type="bool" value="true"/>
    <property name="Frames" type="int" value="60"/>
   </properties>
  </object>
  <object id="884" gid="16388" x="1025" y="208" width="16" height="16">
   <properties>
    <property name="Channel" value="LINE"/>
    <property name="Color" type="color" value="#ff6c00c6"/>
    <property name="Color Blending" type="bool" value="true"/>
    <property name="Frames" type="int" value="102"/>
   </properties>
  </object>
  <object id="873" gid="16388" x="976" y="208" width="16" height="16">
   <properties>
    <property name="Channel" value="LINE"/>
    <property name="Color" type="color" value="#ff6c00c6"/>
    <property name="Color Blending" type="bool" value="true"/>
    <property name="Frames" type="int" value="120"/>
   </properties>
  </object>
  <object id="891" gid="16388" x="1240" y="208" width="16" height="16">
   <properties>
    <property name="Channel" value="LINE"/>
    <property name="Color" type="color" value="#ff14ff00"/>
    <property name="Color Blending" type="bool" value="true"/>
    <property name="Frames" type="int" value="0"/>
   </properties>
  </object>
  <object id="912" gid="16388" x="1443" y="208" width="16" height="16">
   <properties>
    <property name="Channel" value="LINE"/>
    <property name="Color" type="color" value="#ff14ff00"/>
    <property name="Color Blending" type="bool" value="true"/>
    <property name="Frames" type="int" value="60"/>
   </properties>
  </object>
  <object id="984" gid="16388" x="2691" y="208" width="16" height="16">
   <properties>
    <property name="Channel" value="LINE"/>
    <property name="Color" type="color" value="#ff14ff00"/>
    <property name="Color Blending" type="bool" value="true"/>
    <property name="Frames" type="int" value="60"/>
   </properties>
  </object>
  <object id="948" gid="16388" x="2077" y="208" width="16" height="16">
   <properties>
    <property name="Channel" value="LINE"/>
    <property name="Color" type="color" value="#ff14ff00"/>
    <property name="Color Blending" type="bool" value="true"/>
    <property name="Frames" type="int" value="60"/>
   </properties>
  </object>
  <object id="970" gid="16388" x="2417" y="208" width="16" height="16">
   <properties>
    <property name="Channel" value="LINE"/>
    <property name="Color" type="color" value="#ff14ff00"/>
    <property name="Color Blending" type="bool" value="true"/>
    <property name="Frames" type="int" value="60"/>
   </properties>
  </object>
  <object id="934" gid="16388" x="1811" y="208" width="16" height="16">
   <properties>
    <property name="Channel" value="LINE"/>
    <property name="Color" type="color" value="#ff14ff00"/>
    <property name="Color Blending" type="bool" value="true"/>
    <property name="Frames" type="int" value="60"/>
   </properties>
  </object>
  <object id="1000" gid="16388" x="3069" y="208" width="16" height="16">
   <properties>
    <property name="Channel" value="LINE"/>
    <property name="Color" type="color" value="#ff14ff00"/>
    <property name="Color Blending" type="bool" value="true"/>
    <property name="Frames" type="int" value="60"/>
   </properties>
  </object>
  <object id="956" gid="16388" x="2354" y="208" width="16" height="16">
   <properties>
    <property name="Channel" value="LINE"/>
    <property name="Color" type="color" value="#ff14ff00"/>
    <property name="Color Blending" type="bool" value="true"/>
    <property name="Frames" type="int" value="30"/>
   </properties>
  </object>
  <object id="834" gid="16388" x="80" y="208" width="16" height="16">
   <properties>
    <property name="Channel" value="LINE"/>
    <property name="Color" type="color" value="#ffb3ff00"/>
    <property name="Color Blending" type="bool" value="true"/>
   </properties>
  </object>
  <object id="853" gid="16388" x="384" y="208" width="16" height="16">
   <properties>
    <property name="Channel" value="LINE"/>
    <property name="Color" type="color" value="#ffb3ff00"/>
    <property name="Color Blending" type="bool" value="true"/>
   </properties>
  </object>
  <object id="863" gid="16388" x="705" y="208" width="16" height="16">
   <properties>
    <property name="Channel" value="LINE"/>
    <property name="Color" type="color" value="#ffb3ff00"/>
    <property name="Color Blending" type="bool" value="true"/>
   </properties>
  </object>
  <object id="885" gid="16388" x="1008" y="208" width="16" height="16">
   <properties>
    <property name="Channel" value="LINE"/>
    <property name="Color" type="color" value="#ffb3ff00"/>
    <property name="Color Blending" type="bool" value="true"/>
   </properties>
  </object>
  <object id="905" gid="16388" x="1376" y="208" width="16" height="16">
   <properties>
    <property name="Channel" value="LINE"/>
    <property name="Color" type="color" value="#fffff100"/>
    <property name="Color Blending" type="bool" value="true"/>
    <property name="Frames" type="int" value="12"/>
   </properties>
  </object>
  <object id="985" gid="16388" x="2624" y="208" width="16" height="16">
   <properties>
    <property name="Channel" value="LINE"/>
    <property name="Color" type="color" value="#fffff100"/>
    <property name="Color Blending" type="bool" value="true"/>
    <property name="Frames" type="int" value="12"/>
   </properties>
  </object>
  <object id="949" gid="16388" x="2010" y="208" width="16" height="16">
   <properties>
    <property name="Channel" value="LINE"/>
    <property name="Color" type="color" value="#ffffffff"/>
    <property name="Color Blending" type="bool" value="true"/>
    <property name="Frames" type="int" value="12"/>
   </properties>
  </object>
  <object id="1008" gid="16388" x="3272" y="208" width="16" height="16">
   <properties>
    <property name="Channel" value="LINE"/>
    <property name="Color" type="color" value="#fffafeff"/>
    <property name="Color Blending" type="bool" value="true"/>
    <property name="Frames" type="int" value="0"/>
   </properties>
  </object>
  <object id="1017" gid="16388" x="3728" y="208" width="16" height="16">
   <properties>
    <property name="Channel" value="LINE"/>
    <property name="Color" type="color" value="#ff000000"/>
    <property name="Color Blending" type="bool" value="true"/>
    <property name="Frames" type="int" value="60"/>
   </properties>
  </object>
  <object id="1015" gid="16388" x="3288" y="208" width="16" height="16">
   <properties>
    <property name="Channel" value="LINE"/>
    <property name="Color" type="color" value="#ff00e0ff"/>
    <property name="Color Blending" type="bool" value="true"/>
    <property name="Frames" type="int" value="60"/>
   </properties>
  </object>
  <object id="971" gid="16388" x="2384" y="208" width="16" height="16">
   <properties>
    <property name="Channel" value="LINE"/>
    <property name="Color" type="color" value="#fffff100"/>
    <property name="Color Blending" type="bool" value="true"/>
    <property name="Frames" type="int" value="6"/>
   </properties>
  </object>
  <object id="935" gid="16388" x="1744" y="208" width="16" height="16">
   <properties>
    <property name="Channel" value="LINE"/>
    <property name="Color" type="color" value="#fffff100"/>
    <property name="Color Blending" type="bool" value="true"/>
    <property name="Frames" type="int" value="12"/>
   </properties>
  </object>
  <object id="1001" gid="16388" x="3002" y="208" width="16" height="16">
   <properties>
    <property name="Channel" value="LINE"/>
    <property name="Color" type="color" value="#fffff100"/>
    <property name="Color Blending" type="bool" value="true"/>
    <property name="Frames" type="int" value="12"/>
   </properties>
  </object>
  <object id="957" gid="16388" x="2304" y="208" width="16" height="16">
   <properties>
    <property name="Channel" value="LINE"/>
    <property name="Color" type="color" value="#fffff100"/>
    <property name="Color Blending" type="bool" value="true"/>
    <property name="Frames" type="int" value="12"/>
   </properties>
  </object>
  <object id="836" gid="16388" x="80" y="224" width="16" height="16">
   <properties>
    <property name="Channel" value="BG"/>
    <property name="Color" type="color" value="#ff1b5123"/>
   </properties>
  </object>
  <object id="851" gid="16388" x="384" y="224" width="16" height="16">
   <properties>
    <property name="Channel" value="BG"/>
    <property name="Color" type="color" value="#ff0c8100"/>
   </properties>
  </object>
  <object id="860" gid="16388" x="705" y="224" width="16" height="16">
   <properties>
    <property name="Channel" value="BG"/>
    <property name="Color" type="color" value="#ff0c8100"/>
   </properties>
  </object>
  <object id="882" gid="16388" x="1008" y="224" width="16" height="16">
   <properties>
    <property name="Channel" value="BG"/>
    <property name="Color" type="color" value="#ff0c8100"/>
   </properties>
  </object>
  <object id="902" gid="16388" x="1376" y="224" width="16" height="16">
   <properties>
    <property name="Channel" value="BG"/>
    <property name="Color" type="color" value="#ffff5100"/>
    <property name="Frames" type="int" value="12"/>
   </properties>
  </object>
  <object id="983" gid="16388" x="2614" y="224" width="16" height="16">
   <properties>
    <property name="Channel" value="BG"/>
    <property name="Color" type="color" value="#ffff5100"/>
    <property name="Frames" type="int" value="12"/>
   </properties>
  </object>
  <object id="947" gid="16388" x="2010" y="224" width="16" height="16">
   <properties>
    <property name="Channel" value="BG"/>
    <property name="Color" type="color" value="#ff00bbff"/>
    <property name="Frames" type="int" value="12"/>
   </properties>
  </object>
  <object id="1007" gid="16388" x="3272" y="224" width="16" height="16">
   <properties>
    <property name="Channel" value="BG"/>
    <property name="Color" type="color" value="#ff13ddff"/>
    <property name="Frames" type="int" value="0"/>
   </properties>
  </object>
  <object id="1016" gid="16388" x="3744" y="224" width="16" height="16">
   <properties>
    <property name="Channel" value="BG"/>
    <property name="Color" type="color" value="#ff008598"/>
    <property name="Frames" type="int" value="0"/>
   </properties>
  </object>
  <object id="1019" gid="16388" x="3744" y="320" width="16" height="16">
   <properties>
    <property name="Channel" value="4"/>
    <property name="Color" type="color" value="#ff00ceff"/>
    <property name="Color Blending" type="bool" value="true"/>
    <property name="Frames" type="int" value="23"/>
   </properties>
  </object>
  <object id="1018" gid="16388" x="3777" y="224" width="16" height="16">
   <properties>
    <property name="Channel" value="BG"/>
    <property name="Color" type="color" value="#ff000000"/>
    <property name="Frames" type="int" value="120"/>
   </properties>
  </object>
  <object id="1014" gid="16388" x="3288" y="224" width="16" height="16">
   <properties>
    <property name="Channel" value="BG"/>
    <property name="Color" type="color" value="#ff000000"/>
    <property name="Frames" type="int" value="240"/>
   </properties>
  </object>
  <object id="968" gid="16388" x="2384" y="224" width="16" height="16">
   <properties>
    <property name="Channel" value="BG"/>
    <property name="Color" type="color" value="#ffff5100"/>
    <property name="Frames" type="int" value="6"/>
   </properties>
  </object>
  <object id="933" gid="16388" x="1744" y="224" width="16" height="16">
   <properties>
    <property name="Channel" value="BG"/>
    <property name="Color" type="color" value="#ffff5100"/>
    <property name="Frames" type="int" value="12"/>
   </properties>
  </object>
  <object id="998" gid="16388" x="3002" y="224" width="16" height="16">
   <properties>
    <property name="Channel" value="BG"/>
    <property name="Color" type="color" value="#ffff5100"/>
    <property name="Frames" type="int" value="12"/>
   </properties>
  </object>
  <object id="954" gid="16388" x="2304" y="224" width="16" height="16">
   <properties>
    <property name="Channel" value="BG"/>
    <property name="Color" type="color" value="#ffff5100"/>
    <property name="Frames" type="int" value="12"/>
   </properties>
  </object>
  <object id="840" gid="16388" x="97" y="224" width="16" height="16">
   <properties>
    <property name="Channel" value="BG"/>
    <property name="Color" type="color" value="#ff323232"/>
    <property name="Frames" type="int" value="60"/>
   </properties>
  </object>
  <object id="850" gid="16388" x="401" y="224" width="16" height="16">
   <properties>
    <property name="Channel" value="BG"/>
    <property name="Color" type="color" value="#ff323232"/>
    <property name="Frames" type="int" value="60"/>
   </properties>
  </object>
  <object id="861" gid="16388" x="722" y="224" width="16" height="16">
   <properties>
    <property name="Channel" value="BG"/>
    <property name="Color" type="color" value="#ff323232"/>
    <property name="Frames" type="int" value="60"/>
   </properties>
  </object>
  <object id="883" gid="16388" x="1025" y="224" width="16" height="16">
   <properties>
    <property name="Channel" value="BG"/>
    <property name="Color" type="color" value="#ff000000"/>
    <property name="Frames" type="int" value="162"/>
   </properties>
  </object>
  <object id="872" gid="16388" x="976" y="224" width="16" height="16">
   <properties>
    <property name="Channel" value="BG"/>
    <property name="Color" type="color" value="#ff000000"/>
    <property name="Frames" type="int" value="180"/>
   </properties>
  </object>
  <object id="890" gid="16388" x="1240" y="224" width="16" height="16">
   <properties>
    <property name="Channel" value="BG"/>
    <property name="Color" type="color" value="#ff2aff13"/>
    <property name="Frames" type="int" value="0"/>
   </properties>
  </object>
  <object id="911" gid="16388" x="1443" y="224" width="16" height="16">
   <properties>
    <property name="Channel" value="BG"/>
    <property name="Color" type="color" value="#ff006d00"/>
    <property name="Frames" type="int" value="60"/>
   </properties>
  </object>
  <object id="982" gid="16388" x="2681" y="224" width="16" height="16">
   <properties>
    <property name="Channel" value="BG"/>
    <property name="Color" type="color" value="#ff006d00"/>
    <property name="Frames" type="int" value="60"/>
   </properties>
  </object>
  <object id="946" gid="16388" x="2077" y="224" width="16" height="16">
   <properties>
    <property name="Channel" value="BG"/>
    <property name="Color" type="color" value="#ff006d00"/>
    <property name="Frames" type="int" value="60"/>
   </properties>
  </object>
  <object id="969" gid="16388" x="2417" y="224" width="16" height="16">
   <properties>
    <property name="Channel" value="BG"/>
    <property name="Color" type="color" value="#ff006d00"/>
    <property name="Frames" type="int" value="60"/>
   </properties>
  </object>
  <object id="932" gid="16388" x="1811" y="224" width="16" height="16">
   <properties>
    <property name="Channel" value="BG"/>
    <property name="Color" type="color" value="#ff006d00"/>
    <property name="Frames" type="int" value="60"/>
   </properties>
  </object>
  <object id="999" gid="16388" x="3069" y="224" width="16" height="16">
   <properties>
    <property name="Channel" value="BG"/>
    <property name="Color" type="color" value="#ff006d00"/>
    <property name="Frames" type="int" value="60"/>
   </properties>
  </object>
  <object id="955" gid="16388" x="2354" y="224" width="16" height="16">
   <properties>
    <property name="Channel" value="BG"/>
    <property name="Color" type="color" value="#ff006d00"/>
    <property name="Frames" type="int" value="30"/>
   </properties>
  </object>
  <object id="895" gid="16388" x="1256" y="224" width="16" height="16">
   <properties>
    <property name="Channel" value="BG"/>
    <property name="Color" type="color" value="#ff006d00"/>
    <property name="Frames" type="int" value="60"/>
   </properties>
  </object>
  <object id="837" gid="16388" x="80" y="240" width="16" height="16">
   <properties>
    <property name="Channel" value="GROUND"/>
    <property name="Color" type="color" value="#ff376d30"/>
   </properties>
  </object>
  <object id="849" gid="16388" x="384" y="240" width="16" height="16">
   <properties>
    <property name="Channel" value="GROUND"/>
    <property name="Color" type="color" value="#ff1f851a"/>
   </properties>
  </object>
  <object id="858" gid="16388" x="705" y="240" width="16" height="16">
   <properties>
    <property name="Channel" value="GROUND"/>
    <property name="Color" type="color" value="#ff1f851a"/>
   </properties>
  </object>
  <object id="880" gid="16388" x="1008" y="240" width="16" height="16">
   <properties>
    <property name="Channel" value="GROUND"/>
    <property name="Color" type="color" value="#ff1f851a"/>
   </properties>
  </object>
  <object id="900" gid="16388" x="1376" y="240" width="16" height="16">
   <properties>
    <property name="Channel" value="GROUND"/>
    <property name="Color" type="color" value="#ffff7000"/>
    <property name="Frames" type="int" value="12"/>
   </properties>
  </object>
  <object id="981" gid="16388" x="2624" y="240" width="16" height="16">
   <properties>
    <property name="Channel" value="GROUND"/>
    <property name="Color" type="color" value="#ffff8b00"/>
    <property name="Frames" type="int" value="12"/>
   </properties>
  </object>
  <object id="945" gid="16388" x="2010" y="240" width="16" height="16">
   <properties>
    <property name="Channel" value="GROUND"/>
    <property name="Color" type="color" value="#ff00d8ff"/>
    <property name="Frames" type="int" value="12"/>
   </properties>
  </object>
  <object id="1006" gid="16388" x="3272" y="240" width="16" height="16">
   <properties>
    <property name="Channel" value="GROUND"/>
    <property name="Color" type="color" value="#ff003946"/>
    <property name="Frames" type="int" value="0"/>
   </properties>
  </object>
  <object id="1013" gid="16388" x="3288" y="240" width="16" height="16">
   <properties>
    <property name="Channel" value="GROUND"/>
    <property name="Color" type="color" value="#ff000000"/>
    <property name="Frames" type="int" value="0"/>
   </properties>
  </object>
  <object id="966" gid="16388" x="2384" y="240" width="16" height="16">
   <properties>
    <property name="Channel" value="GROUND"/>
    <property name="Color" type="color" value="#ffff7600"/>
    <property name="Frames" type="int" value="6"/>
   </properties>
  </object>
  <object id="931" gid="16388" x="1744" y="240" width="16" height="16">
   <properties>
    <property name="Channel" value="GROUND"/>
    <property name="Color" type="color" value="#ffff7000"/>
    <property name="Frames" type="int" value="12"/>
   </properties>
  </object>
  <object id="996" gid="16388" x="3002" y="240" width="16" height="16">
   <properties>
    <property name="Channel" value="GROUND"/>
    <property name="Color" type="color" value="#ffff7600"/>
    <property name="Frames" type="int" value="12"/>
   </properties>
  </object>
  <object id="952" gid="16388" x="2304" y="240" width="16" height="16">
   <properties>
    <property name="Channel" value="GROUND"/>
    <property name="Color" type="color" value="#ffff7600"/>
    <property name="Frames" type="int" value="12"/>
   </properties>
  </object>
  <object id="841" gid="16388" x="97" y="240" width="16" height="16">
   <properties>
    <property name="Channel" value="GROUND"/>
    <property name="Color" type="color" value="#ff3f3f3f"/>
    <property name="Frames" type="int" value="60"/>
   </properties>
  </object>
  <object id="848" gid="16388" x="401" y="240" width="16" height="16">
   <properties>
    <property name="Channel" value="GROUND"/>
    <property name="Color" type="color" value="#ff3f3f3f"/>
    <property name="Frames" type="int" value="60"/>
   </properties>
  </object>
  <object id="859" gid="16388" x="722" y="240" width="16" height="16">
   <properties>
    <property name="Channel" value="GROUND"/>
    <property name="Color" type="color" value="#ff3f3f3f"/>
    <property name="Frames" type="int" value="60"/>
   </properties>
  </object>
  <object id="881" gid="16388" x="1025" y="240" width="16" height="16">
   <properties>
    <property name="Channel" value="GROUND"/>
    <property name="Color" type="color" value="#ff000000"/>
    <property name="Frames" type="int" value="162"/>
   </properties>
  </object>
  <object id="871" gid="16388" x="976" y="240" width="16" height="16">
   <properties>
    <property name="Channel" value="GROUND"/>
    <property name="Color" type="color" value="#ff000000"/>
    <property name="Frames" type="int" value="180"/>
   </properties>
  </object>
  <object id="889" gid="16388" x="1240" y="240" width="16" height="16">
   <properties>
    <property name="Channel" value="GROUND"/>
    <property name="Color" type="color" value="#ff14ff00"/>
    <property name="Frames" type="int" value="0"/>
   </properties>
  </object>
  <object id="910" gid="16388" x="1443" y="240" width="16" height="16">
   <properties>
    <property name="Channel" value="GROUND"/>
    <property name="Color" type="color" value="#ff023600"/>
    <property name="Frames" type="int" value="60"/>
   </properties>
  </object>
  <object id="980" gid="16388" x="2691" y="240" width="16" height="16">
   <properties>
    <property name="Channel" value="GROUND"/>
    <property name="Color" type="color" value="#ff023600"/>
    <property name="Frames" type="int" value="60"/>
   </properties>
  </object>
  <object id="944" gid="16388" x="2077" y="240" width="16" height="16">
   <properties>
    <property name="Channel" value="GROUND"/>
    <property name="Color" type="color" value="#ff023600"/>
    <property name="Frames" type="int" value="60"/>
   </properties>
  </object>
  <object id="967" gid="16388" x="2417" y="240" width="16" height="16">
   <properties>
    <property name="Channel" value="GROUND"/>
    <property name="Color" type="color" value="#ff023600"/>
    <property name="Frames" type="int" value="60"/>
   </properties>
  </object>
  <object id="930" gid="16388" x="1811" y="240" width="16" height="16">
   <properties>
    <property name="Channel" value="GROUND"/>
    <property name="Color" type="color" value="#ff023600"/>
    <property name="Frames" type="int" value="60"/>
   </properties>
  </object>
  <object id="997" gid="16388" x="3069" y="240" width="16" height="16">
   <properties>
    <property name="Channel" value="GROUND"/>
    <property name="Color" type="color" value="#ff023600"/>
    <property name="Frames" type="int" value="60"/>
   </properties>
  </object>
  <object id="953" gid="16388" x="2354" y="240" width="16" height="16">
   <properties>
    <property name="Channel" value="GROUND"/>
    <property name="Color" type="color" value="#ff023600"/>
    <property name="Frames" type="int" value="30"/>
   </properties>
  </object>
  <object id="894" gid="16388" x="1256" y="240" width="16" height="16">
   <properties>
    <property name="Channel" value="GROUND"/>
    <property name="Color" type="color" value="#ff023600"/>
    <property name="Frames" type="int" value="60"/>
   </properties>
  </object>
  <object id="838" gid="16388" x="80" y="256" width="16" height="16">
   <properties>
    <property name="Channel" value="OBJ"/>
    <property name="Color" type="color" value="#fff2ff00"/>
   </properties>
  </object>
  <object id="847" gid="16388" x="384" y="256" width="16" height="16">
   <properties>
    <property name="Channel" value="OBJ"/>
    <property name="Color" type="color" value="#fff2ff00"/>
   </properties>
  </object>
  <object id="856" gid="16388" x="705" y="256" width="16" height="16">
   <properties>
    <property name="Channel" value="OBJ"/>
    <property name="Color" type="color" value="#fff2ff00"/>
   </properties>
  </object>
  <object id="878" gid="16388" x="1008" y="256" width="16" height="16">
   <properties>
    <property name="Channel" value="OBJ"/>
    <property name="Color" type="color" value="#fff2ff00"/>
   </properties>
  </object>
  <object id="898" gid="16388" x="1376" y="256" width="16" height="16">
   <properties>
    <property name="Channel" value="OBJ"/>
    <property name="Color" type="color" value="#fffff100"/>
    <property name="Frames" type="int" value="12"/>
   </properties>
  </object>
  <object id="979" gid="16388" x="2624" y="256" width="16" height="16">
   <properties>
    <property name="Channel" value="OBJ"/>
    <property name="Color" type="color" value="#fffff100"/>
    <property name="Frames" type="int" value="12"/>
   </properties>
  </object>
  <object id="943" gid="16388" x="2010" y="256" width="16" height="16">
   <properties>
    <property name="Channel" value="OBJ"/>
    <property name="Color" type="color" value="#ffffffff"/>
    <property name="Frames" type="int" value="12"/>
   </properties>
  </object>
  <object id="1005" gid="16388" x="3272" y="256" width="16" height="16">
   <properties>
    <property name="Channel" value="OBJ"/>
    <property name="Color" type="color" value="#ffffffff"/>
    <property name="Frames" type="int" value="0"/>
   </properties>
  </object>
  <object id="1012" gid="16388" x="3288" y="256" width="16" height="16">
   <properties>
    <property name="Channel" value="OBJ"/>
    <property name="Color" type="color" value="#ff00e4ff"/>
    <property name="Frames" type="int" value="240"/>
   </properties>
  </object>
  <object id="964" gid="16388" x="2384" y="256" width="16" height="16">
   <properties>
    <property name="Channel" value="OBJ"/>
    <property name="Color" type="color" value="#fff9ff00"/>
    <property name="Frames" type="int" value="6"/>
   </properties>
  </object>
  <object id="929" gid="16388" x="1744" y="256" width="16" height="16">
   <properties>
    <property name="Channel" value="OBJ"/>
    <property name="Color" type="color" value="#fffff100"/>
    <property name="Frames" type="int" value="12"/>
   </properties>
  </object>
  <object id="994" gid="16388" x="3002" y="256" width="16" height="16">
   <properties>
    <property name="Channel" value="OBJ"/>
    <property name="Color" type="color" value="#fff9ff00"/>
    <property name="Frames" type="int" value="12"/>
   </properties>
  </object>
  <object id="950" gid="16388" x="2304" y="256" width="16" height="16">
   <properties>
    <property name="Channel" value="OBJ"/>
    <property name="Color" type="color" value="#fff9ff00"/>
    <property name="Frames" type="int" value="12"/>
   </properties>
  </object>
  <object id="927" gid="16388" x="2208" y="256" width="16" height="16">
   <properties>
    <property name="Channel" value="OBJ"/>
    <property name="Color" type="color" value="#fff9ff00"/>
    <property name="Frames" type="int" value="12"/>
   </properties>
  </object>
  <object id="992" gid="16388" x="2860" y="256" width="16" height="16">
   <properties>
    <property name="Channel" value="OBJ"/>
    <property name="Color" type="color" value="#fff9ff00"/>
    <property name="Frames" type="int" value="12"/>
   </properties>
  </object>
  <object id="842" gid="16388" x="97" y="256" width="16" height="16">
   <properties>
    <property name="Channel" value="OBJ"/>
    <property name="Color" type="color" value="#ff14ff00"/>
    <property name="Frames" type="int" value="60"/>
   </properties>
  </object>
  <object id="846" gid="16388" x="401" y="256" width="16" height="16">
   <properties>
    <property name="Channel" value="OBJ"/>
    <property name="Color" type="color" value="#ff14ff00"/>
    <property name="Frames" type="int" value="60"/>
   </properties>
  </object>
  <object id="857" gid="16388" x="722" y="256" width="16" height="16">
   <properties>
    <property name="Channel" value="OBJ"/>
    <property name="Color" type="color" value="#ff14ff00"/>
    <property name="Frames" type="int" value="60"/>
   </properties>
  </object>
  <object id="879" gid="16388" x="1025" y="256" width="16" height="16">
   <properties>
    <property name="Channel" value="OBJ"/>
    <property name="Color" type="color" value="#ff36007b"/>
    <property name="Frames" type="int" value="72"/>
   </properties>
  </object>
  <object id="870" gid="16388" x="976" y="256" width="16" height="16">
   <properties>
    <property name="Channel" value="OBJ"/>
    <property name="Color" type="color" value="#ff36007b"/>
    <property name="Frames" type="int" value="90"/>
   </properties>
  </object>
  <object id="888" gid="16388" x="1240" y="256" width="16" height="16">
   <properties>
    <property name="Channel" value="OBJ"/>
    <property name="Color" type="color" value="#ffebff00"/>
    <property name="Frames" type="int" value="0"/>
   </properties>
  </object>
  <object id="909" gid="16388" x="1443" y="256" width="16" height="16">
   <properties>
    <property name="Channel" value="OBJ"/>
    <property name="Color" type="color" value="#ff14ff00"/>
    <property name="Frames" type="int" value="60"/>
   </properties>
  </object>
  <object id="978" gid="16388" x="2691" y="256" width="16" height="16">
   <properties>
    <property name="Channel" value="OBJ"/>
    <property name="Color" type="color" value="#ff14ff00"/>
    <property name="Frames" type="int" value="60"/>
   </properties>
  </object>
  <object id="942" gid="16388" x="2077" y="256" width="16" height="16">
   <properties>
    <property name="Channel" value="OBJ"/>
    <property name="Color" type="color" value="#ff14ff00"/>
    <property name="Frames" type="int" value="60"/>
   </properties>
  </object>
  <object id="965" gid="16388" x="2417" y="256" width="16" height="16">
   <properties>
    <property name="Channel" value="OBJ"/>
    <property name="Color" type="color" value="#ff14ff00"/>
    <property name="Frames" type="int" value="60"/>
   </properties>
  </object>
  <object id="928" gid="16388" x="1811" y="256" width="16" height="16">
   <properties>
    <property name="Channel" value="OBJ"/>
    <property name="Color" type="color" value="#ff14ff00"/>
    <property name="Frames" type="int" value="60"/>
   </properties>
  </object>
  <object id="995" gid="16388" x="3069" y="256" width="16" height="16">
   <properties>
    <property name="Channel" value="OBJ"/>
    <property name="Color" type="color" value="#ff14ff00"/>
    <property name="Frames" type="int" value="60"/>
   </properties>
  </object>
  <object id="951" gid="16388" x="2354" y="256" width="16" height="16">
   <properties>
    <property name="Channel" value="OBJ"/>
    <property name="Color" type="color" value="#ff14ff00"/>
    <property name="Frames" type="int" value="30"/>
   </properties>
  </object>
  <object id="926" gid="16388" x="2275" y="256" width="16" height="16">
   <properties>
    <property name="Channel" value="OBJ"/>
    <property name="Color" type="color" value="#ff14ff00"/>
    <property name="Frames" type="int" value="36"/>
   </properties>
  </object>
  <object id="993" gid="16388" x="2927" y="256" width="16" height="16">
   <properties>
    <property name="Channel" value="OBJ"/>
    <property name="Color" type="color" value="#ff14ff00"/>
    <property name="Frames" type="int" value="36"/>
   </properties>
  </object>
  <object id="893" gid="16388" x="1256" y="256" width="16" height="16">
   <properties>
    <property name="Channel" value="OBJ"/>
    <property name="Color" type="color" value="#ff14ff00"/>
    <property name="Frames" type="int" value="30"/>
   </properties>
  </object>
  <object id="839" gid="16388" x="80" y="304" width="16" height="16">
   <properties>
    <property name="Channel" value="3"/>
    <property name="Color" type="color" value="#ff00ff18"/>
   </properties>
  </object>
  <object id="845" gid="16388" x="384" y="304" width="16" height="16">
   <properties>
    <property name="Channel" value="3"/>
    <property name="Color" type="color" value="#ff00ff18"/>
   </properties>
  </object>
  <object id="854" gid="16388" x="705" y="304" width="16" height="16">
   <properties>
    <property name="Channel" value="3"/>
    <property name="Color" type="color" value="#ff00ff18"/>
   </properties>
  </object>
  <object id="876" gid="16388" x="1008" y="304" width="16" height="16">
   <properties>
    <property name="Channel" value="3"/>
    <property name="Color" type="color" value="#ff00ff18"/>
   </properties>
  </object>
  <object id="896" gid="16388" x="1376" y="304" width="16" height="16">
   <properties>
    <property name="Channel" value="3"/>
    <property name="Color" type="color" value="#fff9ff00"/>
    <property name="Frames" type="int" value="12"/>
   </properties>
  </object>
  <object id="973" gid="16388" x="2624" y="304" width="16" height="16">
   <properties>
    <property name="Channel" value="3"/>
    <property name="Color" type="color" value="#fff9ff00"/>
    <property name="Frames" type="int" value="12"/>
   </properties>
  </object>
  <object id="937" gid="16388" x="2010" y="304" width="16" height="16">
   <properties>
    <property name="Channel" value="3"/>
    <property name="Color" type="color" value="#ffffffff"/>
    <property name="Frames" type="int" value="12"/>
   </properties>
  </object>
  <object id="1002" gid="16388" x="3272" y="304" width="16" height="16">
   <properties>
    <property name="Channel" value="3"/>
    <property name="Color" type="color" value="#ffffffff"/>
    <property name="Frames" type="int" value="0"/>
   </properties>
  </object>
  <object id="1009" gid="16388" x="3288" y="304" width="16" height="16">
   <properties>
    <property name="Channel" value="3"/>
    <property name="Color" type="color" value="#ff00f1ff"/>
    <property name="Frames" type="int" value="180"/>
   </properties>
  </object>
  <object id="921" gid="16388" x="2208" y="304" width="16" height="16">
   <properties>
    <property name="Channel" value="3"/>
    <property name="Color" type="color" value="#fff9ff00"/>
    <property name="Frames" type="int" value="12"/>
   </properties>
  </object>
  <object id="986" gid="16388" x="2860" y="304" width="16" height="16">
   <properties>
    <property name="Channel" value="3"/>
    <property name="Color" type="color" value="#fff9ff00"/>
    <property name="Frames" type="int" value="12"/>
   </properties>
  </object>
  <object id="892" gid="16388" x="1240" y="304" width="16" height="16">
   <properties>
    <property name="Channel" value="3"/>
    <property name="Color" type="color" value="#ff10ff00"/>
   </properties>
  </object>
  <object id="906" gid="16388" x="1443" y="304" width="16" height="16">
   <properties>
    <property name="Channel" value="3"/>
    <property name="Color" type="color" value="#ff10ff00"/>
    <property name="Frames" type="int" value="60"/>
   </properties>
  </object>
  <object id="972" gid="16388" x="2691" y="304" width="16" height="16">
   <properties>
    <property name="Channel" value="3"/>
    <property name="Color" type="color" value="#ff10ff00"/>
    <property name="Frames" type="int" value="60"/>
   </properties>
  </object>
  <object id="936" gid="16388" x="2077" y="304" width="16" height="16">
   <properties>
    <property name="Channel" value="3"/>
    <property name="Color" type="color" value="#ff10ff00"/>
    <property name="Frames" type="int" value="60"/>
   </properties>
  </object>
  <object id="920" gid="16388" x="2275" y="304" width="16" height="16">
   <properties>
    <property name="Channel" value="3"/>
    <property name="Color" type="color" value="#ff10ff00"/>
    <property name="Frames" type="int" value="36"/>
   </properties>
  </object>
  <object id="987" gid="16388" x="2927" y="304" width="16" height="16">
   <properties>
    <property name="Channel" value="3"/>
    <property name="Color" type="color" value="#ff10ff00"/>
    <property name="Frames" type="int" value="36"/>
   </properties>
  </object>
  <object id="843" gid="16388" x="97" y="304" width="16" height="16">
   <properties>
    <property name="Channel" value="3"/>
    <property name="Color" type="color" value="#ff000000"/>
    <property name="Frames" type="int" value="60"/>
   </properties>
  </object>
  <object id="844" gid="16388" x="401" y="304" width="16" height="16">
   <properties>
    <property name="Channel" value="3"/>
    <property name="Color" type="color" value="#ff000000"/>
    <property name="Frames" type="int" value="60"/>
   </properties>
  </object>
  <object id="855" gid="16388" x="722" y="304" width="16" height="16">
   <properties>
    <property name="Channel" value="3"/>
    <property name="Color" type="color" value="#ff000000"/>
    <property name="Frames" type="int" value="60"/>
   </properties>
  </object>
  <object id="877" gid="16388" x="1025" y="304" width="16" height="16">
   <properties>
    <property name="Channel" value="3"/>
    <property name="Color" type="color" value="#ff000000"/>
    <property name="Frames" type="int" value="60"/>
   </properties>
  </object>
 </objectgroup>
</map>
