<?xml version="1.0" encoding="UTF-8"?>
<map version="1.10" tiledversion="1.11.2" orientation="orthogonal" renderorder="right-down" width="310" height="27" tilewidth="16" tileheight="16" infinite="0" nextlayerid="8" nextobjectid="713">
 <editorsettings>
  <export format="json"/>
 </editorsettings>
 <properties>
  <property name="BG" type="color" value="#ff8e8e8e"/>
  <property name="Background Type" type="int" value="0"/>
  <property name="COL1" type="color" value="#ffffffff"/>
  <property name="COL2" type="color" value="#ff8e8e8e"/>
  <property name="COL3" type="color" value="#ffffffff"/>
  <property name="COL4" type="color" value="#ff000000"/>
  <property name="Difficulty" value="NORMAL"/>
  <property name="GROUND" type="color" value="#ff3a3a3a"/>
  <property name="Gamemode" type="int" value="0"/>
  <property name="Ground Type" type="int" value="0"/>
  <property name="Level name" value="MACHINA"/>
  <property name="OBJ" type="color" value="#ffffffff"/>
  <property name="Song" value="STEREOMA"/>
  <property name="Speed" type="int" value="1"/>
  <property name="Stars" type="int" value="3"/>
 </properties>
 <tileset firstgid="1" source="famidash.tsx"/>
 <tileset firstgid="16385" source="sprites.tsx"/>
 <layer id="4" name="l2" width="310" height="27" visible="0">
  <data encoding="csv">
894,894,894,894,894,894,894,894,894,894,894,894,894,894,894,894,894,894,894,894,894,894,894,894,894,894,894,894,894,894,894,894,894,894,894,894,894,894,894,894,894,894,894,894,894,894,894,894,894,894,894,894,894,894,894,894,894,894,894,894,894,894,894,894,894,894,894,894,894,894,894,894,894,894,894,894,894,894,894,894,894,894,894,894,894,894,894,894,894,894,894,894,894,894,894,894,894,894,894,894,894,894,894,894,894,894,894,894,894,894,894,894,894,894,894,894,894,894,894,894,894,894,894,894,894,894,894,894,894,894,894,894,894,894,894,894,894,894,894,894,894,894,894,894,894,894,894,894,894,894,894,894,894,894,894,894,894,894,894,894,894,894,894,894,894,894,894,894,894,894,894,894,894,894,894,894,894,894,894,894,894,894,894,894,894,894,894,894,894,894,894,894,894,894,894,894,894,894,894,894,894,894,894,894,894,894,894,894,894,894,894,894,894,894,894,894,894,894,894,894,894,894,894,894,894,894,894,894,894,894,894,894,894,894,894,894,894,894,894,894,894,894,894,894,894,894,894,894,894,894,894,894,894,894,894,894,894,894,894,894,894,894,894,894,894,894,894,894,894,894,894,894,894,894,894,894,894,894,894,894,894,894,894,894,894,894,894,894,894,894,894,894,894,894,894,894,894,894,894,894,894,894,894,894,894,894,894,894,894,894,
894,894,894,894,894,894,894,894,894,894,894,894,894,894,894,894,894,894,894,894,894,894,894,894,894,894,894,894,894,894,894,894,894,894,894,894,894,894,894,894,894,894,894,894,894,894,894,894,894,894,894,894,894,894,894,894,894,894,894,894,894,894,894,894,894,894,894,894,894,894,894,894,894,894,894,894,894,894,894,894,894,894,894,894,894,894,894,894,894,894,894,894,894,894,894,894,894,894,894,894,894,894,894,894,894,894,894,894,894,894,894,894,894,894,894,894,894,894,894,894,894,894,894,894,894,894,894,894,894,894,894,894,894,894,894,894,894,894,894,894,894,894,894,894,894,894,894,894,894,894,894,894,894,894,894,894,894,894,894,894,894,894,894,894,894,894,894,894,894,894,894,894,894,894,894,894,894,894,894,894,894,894,894,894,894,894,894,894,894,894,894,894,894,894,894,894,894,894,894,894,894,894,894,894,894,894,894,894,894,894,894,894,894,894,894,894,894,894,894,894,894,894,894,894,894,894,894,894,894,894,894,894,894,894,894,894,894,894,894,894,894,894,894,894,894,894,894,894,894,894,894,894,894,894,894,894,894,894,894,894,894,894,894,894,894,894,894,894,894,894,894,894,894,894,894,894,894,894,894,894,894,894,894,894,894,894,894,894,894,894,894,894,894,894,894,894,894,894,894,894,894,894,894,894,894,894,894,894,894,894,
894,894,894,894,894,894,894,894,894,894,894,894,894,894,894,894,894,894,894,894,894,894,894,894,894,894,894,894,894,894,894,894,894,894,894,894,894,894,894,894,894,894,894,894,894,894,894,894,894,894,894,894,894,894,894,894,894,894,894,894,894,894,894,894,894,894,894,894,894,894,894,894,894,894,894,894,894,894,894,894,894,894,894,894,894,894,894,894,894,894,894,894,894,894,894,894,894,894,894,894,894,894,894,894,894,894,894,894,894,894,894,894,894,894,894,894,894,894,894,894,894,894,894,894,894,894,894,894,894,894,894,894,894,894,894,894,894,894,894,894,894,894,894,894,894,894,894,894,894,894,894,894,894,894,894,894,894,894,894,894,894,894,894,894,894,894,894,894,894,894,894,894,894,894,894,894,894,894,894,894,894,894,894,894,894,894,894,894,894,894,894,894,894,894,894,894,894,894,894,894,894,894,894,894,894,894,894,894,894,894,894,894,894,894,894,894,894,894,894,894,894,894,894,894,894,894,894,894,894,894,894,894,894,894,894,894,894,894,894,894,894,894,894,894,894,894,894,894,894,894,894,894,894,894,894,894,894,894,894,894,894,894,894,894,894,894,894,894,894,894,894,894,894,894,894,894,894,894,894,894,894,894,894,894,894,894,894,894,894,894,894,894,894,894,894,894,894,894,894,894,894,894,894,894,894,894,894,894,894,894,
894,894,894,894,894,894,894,894,894,894,894,894,894,894,894,894,894,894,894,894,894,894,894,894,894,894,894,894,894,894,894,894,894,894,894,894,894,894,894,894,894,894,894,894,894,894,894,894,894,894,894,894,894,894,894,894,894,894,894,894,894,894,894,894,894,894,894,894,894,894,894,894,894,894,894,894,894,894,894,894,894,894,894,894,894,894,894,894,894,894,894,894,894,894,894,894,894,894,894,894,894,894,894,894,894,894,894,894,894,894,894,894,894,894,894,894,894,894,894,894,894,894,894,894,894,894,894,894,894,894,894,894,894,894,894,894,894,894,894,894,894,894,894,894,894,894,894,894,894,894,894,894,894,894,894,894,894,894,894,894,894,894,894,894,894,894,894,894,894,894,894,894,894,894,894,894,894,894,894,894,894,894,894,894,894,894,894,894,894,894,894,894,894,894,894,894,894,894,894,894,894,894,894,894,894,894,894,894,894,894,894,894,894,894,894,894,894,894,894,894,894,894,894,894,894,894,894,894,894,894,894,894,894,894,894,894,894,894,894,894,894,894,894,894,894,894,894,894,894,894,894,894,894,894,894,894,894,894,894,894,894,894,894,894,894,894,894,894,894,894,894,894,894,894,894,894,894,894,894,894,894,894,894,894,894,894,894,894,894,894,894,894,894,894,894,894,894,894,894,894,894,894,894,894,894,894,894,894,894,894,
894,894,894,894,894,894,894,894,894,894,894,894,894,894,894,894,894,894,894,894,894,894,894,894,894,894,894,894,894,894,894,894,894,894,894,894,894,894,894,894,894,894,894,894,894,894,894,894,894,894,894,894,894,894,894,894,894,894,894,894,894,894,894,894,894,894,894,894,894,894,894,894,894,894,894,894,894,894,894,894,894,894,894,894,894,894,894,894,894,894,894,894,894,894,894,894,894,894,894,894,894,894,894,894,894,894,894,894,894,894,894,894,894,894,894,894,894,894,894,894,894,894,894,894,894,894,894,894,894,894,894,894,894,894,894,894,894,894,894,894,894,894,894,894,894,894,894,894,894,894,894,894,894,894,894,894,894,894,894,894,894,894,894,894,894,894,894,894,894,894,894,894,894,894,894,894,894,894,894,894,894,894,894,894,894,894,894,894,894,894,894,894,894,894,894,894,894,894,894,894,894,894,894,894,894,894,894,894,894,894,894,894,894,894,894,894,894,894,894,894,894,894,894,894,894,894,894,894,894,894,894,894,894,894,894,894,894,894,894,894,894,894,894,894,894,894,894,894,894,894,894,894,894,894,894,894,894,894,894,894,894,894,894,894,894,894,894,894,894,894,894,894,894,894,894,894,894,894,894,894,894,894,894,894,894,894,894,894,894,894,894,894,894,894,894,894,894,894,894,894,894,894,894,894,894,894,894,894,894,894,
894,894,894,894,894,894,894,894,894,894,894,894,894,894,894,894,894,894,894,894,894,894,894,894,894,894,894,894,894,894,894,894,894,894,894,894,894,894,894,894,894,894,894,894,894,894,894,894,894,894,894,894,894,894,894,894,894,894,894,894,894,894,894,894,894,894,894,894,894,894,894,894,894,894,894,894,894,894,894,894,894,894,894,894,894,894,894,894,894,894,894,894,894,894,894,894,894,894,894,894,894,894,894,894,894,894,894,894,894,894,894,894,894,894,894,894,894,894,894,894,894,894,894,894,894,894,894,894,894,894,894,894,894,894,894,894,894,894,894,894,894,894,894,894,894,894,894,894,894,894,894,894,894,894,894,894,894,894,894,894,894,894,894,894,894,894,894,894,894,894,894,894,894,894,894,894,894,894,894,894,894,894,894,894,894,894,894,894,894,894,894,894,894,894,894,894,894,894,894,894,894,894,894,894,894,894,894,894,894,894,894,894,894,894,894,894,894,894,894,894,894,894,894,894,894,894,894,894,894,894,894,894,894,894,894,894,894,894,894,894,894,894,894,894,894,894,894,894,894,894,894,894,894,894,894,894,894,894,894,894,894,894,894,894,894,894,894,894,894,894,894,894,894,894,894,894,894,894,894,894,894,894,894,894,894,894,894,894,894,894,894,894,894,894,894,894,894,894,894,894,894,894,894,894,894,894,894,894,894,894,
894,894,894,894,894,894,894,894,894,894,894,894,894,894,894,894,894,894,894,894,894,894,894,894,894,894,894,894,894,894,894,894,894,894,894,894,894,894,894,894,894,894,894,894,894,894,894,894,894,894,894,894,894,894,894,894,894,894,894,894,894,894,894,894,894,894,894,894,894,894,894,894,894,894,894,894,894,894,894,894,894,894,894,894,894,894,894,894,894,894,894,894,894,894,894,894,894,894,894,894,894,894,894,894,894,894,894,894,894,894,894,894,894,894,894,894,894,894,894,894,894,894,894,894,894,894,894,894,894,894,894,894,894,894,894,894,894,894,894,894,894,894,894,894,894,894,894,894,894,894,894,894,894,894,894,894,894,894,894,894,894,894,894,894,894,894,894,894,894,894,894,894,894,894,894,894,894,894,894,894,894,894,894,894,894,894,894,894,894,894,894,894,894,894,894,894,894,894,894,894,894,894,894,894,894,894,894,894,894,894,894,894,894,894,894,894,894,894,894,894,894,894,894,894,894,894,894,894,894,894,894,894,894,894,894,894,894,894,894,894,894,894,894,894,894,894,894,894,894,894,894,894,894,894,894,894,894,894,894,894,894,894,894,894,894,894,894,894,894,894,894,894,894,894,894,894,894,894,894,894,894,894,894,894,894,894,894,894,894,894,894,894,894,894,894,894,894,894,894,894,894,894,894,894,894,894,894,894,894,894,
894,894,894,894,894,894,894,894,894,894,894,894,894,894,894,894,894,894,894,894,894,894,894,894,894,894,894,894,894,894,894,894,894,894,894,894,894,894,894,894,894,894,894,894,894,894,894,894,894,894,894,894,894,894,894,894,894,894,894,894,894,894,894,894,894,894,894,894,894,894,894,894,894,894,894,894,894,894,894,894,894,894,894,894,894,894,894,894,894,894,894,894,894,894,894,894,894,894,894,894,894,894,894,894,894,894,894,894,894,894,894,894,894,894,894,894,894,894,894,894,894,894,894,894,894,894,894,894,894,894,894,894,894,894,894,894,894,894,894,894,894,894,894,894,894,894,894,894,894,894,894,894,894,894,894,894,894,894,894,894,894,894,894,894,894,894,894,894,894,894,894,894,894,894,894,894,894,894,894,894,894,894,894,894,894,894,894,894,894,894,894,894,894,894,894,894,894,894,894,894,894,894,894,894,894,894,894,894,894,894,894,894,894,894,894,894,894,894,894,894,894,894,894,894,894,894,894,894,894,894,894,894,894,894,894,894,894,894,894,894,894,894,894,894,894,894,894,894,894,894,894,894,894,894,894,894,894,894,894,894,894,894,894,894,894,894,894,894,894,894,894,894,894,894,894,894,894,894,894,894,894,894,894,894,894,894,894,894,894,894,894,894,894,894,894,894,894,894,894,894,894,894,894,894,894,894,894,894,894,894,
894,894,894,894,894,894,894,894,894,894,894,894,894,894,894,894,894,894,894,894,894,894,894,894,894,894,894,894,894,894,894,894,894,894,894,894,894,894,894,894,894,894,894,894,894,894,894,894,894,894,894,894,894,894,894,894,894,894,894,894,894,894,894,894,894,894,894,894,894,894,894,894,894,894,894,894,894,894,894,894,894,894,894,894,894,894,894,894,894,894,894,894,894,894,894,894,894,894,894,894,894,894,894,894,894,894,894,894,894,894,894,894,894,894,894,894,894,894,894,894,894,894,894,894,894,894,894,894,894,894,894,894,894,894,894,894,894,894,894,894,894,894,894,894,894,894,894,894,894,894,894,894,894,894,894,894,894,894,894,894,894,894,894,894,894,894,894,894,894,894,894,894,894,894,894,894,894,894,894,894,894,894,894,894,894,894,894,894,894,894,894,894,894,894,894,894,894,894,894,894,894,894,894,894,894,894,894,894,894,894,894,894,894,894,894,894,894,894,894,894,894,894,894,894,894,894,894,894,894,894,894,894,894,894,894,894,894,894,894,894,894,894,894,894,894,894,894,894,894,894,894,894,894,894,894,894,894,894,894,894,894,894,894,894,894,894,894,894,894,894,894,894,894,894,894,894,894,894,894,894,894,894,894,894,894,894,894,894,894,894,894,894,894,894,894,894,894,894,894,894,894,894,894,894,894,894,894,894,894,894,
894,894,894,894,894,894,894,894,894,894,894,894,894,894,894,894,894,894,894,894,894,894,894,894,894,894,894,894,894,894,894,894,894,894,894,894,894,894,894,894,894,894,894,894,894,894,894,894,894,894,894,894,894,894,894,894,894,894,894,894,894,894,894,894,894,894,894,894,894,894,894,894,894,894,894,894,894,894,894,894,894,894,894,894,894,894,894,894,894,894,894,894,894,894,894,894,894,894,894,894,894,894,894,894,894,894,894,894,894,894,894,894,894,894,894,894,894,894,894,894,894,894,894,894,894,894,894,894,894,894,894,894,894,894,894,894,894,894,894,894,894,894,894,894,894,894,894,894,894,894,894,894,894,894,894,894,894,894,894,894,894,894,894,894,894,894,894,894,894,894,894,894,894,894,894,894,894,894,894,894,894,894,894,894,894,894,894,894,894,894,894,894,894,894,894,894,894,894,894,894,894,894,894,894,894,894,894,894,894,894,894,894,894,894,894,894,894,894,894,894,894,894,894,894,894,894,894,894,894,894,894,894,894,894,894,894,894,894,894,894,894,894,894,894,894,894,894,894,894,894,894,894,894,894,894,894,894,894,894,894,894,894,894,894,894,894,894,894,894,894,894,894,894,894,894,894,894,894,894,894,894,894,894,894,894,894,894,894,894,894,894,894,894,894,894,894,894,894,894,894,894,894,894,894,894,894,894,894,894,894,
894,894,894,894,894,894,894,894,894,894,894,894,894,894,894,894,894,894,894,894,894,894,894,894,894,894,894,894,894,894,894,894,894,894,894,894,894,894,894,894,894,894,894,894,894,894,894,894,894,894,894,894,894,894,894,894,894,894,894,894,894,894,894,894,894,894,894,894,894,894,894,894,894,894,894,894,894,894,894,894,894,894,894,894,894,894,894,894,894,894,894,894,894,894,894,894,894,894,894,894,894,894,894,894,894,894,894,894,894,894,894,894,894,894,894,894,894,894,894,894,894,894,894,894,894,894,894,894,894,894,894,894,894,894,894,894,894,894,894,894,894,894,894,894,894,894,894,894,894,894,894,894,894,894,894,894,894,894,894,894,894,894,894,894,894,894,894,894,894,894,894,894,894,894,894,894,894,894,894,894,894,894,894,894,894,894,894,894,894,894,894,894,894,894,894,894,894,894,894,894,894,894,894,894,894,894,894,894,894,894,894,894,894,894,894,894,894,894,894,894,894,894,894,894,894,894,894,894,894,894,894,894,894,894,894,894,894,894,894,894,894,894,894,894,894,894,894,894,894,894,894,894,894,894,894,894,894,894,894,894,894,894,894,894,894,894,894,894,894,894,894,894,894,894,894,894,894,894,894,894,894,894,894,894,894,894,894,894,894,894,894,894,894,894,894,894,894,894,894,894,894,894,894,894,894,894,894,894,894,894,
894,894,894,894,894,894,894,894,894,894,894,894,894,894,894,894,894,894,894,894,894,894,894,894,894,894,894,894,894,894,894,894,894,894,894,894,894,894,894,894,894,894,894,894,894,894,894,894,894,894,894,894,894,894,894,894,894,894,894,894,894,894,894,894,894,894,894,894,894,894,894,894,894,894,894,894,894,894,894,894,894,894,894,894,894,894,894,894,894,894,894,894,894,894,894,894,894,894,894,894,894,894,894,894,894,894,894,894,894,894,894,894,894,894,894,894,894,894,894,894,894,894,894,894,894,894,894,894,894,894,894,894,894,894,894,894,894,894,894,894,894,894,894,894,894,894,894,894,894,894,894,894,894,894,894,894,894,894,894,894,894,894,894,894,894,894,894,894,894,894,894,894,894,894,894,894,894,894,894,894,894,894,894,894,894,894,894,894,894,894,894,894,894,894,894,894,894,894,894,894,894,894,894,894,894,894,894,894,894,894,894,894,894,894,894,894,894,894,894,894,894,894,894,894,894,894,894,894,894,894,894,894,894,894,894,894,894,894,894,894,894,894,894,894,894,894,894,894,894,894,894,894,894,894,894,894,894,894,894,894,894,894,894,894,894,894,894,894,894,894,894,894,894,894,894,894,894,894,894,894,894,894,894,894,894,894,894,894,894,894,894,894,894,894,894,894,894,894,894,894,894,894,894,894,894,894,894,894,894,894,
894,894,894,894,894,894,894,894,894,894,894,894,894,894,894,894,894,894,894,894,894,894,894,894,894,894,894,894,894,894,894,894,894,894,894,894,894,894,894,894,894,894,894,894,894,894,894,894,894,894,894,894,894,894,894,894,894,894,894,894,894,894,894,894,894,894,894,894,894,894,894,894,894,894,894,894,894,894,894,894,894,894,894,894,894,894,894,894,894,894,894,894,894,894,894,894,894,894,894,894,894,894,894,894,894,894,894,894,894,894,894,894,894,894,894,894,894,894,894,894,894,894,894,894,894,894,894,894,894,894,894,894,894,894,894,894,894,894,894,894,894,894,894,894,894,894,894,894,894,894,894,894,894,894,894,894,894,894,894,894,894,894,894,894,894,894,894,894,894,894,894,894,894,894,894,894,894,894,894,894,894,894,894,894,894,894,894,894,894,894,894,894,894,894,894,894,894,894,894,894,894,894,894,894,894,894,894,894,894,894,894,894,894,894,894,894,894,894,894,894,894,894,894,894,894,894,894,894,894,894,894,894,894,894,894,894,894,894,894,894,894,894,894,894,894,894,894,894,894,894,894,894,894,894,894,894,894,894,894,894,894,894,894,894,894,894,894,894,894,894,894,894,894,894,894,894,894,894,894,894,894,894,894,894,894,894,894,894,894,894,894,894,894,894,894,894,894,894,894,894,894,894,894,894,894,894,894,894,894,894,
894,894,894,894,894,894,894,894,894,894,894,894,894,894,894,894,894,894,894,894,894,894,894,894,894,894,894,894,894,894,894,894,894,894,894,894,894,894,894,894,894,894,894,894,894,894,894,894,894,894,894,894,894,894,894,894,894,894,894,894,894,894,894,894,894,894,894,894,894,894,894,894,894,894,894,894,894,894,894,894,894,894,894,894,894,894,894,894,894,894,894,894,894,894,894,894,894,894,894,894,894,894,894,894,894,894,894,894,894,894,894,894,894,894,894,894,894,894,894,894,894,894,894,894,894,894,894,894,894,894,894,894,894,894,894,894,894,894,894,894,894,894,894,894,894,894,894,894,894,894,894,894,894,894,894,894,894,894,894,894,894,894,894,894,894,894,894,894,894,894,894,894,894,894,894,894,894,894,894,894,894,894,894,894,894,894,894,894,894,894,894,894,894,894,894,894,894,894,894,894,894,894,894,894,894,894,894,894,894,894,894,894,894,894,894,894,894,894,894,894,894,894,894,894,894,894,894,894,894,894,894,894,894,894,894,894,894,894,894,894,894,894,894,894,894,894,894,894,894,894,894,894,894,894,894,894,894,894,894,894,894,894,894,894,894,894,894,894,894,894,894,894,894,894,894,894,894,894,894,894,894,894,894,894,894,894,894,894,894,894,894,894,894,894,894,894,894,894,894,894,894,894,894,894,894,894,894,894,894,894,
894,894,894,894,894,894,894,894,894,894,894,894,894,894,894,894,894,894,894,894,894,894,894,894,894,894,894,894,894,894,894,894,894,894,894,894,894,894,894,894,894,894,894,894,894,894,894,894,894,894,894,894,894,894,894,894,894,894,894,894,894,894,894,894,894,894,894,894,894,894,894,894,894,894,894,894,894,894,894,894,894,894,894,894,894,894,894,894,894,894,894,894,894,894,894,894,894,894,894,894,894,894,894,894,894,894,894,894,894,894,894,894,894,894,894,894,894,894,894,894,894,894,894,894,894,894,894,894,894,894,894,894,894,894,894,894,894,894,894,894,894,894,894,894,894,894,894,894,894,894,894,894,894,894,894,894,894,894,894,894,894,894,894,894,894,894,894,894,894,894,894,894,894,894,894,894,894,894,894,894,894,894,894,894,894,894,894,894,894,894,894,894,894,894,894,894,894,894,894,894,894,894,894,894,894,894,894,894,894,894,894,894,894,894,894,894,894,894,894,894,894,894,894,894,894,894,894,894,894,894,894,894,894,894,894,894,894,894,894,894,894,894,894,894,894,894,894,894,894,894,894,894,894,894,894,894,894,894,894,894,894,894,894,894,894,894,894,894,894,894,894,894,894,894,894,894,894,894,894,894,894,894,894,894,894,894,894,894,894,894,894,894,894,894,894,894,894,894,894,894,894,894,894,894,894,894,894,894,894,894,
894,894,894,894,894,894,894,894,894,894,894,894,894,894,894,894,894,894,894,894,894,894,894,894,894,894,894,894,894,894,894,894,894,894,894,894,894,894,894,894,894,894,894,894,894,894,894,894,894,894,894,894,894,894,894,894,894,894,894,894,894,894,894,894,894,894,894,894,894,894,894,894,894,894,894,894,894,894,894,894,894,894,894,894,894,894,894,894,894,894,894,894,894,894,894,894,894,894,894,894,894,894,894,894,894,894,894,894,894,894,894,894,894,894,894,894,894,894,894,894,894,894,894,894,894,894,894,894,894,894,894,894,894,894,894,894,894,894,894,894,894,894,894,894,894,894,894,894,894,894,894,894,894,894,894,894,894,894,894,894,894,894,894,894,894,894,894,894,894,894,894,894,894,894,894,894,894,894,894,894,894,894,894,894,894,894,894,894,894,894,894,894,894,894,894,894,894,894,894,894,894,894,894,894,894,894,894,894,894,894,894,894,894,894,894,894,894,894,894,894,894,894,894,894,894,894,894,894,894,894,894,894,894,894,894,894,894,894,894,894,894,894,894,894,894,894,894,894,894,894,894,894,894,894,894,894,894,894,894,894,894,894,894,894,894,894,894,894,894,894,894,894,894,894,894,894,894,894,894,894,894,894,894,894,894,894,894,894,894,894,894,894,894,894,894,894,894,894,894,894,894,894,894,894,894,894,894,894,894,894,
894,894,894,894,894,894,894,894,894,894,894,894,894,894,894,894,894,894,894,894,894,894,894,894,894,894,894,894,894,894,894,894,894,894,894,894,894,894,894,894,894,894,894,894,894,894,894,894,894,894,894,894,894,894,894,894,894,894,894,894,894,894,894,894,894,894,894,894,894,894,894,894,894,894,894,894,894,894,894,894,894,894,894,894,894,894,894,894,894,894,894,894,894,894,894,894,894,894,894,894,894,894,894,894,894,894,894,894,894,894,894,894,894,894,894,894,894,894,894,894,894,894,894,894,894,894,894,894,894,894,894,894,894,894,894,894,894,894,894,894,894,894,894,894,894,894,894,894,894,894,894,894,894,894,894,894,894,894,894,894,894,894,894,894,894,894,894,894,894,894,894,894,894,894,894,894,894,894,894,894,894,894,894,894,894,894,894,894,894,894,894,894,894,894,894,894,894,894,894,894,894,894,894,894,894,894,894,894,894,894,894,894,894,894,894,894,894,894,894,894,894,894,894,894,894,894,894,894,894,894,894,894,894,894,894,894,894,894,894,894,894,894,894,894,894,894,894,894,894,894,894,894,894,894,894,894,894,894,894,894,894,894,894,894,894,894,894,894,894,894,894,894,894,894,894,894,894,894,894,894,894,894,894,894,894,894,894,894,894,894,894,894,894,894,894,894,894,894,894,894,894,894,894,894,894,894,894,894,894,894,
894,894,894,894,894,894,894,894,894,894,894,894,894,894,894,894,894,894,894,894,894,894,894,894,894,894,894,894,894,894,894,894,894,894,894,894,894,894,894,894,894,894,894,894,894,894,894,894,894,894,894,894,894,894,894,894,894,894,894,894,894,894,894,894,894,894,894,894,894,894,894,894,894,894,894,894,894,894,894,894,894,894,894,894,894,894,894,894,894,894,894,894,894,894,894,894,894,894,894,894,894,894,894,894,894,894,894,894,894,894,894,894,894,894,894,894,894,894,894,894,894,894,894,894,894,894,894,894,894,894,894,894,894,894,894,894,894,894,894,894,894,894,894,894,894,894,894,894,894,894,894,894,894,894,894,894,894,894,894,894,894,894,894,894,894,894,894,894,894,894,894,894,894,894,894,894,894,894,894,894,894,894,894,894,894,894,894,894,894,894,894,894,894,894,894,894,894,894,894,894,894,894,894,894,894,894,894,894,894,894,894,894,894,894,894,894,894,894,894,894,894,894,894,894,894,894,894,894,894,894,894,894,894,894,894,894,894,894,894,894,894,894,894,894,894,894,894,894,894,894,894,894,894,894,894,894,894,894,894,894,894,894,894,894,894,894,894,894,894,894,894,894,894,894,894,894,894,894,894,894,894,894,894,894,894,894,894,894,894,894,894,894,894,894,894,894,894,894,894,894,894,894,894,894,894,894,894,894,894,894,
894,894,894,894,894,894,894,894,894,894,894,894,894,894,894,894,894,894,894,894,894,894,894,894,894,894,894,894,894,894,894,894,894,894,894,894,894,894,894,894,894,894,894,894,894,894,894,894,894,894,894,894,894,894,894,894,894,894,894,894,894,894,894,894,894,894,894,894,894,894,894,894,894,894,894,894,894,894,894,894,894,894,894,894,894,894,894,894,894,894,894,894,894,894,894,894,894,894,894,894,894,894,894,894,894,894,894,894,894,894,894,894,894,894,894,894,894,894,894,894,894,894,894,894,894,894,894,894,894,894,894,894,894,894,894,894,894,894,894,894,894,894,894,894,894,894,894,894,894,894,894,894,894,894,894,894,894,894,894,894,894,894,894,894,894,894,894,894,894,894,894,894,894,894,894,894,894,894,894,894,894,894,894,894,894,894,894,894,894,894,894,894,894,894,894,894,894,894,894,894,894,894,894,894,894,894,894,894,894,894,894,894,894,894,894,894,894,894,894,894,894,894,894,894,894,894,894,894,894,894,894,894,894,894,894,894,894,894,894,894,894,894,894,894,894,894,894,894,894,894,894,894,894,894,894,894,894,894,894,894,894,894,894,894,894,894,894,894,894,894,894,894,894,894,894,894,894,894,894,894,894,894,894,894,894,894,894,894,894,894,894,894,894,894,894,894,894,894,894,894,894,894,894,894,894,894,894,894,894,894,
894,894,894,894,894,894,894,894,894,894,894,894,894,894,894,894,894,894,894,894,894,894,894,894,894,894,894,894,894,894,894,894,894,894,894,894,894,894,894,894,894,894,894,894,894,894,894,894,894,894,894,894,894,894,894,894,894,894,894,894,894,894,894,894,894,894,894,894,894,894,894,894,894,894,894,894,894,894,894,894,894,894,894,894,894,894,894,894,894,894,894,894,894,894,894,894,894,894,894,894,894,894,894,894,894,894,894,894,894,894,894,894,894,894,894,894,894,894,894,894,894,894,894,894,894,894,894,894,894,894,894,894,894,894,894,894,894,894,894,894,894,894,894,894,894,894,894,894,894,894,894,894,894,894,894,894,894,894,894,894,894,894,894,894,894,894,894,894,894,894,894,894,894,894,894,894,894,894,894,894,894,894,894,894,894,894,894,894,894,894,894,894,894,894,894,894,894,894,894,894,894,894,894,894,894,894,894,894,894,894,894,894,894,894,894,894,894,894,894,894,894,894,894,894,894,894,894,894,894,894,894,894,894,894,894,894,894,894,894,894,894,894,894,894,894,894,894,894,894,894,894,894,894,894,894,894,894,894,894,894,894,894,894,894,894,894,894,894,894,894,894,894,894,894,894,894,894,894,894,894,894,894,894,894,894,894,894,894,894,894,894,894,894,894,894,894,894,894,894,894,894,894,894,894,894,894,894,894,894,894,
894,894,894,894,894,894,894,894,894,894,894,894,894,894,894,894,894,894,894,894,894,894,894,894,894,894,894,894,894,894,894,894,894,894,894,894,894,894,894,894,894,894,894,894,894,894,894,894,894,894,894,894,894,894,894,894,894,894,894,894,894,894,894,894,894,894,894,894,894,894,894,894,894,894,894,894,894,894,894,894,894,894,894,894,894,894,894,894,894,894,894,894,894,894,894,894,894,894,894,894,894,894,894,894,894,894,894,894,894,894,894,894,894,894,894,894,894,894,894,894,894,894,894,894,894,894,894,894,894,894,894,894,894,894,894,894,894,894,894,894,894,894,894,894,894,894,894,894,894,894,894,894,894,894,894,894,894,894,894,894,894,894,894,894,894,894,894,894,894,894,894,894,894,894,894,894,894,894,894,894,894,894,894,894,894,894,894,894,894,894,894,894,894,894,894,894,894,894,894,894,894,894,894,894,894,894,894,894,894,894,894,894,894,894,894,894,894,894,894,894,894,894,894,894,894,894,894,894,894,894,894,894,894,894,894,894,894,894,894,894,894,894,894,894,894,894,894,894,894,894,894,894,894,894,894,894,894,894,894,894,894,894,894,894,894,894,894,894,894,894,894,894,894,894,894,894,894,894,894,894,894,894,894,894,894,894,894,894,894,894,894,894,894,894,894,894,894,894,894,894,894,894,894,894,894,894,894,894,894,894,
894,894,894,894,894,894,894,894,894,894,894,894,894,894,894,894,894,894,894,894,894,894,894,894,894,894,894,894,894,894,894,894,894,894,894,894,894,894,894,894,894,894,894,894,894,894,894,894,894,894,894,894,894,894,894,894,894,894,894,894,894,894,894,894,894,894,894,894,894,894,894,894,894,894,894,894,894,894,894,894,894,894,894,894,894,894,894,894,894,894,894,894,894,894,894,894,894,894,894,894,894,894,894,894,894,894,894,894,894,894,894,894,894,894,894,894,894,894,894,894,894,894,894,894,894,894,894,894,894,894,894,894,894,894,894,894,894,894,894,894,894,894,894,894,894,894,894,894,894,894,894,894,894,894,894,894,894,894,894,894,894,894,894,894,894,894,894,894,894,894,894,894,894,894,894,894,894,894,894,894,894,894,894,894,894,894,894,894,894,894,894,894,894,894,894,894,894,894,894,894,894,894,894,894,894,894,894,894,894,894,894,894,894,894,894,894,894,894,894,894,894,894,894,894,894,894,894,894,894,894,894,894,894,894,894,894,894,894,894,894,894,894,894,894,894,894,894,894,894,894,894,894,894,894,894,894,894,894,894,894,894,894,894,894,894,894,894,894,894,894,894,894,894,894,894,894,894,894,894,894,894,894,894,894,894,894,894,894,894,894,894,894,894,894,894,894,894,894,894,894,894,894,894,894,894,894,894,894,894,894,
894,894,894,894,894,894,894,894,894,894,894,894,894,894,894,894,894,894,894,894,894,894,894,894,894,894,894,894,894,894,894,894,894,894,894,894,894,894,894,894,894,894,894,894,894,894,894,894,894,894,894,894,894,894,894,894,894,894,894,894,894,894,894,894,894,894,894,894,894,894,894,894,894,894,894,894,894,894,894,894,894,894,894,894,894,894,894,894,894,894,894,894,894,894,894,894,894,894,894,894,894,894,894,894,894,894,894,894,894,894,894,894,894,894,894,894,894,894,894,894,894,894,894,894,894,894,894,894,894,894,894,894,894,894,894,894,894,894,894,894,894,894,894,894,894,894,894,894,894,894,894,894,894,894,894,894,894,894,894,894,894,894,894,894,894,894,894,894,894,894,894,894,894,894,894,894,894,894,894,894,894,894,894,894,894,894,894,894,894,894,894,894,894,894,894,894,894,894,894,894,894,894,894,894,894,894,894,894,894,894,894,894,894,894,894,894,894,894,894,894,894,894,894,894,894,894,894,894,894,894,894,894,894,894,894,894,894,894,894,894,894,894,894,894,894,894,894,894,894,894,894,894,894,894,894,894,894,894,894,894,894,894,894,894,894,894,894,894,894,894,894,894,894,894,894,894,894,894,894,894,894,894,894,894,894,894,894,894,894,894,894,894,894,894,894,894,894,894,894,894,894,894,894,894,894,894,894,894,894,894,
894,894,894,894,894,894,894,894,894,894,894,894,894,894,894,894,894,894,894,894,894,894,894,894,894,894,894,894,894,894,894,894,894,894,894,894,894,894,894,894,894,894,894,894,894,894,894,894,894,894,894,894,894,894,894,894,894,894,894,894,894,894,894,894,894,894,894,894,894,894,894,894,894,894,894,894,894,894,894,894,894,894,894,894,894,894,894,894,894,894,894,894,894,894,894,894,894,894,894,894,894,894,894,894,894,894,894,894,894,894,894,894,894,894,894,894,894,894,894,894,894,894,894,894,894,894,894,894,894,894,894,894,894,894,894,894,894,894,894,894,894,894,894,894,894,894,894,894,894,894,894,894,894,894,894,894,894,894,894,894,894,894,894,894,894,894,894,894,894,894,894,894,894,894,894,894,894,894,894,894,894,894,894,894,894,894,894,894,894,894,894,894,894,894,894,894,894,894,894,894,894,894,894,894,894,894,894,894,894,894,894,894,894,894,894,894,894,894,894,894,894,894,894,894,894,894,894,894,894,894,894,894,894,894,894,894,894,894,894,894,894,894,894,894,894,894,894,894,894,894,894,894,894,894,894,894,894,894,894,894,894,894,894,894,894,894,894,894,894,894,894,894,894,894,894,894,894,894,894,894,894,894,894,894,894,894,894,894,894,894,894,894,894,894,894,894,894,894,894,894,894,894,894,894,894,894,894,894,894,894,
894,894,894,894,894,894,894,894,894,894,894,894,894,894,894,894,894,894,894,894,894,894,894,894,894,894,894,894,894,894,894,894,894,894,894,894,894,894,894,894,894,894,894,894,894,894,894,894,894,894,894,894,894,894,894,894,894,894,894,894,894,894,894,894,894,894,894,894,894,894,894,894,894,894,894,894,894,894,894,894,894,894,894,894,894,894,894,894,894,894,894,894,894,894,894,894,894,894,894,894,894,894,894,894,894,894,894,894,894,894,894,894,894,894,894,894,894,894,894,894,894,894,894,894,894,894,894,894,894,894,894,894,894,894,894,894,894,894,894,894,894,894,894,894,894,894,894,894,894,894,894,894,894,894,894,894,894,894,894,894,894,894,894,894,894,894,894,894,894,894,894,894,894,894,894,894,894,894,894,894,894,894,894,894,894,894,894,894,894,894,894,894,894,894,894,894,894,894,894,894,894,894,894,894,894,894,894,894,894,894,894,894,894,894,894,894,894,894,894,894,894,894,894,894,894,894,894,894,894,894,894,894,894,894,894,894,894,894,894,894,894,894,894,894,894,894,894,894,894,894,894,894,894,894,894,894,894,894,894,894,894,894,894,894,894,894,894,894,894,894,894,894,894,894,894,894,894,894,894,894,894,894,894,894,894,894,894,894,894,894,894,894,894,894,894,894,894,894,894,894,894,894,894,894,894,894,894,894,894,894,
894,894,894,894,894,894,894,894,894,894,894,894,894,894,894,894,894,894,894,894,894,894,894,894,894,894,894,894,894,894,894,894,894,894,894,894,894,894,894,894,894,894,894,894,894,894,894,894,894,894,894,894,894,894,894,894,894,894,894,894,894,894,894,894,894,894,894,894,894,894,894,894,894,894,894,894,894,894,894,894,894,894,894,894,894,894,894,894,894,894,894,894,894,894,894,894,894,894,894,894,894,894,894,894,894,894,894,894,894,894,894,894,894,894,894,894,894,894,894,894,894,894,894,894,894,894,894,894,894,894,894,894,894,894,894,894,894,894,894,894,894,894,894,894,894,894,894,894,894,894,894,894,894,894,894,894,894,894,894,894,894,894,894,894,894,894,894,894,894,894,894,894,894,894,894,894,894,894,894,894,894,894,894,894,894,894,894,894,894,894,894,894,894,894,894,894,894,894,894,894,894,894,894,894,894,894,894,894,894,894,894,894,894,894,894,894,894,894,894,894,894,894,894,894,894,894,894,894,894,894,894,894,894,894,894,894,894,894,894,894,894,894,894,894,894,894,894,894,894,894,894,894,894,894,894,894,894,894,894,894,894,894,894,894,894,894,894,894,894,894,894,894,894,894,894,894,894,894,894,894,894,894,894,894,894,894,894,894,894,894,894,894,894,894,894,894,894,894,894,894,894,894,894,894,894,894,894,894,894,894,
894,894,894,894,894,894,894,894,894,894,894,894,894,894,894,894,894,894,894,894,894,894,894,894,894,894,894,894,894,894,894,894,894,894,894,894,894,894,894,894,894,894,894,894,894,894,894,894,894,894,894,894,894,894,894,894,894,894,894,894,894,894,894,894,894,894,894,894,894,894,894,894,894,894,894,894,894,894,894,894,894,894,894,894,894,894,894,894,894,894,894,894,894,894,894,894,894,894,894,894,894,894,894,894,894,894,894,894,894,894,894,894,894,894,894,894,894,894,894,894,894,894,894,894,894,894,894,894,894,894,894,894,894,894,894,894,894,894,894,894,894,894,894,894,894,894,894,894,894,894,894,894,894,894,894,894,894,894,894,894,894,894,894,894,894,894,894,894,894,894,894,894,894,894,894,894,894,894,894,894,894,894,894,894,894,894,894,894,894,894,894,894,894,894,894,894,894,894,894,894,894,894,894,894,894,894,894,894,894,894,894,894,894,894,894,894,894,894,894,894,894,894,894,894,894,894,894,894,894,894,894,894,894,894,894,894,894,894,894,894,894,894,894,894,894,894,894,894,894,894,894,894,894,894,894,894,894,894,894,894,894,894,894,894,894,894,894,894,894,894,894,894,894,894,894,894,894,894,894,894,894,894,894,894,894,894,894,894,894,894,894,894,894,894,894,894,894,894,894,894,894,894,894,894,894,894,894,894,894,894
</data>
 </layer>
 <layer id="1" name="l1" width="310" height="27">
  <data encoding="csv">
1,1,1,1,1,1,1,1,1,1,1,1,1,1,1,1,1,1,1,1,1,1,1,1,1,1,1,1,1,1,1,1,1,1,1,1,1,1,1,1,1,1,1,1,1,1,1,1,1,1,1,1,1,1,1,1,1,1,1,1,1,1,1,1,1,1,1,1,1,1,1,1,1,1,1,1,1,1,1,1,1,1,1,1,1,1,1,1,1,1,1,1,1,1,1,1,1,1,1,1,1,1,1,1,1,1,1,1,1,1,1,1,1,1,1,1,1,1,1,1,1,1,1,1,1,1,1,1,1,1,1,1,1,1,1,1,1,1,1,1,1,1,1,1,1,1,1,1,1,1,1,1,1,1,1,1,1,1,1,1,1,1,1,1,1,1,1,1,1,1,1,1,1,1,1,1,1,1,1,1,1,1,1,1,1,1,1,1,1,1,1,1,1,1,1,1,1,1,1,1,1,1,1,1,1,1,1,1,1,1,1,1,1,1,1,1,1,1,1,1,1,1,1,1,1,1,1,1,1,1,1,1,1,1,1,1,1,1,1,1,1,1,1,1,1,1,1,1,1,1,1,1,1,1,1,1,1,1,1,1,1,1,1,1,1,1,1,1,1,1,1,1,1,1,1,1,1,1,1,1,1,1,1,1,1,1,1,1,1,1,1,1,1,1,1,1,1,1,1,1,1,1,1,1,1,1,1,1,1,58,
1,1,1,1,1,1,1,1,1,1,1,1,1,1,1,1,1,1,1,1,1,1,1,1,1,1,1,1,1,1,1,1,1,1,1,1,1,1,1,1,1,1,1,1,1,1,1,1,1,1,1,1,1,1,1,1,1,1,1,1,1,1,1,1,1,1,1,1,1,1,1,1,1,1,1,1,1,1,1,1,1,1,1,1,1,1,1,1,1,1,1,1,1,1,1,1,1,1,1,1,1,1,1,1,1,1,1,1,1,1,1,1,1,1,1,1,1,1,1,1,1,1,1,1,1,1,1,1,1,1,1,1,1,1,1,1,1,1,1,1,1,1,1,1,1,1,1,1,1,1,1,1,1,1,1,1,1,1,1,1,1,1,1,1,1,1,1,1,1,1,1,1,1,1,1,1,1,1,1,1,1,1,1,1,1,1,1,1,1,1,1,1,1,1,1,1,1,1,1,1,1,1,1,1,1,1,1,1,1,1,1,1,1,1,1,1,1,1,1,1,1,1,1,1,1,1,1,1,1,1,1,1,1,1,1,1,1,1,1,1,1,1,1,1,1,1,1,1,1,1,1,1,1,1,1,1,1,1,1,1,1,1,1,1,1,1,1,1,1,1,1,1,1,1,1,1,1,1,1,1,1,1,1,1,1,1,1,1,1,1,1,1,1,1,1,1,1,1,1,1,1,1,1,1,1,1,1,1,1,58,
1,1,1,1,1,1,1,1,1,1,1,1,1,1,1,1,1,1,1,1,1,1,1,1,1,1,1,1,1,1,1,1,1,1,1,1,1,1,1,1,1,1,1,1,1,1,1,1,1,1,1,1,1,1,1,1,1,1,1,1,1,1,1,1,1,1,1,1,1,1,1,1,1,1,1,1,1,1,1,1,1,1,1,1,1,1,1,1,1,1,1,1,1,1,1,1,1,1,1,1,1,1,1,1,1,1,1,1,1,1,1,1,1,1,1,1,1,1,1,1,1,1,1,1,1,1,1,1,1,1,1,1,1,1,1,1,1,1,1,1,1,1,1,1,1,1,1,1,1,1,1,1,1,1,1,1,1,1,1,1,1,1,1,1,1,1,1,1,1,1,1,1,1,1,1,1,1,1,1,1,1,1,1,1,1,1,1,1,1,1,1,1,1,1,1,1,1,1,1,1,1,1,1,1,1,1,1,1,1,1,1,1,1,1,1,1,1,1,1,1,1,1,1,1,1,1,1,1,1,1,1,1,1,1,1,1,1,1,1,1,1,1,1,1,1,1,1,1,1,1,1,1,1,1,1,1,1,1,1,1,1,1,1,1,1,1,1,1,1,1,1,1,1,1,1,1,1,1,1,1,1,1,1,1,1,1,1,1,1,1,1,1,1,1,1,1,1,1,1,1,1,1,1,1,1,1,1,1,1,58,
1,1,1,1,1,1,1,1,1,1,1,1,1,1,1,1,1,1,1,1,1,1,1,1,1,1,1,1,1,1,1,1,1,1,1,1,1,1,1,1,1,1,1,1,1,1,1,1,1,1,1,1,1,1,1,1,1,1,1,1,1,1,1,1,1,1,1,1,1,1,1,1,1,1,1,1,1,1,1,1,1,1,1,1,1,1,1,1,1,1,1,1,1,1,1,1,1,1,1,1,1,1,1,1,1,1,1,1,1,1,1,1,1,1,1,1,1,1,1,1,1,1,1,1,1,1,1,1,1,1,1,1,1,1,1,1,1,1,1,1,1,1,1,1,1,1,1,1,1,1,1,1,1,1,1,1,1,1,1,1,1,1,1,1,1,1,1,1,1,1,1,1,1,1,1,1,1,1,1,1,1,1,1,1,1,1,1,1,1,1,1,1,1,1,1,1,1,1,1,1,1,1,1,1,1,1,1,1,1,1,1,1,1,1,1,1,1,1,1,1,1,1,1,1,1,1,1,1,1,1,1,1,1,1,1,1,1,1,1,1,1,1,1,1,1,1,1,1,1,1,1,1,1,1,1,1,1,1,1,1,1,1,1,1,1,1,1,1,1,1,1,1,1,1,1,1,1,1,1,1,1,1,1,1,1,1,1,1,1,1,1,1,1,1,1,1,1,1,1,1,1,1,1,1,1,1,1,1,1,58,
1,1,1,1,1,1,1,1,1,1,1,1,1,1,1,1,1,1,1,1,1,1,1,1,1,1,1,1,1,1,1,1,1,1,1,1,1,1,1,1,1,1,1,1,1,1,1,1,1,1,1,1,1,1,1,1,1,1,1,1,1,1,1,1,1,1,1,1,1,1,1,1,1,1,1,1,1,1,1,1,1,1,1,1,1,1,1,1,1,1,1,1,1,1,1,1,1,1,1,1,1,1,1,1,1,1,1,1,1,1,1,1,1,1,1,1,1,1,1,1,1,1,1,1,1,1,1,1,1,1,1,1,1,1,1,1,1,1,1,1,1,1,1,1,1,1,1,1,1,1,1,1,1,1,1,1,1,1,1,1,1,1,1,1,1,1,1,1,1,1,1,1,1,1,1,1,1,1,1,1,1,1,1,1,1,1,1,1,1,1,1,1,1,1,1,1,1,1,1,1,1,1,1,1,1,1,1,1,1,1,1,1,1,1,1,1,1,1,1,1,1,1,1,1,1,1,1,1,1,1,1,1,1,1,1,1,1,1,1,1,1,1,1,1,1,1,1,1,1,1,1,1,1,1,1,1,1,1,1,1,1,1,1,1,1,1,1,1,1,1,1,1,1,1,1,1,1,1,1,1,1,1,1,1,1,1,1,1,1,1,1,1,1,1,1,1,1,1,1,1,1,1,1,1,1,1,1,1,1,58,
1,1,1,1,1,1,1,1,1,1,1,1,1,1,1,1,1,1,1,1,1,1,1,1,1,1,1,1,1,1,1,1,1,1,1,1,1,1,1,1,1,1,1,1,1,1,1,1,1,1,1,1,1,1,1,1,1,1,1,1,1,1,1,1,1,1,1,1,1,1,1,1,1,1,1,1,1,1,1,1,1,1,1,1,1,1,1,1,1,1,1,1,1,1,1,1,1,1,1,1,1,1,1,1,1,1,1,1,1,1,1,1,1,1,1,1,1,1,1,1,1,1,1,1,1,1,1,1,1,1,1,1,1,1,1,1,1,1,1,1,1,1,1,1,1,1,1,1,1,1,1,1,1,1,1,1,1,1,1,1,1,1,1,1,1,1,1,1,1,1,1,1,1,1,1,1,1,1,1,1,1,1,1,1,1,1,1,1,1,1,1,1,1,1,1,1,1,1,1,1,1,1,1,1,1,1,1,1,1,1,1,1,1,1,1,1,1,1,1,1,1,1,1,1,1,1,1,1,1,1,1,1,1,1,1,1,1,1,1,1,1,1,1,1,1,1,1,1,1,1,1,1,1,1,1,1,1,1,1,1,1,1,1,1,1,1,1,1,1,1,1,1,1,1,1,1,1,1,1,1,1,1,1,1,1,1,1,1,1,1,1,1,1,1,1,1,1,1,1,1,1,1,1,1,1,1,1,1,1,58,
1,1,1,1,1,1,1,1,1,1,1,1,1,1,1,1,1,1,1,1,1,1,1,1,1,1,1,1,1,1,1,1,1,1,1,1,1,1,1,1,1,1,1,1,1,1,1,1,1,1,1,1,1,1,1,1,1,1,1,1,1,1,1,1,1,1,1,1,1,1,1,1,1,1,1,1,1,1,1,1,1,1,1,1,1,1,1,1,1,1,1,1,1,1,1,1,1,1,1,1,1,1,1,1,1,1,1,1,1,1,1,1,1,1,1,1,1,1,1,1,1,1,1,1,1,1,1,1,1,1,1,1,1,1,1,1,1,1,1,1,1,1,1,1,1,1,1,1,1,1,1,1,1,1,1,1,1,1,1,1,1,1,1,1,1,1,1,1,1,1,1,1,1,1,1,1,1,1,1,1,1,1,1,1,1,1,1,1,1,1,1,1,1,1,1,1,1,1,1,1,1,1,1,1,1,1,1,1,1,1,1,1,1,1,1,1,1,1,1,1,1,1,1,1,1,1,1,1,1,1,1,1,1,1,1,1,1,1,1,1,1,1,1,1,1,1,1,1,1,1,1,1,1,1,1,1,1,1,1,1,1,1,1,1,1,1,1,1,1,1,1,1,1,1,1,1,1,1,1,1,1,1,1,1,1,1,1,1,1,1,1,1,1,1,1,1,1,1,1,1,1,1,1,1,1,1,1,1,1,58,
1,1,1,1,1,1,1,1,1,1,1,1,1,1,1,1,1,1,1,1,1,1,1,1,1,1,1,1,1,1,1,1,1,1,1,1,1,1,1,1,1,1,1,1,1,1,1,1,1,1,1,1,1,1,1,1,1,1,1,1,1,1,1,1,1,1,1,1,1,1,1,1,1,1,1,1,1,1,1,1,1,1,1,1,1,1,1,1,1,1,1,1,1,1,1,1,1,1,1,1,1,1,1,1,1,1,1,1,1,1,1,1,1,1,1,1,1,1,1,1,1,1,1,1,1,1,1,1,1,1,1,1,1,1,1,1,1,1,1,1,1,1,1,1,1,1,1,1,1,1,1,1,1,1,1,1,1,1,1,1,1,1,1,1,1,1,1,1,1,1,1,1,1,1,1,1,1,1,1,1,1,1,1,1,1,1,1,1,1,1,1,1,1,1,1,1,1,1,1,1,1,1,1,1,1,1,1,1,1,1,1,1,1,1,1,1,1,1,1,1,1,1,1,1,1,1,1,1,1,1,1,1,1,1,1,1,1,1,1,1,1,1,1,1,1,1,1,1,1,1,1,1,1,1,1,1,1,1,1,1,1,1,1,1,1,1,1,1,1,1,1,1,1,1,1,1,1,1,1,1,1,1,1,1,1,1,1,1,1,1,1,1,1,1,1,1,1,1,1,1,1,1,1,1,1,1,1,1,1,58,
1,1,1,1,1,1,1,1,1,1,1,1,1,1,1,1,1,1,1,1,1,1,1,1,1,1,1,1,1,1,1,1,1,1,1,1,1,1,1,1,1,1,1,1,1,1,1,1,1,1,1,1,1,1,1,1,1,1,1,1,1,1,1,1,1,1,1,1,1,1,1,1,1,1,1,1,1,1,1,1,1,1,1,1,1,1,1,1,1,1,1,1,1,1,1,1,1,1,1,1,1,1,1,1,1,1,1,1,1,1,1,1,1,1,1,1,1,1,1,1,1,1,1,1,1,1,1,1,1,1,1,1,1,1,1,1,1,1,1,1,1,1,1,1,1,1,1,1,1,1,1,1,1,1,1,1,1,1,1,1,1,1,1,1,1,1,1,1,1,1,1,1,1,1,1,1,1,1,1,1,1,1,1,1,1,1,1,1,1,1,1,1,1,1,1,1,1,1,1,1,1,1,1,1,1,1,1,1,1,1,1,1,1,1,1,1,1,1,1,1,1,1,1,1,1,1,1,1,1,1,1,1,1,1,1,1,1,1,1,1,1,1,1,1,1,1,1,1,1,1,1,1,1,1,1,1,1,1,1,1,1,1,1,1,1,1,1,1,1,1,1,1,1,1,1,1,1,1,1,1,1,1,1,1,1,1,1,1,1,1,1,1,1,1,1,1,1,1,1,1,1,1,1,1,1,1,1,1,1,58,
1,1,1,1,1,1,1,1,1,1,1,1,1,1,1,1,1,1,1,1,1,1,1,1,1,1,1,1,1,1,1,1,1,1,1,1,1,1,1,1,1,1,1,1,1,1,1,1,1,1,1,1,1,1,1,1,1,1,1,1,1,1,1,1,1,1,1,1,1,1,1,1,1,1,1,1,1,1,1,1,1,1,1,1,1,1,1,1,1,1,1,1,1,1,1,1,1,1,1,1,1,1,1,1,1,1,1,1,1,1,1,1,1,1,1,1,1,1,1,1,1,1,1,1,1,1,1,1,1,1,1,1,1,1,1,1,1,1,1,1,1,1,1,1,1,1,1,1,1,1,1,1,1,1,1,1,1,1,1,1,1,1,1,1,1,1,1,1,1,1,1,1,1,1,1,1,1,1,1,1,1,1,1,1,1,1,1,1,1,1,1,1,1,1,1,1,1,1,1,1,1,1,1,1,1,1,1,1,1,1,1,1,1,1,1,1,1,1,1,1,1,1,1,1,1,1,1,1,1,1,1,1,1,1,1,1,1,1,1,1,1,1,1,1,1,1,1,1,1,1,1,1,1,1,1,1,1,1,1,1,1,1,1,1,1,1,1,1,1,1,1,1,1,1,1,1,1,1,1,1,1,1,1,1,1,1,1,1,1,1,1,1,1,1,1,1,1,1,1,1,1,1,1,1,1,1,1,1,1,58,
1,1,1,1,1,1,1,1,1,1,1,1,1,1,1,1,1,1,1,1,1,1,1,1,1,1,1,1,1,1,1,1,1,1,1,1,1,1,1,1,1,1,1,1,1,1,1,1,1,1,1,1,1,1,1,1,1,1,1,1,1,1,1,1,1,1,1,1,1,1,1,1,1,1,1,1,1,1,1,1,1,1,1,1,1,1,1,1,1,1,1,1,1,1,1,1,1,1,1,1,1,1,1,1,1,1,1,1,1,1,1,1,1,1,1,1,1,1,1,1,1,1,1,1,1,1,1,1,1,1,1,1,1,1,1,1,1,1,1,1,1,1,1,1,1,1,1,1,1,1,1,1,1,1,1,1,1,1,1,1,1,1,1,1,1,1,1,1,1,1,1,1,1,1,1,1,1,1,1,1,1,1,1,1,1,1,1,1,1,1,1,1,1,1,1,1,1,1,1,1,1,1,1,1,1,1,1,1,1,1,1,1,1,1,1,1,1,1,1,1,1,1,1,1,1,1,1,1,1,1,1,1,1,1,1,1,1,1,1,1,1,1,1,1,1,1,1,1,1,1,1,1,1,1,1,1,1,1,1,1,1,1,1,1,1,1,1,1,1,1,1,1,1,1,1,1,1,1,1,1,1,1,1,1,1,1,1,1,1,1,1,1,1,1,1,1,1,1,1,1,1,1,1,1,1,1,1,1,1,58,
1,1,1,1,1,1,1,1,1,1,1,1,1,1,1,1,1,1,1,1,1,1,1,1,1,1,1,1,1,1,1,1,1,1,1,1,1,1,1,1,1,1,1,1,1,1,1,1,1,1,1,1,1,1,1,1,1,1,1,1,1,1,1,1,1,1,1,1,1,1,1,1,1,1,1,1,1,1,1,1,1,1,1,705,1,1,1,1,1,1,1,1,1,1,1,1,1,1,1,1,1,1,1,1,1,1,1,1,1,1,1,1,1,1,1,1,1,1,1,1,1,1,1,1,1,1,1,1,1,1,1,1,1,1,1,1,1,1,1,1,1,1,1,1,1,1,1,1,1,1,1,1,1,1,1,1,1,1,1,1,1,1,1,1,1,1,1,1,1,1,1,1,1,1,1,1,1,1,1,1,1,1,1,1,1,1,1,1,1,1,1,1,1,1,1,1,1,1,1,1,1,1,1,1,1,1,1,1,1,1,1,1,1,1,1,1,1,1,1,1,1,1,1,1,1,1,1,1,1,1,1,1,1,1,1,1,1,1,1,1,1,1,1,1,1,1,1,1,1,1,1,1,1,1,1,1,1,1,1,1,1,1,1,1,1,1,1,1,1,1,1,1,1,1,1,1,1,1,1,1,1,1,1,1,1,1,1,1,1,1,1,1,1,1,1,1,1,1,1,1,1,1,1,1,1,1,1,1,1,58,
1,1,1,1,1,1,1,1,1,1,1,1,1,1,1,1,1,1,1,1,1,1,1,1,1,1,1,1,1,1,1,1,1,1,1,1,1,1,1,1,1,1,1,1,1,1,1,1,1,1,1,1,1,1,1,1,1,1,1,1,1,1,1,1,1,1,1,1,1,1,1,1,1,1,1,1,1,1,1,1,1,1,1,705,1,1,1,1,1,1,1,1,1,1,1,1,1,1,1,1,1,1,1,1,1,1,1,1,1,1,1,1,1,1,1,1,1,1,1,1,1,1,1,1,1,1,1,1,1,1,1,1,1,1,1,1,1,1,1,1,1,1,1,1,1,1,1,1,1,1,1,1,1,1,1,1,1,1,1,1,1,1,1,1,1,1,1,1,1,1,1,1,1,1,1,1,1,1,1,1,1,1,1,1,1,1,1,1,1,1,1,1,1,1,1,1,1,1,1,1,1,1,1,1,1,1,1,1,1,1,1,1,1,1,1,1,1,1,1,1,1,1,1,1,1,1,1,1,1,1,1,1,1,1,1,1,1,1,1,1,1,1,1,1,1,1,1,1,1,1,1,1,1,1,1,1,1,1,1,1,1,1,1,1,1,1,1,1,1,1,1,1,1,1,1,1,1,1,1,1,1,1,1,1,1,1,1,1,1,1,1,1,1,1,1,1,1,1,1,1,1,1,1,1,1,1,1,1,1,58,
1,1,1,1,1,1,1,1,1,1,1,1,1,1,1,1,1,1,1,1,1,1,1,1,1,1,1,1,1,1,1,1,1,1,1,1,1,1,1,1,1,1,1,1,1,1,1,1,1,1,1,1,1,1,1,1,1,1,1,1,1,1,1,1,1,1,1,1,1,1,1,1,1,1,1,1,1,1,1,1,1,1,1,705,1,1,1,1,1,1,1,1,1,1,1,1,1,1,1,1,1,1,1,1,1,1,1,1,1,1,1,1,1,1,1,1,1,1,1,1,1,1,1,1,1,1,1,1,1,1,1,1,1,1,1,1,1,1,1,1,1,1,1,1,1,1,1,1,1,1,1,1,1,1,1,1,1,1,0,0,0,0,1,1,1,1,1,1,1,1,1,1,1,1,1,1,1,1,1,1,1,1,1,1,1,1,1,1,1,1,1,1,1,1,1,1,1,1,1,1429,1430,1431,1432,1429,1430,1431,1432,1429,1430,1431,1432,1429,1430,1431,1432,1429,1430,1431,1432,1429,1430,1431,1432,1429,1430,1431,1432,1429,1430,1431,1432,1429,1430,1431,1432,1429,1430,1431,1432,1429,1430,1431,1432,1429,1430,1431,1432,1429,1430,1431,1432,1429,1430,1431,1432,1429,1430,1431,1432,1429,1430,1431,1432,1429,1430,1431,1432,1429,1430,1431,1432,1429,1430,1431,1432,1429,1430,1431,1432,1429,1430,1431,1432,1429,1430,1431,1432,1429,1430,1431,1432,1429,1430,1431,1432,1429,1430,1431,1432,1429,1430,1431,1432,1429,1430,1431,1432,1429,1430,58,
1,1,1,1,1,1,1,1,1,1,1,1,1,1,1,1,1,1,1,1,1,1,1,1,1,1,1,1,1,1,1,1,1,1,1,1,1,1,1,1,1,1,1,1,1,1,1,1,1,1,1,1,1,1,1,1,1,1,1,1,1,1,1,1,1,1,1,1,1,1,1,1,1,1,1,1,1,1,1,1,1,1,1,705,1,1,1,1,1,1,1,1,1,1,1,1,1,1,1,1,1,1,1,1,1,1,1,1,1,1,1,1,1,1,1,1,1,1,1,1,1,1,1,1,1,1,1,1,1,1,1,1,1,1,1,1,1,1,1,1,1,1,1,1,1,1,1,1,1,1,1,1,1,1,1,1,1,1,0,0,0,0,705,718,718,718,718,718,718,718,718,718,718,718,718,718,718,718,718,718,718,718,718,718,718,718,718,718,718,718,718,718,718,718,718,718,718,718,705,1445,1446,1447,1448,1445,1446,1447,1448,1445,1446,1447,1448,1445,1446,1447,1448,1445,1446,1447,1448,1445,1446,1447,1448,1445,1446,1447,1448,1445,1446,1447,1448,1445,1446,1447,1448,1445,1446,1447,1448,1445,1446,1447,1448,1445,1446,1447,1448,1445,1446,1447,1448,1445,1446,1447,1448,1445,1446,1447,1448,1445,1446,1447,1448,1445,1446,1447,1448,1445,1446,1447,1448,1445,1446,1447,1448,1445,1446,1447,1448,1445,1446,1447,1448,1445,1446,1447,1448,1445,1446,1447,1448,1445,1446,1447,1448,1445,1446,1447,1448,1445,1446,1447,1448,1445,1446,1447,1448,1445,1446,58,
1,1,1,1,1,1,1,1,1,1,1,1,1,1,1,1,1,1,1,1,1,1,1,1,1,1,1,1,1,1,1,1,1,1,1,1,1,1,1,1,1,1,1,1,1,1,1,1,1,1,1,1,1,1,1,1,1,1,1,1,1,1,1,1,1,1,1,1,1,1,1,1,1,1,1,1,1,1,1,1,1,1,1,705,1,1,1,1,1,1,1,1,1,1,1,1,1,1,1,1,1,1,1,1,1,1,1,1,1,1,1,1,1,1,1,1,1,1,1,1,1,1,1,1,1,1,1,1,1,1,1,1,1,1,1,1,1,1,1,1,1,1,1,1,1,1,1,1,1,1,1,1,1,1,1,1,1,1,0,0,0,0,705,718,718,718,718,718,718,718,718,718,718,718,718,718,718,718,718,718,718,718,718,718,718,718,718,718,718,718,718,718,718,718,718,718,718,718,705,1461,1462,1463,1464,1461,1462,1463,1464,1461,1462,1463,1464,1461,1462,1463,1464,1461,1462,1463,1464,1461,1462,1463,1464,1461,1462,1463,1464,1461,1462,1463,1464,1461,1462,1463,1464,1461,1462,1463,1464,1461,1462,1463,1464,1461,1462,1463,1464,1461,1462,1463,1464,1461,1462,1463,1464,1461,1462,1463,1464,1461,1462,1463,1464,1461,1462,1463,1464,1461,1462,1463,1464,1461,1462,1463,1464,1461,1462,1463,1464,1461,1462,1463,1464,1461,1462,1463,1464,1461,1462,1463,1464,1461,1462,1463,1464,1461,1462,1463,1464,1461,1462,1463,1464,1461,1462,1463,1464,1461,1462,58,
1,1,1,1,1,1,1,1,1,1,1,1,1,1,1,1,1,1,1,1,1,1,1,1,1,1,1,1,1,1,1,1,1,1,1,1,1,1,1,1,1,1,1,1,1,1,1,1,1,1,1,1,1,1,1,1,1,1,1,1,1,1,1,1,1,1,1,1,1,1,1,1,1,1,1,1,1,1,1,1,1,1,1,705,1,1,1,1,1,1,1,1,1,1,1,1,1,1,1,1,1,1,1,1,1,1,1,1,1,1,1,1,1,1,1,1,1,1,1,1,1,1,1,1,1,1,1,1,1,1,1,1,1,1,1,1,1,1,1,1,1,1,1,1,1,1,1,1,1,1,1,1,1,1,1,1,1,1,0,0,0,0,705,718,718,718,718,718,718,718,718,718,718,718,718,718,718,718,718,718,718,718,718,718,718,718,718,718,718,718,718,718,718,718,718,718,718,718,705,1477,1478,1479,1480,1477,1478,1479,1480,1477,1478,1479,1480,1477,1478,1479,1480,1477,1478,1479,1480,1477,1478,1479,1480,1477,1478,1479,1480,1477,1478,1479,1480,1477,1478,1479,1480,1477,1478,1479,1480,1477,1478,1479,1480,1477,1478,1479,1480,1477,1478,1479,1480,1477,1478,1479,1480,1477,1478,1479,1480,1477,1478,1479,1480,1477,1478,1479,1480,1477,1478,1479,1480,1477,1478,1479,1480,1477,1478,1479,1480,1477,1478,1479,1480,1477,1478,1479,1480,1477,1478,1479,1480,1477,1478,1479,1480,1477,1478,1479,1480,1477,1478,1479,1480,1477,1478,1479,1480,1477,1478,58,
1,1,1,1,1,1,1,1,1,1,1,1,1,1,1,1,1,1,1,1,1,1,1,1,1,1,1,1,1,1,1,1,1,1,1,1,1,1,1,1,1,1,1,1,1,1,1,1,1,1,1,1,1,1,1,1,1,1,1,1,1,1,1,1,1,1,1,1,1,1,1,1,1,1,1,1,1,1,1,1,1,1,1,705,1,1,1,1,1,1,1,1,1,1,1,1,1,1,1,1,1,1,1,1,1,1,1,1,1,1,1,1,1,1,1,1,1,1,1,1,1,1,1,1,1,1,1,1,1,1,1,1,1,1,1,1,1,1,1,1,1,1,1,1,1,1,1,1,1,1,1,1,1,1,1,1,1,1,0,0,0,0,705,718,718,718,718,718,718,718,718,718,718,718,718,718,718,718,718,718,718,718,718,718,718,718,718,718,718,718,718,718,718,718,718,718,718,718,705,3442,3442,3442,3442,3442,3442,3442,3442,3442,3442,3442,3442,3442,3442,3442,3442,3442,3442,3442,3442,3442,3442,3442,3442,3442,3442,3442,3442,3442,3442,3442,3442,3442,3442,3442,3442,3442,3442,3442,3442,3442,3442,3442,3442,3442,3442,3442,3442,3442,3442,3442,3442,3442,3442,3442,3442,3442,3442,3442,3442,3442,3442,3442,3442,3442,3442,3442,3442,3442,3442,3442,3442,3442,3442,3442,3442,3442,3442,3442,3442,3442,3442,3442,3442,3442,3442,3442,3442,3442,3442,3442,3442,3442,3442,3442,3442,3442,3442,3442,3442,1,1,1,1,1,1,1,1,1,1,58,
1,1,1,1,1,1,1,1,1,1,1,1,1,1,1,1,1,1,1,1,1,1,1,1,1,1,1,1,1,1,1,1,1,1,1,1,1,1,1,1,1,1,1,1,1,1,1,1,1,1,1,1,1,1,1,1,1,1,1,1,1,1,1,1,1,1,1,1,1,1,1,1,1,1,1,1,1,1,1,1,1,1,1,705,1,1,1,1,1,1,1,1,1,1,1,1,1,1,1,1,1,1,1,1,1,1,1,1,1,1,1,1,1,1,1,1,1,1,1,1,1,1,1,1,1,1,1,1,1,1,1,1,1,1,1,1,1,1,1,1,1,1,1,1,1,1,1,1,1,1,1,1,1,1,1,1,1,1,0,0,0,0,705,718,718,718,718,718,718,718,718,718,718,718,718,718,718,718,718,718,718,718,718,718,718,718,718,718,718,718,718,718,718,718,718,718,718,718,705,1,1,1,1,1,1,1,1,1,1,1,1,1,7774,1070,7769,1,1,1,1,1,1,1,1,1,1,1,1,1,1,1,1,7774,1070,7769,1,1,1,1,1,1,1,1,1,1,7762,1,1,1,1,1,1,1,1,1,1,1,1,1,1,7765,1,1,1,1,1,1,1,1,1,1,1,1,1,1,1,1,1,1,1,1,7765,1,1,1,1,1,1,1,1,1,1,1,1,1,1,7765,1,0,7774,1070,7769,1,1,1,1,1,1,1,1,58,
1,1,1,1,1,1,1,1,1,1,1,1,1,1,1,1,1,1,1,1,1,1,1,1,1,1,1,1,1,1,1,1,1,1,1,1,1,1,1,1,1,1,1,1,1,1,1,1,1,1,1,1,1,1,1,1,1,1,1,1,1,1,1,1,1,1,1,1,1,1,1,1,1,1,1,1,1,1,1,1,1,1,1,705,1,1,1,1,1,1,1,1,1,1,1,1,1,1,1,1,1,1,1,1,1,1,1,1,1,1,1,1,1,1,1,1,1,1,1,1,1,1,1,1,1,1,1,1,1,1,1,1,1,1,1,1,1,1,1,1,1,1,1,1,1,1,1,1,1,1,1,1,1,1,1,1,1,1,0,0,0,0,705,718,718,718,718,718,718,718,718,718,718,718,718,718,718,718,718,718,718,718,718,718,718,718,718,718,718,718,718,718,718,718,718,718,718,718,705,1,1,1,1,1,1,1,1,1,1,1,1,1,1,7765,1,1,1,1,1,1,1,1,1,1,1,1,1,1,1,1,1,1,7765,1,1,1,1,1,1,1,1,1,1,7774,1070,7769,1,1,1,1,1,1,1,1,1,1,1,1,1,1,1,1,1,1,1,1,7762,1,1,1,1,1,1,1,1,1,1,1,1,1,1,1,1,1,1,1,7762,1,1,1,1,1,1,1,1,1,1,1,1,7765,1,1,1,1,1,1,1,1,1,58,
1,1,1,1,1,1,1,1,1,1,1,1,1,1,1,1,1,1,1,1,1,1,1,1,1,1,1,1,1,1,1,1,1,1,1,1,1,1,1,1,1,1,1,1,1,1,1,1,1,1,1,1,1,1,1,1,1,1,1,1,1,1,1,1,1,1,1,1,1,1,1,1,1,1,1,1,1,1,1,1,1,1,1,705,1,1,1,1,1,1,1,1,1,705,1,1,1,1,1,1,1,1,1,1,1,1,1,1,1,1,1,1,1,1,1,1,1,1,1,1,1,1,1,1,1,1,1,1,1,1,1,1,1,1,1,1,1,1,1,1,1,1,1,1,1,1,1,1,1,1,1,1,1,1,1,1,1,1,0,0,0,0,705,705,705,705,705,705,705,705,705,705,705,705,705,705,705,705,705,705,705,705,705,705,705,705,705,705,705,705,705,705,705,705,705,705,705,705,705,1,1,1,1,1,1,1,1,1,1,1,1,1,1,1,1,1,1,1,1,1,1,1,1,1,1,1,1,1,1,1,1,1,1,1,1,1,1,1,1,1,1,1,1,1,7765,1,1,1,1,1,1,1,1,1,1,1,1,1,1,1,1,1,1,1,1,7774,1070,7769,1,1,1,1,1,1,1,1,1,1,1,1,1,1,1,1,1,7774,1070,7769,1,1,1,1,1,1,1,1,1,1,1,1,1,1,1,1,1,1,1,1,1,58,
1,1,1,1,1,1,1,1,1,1,1,1,1,1,1,1,1,1,1,1,1,1,1,1,1,1,1,1,1,1,1,1,1,1,1,1,1,1,1,1,1,1,1,1,1,1,1,1,1,1,1,1,1,1,1,1,1,1,1,760,705,1,1,1,1,1,1,1,1,1,1,1,1,1,1,1,1,1,1,1,1,1,1,1,1,1,1,1,1,1,1,1,1,705,1,1,705,1,1,1,1,1,1,1,1,1,1,1,1,1,1,1,1,1,1,1,1,1,1,1,1,1,1,1,1,1,1,1,1,1,1,705,1,1,1,1,1,1,1,1,1,1,1,1,1,1,1,1,1,1,1,1,1,1,1,1,1,1,1,0,0,0,758,758,1,1,1,1,1,1,1,1,1,1,758,758,758,758,758,1,1,1,1,1,1,758,758,758,758,1,1,1,1,1,1,1,1,1,1,1,1,1,1,1,1,1,1,1,1,1,1,1,1,1,1,1,1,1,1,1,1,1,1,1,1,1,1,1,1,1,1,1,1,1,1,1,1,1,1,1,1,1,1,1,1,1,1,1,1,1,1,1,1,1,1,1,1,1,1,1,1,1,1,1,1,1,7765,1,1,1,1,1,1,1,1,1,1,1,1,1,1,1,1,1,1,1,7765,1,1,1,1,1,1,1,1,1,1,1,1,1,1,1,1,1,1,1,1,1,1,58,
1,1,1,1,1,1,1,1,1,1,1,1,1,1,1,1,1,1,1,1,1,1,1,1,1,1,1,1,1,1,1,1,1,1,1,1,1,1,1,1,1,1,1,1,1,1,1,1,1,1,1,1,1,1,1,1,1,1,1,760,705,1,1,1,1,1,1,1,1,1,1,1,1,1,1,1,1,1,1,1,1,1,1,705,1,1,1,1,1,1,705,1,1,705,1,1,705,1,1,1,1,1,1,1,1,1,1,757,1,1,1,1,1,705,705,1,1,1,1,1,1,1,1,1,1,1,1,1,1,1,1,758,1,705,1,1,1,1,1,1,1,1,1,1,1,1,1,1,1,1,1,1,1,1,1,1,1,1,1,1,1,1,1,1,1,1,1,1,1,1,1,1,1,1,1,1,1,1,1,1,1,1,1,1,1,1,1,1,1,1,1,1,1,1,1,1,1,1,1,1,1,1,1,1,1,1,1,1,1,1,1,1,1,1,1,1,1,1,1,1,1,1,1,1,1,1,1,1,1,1,1,1,1,1,1,1,1,1,1,1,1,1,1,1,1,1,1,1,1,1,1,1,1,1,1,1,1,1,1,1,1,1,1,1,1,1,1,1,1,1,1,1,1,1,1,1,1,1,1,1,1,1,1,1,1,1,1,1,1,1,1,1,1,1,1,1,1,1,1,1,1,1,1,1,1,1,1,1,1,58,
1,1,1,1,1,1,1,1,1,1,1,1,1,1,1,1,1,1,1,1,1,1,1,1,1,1,1,1,1,1,1,1,1,1,1,1,1,1,1,1,1,1,1,1,1,1,1,1,1,1,1,1,1,1,1,1,1,1,1,760,705,1,1,1,1,1,1,1,1,1,1,1,1,1,1,1,1,1,1,1,1,1,1,705,1,705,705,1,1,1,705,7666,7666,705,7666,7666,705,1,1,1,1,705,705,705,705,705,705,705,1,1,1,1,1,758,758,1,1,1,1,1,1,1,1,1,1,1,1,1,1,1,1,1,1,758,1,1,1,1,1,1,1,1,1,1,705,1,1,1,1,1,1,1,1,1,1,1,1,1,1,1,1,1,1,1,1,1,757,1,1,1,1,1,1,1,1,1,1,1,1,1,1,757,757,1,1,1,1,1,1,1,1,757,1,1,1,1,1,1,1,1,1,1,1,1,1,1,1,1,1,1,1,1,1,1,1,1,1,1,1,1,1,1,1,1,1,1,1,1,1,1,1,1,1,1,1,1,1,1,1,1,1,1,1,1,1,1,1,1,1,1,1,1,1,1,1,1,1,1,1,1,1,1,1,1,1,1,1,1,1,1,1,1,1,1,1,1,1,1,1,1,1,1,1,1,1,1,1,1,1,1,1,1,1,1,1,1,1,1,1,1,1,1,1,1,1,1,1,1,1,58,
1,1,1,1,1,1,1,1,1,1,1,1,1,1,1,1,1,1,1,1,1,1,1,1,1,1,1,1,1,1,1,1,1,1,1,1,1,1,1,1,1,1,1,1,1,1,1,1,1,1,1,1,1,1,1,1,1,1,1,1,1,1,1,1,1,1,1,1,1,1,1,1,1,1,1,1,1,1,1,705,705,705,1,705,1,705,705,7666,7666,7666,705,718,718,705,718,718,705,7666,7666,7666,7666,705,705,705,705,705,705,705,1,1,1,1,1,1,1,1,1,1,1,1,1,1,1,1,1,705,705,705,705,705,705,1,1,1,1,1,1,1,1,1,705,1,1,1,705,1,1,1,1,1,1,1,1,1,1,1,1,1,1,0,705,705,705,705,705,705,705,705,705,705,705,705,705,705,705,705,705,705,705,705,705,705,705,705,705,705,705,705,705,705,705,705,705,705,705,705,705,705,705,1,1,1,1,1,1,1,1,1,1,1,1,1,1,1,1,1,1,1,1,1,1,1,1,1,1,7762,1,1,1,1,1,1,1,1,1,1,1,1,1,1,1,1,1,1,1,1,1,1,1,1,1,7762,1,1,1,1,1,1,1,1,1,1,1,1,1,1,1,1,1,1,1,1,1,1,1,1,1,1,1,1,1,1,1,1,1,1,1,1,1,1,1,1,1,1,1,1,1,1,1,7762,1,1,1,1,1,1,1,1,1,58,
1,1,1,1,1,1,1,1,1,1,1,1,1,1,1,1,1,1,1,1,1,1,1,1,1,1,1,1,1,1,1,1,1,1,1,1,1,1,1,1,1,1,1,1,1,1,1,1,1,705,1,1,1,1,1,1,705,705,705,1,1,1,1,1,1,705,7666,7666,7666,7666,7666,7666,7666,7666,7666,7666,7666,7666,7666,705,705,705,7666,705,7666,705,705,718,718,718,705,718,718,705,718,718,705,718,718,718,718,705,705,705,705,705,705,705,7666,7666,705,705,705,705,705,705,705,7666,7666,7666,7666,7666,7666,7666,7666,705,705,705,705,705,705,1,705,1,1,1,1,1,1,1,705,7666,7666,7666,705,7666,7666,7666,7666,7666,7666,7666,7666,7666,705,705,7666,7666,7666,7666,705,718,718,718,718,718,718,718,718,718,718,718,718,718,718,718,718,718,718,718,718,718,718,718,718,718,718,718,718,718,718,718,718,718,718,718,718,718,705,1,1,1,1,1,1,1,1,1,1,1,1,1,1,1,1,1,1,1,1,1,1,1,1,1,7774,1070,7769,1,1,1,1,1,1,1,1,1,1,1,7762,1,1,1,1,1,1,1,1,1,1,1,7774,1070,7769,1,1,1,1,1,1,1,1,1,1,1,1,1,1,1,1,1,1,1,1,1,7762,1,1,1,1,1,1,1,1,1,1,1,1,1,1,1,1,1,1,1,1,7762,1,0,7774,1070,7769,1,1,1,1,1,1,1,1,58,
1,1,1,1,1,1,1,757,1,1,1,1,1,1,1,1,1,1,1,1,1,1,1,1,1,1,757,1,1,1,1,1,761,761,761,761,761,1,1,1,1,1,1,761,757,705,7666,7666,7666,705,7666,7666,705,7666,7666,7666,705,705,705,7666,705,705,7666,7666,7666,705,718,718,718,718,718,718,718,718,718,718,718,718,718,705,705,705,718,705,718,705,705,718,718,718,705,718,718,705,718,718,705,718,718,718,718,705,705,705,705,705,705,705,718,718,705,705,705,705,705,705,705,718,718,718,718,718,718,718,718,705,705,705,705,705,705,7666,705,7666,705,705,7666,7666,7666,7666,705,718,718,718,705,718,718,718,718,718,718,718,718,718,705,705,718,718,718,718,705,718,718,718,718,718,718,718,718,718,718,718,718,718,718,718,718,718,718,718,718,718,718,718,718,718,718,718,718,718,718,718,718,718,718,718,718,718,705,3441,3441,3441,3441,3441,3441,3441,3441,3441,3441,3441,3441,3441,3441,3441,3441,3441,3441,3441,3441,3441,3441,3441,3441,3441,3441,3441,3441,3441,3441,3441,3441,3441,3441,3441,3441,3441,3441,3441,3441,3441,3441,3441,3441,3441,3441,3441,3441,3441,3441,3441,3441,3441,3441,3441,3441,3441,3441,3441,3441,3441,3441,3441,3441,3441,3441,3441,3441,3441,3441,3441,3441,3441,3441,3441,3441,3441,3441,3441,3441,3441,3441,3441,3441,3441,3441,3441,3441,3441,3441,3441,3441,3441,3441,3441,3441,3441,3441,3441,3441,1,1,1,1,1,1,1,1,1,1,58
</data>
 </layer>
 <objectgroup id="7" name="SP">
  <object id="422" gid="16516" x="184" y="432" width="16" height="16">
   <properties>
    <property name="bg layer" value="1"/>
   </properties>
  </object>
  <object id="423" gid="16516" x="200" y="432" width="16" height="16">
   <properties>
    <property name="bg layer" value="1"/>
   </properties>
  </object>
  <object id="424" gid="16516" x="344" y="432" width="16" height="16">
   <properties>
    <property name="bg layer" value="1"/>
   </properties>
  </object>
  <object id="425" gid="16396" x="320" y="432" width="16" height="16">
   <properties>
    <property name="bg layer" value="1"/>
   </properties>
  </object>
  <object id="426" gid="16396" x="160" y="432" width="16" height="16">
   <properties>
    <property name="bg layer" value="1"/>
   </properties>
  </object>
  <object id="427" gid="16394" x="544" y="416" width="16" height="16">
   <properties>
    <property name="bg layer" value="1"/>
   </properties>
  </object>
  <object id="452" gid="16394" x="1200" y="384" width="16" height="16">
   <properties>
    <property name="bg layer" value="1"/>
   </properties>
  </object>
  <object id="465" gid="16394" x="1936" y="384" width="16" height="16">
   <properties>
    <property name="bg layer" value="1"/>
   </properties>
  </object>
  <object id="475" gid="16394" x="2384" y="384" width="16" height="16">
   <properties>
    <property name="bg layer" value="1"/>
   </properties>
  </object>
  <object id="428" gid="16460" x="544" y="416" width="16" height="16">
   <properties>
    <property name="bg layer" value="1"/>
    <property name="color channel" value="P1"/>
   </properties>
  </object>
  <object id="451" gid="16460" x="1200" y="384" width="16" height="16">
   <properties>
    <property name="bg layer" value="1"/>
    <property name="color channel" value="P1"/>
   </properties>
  </object>
  <object id="466" gid="16460" x="1936" y="384" width="16" height="16">
   <properties>
    <property name="bg layer" value="1"/>
    <property name="color channel" value="P1"/>
   </properties>
  </object>
  <object id="476" gid="16460" x="2384" y="384" width="16" height="16">
   <properties>
    <property name="bg layer" value="1"/>
    <property name="color channel" value="P1"/>
   </properties>
  </object>
  <object id="429" gid="16459" x="544" y="416" width="16" height="16">
   <properties>
    <property name="bg layer" value="1"/>
    <property name="color channel" value="P1"/>
   </properties>
  </object>
  <object id="450" gid="16459" x="1200" y="384" width="16" height="16">
   <properties>
    <property name="bg layer" value="1"/>
    <property name="color channel" value="P1"/>
   </properties>
  </object>
  <object id="467" gid="16459" x="1936" y="384" width="16" height="16">
   <properties>
    <property name="bg layer" value="1"/>
    <property name="color channel" value="P1"/>
   </properties>
  </object>
  <object id="477" gid="16459" x="2384" y="384" width="16" height="16">
   <properties>
    <property name="bg layer" value="1"/>
    <property name="color channel" value="P1"/>
   </properties>
  </object>
  <object id="438" gid="16386" x="3184" y="368" width="16" height="16">
   <properties>
    <property name="bg layer" value="1"/>
   </properties>
  </object>
  <object id="439" gid="16396" x="720" y="418" width="16" height="16">
   <properties>
    <property name="bg layer" value="1"/>
   </properties>
  </object>
  <object id="443" gid="16396" x="916" y="400" width="16" height="16">
   <properties>
    <property name="bg layer" value="1"/>
   </properties>
  </object>
  <object id="440" gid="705" x="806" y="364" width="16" height="16"/>
  <object id="456" gid="705" x="1488" y="274" width="16" height="16"/>
  <object id="459" gid="705" x="1520" y="290" width="16" height="16"/>
  <object id="441" gid="758" x="806" y="380" width="16" height="16"/>
  <object id="455" gid="758" x="1488" y="290" width="16" height="16"/>
  <object id="458" gid="758" x="1520" y="306" width="16" height="16"/>
  <object id="442" gid="16393" x="806" y="348" width="16" height="16">
   <properties>
    <property name="bg layer" value="1"/>
   </properties>
  </object>
  <object id="457" gid="16393" x="1488" y="258" width="16" height="16">
   <properties>
    <property name="bg layer" value="1"/>
   </properties>
  </object>
  <object id="460" gid="16393" x="1520" y="274" width="16" height="16">
   <properties>
    <property name="bg layer" value="1"/>
   </properties>
  </object>
  <object id="712" gid="16393" x="1816" y="352" width="16" height="16">
   <properties>
    <property name="bg layer" value="1"/>
   </properties>
  </object>
  <object id="444" gid="16393" x="960" y="336" width="16" height="16">
   <properties>
    <property name="bg layer" value="1"/>
   </properties>
  </object>
  <object id="445" gid="16396" x="1040" y="400" width="16" height="16">
   <properties>
    <property name="bg layer" value="1"/>
   </properties>
  </object>
  <object id="446" gid="705" x="1112" y="416" width="16" height="16">
   <properties>
    <property name="bg layer" value="0"/>
   </properties>
  </object>
  <object id="447" gid="705" x="1112" y="432" width="16" height="16">
   <properties>
    <property name="bg layer" value="0"/>
   </properties>
  </object>
  <object id="448" gid="16395" x="1112" y="400" width="16" height="16">
   <properties>
    <property name="bg layer" value="1"/>
   </properties>
  </object>
  <object id="463" gid="16395" x="1856" y="400" width="16" height="16">
   <properties>
    <property name="bg layer" value="1"/>
   </properties>
  </object>
  <object id="471" gid="16395" x="2160" y="416" width="16" height="16">
   <properties>
    <property name="bg layer" value="1"/>
   </properties>
  </object>
  <object id="478" gid="16395" x="2480" y="400" width="16" height="16">
   <properties>
    <property name="bg layer" value="1"/>
   </properties>
  </object>
  <object id="449" gid="16513" x="1112" y="384" width="16" height="16">
   <properties>
    <property name="bg layer" value="1"/>
    <property name="enable rotation" type="bool" value="true"/>
    <property name="rotation angle" type="int" value="90"/>
   </properties>
  </object>
  <object id="464" gid="16513" x="1856" y="384" width="16" height="16">
   <properties>
    <property name="bg layer" value="1"/>
    <property name="enable rotation" type="bool" value="true"/>
    <property name="rotation angle" type="int" value="90"/>
   </properties>
  </object>
  <object id="472" gid="16513" x="2160" y="400" width="16" height="16">
   <properties>
    <property name="bg layer" value="1"/>
    <property name="enable rotation" type="bool" value="true"/>
    <property name="rotation angle" type="int" value="90"/>
   </properties>
  </object>
  <object id="479" gid="16513" x="2480" y="384" width="16" height="16">
   <properties>
    <property name="bg layer" value="1"/>
    <property name="enable rotation" type="bool" value="true"/>
    <property name="rotation angle" type="int" value="90"/>
   </properties>
  </object>
  <object id="453" gid="16396" x="1280" y="384" width="16" height="16">
   <properties>
    <property name="bg layer" value="1"/>
   </properties>
  </object>
  <object id="454" gid="16396" x="1440" y="352" width="16" height="16">
   <properties>
    <property name="bg layer" value="1"/>
   </properties>
  </object>
  <object id="461" gid="16396" x="1632" y="368" width="16" height="16">
   <properties>
    <property name="bg layer" value="1"/>
   </properties>
  </object>
  <object id="462" gid="16396" x="1768" y="400" width="16" height="16">
   <properties>
    <property name="bg layer" value="1"/>
   </properties>
  </object>
  <object id="468" gid="16396" x="2016" y="384" width="16" height="16">
   <properties>
    <property name="bg layer" value="1"/>
   </properties>
  </object>
  <object id="469" gid="16393" x="2096" y="336" width="16" height="16">
   <properties>
    <property name="bg layer" value="1"/>
   </properties>
  </object>
  <object id="470" gid="16393" x="2128" y="352" width="16" height="16">
   <properties>
    <property name="bg layer" value="1"/>
   </properties>
  </object>
  <object id="473" gid="16396" x="2240" y="384" width="16" height="16">
   <properties>
    <property name="bg layer" value="1"/>
   </properties>
  </object>
  <object id="474" gid="16396" x="2304" y="368" width="16" height="16">
   <properties>
    <property name="bg layer" value="1"/>
   </properties>
  </object>
  <object id="481" gid="757" x="2728" y="384" width="16" height="16"/>
  <object id="482" gid="16514" x="2634" y="368" width="16" height="16">
   <properties>
    <property name="bg layer" value="1"/>
   </properties>
  </object>
  <object id="483" gid="16514" x="2762" y="368" width="16" height="16">
   <properties>
    <property name="bg layer" value="1"/>
   </properties>
  </object>
  <object id="484" gid="16514" x="2874" y="368" width="16" height="16">
   <properties>
    <property name="bg layer" value="1"/>
   </properties>
  </object>
  <object id="485" gid="16514" x="3034" y="368" width="16" height="16">
   <properties>
    <property name="bg layer" value="1"/>
   </properties>
  </object>
  <object id="489" gid="16396" x="2694" y="385" width="16" height="16">
   <properties>
    <property name="bg layer" value="1"/>
   </properties>
  </object>
  <object id="490" gid="16396" x="2934" y="385" width="16" height="16">
   <properties>
    <property name="bg layer" value="1"/>
   </properties>
  </object>
  <object id="491" gid="16396" x="3094" y="385" width="16" height="16">
   <properties>
    <property name="bg layer" value="1"/>
   </properties>
  </object>
  <object id="492" gid="16459" x="3182" y="368" width="16" height="16">
   <properties>
    <property name="bg layer" value="1"/>
    <property name="color channel" value="P1"/>
   </properties>
  </object>
  <object id="493" gid="16485" x="3182" y="368" width="16" height="16">
   <properties>
    <property name="bg layer" value="1"/>
   </properties>
  </object>
  <object id="495" gid="7762" x="3408" y="288" width="16" height="16">
   <properties>
    <property name="bg layer" value="0"/>
   </properties>
  </object>
  <object id="502" gid="7762" x="3712" y="288" width="16" height="16">
   <properties>
    <property name="bg layer" value="0"/>
   </properties>
  </object>
  <object id="500" gid="7765" x="3600" y="432" width="16" height="16">
   <properties>
    <property name="bg layer" value="0"/>
   </properties>
  </object>
  <object id="506" gid="7765" x="4016" y="432" width="16" height="16">
   <properties>
    <property name="bg layer" value="0"/>
   </properties>
  </object>
  <object id="501" gid="16505" x="3632" y="436" width="16" height="16">
   <properties>
    <property name="bg layer" value="0"/>
    <property name="color channel" value="3"/>
   </properties>
  </object>
  <object id="543" gid="16505" x="4426" y="436" width="16" height="16">
   <properties>
    <property name="bg layer" value="0"/>
    <property name="color channel" value="3"/>
   </properties>
  </object>
  <object id="532" gid="16506" x="3888" y="284" width="16" height="16">
   <properties>
    <property name="bg layer" value="0"/>
    <property name="color channel" value="3"/>
   </properties>
  </object>
  <object id="533" gid="16506" x="3996" y="436" width="16" height="16">
   <properties>
    <property name="bg layer" value="0"/>
    <property name="color channel" value="3"/>
   </properties>
  </object>
  <object id="544" gid="16506" x="4448" y="436" width="16" height="16">
   <properties>
    <property name="bg layer" value="0"/>
    <property name="color channel" value="3"/>
   </properties>
  </object>
  <object id="545" gid="16506" x="4748" y="436" width="16" height="16">
   <properties>
    <property name="bg layer" value="0"/>
    <property name="color channel" value="3"/>
   </properties>
  </object>
  <object id="503" gid="1070" x="3808" y="432" width="16" height="16">
   <properties>
    <property name="bg layer" value="0"/>
   </properties>
  </object>
  <object id="512" gid="1070" x="4384" y="432" width="16" height="16">
   <properties>
    <property name="bg layer" value="0"/>
   </properties>
  </object>
  <object id="504" gid="7774" x="3792" y="432" width="16" height="16">
   <properties>
    <property name="bg layer" value="0"/>
   </properties>
  </object>
  <object id="511" gid="7774" x="4368" y="432" width="16" height="16">
   <properties>
    <property name="bg layer" value="0"/>
   </properties>
  </object>
  <object id="505" gid="7769" x="3824" y="432" width="16" height="16">
   <properties>
    <property name="bg layer" value="0"/>
   </properties>
  </object>
  <object id="510" gid="7769" x="4400" y="432" width="16" height="16">
   <properties>
    <property name="bg layer" value="0"/>
   </properties>
  </object>
  <object id="507" gid="1070" x="4144" y="288" width="16" height="16">
   <properties>
    <property name="bg layer" value="0"/>
   </properties>
  </object>
  <object id="515" gid="1070" x="4480" y="288" width="16" height="16">
   <properties>
    <property name="bg layer" value="0"/>
   </properties>
  </object>
  <object id="516" gid="1070" x="4720" y="288" width="16" height="16">
   <properties>
    <property name="bg layer" value="0"/>
   </properties>
  </object>
  <object id="525" gid="1070" x="4720" y="432" width="16" height="16">
   <properties>
    <property name="bg layer" value="0"/>
   </properties>
  </object>
  <object id="519" gid="1070" x="4784" y="288" width="16" height="16">
   <properties>
    <property name="bg layer" value="0"/>
   </properties>
  </object>
  <object id="522" gid="1070" x="4784" y="432" width="16" height="16">
   <properties>
    <property name="bg layer" value="0"/>
   </properties>
  </object>
  <object id="508" gid="7774" x="4128" y="288" width="16" height="16">
   <properties>
    <property name="bg layer" value="0"/>
   </properties>
  </object>
  <object id="514" gid="7774" x="4464" y="288" width="16" height="16">
   <properties>
    <property name="bg layer" value="0"/>
   </properties>
  </object>
  <object id="517" gid="7774" x="4704" y="288" width="16" height="16">
   <properties>
    <property name="bg layer" value="0"/>
   </properties>
  </object>
  <object id="527" gid="7774" x="4704" y="432" width="16" height="16">
   <properties>
    <property name="bg layer" value="0"/>
   </properties>
  </object>
  <object id="520" gid="7774" x="4768" y="288" width="16" height="16">
   <properties>
    <property name="bg layer" value="0"/>
   </properties>
  </object>
  <object id="523" gid="7774" x="4768" y="432" width="16" height="16">
   <properties>
    <property name="bg layer" value="0"/>
   </properties>
  </object>
  <object id="509" gid="7769" x="4160" y="288" width="16" height="16">
   <properties>
    <property name="bg layer" value="0"/>
   </properties>
  </object>
  <object id="513" gid="7769" x="4496" y="288" width="16" height="16">
   <properties>
    <property name="bg layer" value="0"/>
   </properties>
  </object>
  <object id="518" gid="7769" x="4736" y="288" width="16" height="16">
   <properties>
    <property name="bg layer" value="0"/>
   </properties>
  </object>
  <object id="526" gid="7769" x="4736" y="432" width="16" height="16">
   <properties>
    <property name="bg layer" value="0"/>
   </properties>
  </object>
  <object id="521" gid="7769" x="4800" y="288" width="16" height="16">
   <properties>
    <property name="bg layer" value="0"/>
   </properties>
  </object>
  <object id="524" gid="7769" x="4800" y="432" width="16" height="16">
   <properties>
    <property name="bg layer" value="0"/>
   </properties>
  </object>
  <object id="528" gid="16389" x="3598" y="435" width="16" height="16">
   <properties>
    <property name="bg layer" value="1"/>
    <property name="color channel" value="P2"/>
   </properties>
  </object>
  <object id="530" gid="16389" x="3806" y="435" width="16" height="16">
   <properties>
    <property name="bg layer" value="1"/>
    <property name="color channel" value="P2"/>
   </properties>
  </object>
  <object id="534" gid="16389" x="4017" y="435" width="16" height="16">
   <properties>
    <property name="bg layer" value="1"/>
    <property name="color channel" value="P2"/>
    <property name="hflip" type="bool" value="true"/>
   </properties>
  </object>
  <object id="538" gid="16389" x="4378" y="436" width="16" height="16">
   <properties>
    <property name="bg layer" value="1"/>
    <property name="color channel" value="P2"/>
    <property name="hflip" type="bool" value="true"/>
   </properties>
  </object>
  <object id="539" gid="16389" x="4731" y="436" width="16" height="16">
   <properties>
    <property name="bg layer" value="1"/>
    <property name="color channel" value="P2"/>
    <property name="hflip" type="bool" value="false"/>
   </properties>
  </object>
  <object id="541" gid="16389" x="4726" y="288" width="16" height="16">
   <properties>
    <property name="bg layer" value="1"/>
    <property name="color channel" value="P2"/>
    <property name="hflip" type="bool" value="false"/>
    <property name="vflip" type="bool" value="true"/>
   </properties>
  </object>
  <object id="542" gid="16389" x="4763" y="288" width="16" height="16">
   <properties>
    <property name="bg layer" value="1"/>
    <property name="color channel" value="P2"/>
    <property name="hflip" type="bool" value="true"/>
    <property name="vflip" type="bool" value="true"/>
   </properties>
  </object>
  <object id="540" gid="16389" x="4763" y="436" width="16" height="16">
   <properties>
    <property name="bg layer" value="1"/>
    <property name="color channel" value="P2"/>
    <property name="hflip" type="bool" value="true"/>
   </properties>
  </object>
  <object id="529" gid="16462" x="3680" y="288" width="16" height="16">
   <properties>
    <property name="bg layer" value="1"/>
    <property name="color channel" value="P2"/>
    <property name="vflip" type="bool" value="true"/>
   </properties>
  </object>
  <object id="531" gid="16462" x="3872" y="288" width="16" height="16">
   <properties>
    <property name="bg layer" value="1"/>
    <property name="color channel" value="P2"/>
    <property name="vflip" type="bool" value="true"/>
   </properties>
  </object>
  <object id="535" gid="16393" x="4119" y="287" width="16" height="16">
   <properties>
    <property name="bg layer" value="1"/>
    <property name="color channel" value="P2"/>
    <property name="vflip" type="bool" value="true"/>
   </properties>
  </object>
  <object id="536" gid="16393" x="4272" y="277" width="16" height="16">
   <properties>
    <property name="bg layer" value="1"/>
    <property name="color channel" value="P2"/>
    <property name="vflip" type="bool" value="true"/>
   </properties>
  </object>
  <object id="537" gid="16393" x="4459" y="269" width="16" height="16">
   <properties>
    <property name="bg layer" value="1"/>
    <property name="color channel" value="P2"/>
    <property name="vflip" type="bool" value="true"/>
   </properties>
  </object>
  <object id="546" gid="16436" x="3264" y="371" width="16" height="16">
   <properties>
    <property name="bg layer" value="1"/>
   </properties>
  </object>
  <object id="547" gid="16436" x="3336" y="382" width="16" height="16">
   <properties>
    <property name="bg layer" value="1"/>
   </properties>
  </object>
  <object id="548" gid="16397" x="3312" y="432" width="16" height="16">
   <properties>
    <property name="bg layer" value="1"/>
   </properties>
  </object>
  <object id="549" gid="16396" x="3408" y="432" width="16" height="16">
   <properties>
    <property name="bg layer" value="1"/>
   </properties>
  </object>
  <object id="550" gid="16398" x="3504" y="432" width="16" height="16">
   <properties>
    <property name="bg layer" value="1"/>
   </properties>
  </object>
  <object id="551" gid="16397" x="4080" y="432" width="16" height="16"/>
  <object id="552" gid="16397" x="4192" y="432" width="16" height="16"/>
  <object id="553" gid="16397" x="4320" y="432" width="16" height="16"/>
  <object id="554" gid="16397" x="4496" y="432" width="16" height="16"/>
  <object id="555" gid="16397" x="4592" y="432" width="16" height="16"/>
  <object id="556" gid="16436" x="3430" y="376" width="16" height="16">
   <properties>
    <property name="bg layer" value="1"/>
   </properties>
  </object>
  <object id="557" gid="16436" x="3516" y="349" width="16" height="16">
   <properties>
    <property name="bg layer" value="1"/>
   </properties>
  </object>
  <object id="558" gid="16436" x="3586" y="331" width="16" height="16">
   <properties>
    <property name="bg layer" value="1"/>
   </properties>
  </object>
  <object id="559" gid="16436" x="3661" y="355" width="16" height="16">
   <properties>
    <property name="bg layer" value="1"/>
   </properties>
  </object>
  <object id="560" gid="16436" x="3736" y="376" width="16" height="16">
   <properties>
    <property name="bg layer" value="1"/>
   </properties>
  </object>
  <object id="561" gid="16436" x="3828" y="364" width="16" height="16">
   <properties>
    <property name="bg layer" value="1"/>
   </properties>
  </object>
  <object id="562" gid="16436" x="3917" y="376" width="16" height="16">
   <properties>
    <property name="bg layer" value="1"/>
   </properties>
  </object>
  <object id="563" gid="16436" x="4019" y="349" width="16" height="16">
   <properties>
    <property name="bg layer" value="1"/>
   </properties>
  </object>
  <object id="564" gid="16436" x="4108" y="378" width="16" height="16">
   <properties>
    <property name="bg layer" value="1"/>
   </properties>
  </object>
  <object id="565" gid="16436" x="4211" y="398" width="16" height="16">
   <properties>
    <property name="bg layer" value="1"/>
   </properties>
  </object>
  <object id="566" gid="16436" x="4308" y="378" width="16" height="16">
   <properties>
    <property name="bg layer" value="1"/>
   </properties>
  </object>
  <object id="568" gid="16436" x="4399" y="352" width="16" height="16">
   <properties>
    <property name="bg layer" value="1"/>
   </properties>
  </object>
  <object id="569" gid="16436" x="4480" y="368" width="16" height="16">
   <properties>
    <property name="bg layer" value="1"/>
   </properties>
  </object>
  <object id="570" gid="16436" x="4534" y="397" width="16" height="16">
   <properties>
    <property name="bg layer" value="1"/>
   </properties>
  </object>
  <object id="571" gid="16436" x="4614" y="397" width="16" height="16">
   <properties>
    <property name="bg layer" value="1"/>
   </properties>
  </object>
  <object id="572" gid="16436" x="4692" y="364" width="16" height="16">
   <properties>
    <property name="bg layer" value="1"/>
   </properties>
  </object>
  <object id="573" gid="16436" x="4784" y="360" width="16" height="16">
   <properties>
    <property name="bg layer" value="1"/>
   </properties>
  </object>
  <object id="574" gid="16388" x="80" y="224" width="16" height="16">
   <properties>
    <property name="Channel" value="BG"/>
    <property name="Color" type="color" value="#ff9f9f9f"/>
   </properties>
  </object>
  <object id="581" gid="16388" x="235" y="224" width="16" height="16">
   <properties>
    <property name="Channel" value="BG"/>
    <property name="Color" type="color" value="#ff9f9f9f"/>
   </properties>
  </object>
  <object id="585" gid="16388" x="374" y="224" width="16" height="16">
   <properties>
    <property name="Channel" value="BG"/>
    <property name="Color" type="color" value="#ff9f9f9f"/>
   </properties>
  </object>
  <object id="600" gid="16388" x="708" y="224" width="16" height="16">
   <properties>
    <property name="Channel" value="BG"/>
    <property name="Color" type="color" value="#ffa8a8a8"/>
   </properties>
  </object>
  <object id="604" gid="16388" x="868" y="224" width="16" height="16">
   <properties>
    <property name="Channel" value="BG"/>
    <property name="Color" type="color" value="#ffa8a8a8"/>
   </properties>
  </object>
  <object id="608" gid="16388" x="1036" y="224" width="16" height="16">
   <properties>
    <property name="Channel" value="BG"/>
    <property name="Color" type="color" value="#ffa8a8a8"/>
   </properties>
  </object>
  <object id="624" gid="16388" x="1364" y="224" width="16" height="16">
   <properties>
    <property name="Channel" value="BG"/>
    <property name="Color" type="color" value="#ffff39f6"/>
   </properties>
  </object>
  <object id="632" gid="16388" x="1676" y="224" width="16" height="16">
   <properties>
    <property name="Channel" value="BG"/>
    <property name="Color" type="color" value="#ffff39f6"/>
   </properties>
  </object>
  <object id="648" gid="16388" x="1994" y="224" width="16" height="16">
   <properties>
    <property name="Channel" value="BG"/>
    <property name="Color" type="color" value="#ffff39f6"/>
   </properties>
  </object>
  <object id="652" gid="16388" x="2148" y="224" width="16" height="16">
   <properties>
    <property name="Channel" value="BG"/>
    <property name="Color" type="color" value="#ffff39f6"/>
   </properties>
  </object>
  <object id="656" gid="16388" x="2304" y="224" width="16" height="16">
   <properties>
    <property name="Channel" value="BG"/>
    <property name="Color" type="color" value="#ffff39f6"/>
   </properties>
  </object>
  <object id="628" gid="16388" x="1520" y="224" width="16" height="16">
   <properties>
    <property name="Channel" value="BG"/>
    <property name="Color" type="color" value="#ffff39f6"/>
   </properties>
  </object>
  <object id="588" gid="16388" x="528" y="224" width="16" height="16">
   <properties>
    <property name="Channel" value="BG"/>
    <property name="Color" type="color" value="#fffffafa"/>
   </properties>
  </object>
  <object id="618" gid="16388" x="1192" y="224" width="16" height="16">
   <properties>
    <property name="Channel" value="BG"/>
    <property name="Color" type="color" value="#fffffafa"/>
   </properties>
  </object>
  <object id="642" gid="16388" x="1840" y="224" width="16" height="16">
   <properties>
    <property name="Channel" value="BG"/>
    <property name="Color" type="color" value="#fffffafa"/>
   </properties>
  </object>
  <object id="662" gid="16388" x="2470" y="224" width="16" height="16">
   <properties>
    <property name="Channel" value="BG"/>
    <property name="Color" type="color" value="#ffff00a2"/>
   </properties>
  </object>
  <object id="668" gid="16388" x="3184" y="224" width="16" height="16">
   <properties>
    <property name="Channel" value="BG"/>
    <property name="Color" type="color" value="#ffff00ea"/>
   </properties>
  </object>
  <object id="711" gid="16388" x="3184" y="288" width="16" height="16">
   <properties>
    <property name="Channel" value="2"/>
    <property name="Color" type="color" value="#ffff00ea"/>
   </properties>
  </object>
  <object id="671" gid="16388" x="3216" y="224" width="16" height="16">
   <properties>
    <property name="Channel" value="BG"/>
    <property name="Color" type="color" value="#ff8900cb"/>
    <property name="Frames" type="int" value="120"/>
   </properties>
  </object>
  <object id="710" gid="16388" x="3216" y="288" width="16" height="16">
   <properties>
    <property name="Channel" value="2"/>
    <property name="Color" type="color" value="#ff8900cb"/>
    <property name="Frames" type="int" value="120"/>
   </properties>
  </object>
  <object id="672" gid="16388" x="3536" y="224" width="16" height="16">
   <properties>
    <property name="Channel" value="BG"/>
    <property name="Color" type="color" value="#ffbc00ff"/>
    <property name="Frames" type="int" value="12"/>
   </properties>
  </object>
  <object id="707" gid="16388" x="3536" y="272" width="16" height="16">
   <properties>
    <property name="Channel" value="2"/>
    <property name="Color" type="color" value="#ffbc00ff"/>
    <property name="Frames" type="int" value="12"/>
   </properties>
  </object>
  <object id="680" gid="16388" x="4160" y="224" width="16" height="16">
   <properties>
    <property name="Channel" value="BG"/>
    <property name="Color" type="color" value="#ffbc00ff"/>
    <property name="Frames" type="int" value="12"/>
   </properties>
  </object>
  <object id="699" gid="16388" x="4160" y="272" width="16" height="16">
   <properties>
    <property name="Channel" value="2"/>
    <property name="Color" type="color" value="#ffbc00ff"/>
    <property name="Frames" type="int" value="12"/>
   </properties>
  </object>
  <object id="682" gid="16388" x="4448" y="224" width="16" height="16">
   <properties>
    <property name="Channel" value="BG"/>
    <property name="Color" type="color" value="#ffbc00ff"/>
    <property name="Frames" type="int" value="12"/>
   </properties>
  </object>
  <object id="697" gid="16388" x="4448" y="272" width="16" height="16">
   <properties>
    <property name="Channel" value="2"/>
    <property name="Color" type="color" value="#ffbc00ff"/>
    <property name="Frames" type="int" value="12"/>
   </properties>
  </object>
  <object id="683" gid="16388" x="4576" y="224" width="16" height="16">
   <properties>
    <property name="Channel" value="BG"/>
    <property name="Color" type="color" value="#ffbc00ff"/>
    <property name="Frames" type="int" value="18"/>
   </properties>
  </object>
  <object id="696" gid="16388" x="4576" y="272" width="16" height="16">
   <properties>
    <property name="Channel" value="2"/>
    <property name="Color" type="color" value="#ffbc00ff"/>
    <property name="Frames" type="int" value="18"/>
   </properties>
  </object>
  <object id="675" gid="16388" x="3648" y="224" width="16" height="16">
   <properties>
    <property name="Channel" value="BG"/>
    <property name="Color" type="color" value="#ffff00ec"/>
    <property name="Frames" type="int" value="18"/>
   </properties>
  </object>
  <object id="704" gid="16388" x="3648" y="272" width="16" height="16">
   <properties>
    <property name="Channel" value="2"/>
    <property name="Color" type="color" value="#ffff00ec"/>
    <property name="Frames" type="int" value="18"/>
   </properties>
  </object>
  <object id="681" gid="16388" x="4256" y="224" width="16" height="16">
   <properties>
    <property name="Channel" value="BG"/>
    <property name="Color" type="color" value="#ffff00ec"/>
    <property name="Frames" type="int" value="18"/>
   </properties>
  </object>
  <object id="698" gid="16388" x="4256" y="272" width="16" height="16">
   <properties>
    <property name="Channel" value="2"/>
    <property name="Color" type="color" value="#ffff00ec"/>
    <property name="Frames" type="int" value="18"/>
   </properties>
  </object>
  <object id="684" gid="16388" x="4672" y="224" width="16" height="16">
   <properties>
    <property name="Channel" value="BG"/>
    <property name="Color" type="color" value="#ffff00ec"/>
    <property name="Frames" type="int" value="18"/>
   </properties>
  </object>
  <object id="695" gid="16388" x="4672" y="272" width="16" height="16">
   <properties>
    <property name="Channel" value="2"/>
    <property name="Color" type="color" value="#ffff00ec"/>
    <property name="Frames" type="int" value="18"/>
   </properties>
  </object>
  <object id="676" gid="16388" x="3776" y="224" width="16" height="16">
   <properties>
    <property name="Channel" value="BG"/>
    <property name="Color" type="color" value="#ffff00ec"/>
    <property name="Frames" type="int" value="18"/>
   </properties>
  </object>
  <object id="702" gid="16388" x="3776" y="272" width="16" height="16">
   <properties>
    <property name="Channel" value="2"/>
    <property name="Color" type="color" value="#ffff00ec"/>
    <property name="Frames" type="int" value="18"/>
   </properties>
  </object>
  <object id="678" gid="16388" x="3936" y="224" width="16" height="16">
   <properties>
    <property name="Channel" value="BG"/>
    <property name="Color" type="color" value="#ffc00fff"/>
    <property name="Frames" type="int" value="18"/>
   </properties>
  </object>
  <object id="700" gid="16388" x="3936" y="272" width="16" height="16">
   <properties>
    <property name="Channel" value="2"/>
    <property name="Color" type="color" value="#ffc00fff"/>
    <property name="Frames" type="int" value="18"/>
   </properties>
  </object>
  <object id="673" gid="16388" x="3603" y="224" width="16" height="16">
   <properties>
    <property name="Channel" value="BG"/>
    <property name="Color" type="color" value="#ff8900cb"/>
    <property name="Frames" type="int" value="36"/>
   </properties>
  </object>
  <object id="706" gid="16388" x="3603" y="272" width="16" height="16">
   <properties>
    <property name="Channel" value="2"/>
    <property name="Color" type="color" value="#ff8900cb"/>
    <property name="Frames" type="int" value="36"/>
   </properties>
  </object>
  <object id="674" gid="16388" x="3732" y="224" width="16" height="16">
   <properties>
    <property name="Channel" value="BG"/>
    <property name="Color" type="color" value="#ff8900cb"/>
    <property name="Frames" type="int" value="36"/>
   </properties>
  </object>
  <object id="705" gid="16388" x="3732" y="272" width="16" height="16">
   <properties>
    <property name="Channel" value="2"/>
    <property name="Color" type="color" value="#ff8900cb"/>
    <property name="Frames" type="int" value="36"/>
   </properties>
  </object>
  <object id="677" gid="16388" x="3843" y="224" width="16" height="16">
   <properties>
    <property name="Channel" value="BG"/>
    <property name="Color" type="color" value="#ff8900cb"/>
    <property name="Frames" type="int" value="36"/>
   </properties>
  </object>
  <object id="703" gid="16388" x="3843" y="272" width="16" height="16">
   <properties>
    <property name="Channel" value="2"/>
    <property name="Color" type="color" value="#ff8900cb"/>
    <property name="Frames" type="int" value="36"/>
   </properties>
  </object>
  <object id="679" gid="16388" x="4020" y="224" width="16" height="16">
   <properties>
    <property name="Channel" value="BG"/>
    <property name="Color" type="color" value="#ffa000ff"/>
    <property name="Frames" type="int" value="570"/>
   </properties>
  </object>
  <object id="701" gid="16388" x="4020" y="272" width="16" height="16">
   <properties>
    <property name="Channel" value="2"/>
    <property name="Color" type="color" value="#ffa000ff"/>
    <property name="Frames" type="int" value="570"/>
   </properties>
  </object>
  <object id="685" gid="16388" x="4227" y="224" width="16" height="16">
   <properties>
    <property name="Channel" value="BG"/>
    <property name="Color" type="color" value="#ffa000ff"/>
    <property name="Frames" type="int" value="495"/>
   </properties>
  </object>
  <object id="694" gid="16388" x="4227" y="272" width="16" height="16">
   <properties>
    <property name="Channel" value="2"/>
    <property name="Color" type="color" value="#ffa000ff"/>
    <property name="Frames" type="int" value="495"/>
   </properties>
  </object>
  <object id="686" gid="16388" x="4340" y="224" width="16" height="16">
   <properties>
    <property name="Channel" value="BG"/>
    <property name="Color" type="color" value="#ffa000ff"/>
    <property name="Frames" type="int" value="455"/>
   </properties>
  </object>
  <object id="693" gid="16388" x="4340" y="272" width="16" height="16">
   <properties>
    <property name="Channel" value="2"/>
    <property name="Color" type="color" value="#ffa000ff"/>
    <property name="Frames" type="int" value="455"/>
   </properties>
  </object>
  <object id="687" gid="16388" x="4515" y="224" width="16" height="16">
   <properties>
    <property name="Channel" value="BG"/>
    <property name="Color" type="color" value="#ffa000ff"/>
    <property name="Frames" type="int" value="392"/>
   </properties>
  </object>
  <object id="692" gid="16388" x="4515" y="272" width="16" height="16">
   <properties>
    <property name="Channel" value="2"/>
    <property name="Color" type="color" value="#ffa000ff"/>
    <property name="Frames" type="int" value="392"/>
   </properties>
  </object>
  <object id="688" gid="16388" x="4643" y="224" width="16" height="16">
   <properties>
    <property name="Channel" value="BG"/>
    <property name="Color" type="color" value="#ffa000ff"/>
    <property name="Frames" type="int" value="346"/>
   </properties>
  </object>
  <object id="691" gid="16388" x="4643" y="272" width="16" height="16">
   <properties>
    <property name="Channel" value="2"/>
    <property name="Color" type="color" value="#ffa000ff"/>
    <property name="Frames" type="int" value="346"/>
   </properties>
  </object>
  <object id="689" gid="16388" x="4756" y="224" width="16" height="16">
   <properties>
    <property name="Channel" value="BG"/>
    <property name="Color" type="color" value="#ffa000ff"/>
    <property name="Frames" type="int" value="305"/>
   </properties>
  </object>
  <object id="690" gid="16388" x="4756" y="272" width="16" height="16">
   <properties>
    <property name="Channel" value="2"/>
    <property name="Color" type="color" value="#ffa000ff"/>
    <property name="Frames" type="int" value="305"/>
   </properties>
  </object>
  <object id="670" gid="16388" x="3184" y="320" width="16" height="16">
   <properties>
    <property name="Channel" value="4"/>
    <property name="Color" type="color" value="#ff770038"/>
    <property name="Color Blending" type="bool" value="true"/>
    <property name="Frames" type="int" value="60"/>
   </properties>
  </object>
  <object id="664" gid="16388" x="2486" y="224" width="16" height="16">
   <properties>
    <property name="Channel" value="BG"/>
    <property name="Color" type="color" value="#ff580031"/>
    <property name="Frames" type="int" value="240"/>
   </properties>
  </object>
  <object id="590" gid="16388" x="528" y="208" width="16" height="16">
   <properties>
    <property name="Channel" value="LINE"/>
    <property name="Color" type="color" value="#ff000000"/>
    <property name="Color Blending" type="bool" value="true"/>
   </properties>
  </object>
  <object id="620" gid="16388" x="1192" y="208" width="16" height="16">
   <properties>
    <property name="Channel" value="LINE"/>
    <property name="Color" type="color" value="#ff000000"/>
    <property name="Color Blending" type="bool" value="true"/>
   </properties>
  </object>
  <object id="644" gid="16388" x="1840" y="208" width="16" height="16">
   <properties>
    <property name="Channel" value="LINE"/>
    <property name="Color" type="color" value="#ff000000"/>
    <property name="Color Blending" type="bool" value="true"/>
   </properties>
  </object>
  <object id="663" gid="16388" x="2470" y="208" width="16" height="16">
   <properties>
    <property name="Channel" value="LINE"/>
    <property name="Color" type="color" value="#ff000000"/>
    <property name="Color Blending" type="bool" value="false"/>
   </properties>
  </object>
  <object id="667" gid="16388" x="3184" y="208" width="16" height="16">
   <properties>
    <property name="Channel" value="LINE"/>
    <property name="Color" type="color" value="#fffafeff"/>
    <property name="Color Blending" type="bool" value="false"/>
   </properties>
  </object>
  <object id="669" gid="16388" x="3200" y="208" width="16" height="16">
   <properties>
    <property name="Channel" value="LINE"/>
    <property name="Color" type="color" value="#ff00dfff"/>
    <property name="Color Blending" type="bool" value="false"/>
    <property name="Frames" type="int" value="30"/>
   </properties>
  </object>
  <object id="592" gid="16388" x="528" y="240" width="16" height="16">
   <properties>
    <property name="Channel" value="GROUND"/>
    <property name="Color" type="color" value="#ff000000"/>
   </properties>
  </object>
  <object id="616" gid="16388" x="1192" y="240" width="16" height="16">
   <properties>
    <property name="Channel" value="GROUND"/>
    <property name="Color" type="color" value="#ff000000"/>
   </properties>
  </object>
  <object id="640" gid="16388" x="1840" y="240" width="16" height="16">
   <properties>
    <property name="Channel" value="GROUND"/>
    <property name="Color" type="color" value="#ff000000"/>
   </properties>
  </object>
  <object id="661" gid="16388" x="2470" y="240" width="16" height="16">
   <properties>
    <property name="Channel" value="GROUND"/>
    <property name="Color" type="color" value="#ff000000"/>
   </properties>
  </object>
  <object id="594" gid="16388" x="528" y="256" width="16" height="16">
   <properties>
    <property name="Channel" value="OBJ"/>
    <property name="Color" type="color" value="#ff000000"/>
   </properties>
  </object>
  <object id="614" gid="16388" x="1192" y="256" width="16" height="16">
   <properties>
    <property name="Channel" value="OBJ"/>
    <property name="Color" type="color" value="#ff000000"/>
   </properties>
  </object>
  <object id="638" gid="16388" x="1840" y="256" width="16" height="16">
   <properties>
    <property name="Channel" value="OBJ"/>
    <property name="Color" type="color" value="#ff000000"/>
   </properties>
  </object>
  <object id="660" gid="16388" x="2470" y="256" width="16" height="16">
   <properties>
    <property name="Channel" value="OBJ"/>
    <property name="Color" type="color" value="#ff000000"/>
   </properties>
  </object>
  <object id="709" gid="16388" x="3210" y="256" width="16" height="16">
   <properties>
    <property name="Channel" value="OBJ"/>
    <property name="Color" type="color" value="#ffffffff"/>
   </properties>
  </object>
  <object id="577" gid="16388" x="80" y="288" width="16" height="16">
   <properties>
    <property name="Channel" value="2"/>
    <property name="Color" type="color" value="#ff9f9f9f"/>
   </properties>
  </object>
  <object id="578" gid="16388" x="235" y="288" width="16" height="16">
   <properties>
    <property name="Channel" value="2"/>
    <property name="Color" type="color" value="#ff9f9f9f"/>
   </properties>
  </object>
  <object id="583" gid="16388" x="374" y="288" width="16" height="16">
   <properties>
    <property name="Channel" value="2"/>
    <property name="Color" type="color" value="#ff9f9f9f"/>
   </properties>
  </object>
  <object id="598" gid="16388" x="708" y="288" width="16" height="16">
   <properties>
    <property name="Channel" value="2"/>
    <property name="Color" type="color" value="#ffa8a8a8"/>
   </properties>
  </object>
  <object id="602" gid="16388" x="868" y="288" width="16" height="16">
   <properties>
    <property name="Channel" value="2"/>
    <property name="Color" type="color" value="#ffa8a8a8"/>
   </properties>
  </object>
  <object id="606" gid="16388" x="1036" y="288" width="16" height="16">
   <properties>
    <property name="Channel" value="2"/>
    <property name="Color" type="color" value="#ffa8a8a8"/>
   </properties>
  </object>
  <object id="622" gid="16388" x="1364" y="288" width="16" height="16">
   <properties>
    <property name="Channel" value="2"/>
    <property name="Color" type="color" value="#ffff39f6"/>
   </properties>
  </object>
  <object id="630" gid="16388" x="1676" y="288" width="16" height="16">
   <properties>
    <property name="Channel" value="2"/>
    <property name="Color" type="color" value="#ffff39f6"/>
   </properties>
  </object>
  <object id="646" gid="16388" x="1994" y="288" width="16" height="16">
   <properties>
    <property name="Channel" value="2"/>
    <property name="Color" type="color" value="#ffff39f6"/>
   </properties>
  </object>
  <object id="650" gid="16388" x="2148" y="288" width="16" height="16">
   <properties>
    <property name="Channel" value="2"/>
    <property name="Color" type="color" value="#ffff39f6"/>
   </properties>
  </object>
  <object id="654" gid="16388" x="2304" y="288" width="16" height="16">
   <properties>
    <property name="Channel" value="2"/>
    <property name="Color" type="color" value="#ffff39f6"/>
   </properties>
  </object>
  <object id="626" gid="16388" x="1520" y="288" width="16" height="16">
   <properties>
    <property name="Channel" value="2"/>
    <property name="Color" type="color" value="#ffff39f6"/>
   </properties>
  </object>
  <object id="586" gid="16388" x="528" y="288" width="16" height="16">
   <properties>
    <property name="Channel" value="2"/>
    <property name="Color" type="color" value="#fffffafa"/>
   </properties>
  </object>
  <object id="610" gid="16388" x="1192" y="288" width="16" height="16">
   <properties>
    <property name="Channel" value="2"/>
    <property name="Color" type="color" value="#fffffafa"/>
   </properties>
  </object>
  <object id="634" gid="16388" x="1840" y="288" width="16" height="16">
   <properties>
    <property name="Channel" value="2"/>
    <property name="Color" type="color" value="#fffffafa"/>
   </properties>
  </object>
  <object id="658" gid="16388" x="2470" y="288" width="16" height="16">
   <properties>
    <property name="Channel" value="2"/>
    <property name="Color" type="color" value="#ffff00a2"/>
   </properties>
  </object>
  <object id="665" gid="16388" x="2486" y="288" width="16" height="16">
   <properties>
    <property name="Channel" value="2"/>
    <property name="Color" type="color" value="#ff580031"/>
    <property name="Frames" type="int" value="240"/>
   </properties>
  </object>
  <object id="596" gid="16388" x="528" y="272" width="16" height="16">
   <properties>
    <property name="Channel" value="1"/>
    <property name="Color" type="color" value="#ff000000"/>
   </properties>
  </object>
  <object id="612" gid="16388" x="1192" y="272" width="16" height="16">
   <properties>
    <property name="Channel" value="1"/>
    <property name="Color" type="color" value="#ff000000"/>
   </properties>
  </object>
  <object id="636" gid="16388" x="1840" y="272" width="16" height="16">
   <properties>
    <property name="Channel" value="1"/>
    <property name="Color" type="color" value="#ff000000"/>
   </properties>
  </object>
  <object id="659" gid="16388" x="2470" y="272" width="16" height="16">
   <properties>
    <property name="Channel" value="1"/>
    <property name="Color" type="color" value="#ff000000"/>
   </properties>
  </object>
  <object id="575" gid="16388" x="113" y="224" width="16" height="16">
   <properties>
    <property name="Channel" value="BG"/>
    <property name="Color" type="color" value="#ff8e8e8e"/>
    <property name="Frames" type="int" value="30"/>
   </properties>
  </object>
  <object id="580" gid="16388" x="268" y="224" width="16" height="16">
   <properties>
    <property name="Channel" value="BG"/>
    <property name="Color" type="color" value="#ff8e8e8e"/>
    <property name="Frames" type="int" value="30"/>
   </properties>
  </object>
  <object id="584" gid="16388" x="407" y="224" width="16" height="16">
   <properties>
    <property name="Channel" value="BG"/>
    <property name="Color" type="color" value="#ff8e8e8e"/>
    <property name="Frames" type="int" value="30"/>
   </properties>
  </object>
  <object id="601" gid="16388" x="741" y="224" width="16" height="16">
   <properties>
    <property name="Channel" value="BG"/>
    <property name="Color" type="color" value="#ff8e8e8e"/>
    <property name="Frames" type="int" value="30"/>
   </properties>
  </object>
  <object id="605" gid="16388" x="901" y="224" width="16" height="16">
   <properties>
    <property name="Channel" value="BG"/>
    <property name="Color" type="color" value="#ff8e8e8e"/>
    <property name="Frames" type="int" value="30"/>
   </properties>
  </object>
  <object id="609" gid="16388" x="1069" y="224" width="16" height="16">
   <properties>
    <property name="Channel" value="BG"/>
    <property name="Color" type="color" value="#ff8e8e8e"/>
    <property name="Frames" type="int" value="30"/>
   </properties>
  </object>
  <object id="625" gid="16388" x="1397" y="224" width="16" height="16">
   <properties>
    <property name="Channel" value="BG"/>
    <property name="Color" type="color" value="#ffb400ff"/>
    <property name="Frames" type="int" value="30"/>
   </properties>
  </object>
  <object id="633" gid="16388" x="1709" y="224" width="16" height="16">
   <properties>
    <property name="Channel" value="BG"/>
    <property name="Color" type="color" value="#ffb400ff"/>
    <property name="Frames" type="int" value="30"/>
   </properties>
  </object>
  <object id="649" gid="16388" x="2027" y="224" width="16" height="16">
   <properties>
    <property name="Channel" value="BG"/>
    <property name="Color" type="color" value="#ffb400ff"/>
    <property name="Frames" type="int" value="30"/>
   </properties>
  </object>
  <object id="653" gid="16388" x="2181" y="224" width="16" height="16">
   <properties>
    <property name="Channel" value="BG"/>
    <property name="Color" type="color" value="#ffb400ff"/>
    <property name="Frames" type="int" value="30"/>
   </properties>
  </object>
  <object id="657" gid="16388" x="2337" y="224" width="16" height="16">
   <properties>
    <property name="Channel" value="BG"/>
    <property name="Color" type="color" value="#ffb400ff"/>
    <property name="Frames" type="int" value="30"/>
   </properties>
  </object>
  <object id="629" gid="16388" x="1553" y="224" width="16" height="16">
   <properties>
    <property name="Channel" value="BG"/>
    <property name="Color" type="color" value="#ffb400ff"/>
    <property name="Frames" type="int" value="30"/>
   </properties>
  </object>
  <object id="589" gid="16388" x="603" y="224" width="16" height="16">
   <properties>
    <property name="Channel" value="BG"/>
    <property name="Color" type="color" value="#ff8e8e8e"/>
    <property name="Frames" type="int" value="0"/>
   </properties>
  </object>
  <object id="619" gid="16388" x="1267" y="224" width="16" height="16">
   <properties>
    <property name="Channel" value="BG"/>
    <property name="Color" type="color" value="#ffb400ff"/>
    <property name="Frames" type="int" value="0"/>
   </properties>
  </object>
  <object id="643" gid="16388" x="1915" y="224" width="16" height="16">
   <properties>
    <property name="Channel" value="BG"/>
    <property name="Color" type="color" value="#ffb400ff"/>
    <property name="Frames" type="int" value="0"/>
   </properties>
  </object>
  <object id="591" gid="16388" x="603" y="208" width="16" height="16">
   <properties>
    <property name="Channel" value="LINE"/>
    <property name="Color" type="color" value="#ffffffff"/>
    <property name="Frames" type="int" value="0"/>
   </properties>
  </object>
  <object id="621" gid="16388" x="1267" y="208" width="16" height="16">
   <properties>
    <property name="Channel" value="LINE"/>
    <property name="Color" type="color" value="#ffffffff"/>
    <property name="Frames" type="int" value="0"/>
   </properties>
  </object>
  <object id="645" gid="16388" x="1915" y="208" width="16" height="16">
   <properties>
    <property name="Channel" value="LINE"/>
    <property name="Color" type="color" value="#ffffffff"/>
    <property name="Frames" type="int" value="0"/>
   </properties>
  </object>
  <object id="593" gid="16388" x="603" y="240" width="16" height="16">
   <properties>
    <property name="Channel" value="GROUND"/>
    <property name="Color" type="color" value="#ff3a3a3a"/>
    <property name="Frames" type="int" value="0"/>
   </properties>
  </object>
  <object id="617" gid="16388" x="1267" y="240" width="16" height="16">
   <properties>
    <property name="Channel" value="GROUND"/>
    <property name="Color" type="color" value="#ff5f0081"/>
    <property name="Frames" type="int" value="0"/>
   </properties>
  </object>
  <object id="641" gid="16388" x="1915" y="240" width="16" height="16">
   <properties>
    <property name="Channel" value="GROUND"/>
    <property name="Color" type="color" value="#ff5f0081"/>
    <property name="Frames" type="int" value="0"/>
   </properties>
  </object>
  <object id="595" gid="16388" x="603" y="256" width="16" height="16">
   <properties>
    <property name="Channel" value="OBJ"/>
    <property name="Color" type="color" value="#ffffffff"/>
    <property name="Frames" type="int" value="0"/>
   </properties>
  </object>
  <object id="615" gid="16388" x="1267" y="256" width="16" height="16">
   <properties>
    <property name="Channel" value="OBJ"/>
    <property name="Color" type="color" value="#ffffffff"/>
    <property name="Frames" type="int" value="0"/>
   </properties>
  </object>
  <object id="639" gid="16388" x="1915" y="256" width="16" height="16">
   <properties>
    <property name="Channel" value="OBJ"/>
    <property name="Color" type="color" value="#ffffffff"/>
    <property name="Frames" type="int" value="0"/>
   </properties>
  </object>
  <object id="576" gid="16388" x="113" y="288" width="16" height="16">
   <properties>
    <property name="Channel" value="2"/>
    <property name="Color" type="color" value="#ff8e8e8e"/>
    <property name="Frames" type="int" value="30"/>
   </properties>
  </object>
  <object id="579" gid="16388" x="268" y="288" width="16" height="16">
   <properties>
    <property name="Channel" value="2"/>
    <property name="Color" type="color" value="#ff8e8e8e"/>
    <property name="Frames" type="int" value="30"/>
   </properties>
  </object>
  <object id="582" gid="16388" x="407" y="288" width="16" height="16">
   <properties>
    <property name="Channel" value="2"/>
    <property name="Color" type="color" value="#ff8e8e8e"/>
    <property name="Frames" type="int" value="30"/>
   </properties>
  </object>
  <object id="599" gid="16388" x="741" y="288" width="16" height="16">
   <properties>
    <property name="Channel" value="2"/>
    <property name="Color" type="color" value="#ff8e8e8e"/>
    <property name="Frames" type="int" value="30"/>
   </properties>
  </object>
  <object id="603" gid="16388" x="901" y="288" width="16" height="16">
   <properties>
    <property name="Channel" value="2"/>
    <property name="Color" type="color" value="#ff8e8e8e"/>
    <property name="Frames" type="int" value="30"/>
   </properties>
  </object>
  <object id="607" gid="16388" x="1069" y="288" width="16" height="16">
   <properties>
    <property name="Channel" value="2"/>
    <property name="Color" type="color" value="#ff8e8e8e"/>
    <property name="Frames" type="int" value="30"/>
   </properties>
  </object>
  <object id="623" gid="16388" x="1397" y="288" width="16" height="16">
   <properties>
    <property name="Channel" value="2"/>
    <property name="Color" type="color" value="#ffb400ff"/>
    <property name="Frames" type="int" value="30"/>
   </properties>
  </object>
  <object id="631" gid="16388" x="1709" y="288" width="16" height="16">
   <properties>
    <property name="Channel" value="2"/>
    <property name="Color" type="color" value="#ffb400ff"/>
    <property name="Frames" type="int" value="30"/>
   </properties>
  </object>
  <object id="647" gid="16388" x="2027" y="288" width="16" height="16">
   <properties>
    <property name="Channel" value="2"/>
    <property name="Color" type="color" value="#ffb400ff"/>
    <property name="Frames" type="int" value="30"/>
   </properties>
  </object>
  <object id="651" gid="16388" x="2181" y="288" width="16" height="16">
   <properties>
    <property name="Channel" value="2"/>
    <property name="Color" type="color" value="#ffb400ff"/>
    <property name="Frames" type="int" value="30"/>
   </properties>
  </object>
  <object id="655" gid="16388" x="2337" y="288" width="16" height="16">
   <properties>
    <property name="Channel" value="2"/>
    <property name="Color" type="color" value="#ffb400ff"/>
    <property name="Frames" type="int" value="30"/>
   </properties>
  </object>
  <object id="627" gid="16388" x="1553" y="288" width="16" height="16">
   <properties>
    <property name="Channel" value="2"/>
    <property name="Color" type="color" value="#ffb400ff"/>
    <property name="Frames" type="int" value="30"/>
   </properties>
  </object>
  <object id="587" gid="16388" x="603" y="288" width="16" height="16">
   <properties>
    <property name="Channel" value="2"/>
    <property name="Color" type="color" value="#ff8e8e8e"/>
    <property name="Frames" type="int" value="0"/>
   </properties>
  </object>
  <object id="611" gid="16388" x="1267" y="288" width="16" height="16">
   <properties>
    <property name="Channel" value="2"/>
    <property name="Color" type="color" value="#ffb400ff"/>
    <property name="Frames" type="int" value="0"/>
   </properties>
  </object>
  <object id="635" gid="16388" x="1915" y="288" width="16" height="16">
   <properties>
    <property name="Channel" value="2"/>
    <property name="Color" type="color" value="#ffb400ff"/>
    <property name="Frames" type="int" value="0"/>
   </properties>
  </object>
  <object id="597" gid="16388" x="603" y="272" width="16" height="16">
   <properties>
    <property name="Channel" value="1"/>
    <property name="Color" type="color" value="#ffffffff"/>
    <property name="Frames" type="int" value="0"/>
   </properties>
  </object>
  <object id="613" gid="16388" x="1267" y="272" width="16" height="16">
   <properties>
    <property name="Channel" value="1"/>
    <property name="Color" type="color" value="#ffffffff"/>
    <property name="Frames" type="int" value="0"/>
   </properties>
  </object>
  <object id="637" gid="16388" x="1915" y="272" width="16" height="16">
   <properties>
    <property name="Channel" value="1"/>
    <property name="Color" type="color" value="#ffffffff"/>
    <property name="Frames" type="int" value="0"/>
   </properties>
  </object>
  <object id="666" gid="16388" x="0" y="320" width="16" height="16">
   <properties>
    <property name="Channel" value="4"/>
    <property name="Color" type="color" value="#ff000000"/>
    <property name="Color Blending" type="bool" value="true"/>
   </properties>
  </object>
 </objectgroup>
</map>
