<?xml version="1.0" encoding="UTF-8"?>
<map version="1.10" tiledversion="1.11.2" orientation="orthogonal" renderorder="right-down" width="1398" height="27" tilewidth="16" tileheight="16" infinite="0" nextlayerid="8" nextobjectid="3857">
 <editorsettings>
  <export target="scarletsurge.json" format="json"/>
 </editorsettings>
 <properties>
  <property name="BG" type="color" value="#ff000000"/>
  <property name="Background Type" type="int" value="0"/>
  <property name="COL1" type="color" value="#ff000000"/>
  <property name="COL2" type="color" value="#ff000000"/>
  <property name="COL3" type="color" value="#ff000000"/>
  <property name="COL4" type="color" value="#ffb99400"/>
  <property name="Difficulty" value="HARDER"/>
  <property name="GROUND" type="color" value="#ff000000"/>
  <property name="Gamemode" type="int" value="1"/>
  <property name="Ground Type" type="int" value="0"/>
  <property name="Level name" value="SCARLET SURGE"/>
  <property name="OBJ" type="color" value="#ff000000"/>
  <property name="Song" value="STEREOMA"/>
  <property name="Speed" type="int" value="0"/>
  <property name="Stars" type="int" value="6"/>
 </properties>
 <tileset firstgid="1" source="famidash.tsx"/>
 <tileset firstgid="16385" source="sprites.tsx"/>
 <layer id="4" name="l2" width="1398" height="27">
  <data encoding="csv">
1,1,1,1,1,1,1,1,1,1,1,1,1,1,1,1,1,1,1,1,1,1,1,1,1,1,1,1,1,1,1,1,1,1,1,1,1,1,1,1,1,1,1,1,1,1,1,1,1,1,1,1,1,1,1,1,1,1,1,1,1,1,1,1,1,1,1,1,1,1,1,1,1,1,1,1,1,1,1,1,1,1,1,1,1,1,1,1,1,1,1,1,1,1,1,1,1,1,1,1,1,1,1,1,1,1,1,1,1,1,1,1,1,1,1,1,1,1,1,1,1,1,1,1,1,1,1,1,1,1,1,1,1,1,1,1,1,1,1,1,1,1,1,1,1,1,1,1,1,1,1,1,1,1,1,1,1,1,1,1,1,1,1,1,1,1,1,1,1,1,1,1,1,1,1,1,1,1,1,1,1,1,1,1,1,1,1,1,1,1,1,1,1,1,1,1,1,1,1,1,1,1,1,1,1,1,1,1,1,1,1,1,1,1,1,1,1,1,1,1,1,1,1,1,1,1,1,1,1,1,1,1,1,1,1,1,1,1,1,1,1,1,1,1,1,1,1,1,1,1,1,1,1,1,1,1,1,1,1,1,1,1,1,1,1,1,1,1,1,1,1,1,1,1,1,1,1,1,1,1,1,1,1,1,1,1,1,1,1,1,1,1,1,1,1,1,1,1,1,1,1,1,1,1,1,1,1,1,1,1,1,1,1,1,1,1,1,1,1,1,1,1,1,1,1,1,1,1,1,1,1,1,1,1,1,1,1,1,1,1,1,1,1,1,1,1,1,1,1,1,1,1,1,1,1,1,1,1,1,1,1,1,1,1,1,1,1,1,1,1,1,1,1,1,1,1,1,1,1,1,1,1,1,1,1,1,1,1,1,1,1,1,1,1,1,1,1,1,1,1,1,1,1,1,1,1,1,1,1,1,1,1,1,1,1,1,1,1,1,1,1,1,1,1,1,1,1,1,1,1,1,1,1,1,1,1,1,1,1,1,1,1,1,1,1,1,1,1,1,1,1,1,1,1,1,1,1,1,1,1,1,1,1,1,1,1,1,1,1,1,1,1,1,1,1,1,1,1,1,1,1,1,1,1,1,1,1,1,1,1,1,1,1,1,1,1,1,1,1,1,1,1,1,1,1,1,1,1,1,1,1,1,1,1,1,1,1,1,1,1,1,1,1,1,1,1,1,1,1,1,1,1,1,1,1,1,1,1,1,1,1,1,1,1,1,1,1,1,1,1,1,1,1,1,1,1,1,1,1,1,1,1,1,1,1,1,1,1,1,1,1,1,1,1,1,1,1,1,1,1,1,1,1,1,1,1,1,1,1,1,1,1,1,1,1,1,1,1,1,1,1,1,1,1,1,1,1,1,1,1,1,1,1,1,1,1,1,1,1,1,1,1,1,1,1,1,1,1,1,1,1,1,1,1,1,1,1,1,1,1,1,1,1,1,1,1,1,1,1,1,1,1,1,1,1,1,1,1,1,1,1,1,1,1,1,1,1,1,1,1,1,1,1,1,1,1,1,1,1,1,1,1,1,1,1,1,1,1,1,1,1,1,1,1,1,1,1,1,1,1,1,1,1,1,1,1,1,1,1,1,1,1,1,1,1,1,1,1,1,1,1,1,1,1,1,1,1,1,1,1,1,1,1,1,1,1,1,1,1,1,1,1,1,1,1,1,1,1,1,1,1,1,1,1,1,1,1,1,1,1,1,1,1,1,1,1,3472,1,1,1,1,1,1,1,1,1,1,1,1,1,1,1,1,1,1,1,1,1,1,1,1,1,1,1,1,1,1,1,1,1,1,1,1,1,1,1,1,1,1,1,1,1,1,1,1,1,1,1,1,1,1,1,1,1,1,1,1,1,1,1,1,1,1,1,1,1,1,1,1,1,1,1,1,1,1,1,1,1,1,1,1,1,1,1,1,1,1,1,1,1,1,1,1,1,1,1,1,1,1,1,1,1,1,1,1,1,1,1,1,1,1,1,1,1,1,1,1,1,1,1,1,1,1,1,1,0,0,0,0,0,0,0,0,0,0,0,0,0,0,0,0,0,0,0,0,0,0,0,0,0,0,0,0,0,0,0,0,0,0,0,0,0,0,0,0,0,0,0,0,0,0,0,0,0,0,0,0,0,0,0,0,0,0,0,0,0,0,0,0,0,0,0,0,0,0,0,0,0,0,0,0,0,0,0,0,0,0,0,0,0,0,0,0,0,0,0,0,0,0,0,0,0,0,0,0,0,0,0,0,0,0,0,0,0,0,0,0,0,0,0,0,0,0,0,0,0,0,0,0,0,0,0,0,0,0,0,0,0,0,0,0,0,0,0,0,0,0,0,0,0,0,0,0,0,0,0,0,0,0,0,0,0,0,0,0,0,0,0,0,0,0,0,0,0,0,0,0,0,0,0,0,0,0,0,0,0,0,0,0,0,0,0,0,0,0,0,0,0,0,0,0,0,0,0,0,0,0,0,0,0,0,0,0,0,0,0,0,0,0,0,0,0,0,0,0,0,0,0,0,0,0,0,0,0,0,0,0,0,0,0,0,0,0,0,0,0,0,0,0,0,0,0,0,0,0,0,0,0,0,0,0,0,0,0,0,0,0,0,0,0,0,0,0,0,0,0,0,0,0,0,0,0,0,0,0,0,0,0,0,0,0,0,0,0,0,0,0,0,0,0,0,0,0,0,0,0,0,0,0,0,0,0,0,0,0,0,0,0,0,0,0,0,0,0,0,0,0,0,0,0,0,0,0,0,0,0,0,0,0,0,0,0,0,0,0,0,0,0,0,0,0,0,0,0,0,0,0,0,0,0,0,0,0,0,0,0,0,0,0,0,0,0,0,0,0,0,0,0,0,0,0,0,0,0,0,0,0,0,0,0,0,0,0,0,0,0,0,0,0,0,0,0,0,0,0,0,0,0,0,0,0,0,0,0,0,0,0,0,0,0,0,0,0,0,0,0,0,0,0,0,0,0,0,0,0,0,0,0,0,0,0,0,0,0,0,0,0,0,0,0,0,0,0,0,0,0,0,0,0,0,0,0,0,0,0,0,0,0,0,0,0,0,0,0,0,0,0,0,0,0,0,0,0,0,0,0,0,0,0,0,0,0,0,0,0,0,0,0,0,0,0,0,0,0,0,0,0,0,
1,1,1,1,1,1,1,1,1,1,1,1,1,1,1,1,1,1,1,1,1,1,1,1,1,1,1,1,1,1,1,1,1,1,1,1,1,1,1,1,1,1,1,1,1,1,1,1,1,1,1,1,1,1,1,1,1,1,1,1,1,1,1,1,1,1,1,1,1,1,1,1,1,1,1,1,1,1,1,1,1,1,1,1,1,1,1,1,1,1,1,1,1,1,1,1,1,1,1,1,1,1,1,1,1,1,1,1,1,1,1,1,1,1,1,1,1,1,1,1,1,1,1,1,1,1,1,1,1,1,1,1,1,1,1,1,1,1,1,1,1,1,1,1,1,1,1,1,1,1,1,1,1,1,1,1,1,1,1,1,1,1,1,1,1,1,1,1,1,1,1,1,1,1,1,1,1,1,1,1,1,1,1,1,1,1,1,1,1,1,1,1,1,1,1,1,1,1,1,1,1,1,1,1,1,1,1,1,1,1,1,1,1,1,1,1,1,1,1,1,1,1,1,1,1,1,1,1,1,1,1,1,1,1,1,1,1,1,1,1,1,1,1,1,1,1,1,1,1,1,1,1,1,1,1,1,1,1,1,1,1,1,1,1,1,1,1,1,1,1,1,1,1,1,1,1,1,1,1,1,1,1,1,1,1,1,1,1,1,1,1,1,1,1,1,1,1,1,1,1,1,1,1,1,1,1,1,1,1,1,1,1,1,1,1,1,1,1,1,1,1,1,1,1,1,1,1,1,1,1,1,1,1,1,1,1,1,1,1,1,1,1,1,1,1,1,1,1,1,1,1,1,1,1,1,1,1,1,1,1,1,1,1,1,1,1,1,1,1,1,1,1,1,1,1,1,1,1,1,1,1,1,1,1,1,1,1,1,1,1,1,1,1,1,1,1,1,1,1,1,1,1,1,1,1,1,1,1,1,1,1,1,1,1,1,1,1,1,1,1,1,1,1,1,1,1,1,1,1,1,1,1,1,1,1,1,1,1,1,1,1,1,1,1,1,1,1,1,1,1,1,1,1,1,1,1,1,1,1,1,1,1,1,1,1,1,1,1,1,1,1,1,1,1,1,1,1,1,1,1,1,1,1,1,1,1,1,1,1,1,1,1,1,1,1,1,1,1,1,1,1,1,1,1,1,1,1,1,1,1,1,1,1,1,1,1,1,1,1,1,1,1,1,1,1,1,1,1,1,1,1,1,1,1,1,1,1,1,1,1,1,1,1,1,1,1,1,1,1,1,1,1,1,1,1,1,1,1,1,1,1,1,1,1,1,1,1,1,1,1,1,1,1,1,1,1,1,1,1,1,1,1,1,1,1,1,1,1,1,1,1,1,1,1,1,1,1,1,1,1,1,1,1,1,1,1,1,1,1,1,1,1,1,1,1,1,1,1,1,1,1,1,1,1,1,1,1,1,1,1,1,1,1,1,1,1,1,1,1,1,1,1,1,1,1,1,1,1,1,1,1,1,1,1,1,1,1,1,1,1,1,1,1,1,1,1,1,1,1,1,1,1,1,1,1,1,1,1,1,1,1,1,1,1,1,1,1,1,1,1,1,1,1,1,1,1,1,1,1,1,1,1,1,1,1,1,1,1,1,1,1,1,1,1,1,1,1,1,1,1,1,1,3472,1,1,1,1,1,1,1,1,1,1,1,1,1,1,1,1,1,1,1,1,1,1,1,1,1,1,1,3472,1,1,1,1,1,1,1,1,3472,1,1,1,1,1,1,3472,1,1,1,1,1,1,1,1,1,1,1,1,1,1,1,1,1,1,1,1,1,1,1,1,1,1,1,1,1,1,1,1,1,1,1,1,1,1,1,1,1,1,1,1,3472,1,1,1,3443,3444,1,1,1,1,1,1,1,1,1,1,1,1,1,1,1,1,1,1,1,1,1,1,1,1,1,1,1,1,1,1,1,1,1,1,1,1,1,1,1,1,1,1,1,1,1,1,1,1,1,1,1,1,1,1,1,1,1,1,1,1,1,1,1,1,1,1,1,1,1,1,1,1,1,1,1,1,1,1,0,0,0,0,0,0,0,0,0,0,0,0,0,0,0,0,0,0,0,0,0,0,0,0,0,0,0,0,0,0,0,0,0,0,0,0,0,0,0,0,0,0,0,0,0,0,0,0,0,0,0,0,0,0,0,0,0,0,0,0,0,0,0,0,0,0,0,0,0,0,0,0,0,0,0,0,0,0,0,0,0,0,0,0,0,0,0,0,0,0,0,0,0,0,0,0,0,0,0,0,0,0,0,0,0,0,0,0,0,0,0,0,0,0,0,0,0,0,0,0,0,0,0,0,0,0,0,0,0,0,0,0,0,0,0,0,0,0,0,0,0,0,0,0,0,0,0,0,0,0,0,0,0,0,0,0,0,0,0,0,0,0,0,0,0,0,0,0,0,0,0,0,0,0,0,0,0,0,0,0,0,0,0,0,0,0,0,0,0,0,0,0,0,0,0,0,0,0,0,0,0,0,0,0,0,0,0,0,0,0,0,0,0,0,0,0,0,0,0,0,0,0,0,0,0,0,0,0,0,0,0,0,0,0,0,0,0,0,0,0,0,0,0,0,0,0,0,0,0,0,0,0,0,0,0,0,0,0,0,0,0,0,0,0,0,0,0,0,0,0,0,0,0,0,0,0,0,0,0,0,0,0,0,0,0,0,0,0,0,0,0,0,0,0,0,0,0,0,0,0,0,0,0,0,0,0,0,0,0,0,0,0,0,0,0,0,0,0,0,0,0,0,0,0,0,0,0,0,0,0,0,0,0,0,0,0,0,0,0,0,0,0,0,0,0,0,0,0,0,0,0,0,0,0,0,0,0,0,0,0,0,0,0,0,0,0,0,0,0,0,0,0,0,0,0,0,0,0,0,0,0,0,0,0,0,0,0,0,0,0,0,0,0,0,0,0,0,0,0,0,0,0,0,0,0,0,0,0,0,0,0,0,0,0,0,0,0,0,0,0,0,0,0,0,0,0,0,0,0,0,0,0,0,0,0,0,0,0,0,0,0,0,0,0,0,0,0,0,0,0,0,0,0,0,0,0,0,0,0,0,0,0,0,0,0,0,0,0,0,0,0,0,0,0,0,0,0,0,0,0,0,0,0,0,0,0,0,0,0,0,0,0,0,0,0,0,0,0,0,0,0,0,0,
1,1,1,1,1,1,1,1,1,1,1,1,1,1,1,1,1,1,1,1,1,1,1,1,1,1,1,1,1,1,1,1,1,1,1,1,1,1,1,1,1,1,1,1,1,1,1,1,1,1,1,1,1,1,1,1,1,1,1,1,1,1,1,1,1,1,1,1,1,1,1,1,1,1,1,1,1,1,1,1,1,1,1,1,1,1,1,1,1,1,1,1,1,1,1,1,1,1,1,1,1,1,1,1,1,1,1,1,1,1,1,1,1,1,1,1,1,1,1,1,1,1,1,1,1,1,1,1,1,1,1,1,1,1,1,1,1,1,1,1,1,1,1,1,1,1,1,1,1,1,1,1,1,1,1,1,1,1,1,1,1,1,1,1,1,1,1,1,1,1,1,1,1,1,1,1,1,1,1,1,1,1,1,1,1,1,1,1,1,1,1,1,1,1,1,1,1,1,1,1,1,1,1,1,1,1,1,1,1,1,1,1,1,1,1,1,1,1,1,1,1,1,1,1,1,1,1,1,1,1,1,1,1,1,1,1,1,1,1,1,1,1,1,1,1,1,1,1,1,1,1,1,1,1,1,1,1,1,1,1,1,1,1,1,1,1,1,1,1,1,1,1,1,1,1,1,1,1,1,1,1,1,1,1,1,1,1,1,1,1,1,1,1,1,1,1,1,1,1,1,1,1,1,1,1,1,1,1,1,1,1,1,1,1,1,1,1,1,1,1,1,1,1,1,1,1,1,1,1,1,1,1,1,1,1,1,1,1,1,1,1,1,1,1,1,1,1,1,1,1,1,1,1,1,1,1,1,1,1,1,1,1,1,1,1,1,1,1,1,1,1,1,1,1,1,1,1,1,1,1,1,1,1,1,1,1,1,1,1,1,1,1,1,1,1,1,1,1,1,1,1,1,1,1,1,1,1,1,1,1,1,1,1,1,1,1,1,1,1,1,1,1,1,1,1,1,1,1,1,1,1,1,1,1,1,1,1,1,1,1,1,1,1,1,1,1,1,1,1,1,1,1,1,1,1,1,1,1,1,1,1,1,1,1,1,1,1,1,1,1,1,1,1,1,1,1,1,1,1,1,1,1,1,1,1,1,1,1,1,1,1,1,1,1,1,1,1,1,1,1,1,1,1,1,1,1,1,1,1,1,1,1,1,1,1,1,1,1,1,1,1,1,1,1,1,1,1,1,1,1,1,1,1,1,1,1,1,1,1,1,1,1,1,1,1,1,1,1,1,1,1,1,1,1,1,1,1,1,1,1,1,1,1,1,1,1,1,1,1,1,1,1,1,1,1,1,1,1,1,1,1,1,1,1,1,1,1,1,1,1,1,1,1,1,1,1,1,1,1,1,1,1,1,1,1,1,1,1,1,1,1,1,1,1,1,1,1,1,1,1,1,1,1,1,1,1,1,1,1,1,1,1,1,1,1,1,1,1,1,1,1,1,1,1,1,1,1,1,1,1,1,1,1,1,1,1,1,1,1,1,1,1,1,1,1,1,1,1,1,1,1,1,1,1,1,1,1,1,1,1,1,1,1,1,1,1,1,1,1,1,1,1,1,1,1,1,1,1,1,1,1,1,1,1,1,1,1,1,1,1,3472,1,1,1,1,1,1,1,1,1,1,1,3472,1,1,1,1,1,1,1,1,1,1,1,1,1,1,3472,1,1,1,1,1,1,1,1,1,1,1,1,3472,1,1,1,3472,1,1,1,1,3472,1,1,1,1,1,1,3472,1,1,1,1,1,1,1,1,1,1,1,1,1,1,1,1,1,1,1,1,1,1,1,1,1,1,1,1,1,1,1,1,1,1,1,1,1,1,1,3472,1,1,1,1,3472,1,1,1,3443,3444,1,1,1,1,1,1,1,1,1,1,1,1,1,1,1,1,1,1,1,1,1,1,1,1,1,1,1,1,1,1,1,1,1,1,1,1,1,1,1,1,1,1,1,1,1,1,1,1,1,1,1,1,1,1,1,1,1,1,1,1,1,1,1,1,1,1,1,1,1,1,1,1,1,1,1,1,1,1,0,0,0,0,0,0,0,0,0,0,0,0,0,0,0,0,0,0,0,0,0,0,0,0,0,0,0,0,0,0,0,0,0,0,0,0,0,0,0,0,0,0,0,0,0,0,0,0,0,0,0,0,0,0,0,0,0,0,0,0,0,0,0,0,0,0,0,0,0,0,0,0,0,0,0,0,0,0,0,0,0,0,0,0,0,0,0,0,0,0,0,0,0,0,0,0,0,0,0,0,0,0,0,0,0,0,0,0,0,0,0,0,0,0,0,0,0,0,0,0,0,0,0,0,0,0,0,0,0,0,0,0,0,0,0,0,0,0,0,0,0,0,0,0,0,0,0,0,0,0,0,0,0,0,0,0,0,0,0,0,0,0,0,0,0,0,0,0,0,0,0,0,0,0,0,0,0,0,0,0,0,0,0,0,0,0,0,0,0,0,0,0,0,0,0,0,0,0,0,0,0,0,0,0,0,0,0,0,0,0,0,0,0,0,0,0,0,0,0,0,0,0,0,0,0,0,0,0,0,0,0,0,0,0,0,0,0,0,0,0,0,0,0,0,0,0,0,0,0,0,0,0,0,0,0,0,0,0,0,0,0,0,0,0,0,0,0,0,0,0,0,0,0,0,0,0,0,0,0,0,0,0,0,0,0,0,0,0,0,0,0,0,0,0,0,0,0,0,0,0,0,0,0,0,0,0,0,0,0,0,0,0,0,0,0,0,0,0,0,0,0,0,0,0,0,0,0,0,0,0,0,0,0,0,0,0,0,0,0,0,0,0,0,0,0,0,0,0,0,0,0,0,0,0,0,0,0,0,0,0,0,0,0,0,0,0,0,0,0,0,0,0,0,0,0,0,0,0,0,0,0,0,0,0,0,0,0,0,0,0,0,0,0,0,0,0,0,0,0,0,0,0,0,0,0,0,0,0,0,0,0,0,0,0,0,0,0,0,0,0,0,0,0,0,0,0,0,0,0,0,0,0,0,0,0,0,0,0,0,0,0,0,0,0,0,0,0,0,0,0,0,0,0,0,0,0,0,0,0,0,0,0,0,0,0,0,0,0,0,0,0,0,0,0,0,0,0,0,0,0,0,0,0,0,0,0,0,0,0,0,0,0,0,0,0,0,0,0,0,0,0,0,0,
1,1,1,1,1,1,1,1,1,1,1,1,1,1,1,1,1,1,1,1,1,1,1,1,1,1,1,1,1,1,1,1,1,1,1,1,1,1,1,1,1,1,1,1,1,1,1,1,1,1,1,1,1,1,1,1,1,1,1,1,1,1,1,1,1,1,1,1,1,1,1,1,1,1,1,1,1,1,1,1,1,1,1,1,1,1,1,1,1,1,1,1,1,1,1,1,1,1,1,1,1,1,1,1,1,1,1,1,1,1,1,1,1,1,1,1,1,1,1,1,1,1,1,1,1,1,1,1,1,1,1,1,1,1,1,1,1,1,1,1,1,1,1,1,1,1,1,1,1,1,1,1,1,1,1,1,1,1,1,1,1,1,1,1,1,1,1,1,1,1,1,1,1,1,1,1,1,1,1,1,1,1,1,1,1,1,1,1,1,1,1,1,1,1,1,1,1,1,1,1,1,1,1,1,1,1,1,1,1,1,1,1,1,1,1,1,1,1,1,1,1,1,1,1,1,1,1,1,1,1,1,1,1,1,1,1,1,1,1,1,1,1,1,1,1,1,1,1,1,1,1,1,1,1,1,1,1,1,1,1,1,1,1,1,1,1,1,1,1,1,1,1,1,1,1,1,1,1,1,1,1,1,1,1,1,1,1,1,1,1,1,1,1,1,1,1,1,1,1,1,1,1,1,1,1,1,1,1,1,1,1,1,1,1,1,1,1,1,1,1,1,1,1,1,1,1,1,1,1,1,1,1,1,1,1,1,1,1,1,1,1,1,1,1,1,1,1,1,1,1,1,1,1,1,1,1,1,1,1,1,1,1,1,1,1,1,1,1,1,1,1,1,1,1,1,1,1,1,1,1,1,1,1,1,1,1,1,1,1,1,1,1,1,1,1,1,1,1,1,1,1,1,1,1,1,1,1,1,1,1,1,1,1,1,1,1,1,1,1,1,1,1,1,1,1,1,1,1,1,1,1,1,1,1,1,1,1,1,1,1,1,1,1,1,1,1,1,1,1,1,1,1,1,1,1,1,1,1,1,1,1,1,1,1,1,1,1,1,1,1,1,1,1,1,1,1,1,1,1,1,1,1,1,1,1,1,1,1,1,1,1,1,1,1,1,1,1,1,1,1,1,1,1,1,1,1,1,1,1,1,1,1,1,1,1,1,1,1,1,1,1,1,1,1,1,1,1,1,1,1,1,1,1,1,1,1,1,1,1,1,1,1,1,1,1,1,1,1,1,1,1,1,1,1,1,1,1,1,1,1,1,1,1,1,1,1,1,1,1,1,1,1,1,1,1,1,1,1,1,1,1,1,1,1,1,1,1,1,1,1,1,1,1,1,1,1,1,1,1,1,1,1,1,1,1,1,1,1,1,1,1,1,1,1,1,1,1,1,1,1,1,1,1,1,1,1,1,1,1,1,1,1,1,1,1,1,1,1,1,1,1,1,1,1,1,1,1,1,1,1,1,1,1,1,1,1,1,1,1,1,1,1,1,1,1,1,1,1,1,1,1,1,1,1,1,1,1,1,1,1,1,1,1,1,1,1,1,1,1,1,1,1,1,1,1,1,1,1,1,1,1,1,1,1,1,1,3472,1,1,1,3472,1,1,1,1,1,1,1,3472,1,1,1,3472,1,1,1,3472,1,1,1,1,1,1,1,1,1,1,3472,1,1,1,1,1,1,1,1,1,1,1,1,3472,1,1,1,3472,1,1,1,1,3472,1,1,3472,1,1,1,3472,1,1,1,1,1,1,1,1,1,1,1,1,1,1,1,1,1,1,1,1,1,1,1,1,1,1,1,1,1,1,1,1,1,1,1,1,1,1,1,3472,1,1,1,1,3472,1,1,1,3443,3444,1,1,1,1,1,1,1,1,1,1,1,1,1,1,1,1,1,1,1,1,1,1,1,1,1,1,1,1,1,1,1,1,1,1,1,1,1,1,1,1,1,1,1,1,1,1,1,1,1,1,1,1,1,1,1,1,1,1,1,1,1,1,1,1,1,1,1,1,1,1,1,1,1,1,1,1,1,1,0,0,0,0,0,0,0,0,0,0,0,0,0,0,0,0,0,0,0,0,0,0,0,0,0,0,0,0,0,0,0,0,0,0,0,0,0,0,0,0,0,0,0,0,0,0,0,0,0,0,0,0,0,0,0,0,0,0,0,0,0,0,0,0,0,0,0,0,0,0,0,0,0,0,0,0,0,0,0,0,0,0,0,0,0,0,0,0,0,0,0,0,0,0,0,0,0,0,0,0,0,0,0,0,0,0,0,0,0,0,0,0,0,0,0,0,0,0,0,0,0,0,0,0,0,0,0,0,0,0,0,0,0,0,0,0,0,0,0,0,0,0,0,0,0,0,0,0,0,0,0,0,0,0,0,0,0,0,0,0,0,0,0,0,0,0,0,0,0,0,0,0,0,0,0,0,0,0,0,0,0,0,0,0,0,0,0,0,0,0,0,0,0,0,0,0,0,0,0,0,0,0,0,0,0,0,0,0,0,0,0,0,0,0,0,0,0,0,0,0,0,0,0,0,0,0,0,0,0,0,0,0,0,0,0,0,0,0,0,0,0,0,0,0,0,0,0,0,0,0,0,0,0,0,0,0,0,0,0,0,0,0,0,0,0,0,0,0,0,0,0,0,0,0,0,0,0,0,0,0,0,0,0,0,0,0,0,0,0,0,0,0,0,0,0,0,0,0,0,0,0,0,0,0,0,0,0,0,0,0,0,0,0,0,0,0,0,0,0,0,0,0,0,0,0,0,0,0,0,0,0,0,0,0,0,0,0,0,0,0,0,0,0,0,0,0,0,0,0,0,0,0,0,0,0,0,0,0,0,0,0,0,0,0,0,0,0,0,0,0,0,0,0,0,0,0,0,0,0,0,0,0,0,0,0,0,0,0,0,0,0,0,0,0,0,0,0,0,0,0,0,0,0,0,0,0,0,0,0,0,0,0,0,0,0,0,0,0,0,0,0,0,0,0,0,0,0,0,0,0,0,0,0,0,0,0,0,0,0,0,0,0,0,0,0,0,0,0,0,0,0,0,0,0,0,0,0,0,0,0,0,0,0,0,0,0,0,0,0,0,0,0,0,0,0,0,0,0,0,0,0,0,0,0,0,0,0,0,0,0,0,0,0,0,0,0,0,0,0,0,0,0,0,
1,1,1,1,1,1,1,1,1,1,1,1,1,1,1,1,1,1,1,1,1,1,1,1,1,1,1,1,1,1,1,1,1,1,1,1,1,1,1,1,1,1,1,1,1,1,1,1,1,1,1,1,1,1,1,1,1,1,1,1,1,1,1,1,1,1,1,1,1,1,1,1,1,1,1,1,1,1,1,1,1,1,1,1,1,1,1,1,1,1,1,1,1,1,1,1,1,1,1,1,1,1,1,1,1,1,1,1,1,1,1,1,1,1,1,1,1,1,1,1,1,1,1,1,1,1,1,1,1,1,1,1,1,1,1,1,1,1,1,1,1,1,1,1,1,1,1,1,1,1,1,1,1,1,1,1,1,1,1,1,1,1,1,1,1,1,1,1,1,1,1,1,1,1,1,1,1,1,1,1,1,1,1,1,1,1,1,1,1,1,1,1,1,1,1,1,1,1,1,1,1,1,1,1,1,1,1,1,1,1,1,1,1,1,1,1,1,1,1,1,1,1,1,1,1,1,1,1,1,1,1,1,1,1,1,1,1,1,1,1,1,1,1,1,1,1,1,1,1,1,1,1,1,1,1,1,1,1,1,1,1,1,1,1,1,1,1,1,1,1,1,1,1,1,1,1,1,1,1,1,1,1,1,1,1,1,1,1,1,1,1,1,1,1,1,1,1,1,1,1,1,1,1,1,1,1,1,1,1,1,1,1,1,1,1,1,1,1,1,1,1,1,1,1,1,1,1,1,1,1,1,1,1,1,1,1,1,1,1,1,1,1,1,1,1,1,1,1,1,1,1,1,1,1,1,1,1,1,1,1,1,1,1,1,1,1,1,1,1,1,1,1,1,1,1,1,1,1,1,1,1,1,1,1,1,1,1,1,1,1,1,1,1,1,1,1,1,1,1,1,1,1,1,1,1,1,1,1,1,1,1,1,1,1,1,1,1,1,1,1,1,1,1,1,1,1,1,1,1,1,1,1,1,1,1,1,1,1,1,1,1,1,1,1,1,1,1,1,1,1,1,1,1,1,1,1,1,1,1,1,1,1,1,1,1,1,1,1,1,1,1,1,1,1,1,1,1,1,1,1,1,1,1,1,1,1,1,1,1,1,1,1,1,1,1,1,1,1,1,1,1,1,1,1,1,1,1,1,1,1,1,1,1,1,1,1,1,1,1,1,1,1,1,1,1,1,1,1,1,1,1,1,1,1,1,1,1,1,1,1,1,1,1,1,1,1,1,1,1,1,1,1,1,1,1,1,1,1,1,1,1,1,1,1,1,1,1,1,1,1,1,1,1,1,1,1,1,1,1,1,1,1,1,1,1,1,1,1,1,1,1,1,1,1,1,1,1,1,1,1,1,1,1,1,1,1,1,1,1,1,1,1,1,1,1,1,1,1,1,1,1,1,1,1,1,1,1,1,1,1,1,1,1,1,1,1,1,1,1,1,1,1,1,1,1,1,1,1,1,1,1,1,1,1,1,1,1,1,1,1,1,1,1,1,1,1,1,1,1,1,1,1,1,1,1,1,1,1,1,1,1,1,1,1,1,1,1,1,1,1,1,1,1,1,1,1,1,1,1,1,1,1,1,1,1,1,3472,1,1,1,3472,1,1,1,3472,1,1,1,3472,1,1,1,3472,1,1,1,3472,1,1,1,1,1,3472,1,1,1,1,3472,1,1,1,1,1,1,1,1,1,1,1,1,3472,1,1,1,3472,1,1,1,1,3472,1,1,3472,1,1,1,3472,1,1,1,1,1,3472,1,1,1,1,1,1,1,1,1,1,1,1,1,1,1,1,1,1,1,1,1,1,1,1,1,1,1,1,1,1,1,1,1,3472,1,1,1,1,3472,1,1,1,3443,3444,1,3443,3444,1,1,1,1,1,1,1,1,1,1,1,1,1,1,1,1,1,1,1,1,1,1,1,1,1,1,1,1,1,1,1,1,1,1,1,1,1,1,1,1,1,1,1,1,1,1,1,1,1,1,1,1,1,1,1,1,1,1,1,1,1,1,1,1,1,1,1,1,1,1,1,1,1,1,1,0,0,0,0,0,0,0,0,0,0,0,0,0,0,0,0,0,0,0,0,0,0,0,0,0,0,0,0,0,0,0,0,0,0,0,0,0,0,0,0,0,0,0,0,0,0,0,0,0,0,0,0,0,0,0,0,0,0,0,0,0,0,0,0,0,0,0,0,0,0,0,0,0,0,0,0,0,0,0,0,0,0,0,0,0,0,0,0,0,0,0,0,0,0,0,0,0,0,0,0,0,0,0,0,0,0,0,0,0,0,0,0,0,0,0,0,0,0,0,0,0,0,0,0,0,0,0,0,0,0,0,0,0,0,0,0,0,0,0,0,0,0,0,0,0,0,0,0,0,0,0,0,0,0,0,0,0,0,0,0,0,0,0,0,0,0,0,0,0,0,0,0,0,0,0,0,0,0,0,0,0,0,0,0,0,0,0,0,0,0,0,0,0,0,0,0,0,0,0,0,0,0,0,0,0,0,0,0,0,0,0,0,0,0,0,0,0,0,0,0,0,0,0,0,0,0,0,0,0,0,0,0,0,0,0,0,0,0,0,0,0,0,0,0,0,0,0,0,0,0,0,0,0,0,0,0,0,0,0,0,0,0,0,0,0,0,0,0,0,0,0,0,0,0,0,0,0,0,0,0,0,0,0,0,0,0,0,0,0,0,0,0,0,0,0,0,0,0,0,0,0,0,0,0,0,0,0,0,0,0,0,0,0,0,0,0,0,0,0,0,0,0,0,0,0,0,0,0,0,0,0,0,0,0,0,0,0,0,0,0,0,0,0,0,0,0,0,0,0,0,0,0,0,0,0,0,0,0,0,0,0,0,0,0,0,0,0,0,0,0,0,0,0,0,0,0,0,0,0,0,0,0,0,0,0,0,0,0,0,0,0,0,0,0,0,0,0,0,0,0,0,0,0,0,0,0,0,0,0,0,0,0,0,0,0,0,0,0,0,0,0,0,0,0,0,0,0,0,0,0,0,0,0,0,0,0,0,0,0,0,0,0,0,0,0,0,0,0,0,0,0,0,0,0,0,0,0,0,0,0,0,0,0,0,0,0,0,0,0,0,0,0,0,0,0,0,0,0,0,0,0,0,0,0,0,0,0,0,0,0,0,0,0,0,0,0,0,0,0,0,0,0,0,
1,1,1,1,1,1,1,1,1,1,1,1,1,1,1,1,1,1,1,1,1,1,1,1,1,1,1,1,1,1,1,1,1,1,1,1,1,1,1,1,1,1,1,1,1,1,1,1,1,1,1,1,1,1,1,1,1,1,1,1,1,1,1,1,1,1,1,1,1,1,1,1,1,1,1,1,1,1,1,1,1,1,1,1,1,1,1,1,1,1,1,1,1,1,1,1,1,1,1,1,1,1,1,1,1,1,1,1,1,1,1,1,1,1,1,1,1,1,1,1,1,1,1,1,1,1,1,1,1,1,1,1,1,1,1,1,1,1,1,1,1,1,1,1,1,1,1,1,1,1,1,1,1,1,1,1,1,1,1,1,1,1,1,1,1,1,1,1,1,1,1,1,1,1,1,1,1,1,1,1,1,1,1,1,1,1,1,1,1,1,1,1,1,1,1,1,1,1,1,1,1,1,1,1,1,1,1,1,1,1,1,1,1,1,1,1,1,1,1,1,1,1,1,1,1,1,1,1,1,1,1,1,1,1,1,1,1,1,1,1,1,1,1,1,1,1,1,1,1,1,1,1,1,1,1,1,1,1,1,1,1,1,1,1,1,1,1,1,1,1,1,1,1,1,1,1,1,1,1,1,1,1,1,1,1,1,1,1,1,1,1,1,1,1,1,1,1,1,1,1,1,1,1,1,1,1,1,1,1,1,1,1,1,1,1,1,1,1,1,1,1,1,1,1,1,1,1,1,1,1,1,1,1,1,1,1,1,1,1,1,1,1,1,1,1,1,1,1,1,1,1,1,1,1,1,1,1,1,1,1,1,1,1,1,1,1,1,1,1,1,1,1,1,1,1,1,1,1,1,1,1,1,1,1,1,1,1,1,1,1,1,1,1,1,1,1,1,1,1,1,1,1,1,1,1,1,1,1,1,1,1,1,1,1,1,1,1,1,1,1,1,1,1,1,1,1,1,1,1,1,1,1,1,1,1,1,1,1,1,1,1,1,1,1,1,1,1,1,1,1,1,1,1,1,1,1,1,1,1,1,1,1,1,1,1,1,1,1,1,1,1,1,1,1,1,1,1,1,1,1,1,1,1,1,1,1,1,1,1,1,1,1,1,1,1,1,1,1,1,1,1,1,1,1,1,1,1,1,1,1,1,1,1,1,1,1,1,1,1,1,1,1,1,1,1,1,1,1,1,1,1,1,1,1,1,1,1,1,1,1,1,1,1,1,1,1,1,1,1,1,1,1,1,1,1,1,1,1,1,1,1,1,1,1,1,1,1,1,1,1,1,1,1,1,1,1,1,1,1,1,1,1,1,1,1,1,1,1,1,1,1,1,1,1,1,1,1,0,1,1,1,1,1,1,1,1,1,1,1,1,1,1,1,1,1,1,1,1,1,1,1,1,1,1,1,1,1,1,1,1,1,1,1,1,1,1,1,1,1,1,1,1,1,1,1,1,1,1,1,1,1,1,1,1,1,1,1,1,1,1,1,1,1,1,1,1,1,1,1,1,1,1,1,1,1,1,1,1,1,1,1,1,1,1,1,1,1,1,1,1,1,1,1,1,1,1,1,1,1,1,1,1,1,1,1,1,3472,1,1,1,3472,1,1,1,3472,1,1,1,3472,1,1,1,3472,1,1,1,3472,1,1,1,1,1,3472,3470,1,1,1,3472,1,1,1,1,3472,1,1,1,1,1,1,1,3472,1,1,1,3472,1,1,1,1,3472,1,1,3472,1,1,1,3472,1,1,1,1,1,3472,1,1,1,1,1,1,1,1,1,1,1,1,1,1,1,1,1,1,1,1,1,1,1,1,1,1,1,1,1,1,1,1,1,3472,1,1,1,1,3472,1,1,1,3443,3444,1,3443,3444,1,1,1,1,1,1,1,1,1,1,1,1,1,1,1,1,1,1,1,1,1,1,1,1,1,1,1,1,1,1,1,1,1,1,1,1,1,1,1,1,1,1,1,1,1,1,1,1,1,1,1,1,1,1,1,1,1,1,1,1,1,1,1,1,1,1,1,1,1,1,1,1,1,1,1,0,0,0,0,0,0,0,0,0,0,0,0,0,0,0,0,0,0,0,0,0,0,0,0,0,0,0,0,0,0,0,0,0,0,0,0,0,0,0,0,0,0,0,0,0,0,0,0,0,0,0,0,0,0,0,0,0,0,0,0,0,0,0,0,0,0,0,0,0,0,0,0,0,0,0,0,0,0,0,0,0,0,0,0,0,0,0,0,0,0,0,0,0,0,0,0,0,0,0,0,0,0,0,0,0,0,0,0,0,0,0,0,0,0,0,0,0,0,0,0,0,0,0,0,0,0,0,0,0,0,0,0,0,0,0,0,0,0,0,0,0,0,0,0,0,0,0,0,0,0,0,0,0,0,0,0,0,0,0,0,0,0,0,0,0,0,0,0,0,0,0,0,0,0,0,0,0,0,0,0,0,0,0,0,0,0,0,0,0,0,0,0,0,0,0,0,0,0,0,0,0,0,0,0,0,0,0,0,0,0,0,0,0,0,0,0,0,0,0,0,0,0,0,0,0,0,0,0,0,0,0,0,0,0,0,0,0,0,0,0,0,0,0,0,0,0,0,0,0,0,0,0,0,0,0,0,0,0,0,0,0,0,0,0,0,0,0,0,0,0,0,0,0,0,0,0,0,0,0,0,0,0,0,0,0,0,0,0,0,0,0,0,0,0,0,0,0,0,0,0,0,0,0,0,0,0,0,0,0,0,0,0,0,0,0,0,0,0,0,0,0,0,0,0,0,0,0,0,0,0,0,0,0,0,0,0,0,0,0,0,0,0,0,0,0,0,0,0,0,0,0,0,0,0,0,0,0,0,0,0,0,0,0,0,0,0,0,0,0,0,0,0,0,0,0,0,0,0,0,0,0,0,0,0,0,0,0,0,0,0,0,0,0,0,0,0,0,0,0,0,0,0,0,0,0,0,0,0,0,0,0,0,0,0,0,0,0,0,0,0,0,0,0,0,0,0,0,0,0,0,0,0,0,0,0,0,0,0,0,0,0,0,0,0,0,0,0,0,0,0,0,0,0,0,0,0,0,0,0,0,0,0,0,0,0,0,0,0,0,0,0,0,0,0,0,0,0,0,0,0,0,0,0,0,0,0,0,0,0,0,0,0,0,0,0,0,0,0,0,0,0,0,0,
1,1,1,1,1,1,1,1,1,1,1,1,1,1,1,1,1,1,1,1,1,1,1,1,1,1,1,1,1,1,1,1,1,1,1,1,1,1,1,1,1,1,1,1,1,1,1,1,1,1,1,1,1,1,1,1,1,1,1,1,1,1,1,1,1,1,1,1,1,1,1,1,1,1,1,1,1,1,1,1,1,1,1,1,1,1,1,1,1,1,1,1,1,1,1,1,1,1,1,1,1,1,1,1,1,1,1,1,1,1,1,1,1,1,1,1,1,1,1,1,3470,1,1,1,1,1,1,1,1,1,1,1,1,1,1,1,1,1,1,1,1,1,1,1,1,1,1,1,1,1,1,1,1,1,1,1,1,1,1,1,1,1,1,1,1,1,1,1,1,1,1,1,3472,1,1,1,1,1,1,1,1,1,1,1,1,1,1,1,1,1,1,1,1,1,1,1,1,1,1,1,1,1,1,1,1,1,1,1,1,1,1,1,1,1,1,1,1,1,1,1,1,1,1,1,1,1,1,1,1,1,1,1,1,1,1,1,1,1,1,1,1,1,1,1,1,1,1,1,1,1,1,1,1,1,1,1,1,1,1,1,1,1,1,1,1,1,1,1,1,1,1,1,1,1,1,1,1,1,1,1,1,1,1,1,1,1,1,1,1,1,1,1,1,1,1,1,1,1,1,1,1,1,1,1,1,1,1,1,1,1,1,1,1,1,1,1,1,1,1,1,1,1,1,1,1,1,1,1,1,1,1,1,1,1,1,1,1,1,1,1,1,1,1,1,1,1,1,1,1,1,1,1,1,1,1,1,1,1,1,1,1,1,1,1,1,1,1,1,1,1,1,1,1,1,1,1,1,1,1,1,1,1,1,1,1,1,1,1,1,1,1,1,1,1,1,1,1,1,1,1,1,1,1,1,1,1,1,1,1,1,1,1,1,1,1,1,1,1,1,1,1,1,1,1,1,1,1,1,1,1,1,1,1,1,1,1,1,1,1,1,1,1,1,1,1,1,1,1,1,1,1,1,1,1,1,1,1,1,1,1,1,1,1,1,1,1,1,1,1,1,1,1,1,1,1,1,1,1,1,1,1,1,1,1,1,1,1,1,1,1,1,1,1,1,1,1,1,1,1,1,1,1,1,1,1,1,1,1,1,1,1,1,1,1,1,1,1,1,1,1,1,1,1,1,1,1,1,1,1,1,1,1,1,1,1,1,1,1,1,1,1,1,1,1,1,1,1,1,1,1,1,1,1,1,1,1,1,1,1,1,1,1,1,1,1,1,1,1,1,1,1,1,1,1,1,1,1,1,1,1,1,1,1,1,1,1,1,1,1,1,1,1,1,1,1,1,0,1,1,1,1,1,1,1,1,1,1,1,1,1,1,1,1,1,1,1,1,1,1,1,1,1,1,1,1,1,1,1,1,1,1,1,1,1,1,1,1,1,1,1,1,1,1,1,1,1,1,1,1,1,1,1,1,1,1,1,1,1,1,1,1,1,1,1,1,1,1,1,1,1,1,1,1,1,1,1,1,1,1,1,1,1,1,1,1,1,1,1,1,1,1,1,1,1,1,1,1,1,1,1,1,1,1,1,1,1,3472,1,1,1,3472,1,1,1,3472,1,1,1,3472,1,1,1,3472,1,1,1,3472,1,1,1,1,1,3472,3470,1,1,1,3472,1,1,1,1,3472,1,1,1,1,1,1,1,3472,1,1,1,3472,1,1,1,1,3472,1,1,3472,1,1,1,3472,1,1,1,1,1,3472,1,1,1,1,1,1,1,1,1,1,1,1,1,1,1,1,1,1,1,1,1,3472,1,1,1,1,1,1,1,1,3472,1,1,3472,1,1,1,1,3472,1,1,1,3443,3444,1,3443,3444,1,1,1,1,1,1,1,1,1,1,1,1,1,1,1,1,1,1,1,1,1,1,1,1,1,1,1,1,1,1,1,1,1,1,1,1,1,1,1,1,1,1,1,1,1,1,1,1,1,1,1,1,1,1,1,1,1,1,1,1,1,1,1,1,1,1,1,1,1,1,1,1,1,1,1,0,0,0,0,0,0,0,0,0,0,0,0,0,0,0,0,0,0,0,0,0,0,0,0,0,0,0,0,0,0,0,0,0,0,0,0,0,0,0,0,0,0,0,0,0,0,0,0,0,0,0,0,0,0,0,0,0,0,0,0,0,0,0,0,0,0,0,0,0,0,0,0,0,0,0,0,0,0,0,0,0,0,0,0,0,0,0,0,0,0,0,0,0,0,0,0,0,0,0,0,0,0,0,0,0,0,0,0,0,0,0,0,0,0,0,0,0,0,0,0,0,0,0,0,0,0,0,0,0,0,0,0,0,0,0,0,0,0,0,0,0,0,0,0,0,0,0,0,0,0,0,0,0,0,0,0,0,0,0,0,0,0,0,0,0,0,0,0,0,0,0,0,0,0,0,0,0,0,0,0,0,0,0,0,0,0,0,0,0,0,0,0,0,0,0,0,0,0,0,0,0,0,0,0,0,0,0,0,0,0,0,0,0,0,0,0,0,0,0,0,0,0,0,0,0,0,0,0,0,0,0,0,0,0,0,0,0,0,0,0,0,0,0,0,0,0,0,0,0,0,0,0,0,0,0,0,0,0,0,0,0,0,0,0,0,0,0,0,0,0,0,0,0,0,0,0,0,0,0,0,0,0,0,0,0,0,0,0,0,0,0,0,0,0,0,0,0,0,0,0,0,0,0,0,0,0,0,0,0,0,0,0,0,0,0,0,0,0,0,0,0,0,0,0,0,0,0,0,0,0,0,0,0,0,0,0,0,0,0,0,0,0,0,0,0,0,0,0,0,0,0,0,0,0,0,0,0,0,0,0,0,0,0,0,0,0,0,0,0,0,0,0,0,0,0,0,0,0,0,0,0,0,0,0,0,0,0,0,0,0,0,0,0,0,0,0,0,0,0,0,0,0,0,0,0,0,0,0,0,0,0,0,0,0,0,0,0,0,0,0,0,0,0,0,0,0,0,0,0,0,0,0,0,0,0,0,0,0,0,0,0,0,0,0,0,0,0,0,0,0,0,0,0,0,0,0,0,0,0,0,0,0,0,0,0,0,0,0,0,0,0,0,0,0,0,0,0,0,0,0,0,0,0,0,0,0,0,0,0,0,0,0,0,0,0,0,0,0,0,0,0,0,0,
1,1,1,1,1,1,1,1,1,1,1,1,1,1,1,1,1,1,1,1,1,1,1,1,1,1,1,1,1,1,1,1,1,1,1,1,1,1,1,1,1,1,1,1,1,1,1,1,1,1,1,1,1,1,1,1,1,1,1,1,1,1,1,1,1,1,1,1,1,1,1,1,1,1,1,1,1,1,1,1,1,1,1,1,1,1,1,1,1,1,1,1,1,1,1,1,1,1,1,1,1,1,1,1,1,1,1,1,1,1,1,1,1,1,1,3472,1,1,1,1,3470,1,1,1,1,1,1,1,1,1,1,1,1,1,1,1,1,1,1,1,1,1,1,1,1,1,1,1,1,1,1,1,1,1,1,1,1,1,1,1,1,1,1,1,1,1,1,1,1,1,1,1,3472,1,1,1,1,1,1,1,1,1,1,1,1,1,1,1,1,1,1,1,1,1,1,1,1,1,1,1,1,1,1,1,1,1,1,1,1,1,1,1,1,1,1,1,1,1,1,1,1,1,1,1,1,1,1,1,1,1,1,1,1,1,1,1,1,1,1,1,1,1,1,1,1,1,1,1,1,1,1,1,1,1,1,1,1,1,1,1,1,1,1,1,1,1,1,1,1,1,1,1,1,1,1,1,1,1,1,1,1,1,1,1,1,1,1,1,1,1,1,1,1,1,1,1,1,1,1,1,1,1,1,1,1,1,1,1,1,1,1,1,1,1,1,1,1,1,1,1,1,1,1,1,1,1,1,1,1,1,1,1,1,1,1,1,1,1,1,1,1,1,1,1,1,1,1,1,1,1,1,1,1,1,1,1,1,1,1,1,1,1,1,1,1,1,1,1,1,1,1,1,1,1,1,1,1,1,1,1,1,1,1,1,1,1,1,1,1,1,1,1,1,1,1,1,1,1,1,1,1,1,1,1,1,1,1,1,1,1,1,1,1,1,1,1,1,1,1,1,1,1,1,1,1,1,1,1,1,1,1,1,1,1,1,1,1,1,1,1,1,1,1,1,1,1,1,1,1,1,1,1,1,1,1,1,1,1,1,1,1,1,1,1,1,1,1,1,1,1,1,1,1,1,1,1,1,1,1,1,1,1,1,1,1,1,1,1,1,1,1,1,1,1,1,1,1,1,1,1,1,1,1,1,1,1,1,1,1,1,1,1,1,1,1,1,1,1,1,1,1,1,1,1,1,1,1,1,1,1,1,1,1,1,1,1,1,1,1,1,1,1,1,1,1,1,1,1,1,1,1,1,1,1,1,1,1,1,1,1,1,1,1,1,1,1,1,1,1,1,1,1,1,1,1,1,1,1,1,1,1,1,1,1,1,1,1,1,1,1,1,1,1,1,1,1,1,1,1,1,1,1,1,1,1,1,1,1,1,1,1,1,1,1,1,1,1,1,1,1,1,1,1,1,1,1,1,1,1,1,1,1,1,1,1,1,1,1,1,1,1,1,1,1,1,1,1,1,1,1,1,1,1,1,1,1,1,1,1,1,1,1,1,1,1,1,1,1,1,1,1,1,1,1,1,1,1,1,1,1,1,1,1,1,1,1,1,1,1,1,1,1,1,1,1,1,1,1,1,1,1,1,1,1,1,1,3472,1,1,1,3472,1,1,1,3472,1,1,1,3472,1,1,1,3472,1,1,1,3472,1,1,1,1,1,3472,3470,1,1,1,3472,1,1,1,1,3472,1,1,1,1,3472,1,1,3472,1,1,1,3472,1,1,1,1,3472,1,1,3472,1,1,1,3472,1,1,1,1,1,3472,1,1,1,1,1,1,1,1,1,1,1,1,1,1,1,1,1,1,1,1,1,3472,1,1,1,3472,1,1,1,1,3472,1,1,3472,1,1,1,1,3472,1,1,1,3443,3444,1,3443,3444,1,3443,3444,1,1,1,1,1,1,1,1,1,1,1,1,1,1,1,1,1,1,1,1,1,1,1,1,1,1,1,1,1,1,1,1,1,1,1,1,1,1,1,1,1,1,1,1,1,1,1,1,1,1,1,1,1,1,1,1,1,1,1,1,1,1,1,1,1,1,1,1,1,1,1,1,0,0,0,0,0,0,0,0,0,0,0,0,0,0,0,0,0,0,0,0,0,0,0,0,0,0,0,0,0,0,0,0,0,0,0,0,0,0,0,0,0,0,0,0,0,0,0,0,0,0,0,0,0,0,0,0,0,0,0,0,0,0,0,0,0,0,0,0,0,0,0,0,0,0,0,0,0,0,0,0,0,0,0,0,0,0,0,0,0,0,0,0,0,0,0,0,0,0,0,0,0,0,0,0,0,0,0,0,0,0,0,0,0,0,0,0,0,0,0,0,0,0,0,0,0,0,0,0,0,0,0,0,0,0,0,0,0,0,0,0,0,0,0,0,0,0,0,0,0,0,0,0,0,0,0,0,0,0,0,0,0,0,0,0,0,0,0,0,0,0,0,0,0,0,0,0,0,0,0,0,0,0,0,0,0,0,0,0,0,0,0,0,0,0,0,0,0,0,0,0,0,0,0,0,0,0,0,0,0,0,0,0,0,0,0,0,0,0,0,0,0,0,0,0,0,0,0,0,0,0,0,0,0,0,0,0,0,0,0,0,0,0,0,0,0,0,0,0,0,0,0,0,0,0,0,0,0,0,0,0,0,0,0,0,0,0,0,0,0,0,0,0,0,0,0,0,0,0,0,0,0,0,0,0,0,0,0,0,0,0,0,0,0,0,0,0,0,0,0,0,0,0,0,0,0,0,0,0,0,0,0,0,0,0,0,0,0,0,0,0,0,0,0,0,0,0,0,0,0,0,0,0,0,0,0,0,0,0,0,0,0,0,0,0,0,0,0,0,0,0,0,0,0,0,0,0,0,0,0,0,0,0,0,0,0,0,0,0,0,0,0,0,0,0,0,0,0,0,0,0,0,0,0,0,0,0,0,0,0,0,0,0,0,0,0,0,0,0,0,0,0,0,0,0,0,0,0,0,0,0,0,0,0,0,0,0,0,0,0,0,0,0,0,0,0,0,0,0,0,0,0,0,0,0,0,0,0,0,0,0,0,0,0,0,0,0,0,0,0,0,0,0,0,0,0,0,0,0,0,0,0,0,0,0,0,0,0,0,0,0,0,0,0,0,0,0,0,0,0,0,0,0,0,0,0,0,0,0,0,0,0,0,0,0,0,0,0,0,0,0,0,0,0,
1,1,1,1,1,1,1,1,1,1,1,1,1,1,1,1,1,1,1,1,1,1,1,1,1,1,1,1,1,1,1,1,1,1,1,1,1,1,1,1,1,1,1,1,1,1,1,1,1,1,1,1,1,1,1,1,1,1,1,1,1,1,1,1,1,1,1,1,1,1,1,1,1,1,1,1,1,1,1,1,1,1,1,1,1,1,1,1,1,1,1,1,1,1,1,1,1,1,1,1,1,1,1,1,1,1,1,1,1,1,1,1,1,1,1,3472,1,1,1,1,3470,1,1,1,1,1,1,1,1,3472,1,1,1,3470,1,1,1,1,1,1,3472,1,1,1,1,1,1,1,1,1,1,1,1,1,1,1,1,3470,1,1,1,1,1,1,1,1,3470,1,1,1,1,1,3472,1,1,1,3470,1,1,1,1,1,1,1,1,1,1,3470,1,1,1,1,1,1,1,1,1,1,1,1,1,1,1,1,1,1,1,1,1,3472,1,1,1,1,1,1,1,1,1,1,1,1,1,1,1,1,1,1,1,1,1,1,1,1,1,1,1,0,1,1,1,1,1,1,1,1,1,1,1,1,1,1,1,1,1,1,1,1,1,1,1,1,1,1,1,1,1,1,1,1,1,1,1,1,1,1,1,1,1,1,1,1,1,1,1,1,1,1,1,1,1,1,1,1,1,1,1,1,1,1,1,1,1,1,1,1,1,1,1,1,1,1,1,1,1,1,1,1,1,1,1,1,1,1,1,1,1,1,1,1,1,1,1,1429,1430,1431,1432,1429,1430,1431,1432,1429,1430,1431,1432,1429,1430,1431,1432,1429,1430,1431,1432,1429,1430,1431,1432,1429,1430,1431,1432,1429,1430,1431,1432,1429,1430,1431,1432,1429,1430,1431,1432,1429,1430,1431,1432,1429,1430,1431,1432,1429,1430,1431,1432,1429,1430,1431,1432,1429,1430,1431,1432,1429,1430,1431,1432,1429,1430,1431,1432,1429,1430,1431,1432,1429,1430,1431,1432,1429,1430,1431,1432,1429,1430,1431,1432,1429,1430,1431,1432,1429,1430,1431,1432,1429,1430,1431,1432,1429,1430,1431,1432,1429,1430,1431,1432,1429,1430,1431,1432,1429,1430,1431,1432,1429,1430,1431,1432,1429,1430,1431,1432,1429,1430,1431,1432,1429,1430,1431,1432,1429,1430,1431,1432,1429,1430,1431,1432,1429,1430,1431,1432,1429,1430,1431,1432,1429,1430,1431,1432,1429,1430,1431,1432,1429,1430,1431,1432,1429,1430,1431,1432,1429,1430,1431,1432,1429,1430,1431,1432,1429,1430,1431,1432,1429,1430,1431,1432,1429,1430,1431,1432,1429,1430,1431,1432,1429,1430,1431,1432,1429,1430,1431,1432,1429,1430,1431,1432,1429,1430,1431,1432,1429,1430,1431,1432,1429,1430,1431,1432,1429,1430,1431,1432,1429,1430,1431,1432,1429,1430,1431,1432,1429,1430,1431,1432,1429,1430,1431,1432,1429,1430,1431,1432,1429,1430,1431,1432,1429,1430,1431,1432,1429,1430,1431,1432,1429,1430,1431,1432,1429,1430,1431,1432,1429,1430,1431,1432,1429,1430,1431,1432,1429,1430,1431,1432,1429,1430,1431,1432,1429,1430,1431,1432,1429,1430,1431,1432,1429,1430,1431,1432,1429,1430,1431,1432,1429,1430,1431,1432,1429,1430,1431,1432,1429,1430,1431,1432,1429,1430,1431,1432,1429,1430,1431,1432,1429,1430,1431,1432,1429,1430,1431,1432,1429,1430,1431,1432,1429,1430,1431,1432,1429,1430,1431,1432,1429,1430,1431,1432,1429,1430,1431,1432,1429,1430,1431,1432,1429,1430,1431,1432,1429,1430,1431,1432,1429,1430,1431,1432,1429,1430,1431,1432,1429,1430,1431,1432,1429,1430,1431,1432,1429,1430,1431,1432,1429,1430,1431,1432,1429,1430,1431,1,1,3472,1,1,1,3472,1,1,1,3472,1,1,1,3472,1,1,1,3472,1,1,1,3472,1,1,1,1,1,3472,3470,1,1,1,3472,1,1,1,1,3472,1,1,1,1,3472,1,1,3472,1,1,1,3472,1,1,1,1,3472,1,1,3472,1,1,1,1,1,1,1,1,1,3472,1,1,1,1,3472,1,1,1,1,1,1,1,1,1,1,1,1,3472,1,1,1,3472,1,1,1,3472,1,1,1,1,3472,1,1,3472,1,1,1,1,3472,1,1,1,3443,3444,1,3443,3444,1,3443,3444,1,1,1,1,1,1,1,1,1,1,1,1,1,1,1,1,1,1,1,1,1,1,1,1,1,1,1,1,1,1,1,1,1,1,1,1,1,1,1,1,1,1,1,1,1,1,1,1,1,1,1,1,1,1,1,1,1,1,1,1,1,1,1,1,1,1,1,1,1,1,1,1,0,0,0,0,0,0,0,0,0,0,0,0,0,0,0,0,0,0,0,0,0,0,0,0,0,0,0,0,0,0,0,0,0,0,0,0,0,0,0,0,0,0,0,0,0,0,0,0,0,0,0,0,0,0,0,0,0,0,0,0,0,0,0,0,0,0,0,0,0,0,0,0,0,0,0,0,0,0,0,0,0,0,0,0,0,0,0,0,0,0,0,0,0,0,0,0,0,0,0,0,0,0,0,0,0,0,0,0,0,0,0,0,0,0,0,0,0,0,0,0,0,0,0,0,0,0,0,0,0,0,0,0,0,0,0,0,0,0,0,0,0,0,0,0,0,0,0,0,0,0,0,0,0,0,0,0,0,0,0,0,0,0,0,0,0,0,0,0,0,0,0,0,0,0,0,0,0,0,0,0,0,0,0,0,0,0,0,0,0,0,0,0,0,0,0,0,0,0,0,0,0,0,0,0,0,0,0,0,0,0,0,0,0,0,0,0,0,0,0,0,0,0,0,0,0,0,0,0,0,0,0,0,0,0,0,0,0,0,0,0,0,0,0,0,0,0,0,0,0,0,0,0,0,0,0,0,0,0,0,0,0,0,0,0,0,0,0,0,0,0,0,0,0,0,0,0,0,0,0,0,0,0,0,0,0,0,0,0,0,0,0,0,0,0,0,0,0,0,0,0,0,0,0,0,0,0,0,0,0,0,0,0,0,0,0,0,0,0,0,0,0,0,0,0,0,0,0,0,0,0,0,0,0,0,0,0,0,0,0,0,0,0,0,0,0,0,0,0,0,0,0,0,0,0,0,0,0,0,0,0,0,0,0,0,0,0,0,0,0,0,0,0,0,0,0,0,0,0,0,0,0,0,0,0,0,0,0,0,0,0,0,0,0,0,0,0,0,0,0,0,0,0,0,0,0,0,0,0,0,0,0,0,0,0,0,0,0,0,0,0,0,0,0,0,0,0,0,0,0,0,0,0,0,0,0,0,0,0,0,0,0,0,0,0,0,0,0,0,0,0,0,0,0,0,0,0,0,0,0,0,0,0,0,0,0,0,0,0,0,0,0,0,0,0,0,0,0,0,0,0,0,0,0,0,0,0,0,0,0,0,0,0,0,0,0,0,0,0,0,0,0,0,0,
1,1,1,1,1,1,1,1,1,1,1,1,1,1,1,1,1,1,1,1,1,1,1,1,1,1,1,1,1,1,1,1,1,1,1,1,1,1,1,1,1,1,1,1,1,1,1,1,1,1,1,1,1,1,1,1,1,1,1,1,1,1,1,1,1,1,1,1,1,1,1,1,1,1,1,1,1,1,1,1,1,1,1,1,1,1,1,1,1,1,1,1,1,1,1,1,1,1,1,1,1,1,1,1,1,1,1,1,1,3470,1,1,1,1,1,3472,1,1,1,1,3470,1,1,1,1,1,1,1,1,3472,1,1,1,3470,1,1,1,1,1,1,3472,1,1,1,1,1,1,1,1,1,1,1,1,1,1,1,1,3470,1,1,1,1,1,1,1,1,3470,1,1,1,1,1,3472,1,1,1,3470,1,1,1,3472,1,1,1,1,1,1,3470,1,1,1,1,1,1,1,1,1,1,1,1,1,1,1,1,1,1,1,1,1,3472,1,1,1,1,1,1,1,1429,1430,1431,1432,1429,1430,1431,1432,1429,1430,1431,1432,1429,1430,1431,1432,1429,1430,1431,1432,1429,1430,1431,1432,1429,1430,1431,1432,1429,1430,1431,1432,1429,1430,1431,1432,1429,1430,1431,1432,1429,1430,1431,1432,1429,1430,1431,1432,1429,1430,1431,1432,1429,1430,1431,1432,1429,1430,1431,1432,1429,1430,1431,1432,1429,1430,1431,1432,1429,1430,1431,1432,1429,1430,1431,1432,1429,1430,1431,1432,1429,1430,1431,1432,1429,1430,1431,1432,1429,1430,1431,1432,1429,1430,1431,1432,1429,1430,1431,1432,1429,1430,1431,1432,1429,1430,1431,1432,1429,1430,1431,1432,1429,1430,1431,1432,1445,1446,1447,1448,1445,1446,1447,1448,1445,1446,1447,1448,1445,1446,1447,1448,1445,1446,1447,1448,1445,1446,1447,1448,1445,1446,1447,1448,1445,1446,1447,1448,1445,1446,1447,1448,1445,1446,1447,1448,1445,1446,1447,1448,1445,1446,1447,1448,1445,1446,1447,1448,1445,1446,1447,1448,1445,1446,1447,1448,1445,1446,1447,1448,1445,1446,1447,1448,1445,1446,1447,1448,1445,1446,1447,1448,1445,1446,1447,1448,1445,1446,1447,1448,1445,1446,1447,1448,1445,1446,1447,1448,1445,1446,1447,1448,1445,1446,1447,1448,1445,1446,1447,1448,1445,1446,1447,1448,1445,1446,1447,1448,1445,1446,1447,1448,1445,1446,1447,1448,1445,1446,1447,1448,1445,1446,1447,1448,1445,1446,1447,1448,1445,1446,1447,1448,1445,1446,1447,1448,1445,1446,1447,1448,1445,1446,1447,1448,1445,1446,1447,1448,1445,1446,1447,1448,1445,1446,1447,1448,1445,1446,1447,1448,1445,1446,1447,1448,1445,1446,1447,1448,1445,1446,1447,1448,1445,1446,1447,1448,1445,1446,1447,1448,1445,1446,1447,1448,1445,1446,1447,1448,1445,1446,1447,1448,1445,1446,1447,1448,1445,1446,1447,1448,1445,1446,1447,1448,1445,1446,1447,1448,1445,1446,1447,1448,1445,1446,1447,1448,1445,1446,1447,1448,1445,1446,1447,1448,1445,1446,1447,1448,1445,1446,1447,1448,1445,1446,1447,1448,1445,1446,1447,1448,1445,1446,1447,1448,1445,1446,1447,1448,1445,1446,1447,1448,1445,1446,1447,1448,1445,1446,1447,1448,1445,1446,1447,1448,1445,1446,1447,1448,1445,1446,1447,1448,1445,1446,1447,1448,1445,1446,1447,1448,1445,1446,1447,1448,1445,1446,1447,1448,1445,1446,1447,1448,1445,1446,1447,1448,1445,1446,1447,1448,1445,1446,1447,1448,1445,1446,1447,1448,1445,1446,1447,1448,1445,1446,1447,1448,1445,1446,1447,1448,1445,1446,1447,1448,1445,1446,1447,1448,1445,1446,1447,1448,1445,1446,1447,1448,1445,1446,1447,1448,1445,1446,1447,1448,1445,1446,1447,1448,1445,1446,1447,1448,1445,1446,1447,1448,1445,1446,1447,1448,1445,1446,1447,1448,1445,1446,1447,1,1,3472,1,1,1,3472,1,1,1,3472,1,1,1,3472,1,1,1,1,1,1,1,3472,1,1,1,1,1,3472,3470,1,1,1,3472,1,1,1,1,3472,1,1,1,1,3472,1,1,1,1,1,1,3472,1,1,1,1,1,1,1,3472,1,1,1,1,1,1,1,1,1,3472,1,1,1,1,3472,1,1,1,1,1,1,1,1,1,1,1,1,3472,1,1,1,3472,1,1,1,3472,1,1,1,1,3472,1,1,3472,1,1,1,1,1,1,1,1,3443,3444,1,3443,3444,1,3443,3444,1,1,1,1,1,1,1,1,1,1,1,1,1,1,1,1,1,1,1,1,1,1,1,1,1,1,1,1,1,1,1,1,1,1,1,1,1,1,1,1,1,1,1,1,1,1,1,1,1,1,1,1,1,1,1,1,1,1,1,1,1,1,1,1,1,1,1,1,1,1,1,1,0,0,0,0,0,0,0,0,0,0,0,0,0,0,0,0,0,0,0,0,0,0,0,0,0,0,0,0,0,0,0,0,0,0,0,0,0,0,0,0,0,0,0,0,0,0,0,0,0,0,0,0,0,0,0,0,0,0,0,0,0,0,0,0,0,0,0,0,0,0,0,0,0,0,0,0,0,0,0,0,0,0,0,0,0,0,0,0,0,0,0,0,0,0,0,0,0,0,0,0,0,0,0,0,0,0,0,0,0,0,0,0,0,0,0,0,0,0,0,0,0,0,0,0,0,0,0,0,0,0,0,0,0,0,0,0,0,0,0,0,0,0,0,0,0,0,0,0,0,0,0,0,0,0,0,0,0,0,0,0,0,0,0,0,0,0,0,0,0,0,0,0,0,0,0,0,0,0,0,0,0,0,0,0,0,0,0,0,0,0,0,0,0,0,0,0,0,0,0,0,0,0,0,0,0,0,0,0,0,0,0,0,0,0,0,0,0,0,0,0,0,0,0,0,0,0,0,0,0,0,0,0,0,0,0,0,0,0,0,0,0,0,0,0,0,0,0,0,0,0,0,0,0,0,0,0,0,0,0,0,0,0,0,0,0,0,0,0,0,0,0,0,0,0,0,0,0,0,0,0,0,0,0,0,0,0,0,0,0,0,0,0,0,0,0,0,0,0,0,0,0,0,0,0,0,0,0,0,0,0,0,0,0,0,0,0,0,0,0,0,0,0,0,0,0,0,0,0,0,0,0,0,0,0,0,0,0,0,0,0,0,0,0,0,0,0,0,0,0,0,0,0,0,0,0,0,0,0,0,0,0,0,0,0,0,0,0,0,0,0,0,0,0,0,0,0,0,0,0,0,0,0,0,0,0,0,0,0,0,0,0,0,0,0,0,0,0,0,0,0,0,0,0,0,0,0,0,0,0,0,0,0,0,0,0,0,0,0,0,0,0,0,0,0,0,0,0,0,0,0,0,0,0,0,0,0,0,0,0,0,0,0,0,0,0,0,0,0,0,0,0,0,0,0,0,0,0,0,0,0,0,0,0,0,0,0,0,0,0,0,0,0,0,0,0,0,0,0,0,0,0,0,0,0,0,0,0,0,0,0,0,0,0,0,0,0,0,0,0,0,0,0,0,
1,1,1,1,1,1,1,1,1,1,1,1,1,1,1,1,1,1,1,1,1,1,1,1,1,1,1,1,1,1,1,1,1,1,1,1,1,1,1,1,1,1,1,1,1,1,1,1,1,1,1,1,1,1,1,1,1,1,1,1,1,1,1,1,1,1,1,1,1,1,1,1,1,1,1,1,1,1,1,1,1,1,1,1,1,1,1,1,1,1,1,1,1,1,1,1,1,1,1,1,1,1,1,1,1,1,1,1,1,3470,1,1,1,1,1,3472,1,1,1,1,3470,1,1,1,1,1,1,1,1,3472,1,1,1,3470,1,1,1,1,1,1,3472,1,1,1,1,1,1,1,1,1,1,1,1,1,1,1,1,3470,1,1,1,1,3472,1,1,1,3470,1,1,1,1,1,3472,1,1,1,3470,1,1,1,3472,1,1,1,1,1,1,3470,1,1,1,1,3472,1,1,1,1,1,1,1,1,3470,1,1,1,1,1,1,1,3472,1,1,1,1,1,1,1,1445,1446,1447,1448,1445,1446,1447,1448,1445,1446,1447,1448,1445,1446,1447,1448,1445,1446,1447,1448,1445,1446,1447,1448,1445,1446,1447,1448,1445,1446,1447,1448,1445,1446,1447,1448,1445,1446,1447,1448,1445,1446,1447,1448,1445,1446,1447,1448,1445,1446,1447,1448,1445,1446,1447,1448,1445,1446,1447,1448,1445,1446,1447,1448,1445,1446,1447,1448,1445,1446,1447,1448,1445,1446,1447,1448,1445,1446,1447,1448,1445,1446,1447,1448,1445,1446,1447,1448,1445,1446,1447,1448,1445,1446,1447,1448,1445,1446,1447,1448,1445,1446,1447,1448,1445,1446,1447,1448,1445,1446,1447,1448,1445,1446,1447,1448,1461,1462,1463,1464,1461,1462,1463,1464,1461,1462,1463,1464,1461,1462,1463,1464,1461,1462,1463,1464,1461,1462,1463,1464,1461,1462,1463,1464,1461,1462,1463,1464,1461,1462,1463,1464,1461,1462,1463,1464,1461,1462,1463,1464,1461,1462,1463,1464,1461,1462,1463,1464,1461,1462,1463,1464,1461,1462,1463,1464,1461,1462,1463,1464,1461,1462,1463,1464,1461,1462,1463,1464,1461,1462,1463,1464,1461,1462,1463,1464,1461,1462,1463,1464,1461,1462,1463,1464,1461,1462,1463,1464,1461,1462,1463,1464,1461,1462,1463,1464,1461,1462,1463,1464,1461,1462,1463,1464,1461,1462,1463,1464,1461,1462,1463,1464,1461,1462,1463,1464,1461,1462,1463,1464,1461,1462,1463,1464,1461,1462,1463,1464,1461,1462,1463,1464,1461,1462,1463,1464,1461,1462,1463,1464,1461,1462,1463,1464,1461,1462,1463,1464,1461,1462,1463,1464,1461,1462,1463,1464,1461,1462,1463,1464,1461,1462,1463,1464,1461,1462,1463,1464,1461,1462,1463,1464,1461,1462,1463,1464,1461,1462,1463,1464,1461,1462,1463,1464,1461,1462,1463,1464,1461,1462,1463,1464,1461,1462,1463,1464,1461,1462,1463,1464,1461,1462,1463,1464,1461,1462,1463,1464,1461,1462,1463,1464,1461,1462,1463,1464,1461,1462,1463,1464,1461,1462,1463,1464,1461,1462,1463,1464,1461,1462,1463,1464,1461,1462,1463,1464,1461,1462,1463,1464,1461,1462,1463,1464,1461,1462,1463,1464,1461,1462,1463,1464,1461,1462,1463,1464,1461,1462,1463,1464,1461,1462,1463,1464,1461,1462,1463,1464,1461,1462,1463,1464,1461,1462,1463,1464,1461,1462,1463,1464,1461,1462,1463,1464,1461,1462,1463,1464,1461,1462,1463,1464,1461,1462,1463,1464,1461,1462,1463,1464,1461,1462,1463,1464,1461,1462,1463,1464,1461,1462,1463,1464,1461,1462,1463,1464,1461,1462,1463,1464,1461,1462,1463,1464,1461,1462,1463,1464,1461,1462,1463,1464,1461,1462,1463,1464,1461,1462,1463,1464,1461,1462,1463,1464,1461,1462,1463,1464,1461,1462,1463,1464,1461,1462,1463,1464,1461,1462,1463,1464,1461,1462,1463,1464,1461,1462,1463,1,1,3472,1,1,1,1,1,1,1,3472,1,1,1,3472,1,1,1,1,1,1,1,3472,1,1,1,1,1,3472,3470,1,1,1,1,1,1,1,1,3472,1,1,1,1,3472,1,1,1,1,1,1,1,1,1,1,1,1,1,1,3472,1,1,1,1,1,1,1,1,1,3472,1,1,1,1,3472,1,1,1,1,3472,1,1,1,1,1,1,1,3472,1,1,1,3472,1,1,1,3472,1,1,1,1,3472,1,1,1,1,1,1,1,1,1,1,1,1,1,1,3443,3444,1,3443,3444,1,1,1,1,1,1,1,1,1,1,1,1,1,1,1,1,1,1,1,1,1,1,1,1,1,1,1,1,1,1,1,1,1,1,1,1,1,1,1,1,1,1,1,1,1,1,1,1,1,1,1,1,1,1,1,1,1,1,1,1,1,1,1,1,1,1,1,1,1,1,1,1,0,0,0,0,0,0,0,0,0,0,0,0,0,0,0,0,0,0,0,0,0,0,0,0,0,0,0,0,0,0,0,0,0,0,0,0,0,0,0,0,0,0,0,0,0,0,0,0,0,0,0,0,0,0,0,0,0,0,0,0,0,0,0,0,0,0,0,0,0,0,0,0,0,0,0,0,0,0,0,0,0,0,0,0,0,0,0,0,0,0,0,0,0,0,0,0,0,0,0,0,0,0,0,0,0,0,0,0,0,0,0,0,0,0,0,0,0,0,0,0,0,0,0,0,0,0,0,0,0,0,0,0,0,0,0,0,0,0,0,0,0,0,0,0,0,0,0,0,0,0,0,0,0,0,0,0,0,0,0,0,0,0,0,0,0,0,0,0,0,0,0,0,0,0,0,0,0,0,0,0,0,0,0,0,0,0,0,0,0,0,0,0,0,0,0,0,0,0,0,0,0,0,0,0,0,0,0,0,0,0,0,0,0,0,0,0,0,0,0,0,0,0,0,0,0,0,0,0,0,0,0,0,0,0,0,0,0,0,0,0,0,0,0,0,0,0,0,0,0,0,0,0,0,0,0,0,0,0,0,0,0,0,0,0,0,0,0,0,0,0,0,0,0,0,0,0,0,0,0,0,0,0,0,0,0,0,0,0,0,0,0,0,0,0,0,0,0,0,0,0,0,0,0,0,0,0,0,0,0,0,0,0,0,0,0,0,0,0,0,0,0,0,0,0,0,0,0,0,0,0,0,0,0,0,0,0,0,0,0,0,0,0,0,0,0,0,0,0,0,0,0,0,0,0,0,0,0,0,0,0,0,0,0,0,0,0,0,0,0,0,0,0,0,0,0,0,0,0,0,0,0,0,0,0,0,0,0,0,0,0,0,0,0,0,0,0,0,0,0,0,0,0,0,0,0,0,0,0,0,0,0,0,0,0,0,0,0,0,0,0,0,0,0,0,0,0,0,0,0,0,0,0,0,0,0,0,0,0,0,0,0,0,0,0,0,0,0,0,0,0,0,0,0,0,0,0,0,0,0,0,0,0,0,0,0,0,0,0,0,0,0,0,0,0,0,0,0,0,0,0,0,0,0,0,0,0,0,0,0,0,0,0,0,0,0,0,0,0,0,0,0,0,0,
1,1,1,1,1,1,1,1,1,1,1,1,1,1,1,1,1,1,1,1,1,1,1,1,1,1,1,1,1,1,1,1,1,1,1,1,1,1,1,1,1,1,1,1,1,1,1,1,1,1,1,1,1,1,1,1,1,1,1,1,1,1,1,1,1,1,1,1,1,1,1,1,1,1,1,1,1,1,1,1,1,1,1,1,1,1,1,1,1,1,1,1,1,1,1,1,1,1,1,1,1,1,1,1,3472,1,1,1,1,3470,1,1,1,1,1,3472,1,1,1,1,1,1,1,1,1,1,1,1,1,3472,1,1,1,3470,1,1,1,1,1,1,3472,1,1,1,1,3470,1,1,1,1,1,1,3472,1,1,1,1,3470,1,1,1,1,3472,1,1,1,3470,1,1,1,1,1,1,1,1,1,3470,1,1,1,3472,1,1,1,1,1,1,3470,1,1,1,1,3472,1,1,1,1,1,1,1,1,3470,1,1,1,1,1,1,1,3472,1,1,1,1,1,1,1,1461,1462,1463,1464,1461,1462,1463,1464,1461,1462,1463,1464,1461,1462,1463,1464,1461,1462,1463,1464,1461,1462,1463,1464,1461,1462,1463,1464,1461,1462,1463,1464,1461,1462,1463,1464,1461,1462,1463,1464,1461,1462,1463,1464,1461,1462,1463,1464,1461,1462,1463,1464,1461,1462,1463,1464,1461,1462,1463,1464,1461,1462,1463,1464,1461,1462,1463,1464,1461,1462,1463,1464,1461,1462,1463,1464,1461,1462,1463,1464,1461,1462,1463,1464,1461,1462,1463,1464,1461,1462,1463,1464,1461,1462,1463,1464,1461,1462,1463,1464,1461,1462,1463,1464,1461,1462,1463,1464,1461,1462,1463,1464,1461,0,0,0,1477,1478,1479,1480,1477,1478,1479,1480,1477,1478,1479,1480,1477,1478,1479,1480,1477,1478,1479,1480,1477,1478,1479,1480,1477,1478,1479,1480,1477,1478,1479,1480,1477,1478,1479,1480,1477,1478,1479,1480,1477,1478,1479,1480,1477,1478,1479,1480,1477,1478,1479,1480,1477,1478,1479,1480,1477,1478,1479,1480,1477,1478,1479,1480,1477,1478,1479,1480,1477,1478,1479,1480,1477,1478,1479,1480,1477,1478,1479,1480,1477,1478,1479,1480,1477,1478,1479,1480,1477,1478,1479,1480,1477,1478,1479,1480,1477,1478,1479,1480,1477,1478,1479,1480,1477,1478,1479,1480,1477,1478,1479,1480,1477,1478,1479,1480,1477,1478,1479,1480,1477,1478,1479,1480,1477,1478,1479,1480,1477,1478,1479,1480,1477,1478,1479,1480,1477,1478,1479,1480,1477,1478,1479,1480,1477,1478,1479,1480,1477,1478,1479,1480,1477,1478,1479,1480,1477,1478,1479,1480,1477,1478,1479,1480,1477,1478,1479,1480,1477,1478,1479,1480,1477,1478,1479,1480,1477,1478,1479,1480,1477,1478,1479,1480,1477,1478,1479,1480,1477,1478,1479,1480,1477,1478,1479,1480,1477,1478,1479,1480,1477,1478,1479,1480,1477,1478,1479,1480,1477,1478,1479,1480,1477,1478,1479,1480,1477,1478,1479,1480,1477,1478,1479,1480,1477,1478,1479,1480,1477,1478,1479,1480,1477,1478,1479,1480,1477,1478,1479,1480,1477,1478,1479,1480,1477,1478,1479,1480,1477,1478,1479,1480,1477,1478,1479,1480,1477,1478,1479,1480,1477,1478,1479,1480,1477,1478,1479,1480,1477,1478,1479,1480,1477,1478,1479,1480,1477,1478,1479,1480,1477,1478,1479,1480,1477,1478,1479,1480,1477,1478,1479,1480,1477,1478,1479,1480,1477,1478,1479,1480,1477,1478,1479,1480,1477,1478,1479,1480,1477,1478,1479,1480,1477,1478,1479,1480,1477,1478,1479,1480,1477,1478,1479,1480,1477,1478,1479,1480,1477,1478,1479,1480,1477,1478,1479,1480,1477,1478,1479,1480,1477,1478,1479,1480,1477,1478,1479,1480,1477,1478,1479,1480,1477,1478,1479,1480,1477,1478,1479,1480,1477,1478,1479,1480,1477,1478,1479,1480,1477,1478,1479,1,1,1,1,1,1,1,1,1,1,3472,1,1,1,1,1,1,1,1,1,1,1,1,1,3315,1,3316,1,3472,3470,1,1,1,1,1,1,1,1,3472,1,1,1,1,3472,1,1,1,1,1,1,1,1,1,1,1,1,1,1,1,1,1,1,1,1,1,1,1,1,3472,1,1,1,1,3472,1,1,1,1,3472,1,1,1,3472,1,1,1,3472,1,1,1,3472,1,1,1,3472,1,1,1,1,3472,1,1,1,1,1,1,1,1,1,1,1,1,1,1,3443,3444,1,3443,3444,1,1,1,1,1,1,1,1,1,1,1,1,1,1,1,1,1,1,1,1,1,1,1,1,1,1,1,1,1,1,1,1,1,1,1,1,1,1,1,1,1,1,1,1,1,1,1,1,1,1,1,1,1,1,1,1,1,1,1,1,1,1,1,1,1,1,1,1,1,1,1,1,0,0,0,0,0,0,0,0,0,0,0,0,0,0,0,0,0,0,0,0,0,0,0,0,0,0,0,0,0,0,0,0,0,0,0,0,0,0,0,0,0,0,0,0,0,0,0,0,0,0,0,0,0,0,0,0,0,0,0,0,0,0,0,0,0,0,0,0,0,0,0,0,0,0,0,0,0,0,0,0,0,0,0,0,0,0,0,0,0,0,0,0,0,0,0,0,0,0,0,0,0,0,0,0,0,0,0,0,0,0,0,0,0,0,0,0,0,0,0,0,0,0,0,0,0,0,0,0,0,0,0,0,0,0,0,0,0,0,0,0,0,0,0,0,0,0,0,0,0,0,0,0,0,0,0,0,0,0,0,0,0,0,0,0,0,0,0,0,0,0,0,0,0,0,0,0,0,0,0,0,0,0,0,0,0,0,0,0,0,0,0,0,0,0,0,0,0,0,0,0,0,0,0,0,0,0,0,0,0,0,0,0,0,0,0,0,0,0,0,0,0,0,0,0,0,0,0,0,0,0,0,0,0,0,0,0,0,0,0,0,0,0,0,0,0,0,0,0,0,0,0,0,0,0,0,0,0,0,0,0,0,0,0,0,0,0,0,0,0,0,0,0,0,0,0,0,0,0,0,0,0,0,0,0,0,0,0,0,0,0,0,0,0,0,0,0,0,0,0,0,0,0,0,0,0,0,0,0,0,0,0,0,0,0,0,0,0,0,0,0,0,0,0,0,0,0,0,0,0,0,0,0,0,0,0,0,0,0,0,0,0,0,0,0,0,0,0,0,0,0,0,0,0,0,0,0,0,0,0,0,0,0,0,0,0,0,0,0,0,0,0,0,0,0,0,0,0,0,0,0,0,0,0,0,0,0,0,0,0,0,0,0,0,0,0,0,0,0,0,0,0,0,0,0,0,0,0,0,0,0,0,0,0,0,0,0,0,0,0,0,0,0,0,0,0,0,0,0,0,0,0,0,0,0,0,0,0,0,0,0,0,0,0,0,0,0,0,0,0,0,0,0,0,0,0,0,0,0,0,0,0,0,0,0,0,0,0,0,0,0,0,0,0,719,1,769,719,706,724,770,719,719,1,769,719,1,769,3475,0,0,0,0,0,0,0,0,0,0,0,0,0,0,0,
1,1,1,1,1,1,1,1,1,1,1,1,1,1,1,1,1,1,1,1,1,1,1,1,1,1,1,1,1,1,1,1,1,1,1,1,1,1,1,1,1,1,1,1,1,1,1,1,1,1,1,1,1,1,1,1,1,1,1,1,1,1,1,1,1,1,1,1,1,1,1,1,1,1,1,1,1,1,1,1,1,1,1,1,1,1,1,1,1,1,1,1,1,1,1,1,1,1,1,1,1,1,1,1,3472,1,1,1,1,3470,1,1,1,1,1,1,1,1,1,1,1,1,1,1,1,1,1,1,1,3472,1,1,1,3470,1,1,1,1,1,1,3472,1,1,1,1,3470,1,1,1,1,1,1,3472,1,1,1,1,3470,1,1,1,1,3472,1,1,1,3470,1,3315,1,3316,1,1,1,1,1,3470,1,1,1,3472,1,1,3315,1,3316,1,3470,1,1,1,1,3472,1,1,1,1,1,1,1,1,3470,1,1,1,1,1,1,1,3472,1,1,1,1,1,1,1,1477,1478,1479,1480,1477,1478,1479,1480,1477,1478,1479,1480,1477,1478,1479,1480,1477,1478,1479,1480,1477,1478,1479,1480,1477,1478,1479,1480,1477,1478,1479,1480,1477,1478,1479,1480,1477,1478,1479,1480,1477,1478,1479,1480,1477,1478,1479,1480,1477,1478,1479,1480,1477,1478,1479,1480,1477,1478,1479,1480,1477,1478,1479,1480,1477,1478,1479,1480,1477,1478,1479,1480,1477,1478,1479,1480,1477,1478,1479,1480,1477,1478,1479,1480,1477,1478,1479,1480,1477,1478,1479,1480,1477,1478,1479,1480,1477,1478,1479,1480,1477,1478,1479,1480,1477,1478,1479,1480,1477,1478,1479,1480,1477,0,1550,1551,1,1,6655,928,6653,1,6799,3470,6797,1,6799,931,6797,1,6799,931,6797,1,6655,3470,6653,1,6799,931,6797,1,6799,931,6797,1,6655,3470,6653,1,6799,931,6797,1,6655,928,6653,1,6799,3470,6797,1,6799,931,6797,1,6799,931,6797,1,6655,3470,6653,1,6799,931,6797,1,6799,931,6797,1,6655,3470,6653,1,6799,931,6797,1,6655,928,6653,1,6799,3470,6797,1,6799,931,6797,1,6799,931,6797,1,6655,3470,6653,1,6799,931,6797,1,6799,931,6797,1,6655,3470,6653,1,6799,931,6797,1,6655,928,6653,1,6799,3470,6797,1,6799,931,6797,1,6799,931,6797,1,6655,3470,6653,1,6799,931,6797,1,6799,931,6797,1,6655,3470,6653,1,1,1,1,1,1,1515,1516,1,1,1,1513,1514,1,1,1,1,1,1,1,1,1515,1516,1,1,1,1,1,1,1580,1581,1,1,1,1,1582,1583,1,1513,1514,1,1,1,1,1,1,1515,1516,1513,1514,1,1,1,1,1,1,1,1,1,1,1,1515,3427,3428,1,1,1580,1581,1,1,1582,1583,1,1,1,1,1,1,1509,1510,1,1,1,1,1,1,1,1,1515,1516,1,1513,1514,1,1,1,1,1,1,1515,1514,1,1,1,1,1,1,1515,1516,1580,1581,1,1,1582,1583,1513,1514,1,1,1,1,1,1,1,1,1,1,1,1515,1,1513,1514,1,1,1,1,1,1,1,1,1,1,1515,1516,1513,1514,1,1,1,1,1,1,1,1,1,1,1515,1514,1,1,1,1,1515,1514,1,1,1,1,1,1,1,1,1,1,1,1,1,1,1,1,1,1,1,1,1,1,1,1,1,1,1,1,1,1,1,1,1,1,1,1,1,1,1,1,1,1,1,1,1,1,1,1,1,1,1,1,1,1,1,1,1,1,1,1,1,1,1,1,1,1,1,1,1,1,1,1,1,1,1,1,1,1,1,1,1,1,1,1,1,1,1,1,1,1,1,1,1,1,1,3470,1,1,1,1,1,1,1,1,3472,1,1,1,1,3472,1,1,1,1,1,1,1,1,1,1,1,1,1,1,1,1,1,1,1,1,1,1,1,1,1,1,1,1,1,3472,1,1,1,1,3472,1,1,1,3472,1,1,1,3472,1,1,1,3472,1,1,1,3472,1,1,1,1,3472,1,1,1,1,1,1,1,1,1,1,1,1,1,1,1,1,1,3443,3444,1,1,1,1,1,1,1,1,1,1,1,1,1,1,1,1,1,1,1,1,1,1,1,1,1,1,1,1,1,1,1,1,1,1,1,1,1,1,1,1,1,1,1,1,1,1,1,1,1,1,1,1,1,1,1,1,1,1,1,1,1,1,1,1,1,1,1,1,1,1,1,1,0,0,0,0,0,0,0,0,0,0,0,0,0,0,0,0,0,0,0,0,0,0,0,0,0,0,0,0,0,0,0,0,0,0,0,0,0,0,0,0,0,0,0,0,0,0,0,0,0,0,0,0,0,0,0,0,0,0,0,0,0,0,0,0,0,0,0,0,0,0,0,0,0,0,0,0,0,0,0,0,0,0,0,0,0,0,0,0,0,0,0,0,0,0,0,0,0,0,0,0,0,0,0,0,0,0,0,0,0,0,0,0,0,0,0,0,0,0,0,0,0,0,0,0,0,0,0,0,0,0,0,0,0,0,0,0,0,0,0,0,0,0,0,0,0,0,0,0,0,0,0,0,0,0,0,0,0,0,0,0,0,0,0,0,0,0,0,0,0,0,0,0,0,0,0,0,0,0,0,0,0,0,0,0,0,0,0,0,0,0,0,0,0,0,0,0,0,0,0,0,0,0,0,0,0,0,0,0,0,0,0,0,0,0,0,0,0,0,0,0,0,0,0,0,0,0,0,0,0,0,0,0,0,0,0,0,0,0,0,0,0,0,0,0,0,0,0,0,0,0,0,0,0,0,0,0,0,0,0,0,0,0,0,0,0,0,0,0,0,0,0,0,0,0,0,0,0,0,0,0,0,0,0,0,0,0,0,0,0,0,0,0,0,0,0,0,0,0,0,0,0,0,0,0,0,0,0,0,0,0,0,0,0,0,0,0,0,0,0,0,0,0,0,0,0,0,0,0,0,0,0,0,0,0,0,0,0,0,0,0,0,0,0,0,0,0,0,0,0,0,0,0,0,0,0,0,0,0,0,0,0,0,0,0,0,0,0,0,0,0,0,0,0,0,0,0,0,0,0,0,0,0,0,0,0,0,0,0,0,0,0,0,0,0,0,0,0,0,0,0,0,0,0,0,0,0,0,0,0,0,0,0,0,0,0,0,0,0,0,0,0,0,0,0,0,0,0,0,0,0,0,0,0,0,0,0,0,0,0,0,0,0,0,0,0,0,0,0,0,0,0,0,0,0,0,0,0,0,0,0,0,0,0,0,0,0,0,0,0,0,0,0,0,723,769,772,723,723,0,723,723,723,769,772,723,769,772,0,0,0,0,0,0,0,0,0,0,0,0,0,0,0,0,
1,1,1,1,1,1,1,1,1,1,1,1,1,1,1,1,1,1,1,1,1,1,1,1,1,1,1,1,1,1,1,1,1,1,1,1,1,1,1,1,1,1,1,1,1,1,1,1,1,1,1,1,1,1,1,1,1,1,1,1,1,1,1,1,1,1,1,1,1,1,1,1,1,1,1,1,1,1,1,1,1,1,1,1,1,1,1,1,1,1,1,1,1,1,1,1,1,1,1,1,1,1,1,1,3472,1,1,1,1,3470,1,3315,1,3316,1,1,1,1,1,1,1,1,1,1,1,1,1,1,1,3472,1,1,1,3470,1,1,1,1,1,1,3472,1,1,1,1,3470,1,1,1,1,1,1,3472,1,1,1,1,1,1,1,1,1,3472,1,1,1,1,1,1,1,1,1,1,1,1,1,1,1,1,1,3472,1,1,1,1,1,1,1,1,1,1,1,3472,1,1,1,1,1,1,1,1,3470,1,1,3315,1,3316,1,1,1,1,1,1,1,1,1,1,1,1,1070,1070,1070,1070,1070,1070,1,1,1,1,1,3470,1,1,1,1,1,1,0,1,1,1,1070,1070,1070,1070,1,1,1,1,1,1,1,1,1,1,1,1,1,1,1,1,1,1,1,1,1,1,1,1,1,1,1,1,1,1,1,1,1,1,1,1,3470,1,1,1,1,1,1,1,3470,1,1,1,1,1,1,1,1,1,1,1,1,1,1,1,1,1,1,1,1,1,1,1,7638,1,7636,1,1,1,1,1,1,3313,1,3314,1,1,1,1,1,1,1552,1,1,1,1,1,1,1,6799,3470,6797,1,6655,928,6653,1,6799,931,6797,1,1,1,1,1,6655,928,6653,1,6799,931,6797,1,1,1,1,1,6655,928,6653,1,1,1,1,1,6799,3470,6797,1,6655,928,6653,1,6799,931,6797,1,1,1,1,1,6655,928,6653,1,6799,931,6797,1,1,1,1,1,6655,928,6653,1,1,1,1,1,6799,3470,6797,1,6655,928,6653,1,6799,931,6797,1,1,1,1,1,6655,928,6653,1,6799,931,6797,1,1,1,1,1,6655,928,6653,1,1,1,1,1,6799,3470,6797,1,6655,928,6653,1,6799,931,6797,1,1,1,1,1,6655,928,6653,1,6799,931,6797,1,1,1,1,1,1,1,1,1,1515,1516,1,1,1,1,1,1513,1514,1,1,1,1,1,1,1515,1516,1,1,1,1,1,1,1,1,1579,1,1,1,1,1584,1,1,1,1513,1514,1,1,1,1,1515,1516,0,0,1513,1514,1,1,1,1,1,1,1,1,1,1515,1516,3427,3428,1,1,1,1579,1,1,1584,1,1,1,1,1,1,1,1547,1548,1549,1,1,1,1,1,1,1515,1516,1,1,1,1513,1514,1,1,1,1,1515,1516,1513,1514,1,1,1,1,1515,1516,1,1,1579,1,1,1584,1,1,1513,1514,1,1,1,1,1,1,1,1,1,1515,1516,1,1,1513,1514,1,1,1,1,1,1,1,1,1515,1516,1,1,1513,1514,1,1,1,1,1515,1514,1,1,1515,1516,1513,1514,1,1,1515,1516,1513,1514,1,1,1,1,1,1,1515,1514,1,1,1,1,1,1,1,1,1,1,1,1,1,1,1,1,1,1,1,1,1,1,1,1,1,1,1,1,1,1,1,1582,1583,1,1,1,1,1,1,1,1,1,1,1,1,1,1,1,1,1,1,1,1,1,1,1,1,1,1,1,1,1,1,1,1,1,1,1,1,1,1,1,1,1,1,1,1,1,1,1,1,1,1,1,1,1,3470,1,1,1,1,1,1,1,1,1,1,1,1,1,3472,1,1,1,1,1,1,1,1,1,1,1,1,1,1,1,1,1,1,1,1,1,1,1,1,1,1,1,1,1,3472,1,1,1,1,3472,1,1,1,3472,1,1,1,3472,1,1,1,3472,1,1,1,3472,1,1,1,1,3472,1,1,1,1,1,1,1,1,1,1,1,1,1,1,1,1,1,3443,3444,1581,1,1,1,1,1,1,1,1,1,1,1,1,1,1,1,1,1,1,1,1,1,1,1,1,1,1,1,1,1,1,1,1,1,1,1,1,1,1,1,1,1,1,1,1,1,1,1,1,1,1,1,1,1,1,1,1,1,1,1,1,1,1,1,1,1,1,1,1,1,1,1,0,0,0,0,0,0,0,0,0,0,0,0,0,0,0,0,0,0,0,0,0,0,0,0,0,0,0,0,0,0,0,0,0,0,0,0,0,0,0,0,0,0,0,0,0,0,0,0,0,0,0,0,0,0,0,0,0,0,0,0,0,0,0,0,0,0,0,0,0,0,0,0,0,0,0,0,0,0,0,0,0,0,0,0,0,0,0,0,0,0,0,0,0,0,0,0,0,0,0,0,0,0,0,0,0,0,0,0,0,0,0,0,0,0,0,0,0,0,0,0,0,0,0,0,0,0,0,0,0,0,0,0,0,0,0,0,0,0,0,0,0,0,0,0,0,0,0,0,0,0,0,0,0,0,0,0,0,0,0,0,0,0,0,0,0,0,0,0,0,0,0,0,0,0,0,0,0,0,0,0,0,0,0,0,0,0,0,0,0,0,0,0,0,0,0,0,0,0,0,0,0,0,0,0,0,0,0,0,0,0,0,0,0,0,0,0,0,0,0,0,0,0,0,0,0,0,0,0,0,0,0,0,0,0,0,0,0,0,0,0,0,0,0,0,0,0,0,0,0,0,0,0,0,0,0,0,0,0,0,0,0,0,0,0,0,0,0,0,0,0,0,0,0,0,0,0,0,0,0,0,0,0,0,0,0,0,0,0,0,0,0,0,0,0,0,0,0,0,0,0,0,0,0,0,0,0,0,0,0,0,0,0,0,0,0,0,0,0,0,0,0,0,0,0,0,0,0,0,0,0,0,0,0,0,0,0,0,0,0,0,0,0,0,0,0,0,0,0,0,0,0,0,0,0,0,0,0,0,0,0,0,0,0,0,0,0,0,0,0,0,0,0,0,0,0,0,0,0,0,0,0,0,0,0,0,0,0,0,0,0,0,0,0,0,0,0,0,0,0,0,0,0,0,0,0,0,0,0,0,0,0,0,0,0,0,0,0,0,0,0,0,0,0,0,0,0,0,0,0,0,0,0,0,0,0,0,0,0,0,0,0,0,0,0,0,0,0,0,0,0,0,0,0,0,0,0,0,0,0,0,0,0,0,0,0,0,0,0,0,0,0,0,0,708,709,0,723,708,706,772,723,708,709,0,708,709,0,0,0,0,0,0,0,0,0,0,0,0,0,0,0,0,0,
1,1,1,1,1,1,1,1,1,1,1,1,1,1,1,1,1,1,1,1,1,1,1,1,1,1,1,1,1,1,1,1,1,1,1,1,1,1,1,1,1,1,1,1,1,1,1,1,1,1,1,1,1,1,1,1,1,1,1,1,1,1,1,1,1,1,1,1,1,1,1,1,1,1,1,1,1,1,1,1,1,1,1,1,1,1,1,1,1,1,1,1,1,1,1,1,1,1,1,1,1,1,1,1,3472,1,1,1,1,1,1,1,1,1,1,1,1,1,1,1,1,1,1,1,1,1,1,1,1,1,1,1,1,3470,1,1,1,1,1,1,3472,1,1,1,1,3470,1,1,1,1,1,1,3472,1,1,1,1,1,1,1,1,1,3472,1,1,1,1,1,1,1,1,1,1,1,1,1,1,1,1,1,1,1,1,1,1,1,1,1,1,1,1,1,3472,1,1,1,1,1,1,1,1,3470,1,1,1,1,1,1,1,1,1,1,1,1,1,1,1,1,1,1,1,1,1,1,1,1,1,1,1,1,3470,1,1,1,1,1,1,0,1,1,1,1,1,1,1,1,1,1,1,1,1,3315,1,3316,1,3315,1,3316,1,1,1,1,1,1,1,1,1,1,1,1,1,1,1,1,1,1,1,1,1,1,1,1,1,1,1,1,1,1,1,3470,1,1,1,1,1,1,1,1,1,3315,1,3316,1,1,1,1,1,1,1,7638,1,1,0,0,0,0,1,1,1,1,1,1,7641,1,7639,1,1,1,1,1,1,1,1,1,1,1,1,1,1,6655,3470,6653,1,1,1,1,3472,6655,928,6653,1,1,1,1,1,1,1,1,3472,6655,928,6653,1,1,1,1,1,1,1,1,3472,1,1,1,1,6655,3470,6653,1,1,1,1,3472,6655,928,6653,1,1,1,1,1,1,1,1,3472,6655,928,6653,1,1,1,1,1,1,1,1,3472,1,1,1,1,6655,3470,6653,1,1,1,1,3472,6655,928,6653,1,1,1,1,1,1,1,1,3472,6655,928,6653,1,1,1,1,1,1,1,1,3472,1,1,1,1,6655,3470,6653,1,1,1,1,3472,6655,928,6653,1,1,1,1,1,1,1,1,3472,6655,928,6653,1,1,1,1,1,1,1,1,1515,1516,1,1,1,1,1,1,1,1513,1514,1,1,1,1,1515,1516,1,1,1,1,1,1,1,1,1,1580,1581,1,1,1582,1583,1,1,1,1,1513,1514,1,1,1515,1516,1,3443,3444,1,1513,1514,1,1,1,1,1,1,1,1515,1516,1,3427,3428,1,1,1,1580,1581,1582,1583,1,1,1,1,1,1,1,1,1,1547,1548,1549,1,1,1,1515,1516,1,1,1,1,1,1513,1514,1,1,1515,1516,1,1,1513,1514,1,1,1515,1516,1,1,1,1580,1581,1582,1583,1,1,1,1513,1514,1,1,1,1,1,1,1,1515,1516,1,1,1,1,1513,1514,1,1,1,1,1,1,1515,1516,1,1,1,1,1513,1514,1,1,1515,1516,1513,1514,1515,1516,1,1,1513,1514,1515,1516,1,1,1513,1514,1,1,1,1,1515,1516,1513,1514,1,1,1,1,1,1,1,1,1,1,1,1,1,1,1,1,1,1,1,1,1,1,1,1,1,1,1,1,1,1,1584,1,1,1,1,1,1,1,1,1,1,1,1,1,1,1,1,1,1,1,1,1,1,1,1,1,1,1,1,1,1,1,1,1,1,1,1,1,1,1,1,1,1,1,1,1,1,1,1,1,1,1,1,1,1,3470,1,1,1,1,1,1,1,1,1,1,1,1,1,3472,1,1,1,1,1,1,1,1,1,1,1,1,1,1,1,1,1,1,1,1,1,1,1,1,1,1,1,1,1,3472,1,1,1,1,3472,1,1,1,3472,1,1,1,3472,1,1,1,1,1,1,1,3472,1,1,1,1,1,1,1,1,1,1,1,1,1,1,1,1,1,1,1,1,1,1,3443,3444,1579,1,1,1,1,1,1,1,1,1,1,1,1,1,1,1,1,1,1,1,1,1,1,1,1,1,1,1,1,1,1,1,1,1,1,1,1,1,1,1,1,1,1,1,1,1,1,1,1,1,1,1,1,1,1,1,1,1,1,1,1,1,1,1,1,1,1,1,1,1,1,1,0,0,0,0,0,0,0,0,0,0,0,0,0,0,0,0,0,0,0,0,0,0,0,0,0,0,0,0,0,0,0,0,0,0,0,0,0,0,0,0,0,0,0,0,0,0,0,0,0,0,0,0,0,0,0,0,0,0,0,0,0,0,0,0,0,0,0,0,0,0,0,0,0,0,0,0,0,0,0,0,0,0,0,0,0,0,0,0,0,0,0,0,0,0,0,0,0,0,0,0,0,0,0,0,0,0,0,0,0,0,0,0,0,0,0,0,0,0,0,0,0,0,0,0,0,0,0,0,0,0,0,0,0,0,0,0,0,0,0,0,0,0,0,0,0,0,0,0,0,0,0,0,0,0,0,0,0,0,0,0,0,0,0,0,0,0,0,0,0,0,0,0,0,0,0,0,0,0,0,0,0,0,0,0,0,0,0,0,0,0,0,0,0,0,0,0,0,0,0,0,0,0,0,0,0,0,0,0,0,0,0,0,0,0,0,0,0,0,0,0,0,0,0,0,0,0,0,0,0,0,0,0,0,0,0,0,0,0,0,0,0,0,0,0,0,0,0,0,0,0,0,0,0,0,0,0,0,0,0,0,0,0,0,0,0,0,0,0,0,0,0,0,0,0,0,0,0,0,0,0,0,0,0,0,0,0,0,0,0,0,0,0,0,0,0,0,0,0,0,0,0,0,0,0,0,0,0,0,0,0,0,0,0,0,0,0,0,0,0,0,0,0,0,0,0,0,0,0,0,0,0,0,0,0,0,0,0,0,0,0,0,0,0,0,0,0,0,0,0,0,0,0,0,0,0,0,0,0,0,0,0,0,0,0,0,0,0,0,0,0,0,0,0,0,0,0,0,0,0,0,0,0,0,0,0,0,0,0,0,0,0,0,0,0,0,0,0,0,0,0,0,0,0,0,0,0,0,0,0,0,0,0,0,0,0,0,0,0,0,0,0,0,0,0,0,0,0,0,0,0,0,0,0,0,0,0,0,0,0,0,0,0,0,0,0,0,0,0,0,0,0,0,0,0,0,0,0,0,0,0,0,0,0,0,0,0,0,0,0,0,0,0,0,723,771,770,723,723,771,770,723,723,771,770,723,771,770,0,0,0,0,0,0,0,0,0,0,0,0,0,0,0,0,
1,1,1,1,1,1,1,1,1,1,1,1,1,1,1,1,1,1,1,1,1,1,1,1,1,1,1,1,1,1,1,1,1,1,1,1,1,1,1,1,1,1,1,1,1,1,1,1,1,1,1,1,1,1,1,1,1,1,1,1,1,1,1,1,1,1,1,1,1,1,1,1,1,1,1,1,1,1,1,1,1,1,1,1,1,1,1,1,1,1,1,1,1,1,1,1,1,1,1,1,1,1,1,1,3472,1,1,1,1,1,1,1,1,1,1,1,1,1,1,1,1,1,1,1,1,1,1,1,1,1,1,1,1,3470,1,1,1,1,1,1,3472,1,1,1,1,3470,1,1,1,1,1,1,3472,1,1,1,1,1,1,1,1,1,1,1,1,1,1,1,1,1,1,1,1,1,1,1,1,1,1,1,1,1,1,1,1,1,1,1,1,1,1,1,1,1,1,1,1,1,1,1,1,1,1,1,1,1,1,1,1,1,1,1,1,1,1,1,1,1,1,1,1,1,1,1,1,1,1,1,1,1,3470,1,1,1,1,1,1,1,1,1,1,1,1,1,1,1,1,1,1,1,1,1,1,1,1,1,1,1,1,1,1,1,1,1,1,1,1,1,1,1,1,1,1,1,1,1,1,1,1,1,1,1,1,1,1,1,1,1,1,3470,1,1,1,1,1,1,1,1,1,1,1,1,1,1,1,1,1,1,1,0,0,0,0,1,1,1,1,1,1,1,1,1,1,1,1,1,1,1,1,1,1,1,1,1,1,1,1,1,1,1,1,1,1,1,1,1,3472,1,1,1,1,1,1,1,1,1,1,1,3472,1,1,1,1,1,1,1,1,1,1,1,3472,1,1,1,1,1,1,1,1,1,1,1,3472,1,1,1,1,1,1,1,1,1,1,1,3472,1,1,1,1,1,1,1,1,1,1,1,3472,1,1,1,1,1,1,1,1,1,1,1,3472,1,1,1,1,1,1,1,1,1,1,1,3472,1,1,1,1,1,1,1,1,1,1,1,3472,0,1,1,1,1,1,1,1,1,1,1,3472,1,1,1,1,1,1,1,1,1,1,1,3472,1,1,1,1,1,1,1,1,1,1,1,1,1,1,1,1,1,1,1,1,1,1513,1514,1,1,1515,1516,1,1,1,1,1,0,0,1,1,1,1,1579,1,1,1584,1,1,1,1,1,1,1513,1514,1515,1516,1,1,3443,3444,1,1,1513,1,1,1,1,1,1,1,1516,1,1,3427,3428,1,1,1,1,1579,1584,1,1,1,1,1,1,1,1,1,1,1,1,1547,1548,1549,1515,1516,1,1,1,1,1,1,1,1513,1514,1515,1516,1,1,1,1,1513,1514,1515,1516,1,1,1,1,1,1579,1584,1,1,1,1,1,1513,1514,1,1,1,1,1,1515,1516,1,1,1509,1512,1,1,1513,1514,1,1,1,1,1515,1516,1,1,1509,1512,1,1,1513,1514,1515,1516,1,1,1513,1516,1,1,1,1,1513,1516,1,1,1,1,1513,1514,1,1,1515,1516,1,1,1513,1514,1515,1,1,1,1,1,1,1,1,1,1,1,1,1,1,1,1,1,1,1,1,1,1,1,1,1,1,1,1,1583,3411,3412,3427,3428,3443,3444,3411,3412,3427,3428,3443,3444,3411,3412,1,1,1,1,1,1,1,1,1,1,1,1,1,1,1,1,1,1,1,1,1,1,1,1,1,1,1,1,1,1,1,1,1,1,1,1,1,1,1,1,1,1,1,1,1,1,1,1,1,1,1,1,1,1,1,1,1,1,1,1,1,1,1,1,1,1,1,1,1,1,1,1,1,3472,1,1,1,1,1,1,1,1,1,1,3472,1,1,1,1,3472,1,1,1,3472,1,1,1,3472,1,1,1,1,1,1,1,1,1,1,1,1,1,1,1,1,1,1,1,1,1,3470,1,1,1,1,1,1,1,1,1,1,1513,1514,1,1,1,1,1,1,1,1,1,1,1,1,1,1,1,1,1,1,1,1,1,1,1,1,1,1,1,1,1,1,1,1,1,1,1,1,1,1,1,1,1,1,1,1,1,1,1,1,1,1,1,1,1,1,1,1,1,1,1,1,1,1,1,1,1,1,1,1,1,1,0,0,0,0,0,0,0,0,0,0,0,0,0,0,0,0,0,0,0,0,0,0,0,0,0,0,0,0,0,0,0,0,0,0,0,0,0,0,0,0,0,0,0,0,0,0,0,0,0,0,0,0,0,0,0,0,0,0,0,0,0,0,0,0,0,0,0,0,0,0,0,0,0,0,0,0,0,0,0,0,0,0,0,0,0,0,0,0,0,0,0,0,0,0,0,0,0,0,0,0,0,0,0,0,0,0,0,0,0,0,0,0,0,0,0,0,0,0,0,0,0,0,0,0,0,0,0,0,0,0,0,0,0,0,0,0,0,0,0,0,0,0,0,0,0,0,0,0,0,0,0,0,0,0,0,0,0,0,0,0,0,0,0,0,0,0,0,0,0,0,0,0,0,0,0,0,0,0,0,0,0,0,0,0,0,0,0,0,0,0,0,0,0,0,0,0,0,0,0,0,0,0,0,0,0,0,0,0,0,0,0,0,0,0,0,0,0,0,0,0,0,0,0,0,0,0,0,0,0,0,0,0,0,0,0,0,0,0,0,0,0,0,0,0,0,0,0,0,0,0,0,0,0,0,0,0,0,0,0,0,0,0,0,0,0,0,0,0,0,0,0,0,0,0,0,0,0,0,0,0,0,0,0,0,0,0,0,0,0,0,0,0,0,0,0,0,0,0,0,0,0,0,0,0,0,0,0,0,0,0,0,0,0,0,0,0,0,0,0,0,0,0,0,0,0,0,0,0,0,0,0,0,0,0,0,0,0,0,0,0,0,0,0,0,0,0,0,0,0,0,0,0,0,0,0,0,0,0,0,0,0,0,0,0,0,0,0,0,0,0,0,0,0,0,0,0,0,0,0,0,0,0,0,0,0,0,0,0,0,0,0,0,0,0,0,0,0,0,0,0,0,0,0,0,0,0,0,0,0,0,0,0,0,0,0,0,0,0,0,0,0,0,0,0,0,0,0,0,0,0,0,0,0,0,0,0,0,0,0,0,0,0,0,0,0,0,0,0,0,0,0,0,0,0,0,0,0,0,0,0,0,0,0,0,0,0,0,0,0,0,0,0,0,720,1,771,720,720,1,771,720,720,1,771,720,1,771,3475,0,0,0,0,0,0,0,0,0,0,0,0,0,0,0,
1,1,1,1,1,1,1,1,1,1,1,1,1,1,1,1,1,1,1,1,1,1,1,1,1,1,1,1,1,1,1,1,1,1,1,1,1,1,1,1,1,1,1,1,1,1,1,1,1,1,1,1,1,1,1,1,1,1,1,1,1,1,1,1,1,1,1,1,1,1,1,1,1,1,1,1,1,1,1,1,1,1,1,1,1,1,1,1,1,1,1,1,1,1,1,1,1,1,1,1,1,1,1,1,1,1,1,1,1,1,1,1,1,1,1,1,1,1,1,1,1,1,1,1,1,3470,1,1,1,1,1,1,1,3470,1,1,1,1,1,1,3472,1,1,1,1,1,1,1,1,1,1,1,1,1,1,1,1,1,1,1,1,1,1,1,1,1,1,1,1,1,1,1,1,1,1,1,1,1,1,1,1,1,1,1,1,1,1,1,1,1,1,1,1,1,1,1,1,1,1,1,1,1,1,1,1,1,1,1,1,1,1,1,1,1,1,1,1,1,1,1,1,1,1,1,1,1,1,1,1,1,3470,1,1,1,1,1,1,1,1,1,1,1,1,1,1,1,1,1,1,1,1,1,1,1,1,1,1,1,1,1,3470,1,1,1,1,1,1,1,1,1,1,1,1,1,1,1,1,1,1,1,1,1,1,1,1,1,1,1,1,3470,1,1,1,1,1,1,1,1,1,1,1,1,1,1,1,1,1,1,1,1,1,1,1,1,1,1,1,1,1,1,1,1,1,1,1,1,1,1,1,1,1,1,1,1,1,1,1,1,1,1,1,1,1,1,1,1,3472,1,1,1,1,1,1,1,1,1,1,1,3472,1,1,1,1,1,1,1,1,1,1,1,3472,1,1,1,1,1,1,1,1,1,1,1,3472,1,1,1,1,1,1,1,1,1,1,1,3472,1,1,1,1,1,1,1,1,1,1,1,3472,1,1,1,1,1,1,1,1,1,1,1,3472,1,1,1,1,1,1,1,1,1,1,1,3472,1,1,1,1,1,1,1,1,1,1,1,3472,0,1,1,1,1,1,1,1,1,1,1,3472,1,1,1,1,1,1,1,1,1,1,1,3472,1,1,1,1,1,1,1,1,1,1,1,1,1,1,1,1,1,1,1,1,1,1,1513,1514,1515,1516,1,1,1,1,1,1,1573,1578,1,1,1,1,1580,1581,1582,1583,1,1,1,1,1,1,1,1513,1516,1,1,1,3443,3444,1,1,1,1,1,1,1,1,1,1,1,1,1,3427,3428,1,1,1,1,0,0,1,1,1,1,1,1,1,1509,1546,1,1,1,1,1,1547,1516,1,1,1,1,1,1,1,1,1,1513,1516,1,1,1,1,1,1,1513,1516,1,1,1,1,1,1,1,1,1,1,1,1,1,1,1513,1514,1,1,1,1515,1516,1,1,1509,1510,1511,1512,1,1,1513,1514,1,1,1515,1516,1,1,1509,1510,1511,1512,1,1,1513,1516,1,1,1,1,1,1,1509,1512,1,1,1,1,1509,1512,1,1,1513,1514,1515,1516,1,1,1,1,1513,1516,1,1,1,1,1,1,1,1,1,1,1,1,1,1,1,1,1,1,1,1,1,1,1,1,1,1,1,1,1,3411,3412,3427,3428,3443,3444,3411,3412,3427,3428,3443,3444,3411,3412,1,1,1,1,1,1,1,1,1,1,1,1,1,1,1,1,1,1,1,1,1,1,1,1,1,1,1,1,1,1,1,1,1,1,1,1,1,1,1,1,1,1,1,1,1,1,1,1,1,1,1,1,1,1,1,1,1,1,1,1,1,1,3470,1,1,1,1,1,1,1,1,1,1,3472,1,1,1,1,1,1,1,1,1,1,1,1,1,1,1,3472,1,1,1,3472,1,1,1,1,1,1,1,1,1,1,1,1,1,1,1,1,1,1,1,1,1,1,1,1,1,3470,1,1,1,1,1,1,1,1,1,1,1,1513,1548,1549,1,1,1,1,1,1,1,1,1,1,1,1,1,1,1,1,1,1,1,1,1,1,1,1,1,1,1,1,1,1,1,1,1,1,1,1,1,1,1,1,1,1,1,1,1,1,1,1,1,1,1,1,1,1,1,1,1,1,1,1,1,1,1,1,1,1,1,1,0,0,0,0,0,0,0,0,0,0,0,0,0,0,0,0,0,0,0,0,0,0,0,0,0,0,0,0,0,0,0,0,0,0,0,0,0,0,0,0,0,0,0,0,2673,0,0,0,0,0,0,0,0,0,0,0,0,0,0,0,0,0,0,0,0,0,0,0,0,0,0,0,0,0,0,0,0,0,0,0,0,0,0,0,0,0,0,0,0,0,0,0,0,0,0,0,0,0,0,0,0,0,0,0,0,0,0,0,0,0,0,0,0,0,0,0,0,0,0,0,0,0,0,0,0,0,0,0,0,0,0,0,0,0,0,0,0,0,0,0,0,0,0,0,0,0,0,0,0,0,0,0,0,0,0,0,0,0,0,0,0,0,0,0,0,0,0,0,0,0,0,0,0,0,0,0,0,0,0,0,0,0,0,0,0,0,0,0,0,0,0,0,0,0,0,0,0,0,0,0,0,0,0,0,0,0,0,0,0,0,0,0,0,0,0,0,0,0,0,0,0,0,0,0,0,0,0,0,0,0,0,0,0,0,0,0,0,0,0,0,0,0,0,0,0,0,0,0,0,0,0,0,0,0,0,0,0,0,0,0,0,0,0,0,0,0,0,0,0,0,0,0,0,0,0,0,0,0,0,0,0,0,0,0,0,0,0,0,0,0,0,0,0,0,0,0,0,0,0,0,0,0,0,0,0,0,0,0,0,0,0,0,0,0,0,0,0,0,0,0,0,0,0,0,0,0,0,0,0,0,0,0,0,0,0,0,0,0,0,0,0,0,0,0,0,0,0,0,0,0,0,0,0,0,0,0,0,0,0,0,0,0,0,0,0,0,0,0,0,0,0,0,0,0,0,0,0,0,0,0,0,0,0,0,0,0,0,0,0,0,0,0,0,0,0,0,0,0,0,0,0,0,0,0,0,0,0,0,0,0,0,0,0,0,0,0,0,0,0,0,0,0,0,0,0,0,0,0,0,0,0,0,0,0,0,0,0,0,0,0,0,0,0,0,0,0,0,0,0,0,0,0,0,0,0,0,0,0,0,0,0,0,0,0,0,0,0,0,0,0,0,0,0,0,0,0,0,0,0,0,0,0,0,0,0,0,0,0,0,0,0,0,0,0,0,0,0,0,0,0,0,0,0,
1,1,1,1,1,1,1,1,1,1,1,1547,1548,1549,1,1,1,1,1,1,1,1,1,1,1,1,1,1,1,1,1,1,1,1,1,1,1,1,1,1,1,1,1,1,1,1,1,1,1,1,1,1,1,1,1,1,1,1,1,1,1,1,1,1,1,1,1,1,1,1,1,1,1,1,1,1,1,1,1,1,1,1,1,1,1,1,1,1,1,1,1,1,1,1,1,1,1,1,1,1,1,1,1,1,1,1,1,1,1,1,1,1,1,1,1,1,1,1,1,1,1,3472,1,1,1,3470,1,1,1,1,1,1,1,1,1,1,1,1,1,1,1,1,1,1,1,1,1,1,3315,1,3316,1,1,1,1,1,1,1,1,1,1,1,1,1,1,1,1,1,1,1,1,1,1,1,1,1,1,1,1,1,1,1,1,1,1,1,1,1,1,1,1,1,1,1,1,1,1,1,1,1,1,1,1,1,1,1,1,1,1,1,1,1,1,1,1,1,1,1,1,1,1,1,1,1,1,1,1,1,1,1,1,1,1,1,1,1,1,1,1,1,1,1,1,1,1,1,1,1,1,1,1,1,1,1,1,1,1,1,1,1,3470,1,1,1,1,1,1,1,1,1,1,1,1,1,1,1,1,1,1,1,1,1,1,1,1,3470,1,1,1,1,1,1,1,1,1,3470,1,1,1,1,1,1,1,1,1,1,1,1,1,1,1,1,1,1,1,1,1,1,1,1,1,1,1,1,1,1,1,1,1,1,1,1,1,1,1,1,1,1,1,1,1,1,1,1,1,1,3472,1,1,1,1,1,1,1,1,1,1,1,3472,1,1,1,1,1,1,1,1,1,1,1,3472,1,1,1,1,1,1,1,1,1,1,1,3472,1,1,1,1,1,1,1,1,1,1,1,3472,1,1,1,1,1,1,1,1,1,1,1,3472,1,1,1,1,1,1,1,1,1,1,1,3472,1,1,1,1,1,1,1,1,1,1,1,3472,1,1,1,1,1,1,1,1,1,1,1,3472,0,1,1,1,1,1,1,1,1,1,1,3472,1,1,1,1,1,1,1,1,1,1,1,3472,1,1,1,1,1,1,1,1,1,1,1,1,1,1,1,1,1,1,1509,1512,1,1,1,1513,1516,1,1,1,1,1,1,1574,1575,1576,1577,1,1,1,1,1579,1584,1,1,1,1,1509,1512,1,1,1,1,1,1,1,3443,3444,1,1,1,1,1,1,1,1,1,1,1,1,1,3427,3428,1,1,1,1,1,1,1,1,1,1,1,1,1509,1510,1544,1545,1546,1,1,1,1,1,1,1,1,1,1,1509,1512,1,1,1,1,1,1,1509,1512,1,1,1,1,1,1,1,1,1,1,1,1,1,1,1,1509,1512,1,1,1513,1514,1,1515,1516,1,1,1509,1510,1,1,1511,1512,1,1,1513,1514,1515,1516,1,1,1509,1510,1,1,1511,1512,1,1,1,1,1509,1512,1,1,1509,1510,1511,1512,1,1,1509,1510,1511,1512,1,1,1513,1516,1,1,1509,1512,1,1,1,1,1,1,1,1,1,1,1,1,1,1,1,1,1,1,1,1,1,1,1,1,1,1,1,1,1,1,1,1,3411,3412,3427,3428,3443,3444,3411,3412,3427,3428,3443,3444,3411,3412,1,1,1,1,1,1,1,1,1,1,1,1,1,1,1,1,1,1,1,1,1,1,1,1,1,1,1,1,1,3472,1,1,1,1,1,1,1,1,1,1,1,1,1,1,1,1,1,1,1,1,1,1,1,1,1,1,1,1,1,1,1,1,3470,1,1,1,1,1,1,1,1,1,1,3472,1,1,1,1,1,1,1,1,1,1,1,1,1,1,1,3472,1,1,1,3472,1,1,1,1,1,1,1,1,1,1,1,1,1,1,1,1,1,1,1,1,1,1,3472,1,1,3470,1,1,1,1,1,1,1,1,1,1,1,1,1,1547,1,1,1,1,1,1,1,1,1,1,1,1,1,1,1,1,1,1,1,3456,1,1,1,1,1,1,1,1,1,1,1,1,1,1,1,1,3456,1,1,1,1,1,1,3456,1,1,1,1,1,1,1,1,1,1,1,1,1,1,1,3456,1,1,1,1,1,1,1,1,3456,0,0,0,0,0,0,0,0,0,0,0,0,0,0,3456,0,0,0,0,0,0,0,0,0,0,0,0,0,0,0,0,0,0,3456,0,0,1547,1548,1549,0,0,0,2673,0,0,0,0,0,0,0,0,0,0,0,0,0,0,0,0,0,0,0,0,0,0,0,0,0,0,0,0,0,0,0,0,0,0,0,0,0,0,0,0,0,0,0,0,0,0,0,0,0,0,0,0,0,0,0,0,0,0,0,0,0,0,0,0,0,0,0,0,0,0,0,0,0,0,0,0,0,0,0,0,0,0,0,0,0,0,0,0,0,0,0,0,0,0,0,0,0,0,0,0,0,0,0,0,0,0,0,0,0,0,0,0,0,0,0,0,0,0,0,0,0,0,0,0,1550,1551,1552,0,0,0,0,1513,1513,1514,0,0,0,1550,1551,1514,0,0,0,0,0,0,1550,1551,1552,0,0,0,0,0,1514,0,0,0,0,0,0,1550,1551,1552,0,1552,0,1547,1548,1549,0,0,0,0,0,0,0,0,0,0,0,0,0,0,0,0,0,0,0,0,0,0,0,0,0,0,0,0,0,0,0,0,0,0,0,0,0,0,0,0,0,0,0,0,0,0,0,0,0,0,0,0,0,0,0,0,0,0,0,0,0,0,2676,0,0,0,0,0,0,0,0,0,0,1547,1548,1549,0,0,0,0,0,0,0,0,1550,1551,1552,0,0,0,0,1547,1548,1549,0,0,0,0,0,0,0,0,0,0,1550,1551,1552,0,0,0,0,1547,1548,1549,0,0,0,0,0,0,0,2673,0,0,0,0,0,0,0,0,0,0,0,0,0,0,0,0,0,0,0,0,0,0,0,0,0,0,0,0,0,0,0,0,0,0,0,0,0,0,0,0,0,0,0,0,0,0,0,0,0,0,0,0,0,0,0,0,0,0,0,0,0,0,0,0,0,0,0,0,0,0,0,1550,1551,1552,0,0,0,0,0,0,0,0,0,0,0,0,0,0,1547,1548,1549,0,0,0,0,0,0,0,0,0,0,0,0,0,0,0,0,0,0,0,0,0,0,0,0,0,0,0,0,0,0,0,0,0,0,0,0,0,0,0,0,0,0,0,0,0,0,0,0,0,0,0,0,0,0,0,0,0,0,0,0,0,0,0,0,0,0,0,0,0,0,0,0,0,0,0,0,
1,1,1,1,1,1,1,1,1,1,1,1,1,1547,1,1,1,1,1,1548,1549,1,1,1,1,1,1,1,1,1,1,1,1,1,1,1550,1551,1,1,1,1,1,1548,1549,1,1,1,1,1,1,1,1,1,1,1,1,1,1,1,1,1,1,1,1,1550,1551,1,1,1,1,1,1548,1549,1,1,1,1,1,1,1,1550,1551,1,1,1,1,1,1548,1549,1,1,1,1,1,1,1,1,1,1,1,1,1,1,1,1,1,1,1,1,1,1,1,1,1,1,1,1,3470,1,1,1,3472,1,1,1,3470,1,1,1,1,1,1,1,1,1,1,3315,1,3316,1,1,1,1,1,1,1,1,1,1,1,1,1,1,1,1,1,1,1,1,1,1,1,1,1,1,1,1,1,1,1,3313,1,3314,1,1,1,1,1,1,1,1,1,1,1,1,3313,1,3314,1,1,1,1,1,1,1,1,3315,1,3316,1,1,1,1,1,1,1,1,1,1,1,1,1,1,1,1,1,1,1,1,1,1,1,1,1,1,3313,1,3314,1,1,1,1,1,1,1,1,1,1,1,1,1,1,1,1,1,1,1,1,1,1,1,1,1,1,1,1,1,1,1,1,3470,1,1,1,1,1,1,1,1,1,1,1,1,1,1,1,1,1,1,1,1,1,1,1,1,3470,1,1,1,1,1,1,1,1,1,3470,1,1,1,1,1,1,1,1,1,1,1,1,1,1,1,1,1,1,1,1,0,1,0,1,1,1,1,1,7638,1,7636,1,1,1,3470,1,1,1,1,1,1,1,1,1,1,1,1,1,1,1,3472,1,1,1,1,1,1,1,1,1,1,1,3472,1,1,1,1,1,1,1,1,1,1,1,3472,1,1,1,1,1,1,1,1,1,1,1,3472,1,1,1,1,1,1,1,1,1,1,1,3472,1,1,1,1,1,1,1,1,1,1,1,3472,1,1,1,1,1,1,1,1,1,1,1,3472,1,1,1,1,1,1,1,1,1,1,1,3472,1,1,1,1,1,1,1,1,1,1,1,3472,1,1,1,1,1,1,1,1,1,1,1,3472,1,1,1,1,1,1,1,1,1,1,1,3472,1,1,1,1,1,1,1,1,1,1,1,1,1,1,1,1,1,1509,1510,1511,1512,1,1,1,1,1,1,1,1,1,1,1573,1,1,1578,1,1,1,1,0,0,1,1,1,1509,1510,1511,1512,1,1,1,1,1,1,3443,3444,1,1,1509,1,1,1,1,1,1,1,1512,1,1,3427,3428,1,1,1573,1578,1,1,1,1,1,1,1,1509,1510,1,1,1,1544,1545,1546,1,1,1,1,1,1,1,1509,1510,1511,1512,1,1,1,1,1509,1510,1511,1512,1,1,1,1,1,1,1,1573,1578,1,1,1,1,1509,1510,1511,1512,1,1,1513,1,1516,1,1,1509,1510,1,1,1,1,1511,1512,1,1,1513,1516,1,1,1509,1510,1,1,1,1,1511,1512,1,1,1509,1510,1511,1512,1509,1510,1,1,1511,1512,1509,1510,1,1,1511,1512,0,1,1,1,1509,1510,1511,1512,1,1,1509,1,1,1,1,1,1,1,1,1,1,1,1,1,1,1,1,1,1,1,1,1,1,1,1,1,1,1,1577,3411,3412,3427,3428,3443,3444,3411,3412,3427,3428,3443,3444,3411,3412,1,1,1,1,1,1,1,1,1,1,1,1,1,1,1,1,1,1,1,1,1,1,1,1,1,1,1,1,1,3472,1,1,1,1,1,1,1,1,1,1,1,1,1,1,1,1,1,1,1,1,1,1,1,1,1,1,1,1,1,3472,1,1,3470,1,1,1,1,1,1,1,1,1,1,3472,1,1,1,1,1,1,1,1,1,1,1,1,1,1,1,1,1,1,1,3472,1,1,1,1,1,1,1,1,1,1,1,1,1,1,1,1,1,1,1,1,1,1,3472,1,1,3470,1,1,1,1,1,1,1,1,1,1,1,1,1,1,1,1,1,1,1,1,1,1,1,1,1,1,1,1,1,1,1,1,1,3456,1,1,1,1,1,1,1,1,1,1,1,1,1,1,1,1,3456,1,1,1,1,1,1,3456,1,1,1,1,1,1,1,1,1,1,1,1,1,1,1,3456,1,1,1,1,1,1,1,1,3456,0,0,0,0,0,0,0,0,0,0,0,0,0,0,3456,0,0,0,0,0,0,0,0,0,0,0,0,0,0,0,0,0,0,3456,0,0,0,0,1547,1548,1549,2673,0,0,0,0,0,0,0,0,0,0,0,0,0,0,0,0,0,0,0,0,0,0,0,0,0,0,0,0,0,0,0,0,0,0,0,0,0,0,0,0,0,0,0,0,0,0,0,0,0,0,0,0,0,0,0,0,0,0,0,0,0,0,0,0,0,0,0,0,0,0,0,0,0,0,0,0,0,0,0,0,0,0,0,0,0,0,0,0,0,0,0,0,0,0,0,0,0,0,0,0,0,0,0,0,0,0,0,0,0,0,0,0,0,0,0,0,0,0,0,0,0,0,0,1550,1551,1552,0,0,0,0,0,0,0,0,1513,1514,1550,1551,1552,0,1513,1514,0,0,0,1550,1551,1552,0,0,0,0,0,0,0,1513,1514,0,0,0,1550,1551,1552,0,0,0,0,0,0,0,1547,1548,1549,0,0,0,0,0,0,0,0,0,0,0,0,0,0,1550,1551,1552,1513,1514,0,0,0,0,0,0,0,0,0,0,0,0,0,0,0,0,0,0,0,0,0,0,0,0,0,0,0,0,0,0,0,0,0,1550,1551,1548,1549,0,0,0,2676,0,0,0,0,0,0,0,0,0,0,0,0,0,1547,1548,1549,0,0,0,0,1550,1551,1552,0,0,0,0,0,0,0,0,1547,1548,1549,0,0,0,0,0,0,1550,1551,1552,0,0,0,0,0,0,0,0,1547,1548,1549,0,0,0,0,2673,0,0,0,0,0,0,0,3454,0,0,0,0,0,0,0,0,0,0,0,0,0,0,0,0,0,0,0,0,0,0,0,3454,0,0,0,0,3456,0,0,0,3454,0,0,0,0,3456,0,0,0,0,0,0,0,0,0,0,0,0,0,0,0,0,0,0,0,0,0,0,0,0,1550,1551,1552,0,0,0,0,0,0,0,0,0,0,0,0,0,0,0,0,0,0,1547,1548,1549,0,0,0,0,0,0,1550,1551,1548,1549,0,0,0,0,0,0,0,0,0,0,0,0,0,0,0,0,0,0,0,0,0,0,0,0,0,0,0,0,0,0,0,0,0,0,0,0,0,0,0,0,0,0,0,0,0,0,0,0,0,0,0,0,0,0,0,0,0,0,0,0,0,0,0,0,
1,1,1,1,1,1,1,1,1,1,1,1,1,1,1,1,1,1,1,1,1547,1,1,1,1,1,1548,1549,1,1,1,1,1,1550,1551,1552,1,1,1,1,1,1,1,1547,1548,1549,1,1,1,1,1,1,1,1,1,1,1,1,1,1,1,1,1550,1551,1552,1,1,1,1,1,1,1,1547,1548,1549,1,1,1,1550,1551,1552,1,1,1,1,1,1,1,1547,1548,1549,1,1,1,1,1,1,1,1,1,1,1,1,1,1,1,1,1,1,1,1,1,1,3313,1,3314,1,3470,1,1,1,3472,1,1,1,3470,1,1,1,1,1,1,1,1,1,1,1,0,1,1,1,1,1,1,1,1,1,1,1,1,1,1,1,1,1,1,1,3470,1,1,1,1,1,1,1,1,3313,1,3314,1,1,1,1,1,1,1,1,1,1,1,1,3313,1,3314,1,1,1,1,1,1,1,1,1,1,1,1,1,1,1,1,1,1,1,1,1,1,3313,1,3314,1,1,3472,1,1,1,1,1,1,1,1,1,1,1,1,1,1,1,1,1,1,1,1,1,1,1,1,1,1,1,1,1,1,1,1,1,1,1,3470,1,1,1,1,1,3313,1,3314,1,1,1,1,3470,1,1,1,1,1,1,1,1,1,1,1,1,1,1,1,3470,1,1,1,1,1,1,1,1,3470,1,1,1,1,1,1,1,1,1,3470,1,3313,1,3314,1,3313,1,3314,1,1,1,1,3470,1,1,1,1,1,1,1,7641,1,7639,1,7638,1,7636,1,3315,1,3316,1,1,1,3470,1,1,1,1,1,1,1,1,1,1,6379,751,6377,1,1,3472,1,1,1,1,1,1,1,1,1,1,6379,3472,6377,1,1,1,1,1,6379,751,6377,1,1,3472,1,1,1,1,1,1,6379,751,6377,1,1,3472,1,1,1,1,1,1,1,1,1,1,6379,3472,6377,1,1,1,1,1,6379,751,6377,1,1,3472,1,1,1,1,1,1,6379,751,6377,1,1,3472,1,1,1,1,1,1,1,1,1,1,6379,3472,6377,1,1,1,1,1,6379,751,6377,1,1,3472,1,1,1,1,1,1,6379,751,6377,1,1,3472,1,1,1,1,1,1,1,1,1,1,6379,3472,6377,1,1,1,1,1,1,1,1,1,1576,1577,1,1,1,1,1509,1510,1,1,1511,1512,1,1,1,1,1,1,1,1,1574,1575,1,1,1576,1577,1,1,1,1,1,1,1,1509,1510,1,1,1511,1512,1,1,1,1,1,3443,3444,1,1509,1510,1,1,1,1,1,1,1,1511,1512,1,3427,3428,1,1574,1575,1576,1577,1,1,1,1,1,1509,1510,1,1,1,1,1,1,1544,1545,1546,1,1,1,1,1509,1510,1,1,1511,1512,1,1,1509,1510,1,1,1511,1512,1,1,1,1,1,1574,1575,1576,1577,1,1,1509,1510,1,1,1511,1512,1,1,1,1,1,1509,1510,1,1,1,1,1,1,1511,1512,1,1,1,1,1509,1510,1,1,1,1,1,1,1511,1512,1509,1510,1,1,1511,1510,1,1,1,1,1511,1510,1,1,1,1,1511,1512,1,1,1509,1510,1,1,1511,1512,1509,1510,1,1,1,1,1,1,1,1,1,1,1,1,1,1,1,1,1,1,1,1,1,1,1,1,1,1,1,1578,1,1,1,1,1,1,1,1,1,1,1,1,1,1,1,1,718,718,718,718,718,718,718,718,718,718,709,1,1,1,1,1,1,1,1,1,1,1,1,1,1,1,1,3472,1,1,1,1,1,1,1,3472,1,1,1,1,1,1,1,1,1,3470,1,1,1,1,1,1,1,1,1,1,1,3472,1,1,3470,1,1,1,1,1,1,1,1,1,1,3472,1,1,1,3470,1,1,1,1,1,1,1,1,1,1,1,1,1,1,1,1,1,1,1,1,1,1,1,1,1,1,1,1,1,1,1,1,1,1,1,1,1,1,3472,1,1,3470,1,1,1,1,1,1,1,1,1,1,1,1,1,1,1,1,1,1,1,1,1,1,1,1,1,1,1,1,1,1,1,1,1,1,1,1,1,1,1,1,1,1,1,1,1,1,1,1,1,1,1,1,1,1,1,1,1,1,1,1,1,1,1,1,1,1,1,1,1,1,1,1,1,1,1,1,1,1,1,1,1,1,0,0,0,0,0,0,0,0,0,0,0,0,0,0,0,0,0,0,0,0,0,0,0,0,0,0,0,0,0,0,0,0,0,0,0,0,0,0,0,0,0,1547,0,0,0,0,0,0,0,0,0,0,0,0,0,0,0,0,0,0,0,0,0,0,0,0,0,0,0,0,0,0,0,0,0,0,0,0,0,0,0,0,0,0,0,0,0,0,0,0,0,0,0,0,0,0,0,0,0,0,0,0,0,0,0,0,0,0,0,0,0,0,0,0,0,0,0,0,0,0,0,0,0,0,0,0,0,0,0,3456,0,0,0,0,0,0,0,0,0,0,0,0,0,0,0,0,0,0,0,0,0,0,0,0,3456,0,0,0,0,0,0,0,0,0,1550,1551,1552,0,0,0,0,0,0,0,0,0,0,0,1513,1552,0,0,0,0,1513,1514,1550,1551,1552,0,0,0,0,0,0,0,0,0,0,1513,1514,1550,1551,1552,0,0,0,0,0,0,0,0,0,0,0,1547,0,0,1548,1549,0,0,0,0,0,0,1550,1551,1552,0,1552,0,0,0,1513,1514,0,0,0,0,0,0,0,0,1550,1551,1552,1513,1514,0,0,0,0,0,0,0,0,0,0,0,0,0,0,0,1550,1551,1552,0,1552,0,0,1547,1548,1549,2676,0,0,0,0,0,0,1541,0,0,1546,0,0,0,0,0,0,1547,1548,1549,1550,1551,1552,0,0,0,0,0,0,0,0,0,0,0,0,1547,1548,1549,0,0,1550,1551,1552,0,0,0,0,0,0,0,0,0,0,0,0,1547,1548,1549,0,0,0,0,0,0,0,0,0,0,3454,0,0,0,0,0,0,0,0,0,0,0,0,0,0,0,0,0,0,0,0,0,0,0,3454,0,0,0,0,3456,0,0,0,3454,0,0,0,0,3456,0,0,0,0,0,0,0,0,0,0,0,0,0,0,0,0,0,0,0,0,0,0,1550,1551,1552,0,0,0,0,0,0,0,0,0,0,0,0,0,0,0,0,0,0,0,0,0,0,1547,1548,1549,0,0,1550,1551,1552,0,0,1547,1548,1549,0,0,1550,1551,0,0,0,0,0,0,1516,0,0,0,0,0,0,721,706,724,719,711,706,711,706,711,711,0,710,711,0,719,0,719,706,711,706,711,706,711,706,711,706,770,719,711,711,706,706,711,0,0,0,0,0,0,0,0,0,0,0,0,
1,1,1,1,1,1,1,1,1,1,1,1,1,1,1,3261,3264,1,1,1,1,1,1,1,1,1,1,1547,1,1,1,1,1,1552,1,1,1,1,1,1,1,1,1,1,1,1547,1,1,1,1,1,1,1,1548,1549,1,1,1,1,1,1550,1551,1552,1,1,1,1,1,1,1,1,1,1,1,1547,1,1,1,1552,1,1,1,1,1,1,1,1,1,1,1,1547,1,1,1,1,1,1,1,1,1,1,1,1,1,1,1,1,1,1,3313,1,3314,1,1,1,1,1,3470,1,1,1,3472,1,1,1,3470,1,1,1,1,1,1,1,1,1,1,1,1,1,1,1,1,1,1,1,1,1,1,1,1,1,1,1,1,1,1,1,3470,1,1,3313,1,3314,1,1,1,1,1,1,1,1,1,1,1,1,3313,1,3314,1,1,1,1,1,1,1,1,1,1,1,1,3313,1,3314,1,1,1,3313,1,3314,1,1,1,3313,1,3314,1,1,1,1,1,1,3472,1,1,1,1,1,1,1,1,1,1,1,1,1,1,1,1,1,1,1,1,1,1,1,1070,1070,1070,1,1,1,1,1,1,1,1,1,3470,1,1,1,1,1,1,1,1,1,1,1,1,3470,1,1,1,1,1,1,1,1,1,1,1,1,1,1,1,3470,1,1,1,1,1,1,1,1,3470,1,1,1,1,1,1,1,1,1,3470,1,1,1,1,1,1,1,1,1,1,1,1,3470,1,1,1,1,1,1,1,1,1,1,1,3315,1,3316,1,1,1,1,1,1,1,3470,1,1,1546,1,1,1,6379,751,6377,1,6527,755,6525,1,1,3472,1,1,6379,751,6377,1,1,1,1,1,6527,3472,6525,1,6379,751,6377,1,6527,755,6525,1,1,3472,1,1,6379,751,6377,1,6527,755,6525,1,1,3472,1,1,6379,751,6377,1,1,1,1,1,6527,3472,6525,1,6379,751,6377,1,6527,755,6525,1,1,3472,1,1,6379,751,6377,1,6527,755,6525,1,1,3472,1,1,6379,751,6377,1,1,1,1,1,6527,3472,6525,1,6379,751,6377,1,6527,755,6525,1,1,3472,1,1,6379,751,6377,1,6527,755,6525,1,1,3472,1,1,6379,751,6377,1,1,1,1,1,6527,3472,6525,1,6379,751,6377,1,1,1,1,1,0,1578,1,1,1,1509,1510,1,1,1,1,1511,1512,1,1,1,1,1,1,1,1573,1,1,1,1,1578,1,1,1,1,1,1,1509,1510,1,1,1,1,1511,1512,1,1,1,1,3443,3444,1509,1510,1,1,1,1,1,1,1,1,1,1511,1512,1,1,1,1573,1,1,1578,1,1,1,1,1509,1510,1,1,1,1,1,1,1,1,1515,1516,1,1,1,1509,1510,1,1,1,1,1511,1512,1509,1510,1,1,1,1,1511,1512,1,1,1,1,1573,1,1,1578,1,1509,1510,1,1,1,1,1511,1512,1,1,1,1509,1510,1,1,1,1,1,1,1,1,1511,1512,1,1,1509,1510,1,1,1,1,1,1,1,1,1511,1510,1,1,1,1,1,1,1,1,1,1,1,1,1,1,1,1,1511,1512,1509,1510,1,1,1,1,1511,1510,1,1,1,1,1,1,1,1,1,1,1,1,1,1,1,1,1,1,1,1,1,1,1,1,1,1,1,1,1576,1577,1,1,1,1,1,1,1,1,1,1,1,1,1,1,0,0,0,0,0,0,0,0,0,0,0,0,1,1,1,1,1,3470,1,1,1,1,1,1,1,1,1,1,3472,1,1,1,3470,1,1,1,3472,1,1,1,1,1,1,1,1,1,3470,1,1,1,1,1,1,1,1,1,1,1,3472,1,1,3470,1,1,3472,1,1,1,1,1,1,1,3472,1,1,1,3470,1,1,1,1,1,1,1,1,1,1,1,1,1,1,1,1,1,1,1,1,1,1,1,1,1,1,1,1,1,1,1,1,1,1,1,1,1,1,3472,1,1,3470,1,1,1,1,1,1,1,1,1,1,1,1,1,1,1,1,1,1,1,1,1,1,1,1,1,1,1,1,1,1,1,1,1,1,1,1,1,1,1,1,1,1,1,1,1,1,1,1,1,1,1,1,1,1,1,1,1,1,1,1,1,1,1,1,1,1,1,1,1,1,1,1,1,1,1,1,1,1,1,1,1,1,0,0,0,0,0,0,0,0,0,0,0,0,0,0,0,0,0,0,0,0,0,0,0,0,0,0,0,0,0,0,0,0,0,0,0,0,0,0,0,0,0,0,0,0,0,0,0,0,0,0,0,0,0,0,0,0,0,0,0,0,0,0,0,0,0,0,0,0,0,0,0,0,0,0,0,0,0,0,0,0,0,0,0,0,0,0,0,0,0,0,0,0,0,0,0,0,0,0,0,0,0,0,0,0,0,0,0,0,0,0,0,0,0,0,0,0,0,0,0,0,0,0,0,0,0,0,0,0,0,0,0,0,0,0,0,0,0,0,0,0,0,0,0,0,0,0,0,0,0,0,0,0,0,0,0,0,0,0,0,0,0,0,0,0,1552,0,0,0,0,0,0,0,0,1541,1512,0,0,0,0,0,0,0,0,0,0,1513,1552,0,0,0,0,0,0,0,0,0,0,0,0,0,1513,1552,0,0,0,0,0,0,0,1541,1512,0,0,0,0,0,0,0,0,1547,1548,1549,1550,1551,1552,0,1552,0,0,0,0,0,0,0,0,1513,1514,0,0,1550,1551,1552,0,0,1552,0,0,0,1513,1514,0,0,0,0,0,0,0,0,0,0,1550,1551,1552,0,1552,0,0,0,0,0,0,0,0,0,0,0,0,0,0,1541,1542,1543,0,0,1544,1545,1546,0,0,0,0,0,0,1547,1552,0,0,0,0,0,0,1541,0,0,1546,0,0,0,0,0,0,1547,0,0,1552,0,0,0,0,0,0,1541,0,0,1546,0,0,0,0,0,0,0,0,0,0,0,0,0,0,0,0,0,0,0,0,0,0,0,0,0,0,0,0,0,0,0,0,0,0,0,0,0,0,0,0,0,0,0,0,0,0,3456,0,0,0,3454,0,0,0,0,3456,0,0,0,0,0,0,0,0,0,0,0,0,0,0,0,0,0,0,0,0,1550,1551,1552,0,0,0,0,0,1541,1512,0,0,0,0,0,0,0,0,0,0,0,0,1509,1546,0,0,0,0,0,0,0,0,0,0,0,0,0,0,0,0,0,0,0,0,0,0,0,0,0,0,0,0,0,0,0,0,0,0,723,0,708,709,718,709,709,709,718,709,707,711,0,720,0,723,709,709,707,711,718,722,709,709,709,709,709,709,709,709,709,709,0,0,0,0,0,0,0,0,0,0,0,0,
1,1,1,1,1,1,1,1,1,1,1,1,1,1,1,3262,3263,1,1,1,1,1,1,1,1,1,1,1,1,1,1,1,1,1,1,1,1,1,1,1,1,1,1,1,1,1,1,1,1,1,1,1,1,1,1547,1548,1549,1,1550,1551,1552,1,1,1,1,1,1,1541,1,1546,1,1,1,1,1,1,1,1,1,1,1,1,1,1,1,1,1,1,1,1,1,1,1,1,1,1,1,1,1,1,1,1,1,1,1,1,3472,1,1,1,1,1,1,1,1,1,1,3470,1,1,1,3472,1,1,1,3470,1,1,1,1,1,1,1,1,1,1,1,1,1,1,1,1,1,1,1,1,1,1,1,1,1,1,1,1,3472,1,1,3470,1,1,1,1,1,3313,1,3314,1,1,1,1,1,1,1,3443,3444,1,1,1,3313,1,3314,1,1,1,1,1,1,1,3427,3428,1,1,1,1,1,1,1,1,1,1,1,1,1,1,1,1,1,1,1,1,1,3472,1,1,1,1,1,1,1,1,1,1425,1426,1427,1428,1425,1426,1427,1428,1425,1426,1427,1428,1425,1426,1427,1428,1425,1426,1427,1428,1425,1426,1427,1428,1425,1426,1427,1428,1425,1426,1427,1428,1425,1426,1427,1428,1425,1426,1427,1428,1425,1426,1427,1428,1425,1426,1427,1428,1425,1426,1427,1428,1425,1426,1427,1428,1425,1426,1427,1428,1425,1426,1427,1428,1425,1426,1427,1428,1425,1426,1427,1428,1425,1426,1427,1428,1425,1426,1427,1428,1425,1426,1427,1428,1425,1426,1427,1428,1425,1426,1427,1428,1425,1426,1427,1428,1425,1426,1427,1428,1425,1426,1427,1428,1425,1426,1427,1428,1425,1426,1427,1428,1544,1545,1,1,6527,755,6525,1,6527,755,6525,1,6379,3472,6377,1,6527,755,6525,0,6379,751,6377,0,6527,3472,6525,1,6527,755,6525,1,6527,755,6525,1,6379,3472,6377,1,6527,755,6525,1,6527,755,6525,1,6379,3472,6377,1,6527,755,6525,1,6379,751,6377,1,6527,3472,6525,1,6527,755,6525,1,6527,755,6525,1,6379,3472,6377,1,6527,755,6525,1,6527,755,6525,1,6379,3472,6377,1,6527,755,6525,1,6379,751,6377,1,6527,3472,6525,1,6527,755,6525,1,6527,755,6525,1,6379,3472,6377,1,6527,755,6525,1,6527,755,6525,1,6379,3472,6377,1,6527,755,6525,1,6379,751,6377,1,6527,3472,6525,1,6527,755,6525,1,1,1,1,1,1,1576,1577,1,1509,1510,1,1,1,1,1,1,1511,1512,1,1,1,1,1,1574,1575,1,1,1,1,1576,1577,1,1,1,1,1509,1510,1,1,1,1,1,1,1511,1512,1,1,1,3443,3444,1510,1,1,1,1,1,1,1,1,1,1,1,1511,1,1,1574,1575,1,1,1576,1577,1,1,1509,1510,1,1,1,1,1,1,1,1,1515,1516,1,1,1,1509,1510,1,1,1,1,1,1,1511,1510,1,1,1,1,1,1,1511,1512,1,1,1574,1575,1,1,1576,1509,1510,1,1,1,1,1,1,1511,1512,1,1509,1510,1,1,1,1,1,1,1,1,1,1,1511,1512,1509,1510,1,1,1,1,1,1,1,1,1,1,1,1,1,1,1,1,1,1,1,1,1,1,1,1,1,1,1,1,1511,1510,1,1,1,1,1,1,1,1,1,1,1,1,1,1,1,1,1,1,1,1,1,1,1,1,1,1,1,1,1,1,1,1,1,1,1,1,1,1,1,1,1,1,1,1,1,1,1,1,1,1,1,0,0,0,0,0,0,0,0,0,0,0,0,1,1,3472,1,1,3470,1,1,1,1,1,1,1,1,1,1,3472,1,1,1,3470,1,1,1,3472,1,1,1,1,1,3472,1,1,1,3470,1,1,1,1,1,1,1,1,1,1,1,3472,1,1,3470,1,1,3472,1,1,1,1,1,1,1,3472,1,1,1,3470,1,1,3472,1,1,1,1,1,1,1,1,1,1,1,1,1,1,1,1,1,1,1,1,1,1,1,1,1,1,1,1,1,1,1,1,1,1,1,3472,1,1,3470,1,1,3472,1,1,1,1,1,1,1,1,1,1,1,1,1,1,1,1,1,1,1,1,1,1,1,1,1,1,1,1,1,1,1,1,1,1,1,1,1,1,1,1,1,1,1,1,1,1,1,1,1,1,1,1,1,1,1,1,1,1,1,1,1,1,1,1,1,1,1,1,1,1,1,1,1,1,1,1,1,1,1,0,0,0,0,0,0,0,0,0,0,0,0,0,0,0,0,0,0,0,0,0,0,0,0,0,0,0,0,0,0,0,0,0,0,0,0,0,0,0,0,0,0,0,0,0,0,0,0,0,0,0,0,0,0,0,0,0,0,0,0,0,0,0,0,0,0,0,0,0,0,0,0,0,0,0,0,0,0,0,0,0,0,0,0,0,0,0,0,0,0,0,0,0,0,0,0,0,0,0,0,0,0,0,0,0,0,0,0,0,0,0,0,0,0,0,0,0,0,0,0,0,0,0,0,0,0,0,0,0,0,0,0,0,0,0,0,0,0,0,0,0,0,0,0,0,0,0,0,0,0,0,0,0,0,0,0,0,0,0,0,0,0,0,0,0,0,0,0,0,0,0,1541,1542,1543,1511,1512,0,0,0,0,0,0,0,0,0,0,0,0,0,0,0,0,0,0,0,1541,1512,0,0,0,0,0,0,0,0,0,0,1541,1542,1543,1511,1512,0,0,0,0,0,0,0,0,0,1547,1552,0,0,0,0,0,0,0,0,1541,1512,0,0,0,1513,0,0,1552,0,0,0,0,0,0,0,0,0,1513,1514,0,0,0,0,0,1550,1551,1552,0,1552,0,0,0,0,0,0,0,0,1541,1512,0,0,0,0,0,0,0,1542,1543,0,0,0,0,0,0,1544,1545,0,0,0,0,0,0,0,0,0,0,0,0,1542,1543,0,0,1544,1545,0,0,0,0,0,0,0,0,0,0,0,0,0,0,1542,1543,0,0,1544,1545,0,0,0,0,0,0,0,0,0,0,0,0,0,0,0,0,0,0,0,0,0,0,0,0,0,0,0,0,0,0,0,0,0,0,0,0,0,0,0,0,0,0,0,0,0,3456,0,0,0,0,0,0,0,0,3456,0,0,0,0,0,0,0,0,0,0,0,0,1548,1549,0,0,0,0,1550,1551,1552,0,0,0,0,0,1541,1542,1543,1511,1512,0,0,0,0,0,0,0,0,0,0,1509,1510,1544,1545,1546,0,0,0,0,0,0,0,0,0,0,0,0,0,0,0,0,0,0,0,0,0,0,0,0,0,0,0,0,0,0,0,0,720,0,720,713,713,713,713,713,713,713,707,713,0,720,0,720,713,713,707,713,707,713,713,713,707,713,713,707,713,713,713,713,0,0,0,0,0,0,0,0,0,0,0,0,
1,1,1,1,1,1,1,1,1,1,1,1,1,1,3261,1246,1246,3264,1,1,1,1,1,1,1,1,1,1,1,1,1,1,1,1,1,1,1,1,1,1,1,1,1,1,1,1,1,1,1,1,1,1,1,1,1,1,1547,1,1552,1,1,1,1,1,1,1541,1542,1543,1,1544,1545,1546,1,1,1,1,1,1,1,1,1,1,1,1,1,1,1,1,1,1,1,1,1,1,1,1,1,1,1,1,1,1,1,1,1,1,3472,1,1,1,1,1,1,1,1,1,1,3470,1,1,1,3472,1,1,1,3470,1,1,1,1,1,1,1,1,1,1,1,1,1,1,1,1,1,1,1,1,1,1,1,1,1,1,1,1,3472,1,1,3470,1,1,1,1,1,1,1,1,1,1,1,1,1,1,1,3443,3444,1,1,1,1,1,1,1,1,1,1,1,1,1,3427,3428,1,1,1,1,1,1,1,1,1,1,1,1,1,1,1,1,1,1,1,1,1,3472,1,1,1,1,1,1,1,1,1,1441,1442,1443,1444,1441,1442,1443,1444,1441,1442,1443,1444,1441,1442,1443,1444,1441,1442,1443,1444,1441,1442,1443,1444,1441,1442,1443,1444,1441,1442,1443,1444,1441,1442,1443,1444,1441,1442,1443,1444,1441,1442,1443,1444,1441,1442,1443,1444,1441,1442,1443,1444,1441,1442,1443,1444,1441,1442,1443,1444,1441,1442,1443,1444,1441,1442,1443,1444,1441,1442,1443,1444,1441,1442,1443,1444,1441,1442,1443,1444,1441,1442,1443,1444,1441,1442,1443,1444,1441,1442,1443,1444,1441,1442,1443,1444,1441,1442,1443,1444,1441,1442,1443,1444,1441,1442,1443,1444,1441,1442,1443,1444,1441,1442,1443,1444,1425,1426,1427,1428,1425,1426,1427,1428,1425,1426,1427,1428,1425,1426,1427,1428,1425,1426,1427,1428,1425,1426,1427,1428,1425,1426,1427,1428,1425,1426,1427,1428,1425,1426,1427,1428,1425,1426,1427,1428,1425,1426,1427,1428,1425,1426,1427,1428,1425,1426,1427,1428,1425,1426,1427,1428,1425,1426,1427,1428,1425,1426,1427,1428,1425,1426,1427,1428,1425,1426,1427,1428,1425,1426,1427,1428,1425,1426,1427,1428,1425,1426,1427,1428,1425,1426,1427,1428,1425,1426,1427,1428,1425,1426,1427,1428,1425,1426,1427,1428,1425,1426,1427,1428,1425,1426,1427,1428,1425,1426,1427,1428,1425,1426,1427,1428,1425,1426,1427,1428,1425,1426,1427,1428,1425,1426,1427,1428,1425,1426,1427,1428,1425,1426,1427,1428,1425,1426,1427,1428,1425,1426,1427,1428,1425,1426,1427,1428,1425,1426,1427,1428,1425,1426,1427,1428,1425,1426,1427,1428,1425,1426,1427,1428,1425,1426,1427,1428,1425,1426,1427,1428,1425,1426,1427,1428,1425,1426,1427,1428,1425,1426,1427,1428,1425,1426,1427,1428,1425,1426,1427,1428,1425,1426,1427,1428,1425,1426,1427,1428,1425,1426,1427,1428,1425,1426,1427,1428,1425,1426,1427,1428,1425,1426,1427,1428,1425,1426,1427,1428,1425,1426,1427,1428,1425,1426,1427,1428,1425,1426,1427,1428,1425,1426,1427,1428,1425,1426,1427,1428,1425,1426,1427,1428,1425,1426,1427,1428,1425,1426,1427,1428,1425,1426,1427,1428,1425,1426,1427,1428,1425,1426,1427,1428,1425,1426,1427,1428,1425,1426,1427,1428,1425,1426,1427,1428,1425,1426,1427,1428,1425,1426,1427,1428,1425,1426,1427,1428,1425,1426,1427,1428,1425,1426,1427,1428,1425,1426,1427,1428,1425,1426,1427,1428,1425,1426,1427,1428,1425,1426,1427,1428,1425,1426,1427,1428,1425,1426,1427,1428,1425,1426,1427,1428,1425,1426,1427,1428,1425,1426,1427,1428,1425,1426,1427,1428,1425,1426,1427,1428,1425,1426,1427,1428,1425,1426,1427,1428,1425,1426,1427,1428,1425,1426,1427,1428,1425,1426,1427,1428,1425,1426,1427,1428,1425,1426,1427,1428,1,1,1,3472,1,1,3470,1,1,3472,1,1,1,1,1,1,1,3472,1,1,1,3470,1,1,1,3472,1,1,1,1,1,3472,1,1,1,3470,1,1,3472,1,1,1,1,1,1,1,1,3472,1,1,3470,1,1,3472,1,1,1,1,1,1,1,3472,1,1,1,3470,1,1,3472,1,1,1,1,1,1,1,1,1,1,1,1,1,1,1,1,1,1,1,1,1,1,1,1,1,1,1,1,1,1,1,1,1,1,1,3472,1,1,3470,1,1,3472,1,1,1,1,1,1,1,1,1,1,1,1,1,1,1,1,1,1,1,1,1,1,1,1,1,1,1,1,1,1,1,1,1,1,1,1,1,1,1,1,1,1,1,1,1,1,1,1,1,1,1,1,1,1,1,1,1,1,1,1,1,1,1,1,1,1,1,1,1,1,1,1,1,1,1,1,1,1,1,0,0,0,0,0,0,0,0,0,0,0,0,0,0,0,0,0,0,0,0,0,0,0,0,0,0,0,0,0,0,0,0,0,0,0,0,0,0,0,0,0,0,0,0,0,0,0,0,0,0,0,0,0,0,0,0,0,0,0,0,0,0,0,0,0,0,0,0,0,0,0,0,0,0,0,0,0,0,0,0,0,0,0,0,0,0,0,0,0,0,0,0,0,0,0,0,0,0,0,0,0,0,0,0,0,0,0,0,0,0,0,0,0,0,0,0,0,0,0,0,0,0,0,0,0,0,0,0,0,0,0,0,0,0,0,0,0,0,0,0,0,0,0,0,0,0,0,0,0,0,0,0,0,0,0,0,0,0,0,0,0,0,0,0,0,0,0,0,0,1541,1542,1543,0,0,0,1511,1512,0,0,0,0,1541,1512,0,0,0,0,0,0,0,0,0,0,1541,1542,1543,1511,1512,0,0,0,0,0,0,0,1541,1542,1543,0,0,0,1511,1512,0,0,0,0,0,0,0,0,0,0,0,0,0,0,1541,0,1541,1542,1543,1511,1512,0,0,0,0,0,0,0,0,0,0,0,1541,1512,0,0,0,1513,1514,1550,1551,1552,0,1552,0,0,0,0,0,0,0,0,1541,0,0,1542,1543,1511,1512,0,0,0,0,0,0,1548,1549,0,0,0,0,0,0,1550,1551,0,0,0,0,0,0,0,0,0,0,0,0,1548,1549,0,0,1550,1551,0,0,0,0,0,0,0,0,0,0,0,0,0,0,1548,1549,0,0,1550,1551,0,0,0,0,0,0,0,0,0,0,0,0,0,0,0,0,0,0,0,0,0,0,0,0,0,0,0,0,0,0,0,0,0,0,0,0,0,0,0,0,0,0,0,0,0,0,0,0,0,0,0,0,0,0,0,0,0,0,0,0,0,0,0,0,0,0,0,0,1547,1548,1549,1550,1551,1552,0,0,0,0,0,1541,1542,1543,0,0,0,1511,1512,0,0,0,0,0,0,0,0,1509,1510,0,0,0,1544,1545,1546,0,0,0,0,0,0,0,0,0,0,0,0,0,0,0,0,0,0,0,0,0,0,0,0,0,0,0,0,0,0,0,0,0,0,0,0,0,0,0,0,0,0,0,0,0,0,0,0,0,0,0,0,0,0,0,0,0,0,0,0,0,0,0,0,0,0,0,0,0,0,0,0,0,0,
1,1,1,1,1,1,1,1,1,1,1,1,1,1,3262,1246,1246,3263,1,1,1,1,1,1,1,1,1,1541,1,1,1,1,1,1546,1,1,1,1,1,1,1,1,1,1,1,1541,1,1,1,1,1,1546,1,1,1,1,1,1,1,1,1,1,1,1541,1542,1543,1,1,1,1,1,1544,1545,1,1,1,1,1,1546,1,1,1,1,1,1,1,1,1,1,1,1541,1,1,1,1,1,1,1,1,1,1,1,1,3470,1,1,3472,1,1,1,1,1,1,1,1,1,1,3470,1,1,1,3472,1,1,1,3470,1,1,0,1,1,1,1,1,1,1,1,1,1,1,1,1,1,1,1,1,1,1,1,1,1,3470,1,1,3472,1,1,3470,1,1,1,1,1,1,1,1,1,1,1,1,1,1,1,3443,3444,1,1,1,1,1,1,1,1,1,1,1,1,1,3427,3428,1,1,1,1,3472,1,1,1,1,1,3470,1,1,1,1,1,1,1,1,1,1,3472,1,1,1,1,1,1,1,1,1,1457,1458,1459,1460,1457,1458,1459,1460,1457,1458,1459,1460,1457,1458,1459,1460,1457,1458,1459,1460,1457,1458,1459,1460,1457,1458,1459,1460,1457,1458,1459,1460,1457,1458,1459,1460,1457,1458,1459,1460,1457,1458,1459,1460,1457,1458,1459,1460,1457,1458,1459,1460,1457,1458,1459,1460,1457,1458,1459,1460,1457,1458,1459,1460,1457,1458,1459,1460,1457,1458,1459,1460,1457,1458,1459,1460,1457,1458,1459,1460,1457,1458,1459,1460,1457,1458,1459,1460,1457,1458,1459,1460,1457,1458,1459,1460,1457,1458,1459,1460,1457,1458,1459,1460,1457,1458,1459,1460,1457,1458,1459,1460,1457,1458,1459,1460,1441,1442,1443,1444,1441,1442,1443,1444,1441,1442,1443,1444,1441,1442,1443,1444,1441,1442,1443,1444,1441,1442,1443,1444,1441,1442,1443,1444,1441,1442,1443,1444,1441,1442,1443,1444,1441,1442,1443,1444,1441,1442,1443,1444,1441,1442,1443,1444,1441,1442,1443,1444,1441,1442,1443,1444,1441,1442,1443,1444,1441,1442,1443,1444,1441,1442,1443,1444,1441,1442,1443,1444,1441,1442,1443,1444,1441,1442,1443,1444,1441,1442,1443,1444,1441,1442,1443,1444,1441,1442,1443,1444,1441,1442,1443,1444,1441,1442,1443,1444,1441,1442,1443,1444,1441,1442,1443,1444,1441,1442,1443,1444,1441,1442,1443,1444,1441,1442,1443,1444,1441,1442,1443,1444,1441,1442,1443,1444,1441,1442,1443,1444,1441,1442,1443,1444,1441,1442,1443,1444,1441,1442,1443,1444,1441,1442,1443,1444,1441,1442,1443,1444,1441,1442,1443,1444,1441,1442,1443,1444,1441,1442,1443,1444,1441,1442,1443,1444,1441,1442,1443,1444,1441,1442,1443,1444,1441,1442,1443,1444,1441,1442,1443,1444,1441,1442,1443,1444,1441,1442,1443,1444,1441,1442,1443,1444,1441,1442,1443,1444,1441,1442,1443,1444,1441,1442,1443,1444,1441,1442,1443,1444,1441,1442,1443,1444,1441,1442,1443,1444,1441,1442,1443,1444,1441,1442,1443,1444,1441,1442,1443,1444,1441,1442,1443,1444,1441,1442,1443,1444,1441,1442,1443,1444,1441,1442,1443,1444,1441,1442,1443,1444,1441,1442,1443,1444,1441,1442,1443,1444,1441,1442,1443,1444,1441,1442,1443,1444,1441,1442,1443,1444,1441,1442,1443,1444,1441,1442,1443,1444,1441,1442,1443,1444,1441,1442,1443,1444,1441,1442,1443,1444,1441,1442,1443,1444,1441,1442,1443,1444,1441,1442,1443,1444,1441,1442,1443,1444,1441,1442,1443,1444,1441,1442,1443,1444,1441,1442,1443,1444,1441,1442,1443,1444,1441,1442,1443,1444,1441,1442,1443,1444,1441,1442,1443,1444,1441,1442,1443,1444,1441,1442,1443,1444,1441,1442,1443,1444,1441,1442,1443,1444,1441,1442,1443,1444,1441,1442,1443,1444,1441,1442,1443,1444,1441,1442,1443,1444,1,1,1,3472,1,1,3470,1,1,3472,1,1,1,1,1,1,1,3472,1,1,1,3470,1,1,1,3472,1,1,1,1,1,3472,1,1,1,3470,1,1,3472,1,1,1,1,1,1,1,1,3472,1,1,3470,1,1,3472,1,1,1,1,1,1,1,3472,1,1,1,3470,1,1,3472,1,1,1,1,1,1,1,1,1,1,1,1,1,1,1,1,3313,1,3314,1,1,1,1,1,1,1,1,3472,1,1,1,1,1,1,1,3472,1,1,3470,1,1,3472,1,1,1,1,1,1,1,1,1,1,1,1,1,1,1,1,1,1,1,1,3456,1,1,1,1,1,1,1,1,1,1,1,1,1,1,1,1,3456,1,1,1,1,1,1,1,1,1,1,1,1,1,1,1,1,1,1,1,3456,1,1,1,1,1,1,1,1,1,1,1,1,1,1,1,1,1,1,3456,1,1,0,0,0,0,0,0,0,0,3456,0,0,0,0,0,0,0,0,3456,0,0,0,0,0,0,0,0,3456,0,0,0,0,0,0,0,0,0,0,0,0,1541,1542,1543,0,0,0,0,0,0,0,0,0,0,0,0,0,0,0,0,0,0,0,0,0,0,0,0,0,0,0,0,0,0,0,0,0,0,0,0,0,0,0,0,0,0,0,0,0,0,0,0,0,0,0,0,0,0,0,0,0,0,0,0,0,0,0,0,0,0,0,0,0,0,0,0,0,0,0,0,0,0,0,0,0,0,0,0,0,0,0,0,0,0,0,0,0,0,0,0,0,0,0,0,0,0,0,0,0,0,0,0,0,0,0,0,0,0,0,0,0,0,0,0,0,0,0,0,0,1541,1542,1543,0,0,0,0,0,0,1511,1512,0,1541,1542,1543,1511,1512,0,0,0,0,0,0,0,1541,1542,1543,0,0,0,1511,1512,0,0,0,0,1541,1542,1543,0,0,0,0,0,0,1511,1512,0,0,0,1546,0,0,0,0,0,1541,0,1541,1542,1543,0,0,0,0,0,1511,1512,0,0,0,0,0,1541,0,0,1541,1542,1543,1511,1512,0,0,0,1513,1552,0,0,0,0,0,0,0,0,1541,0,0,1542,1543,0,0,0,0,0,1511,0,0,0,0,0,0,0,1547,1548,1549,0,0,1550,1551,1552,0,0,0,0,0,0,1541,1546,0,0,0,0,0,0,1547,0,0,1552,0,0,0,0,0,0,1541,0,0,1546,0,0,0,0,0,0,1547,0,0,1552,0,0,0,0,0,0,0,0,0,0,0,0,0,0,0,0,0,0,0,0,0,0,0,0,0,0,0,0,0,0,0,0,0,0,0,0,0,0,0,0,0,0,0,0,0,0,3454,0,0,0,0,0,0,0,0,3454,0,0,0,0,0,0,0,0,0,0,0,0,0,0,0,1547,1552,0,0,0,0,0,1541,1542,1543,0,0,0,0,0,0,1511,1512,0,0,0,0,0,0,1509,1510,0,0,0,0,0,0,1544,1545,1546,0,0,1541,1542,1543,0,0,1544,1545,1546,0,0,1541,1542,1543,0,0,0,0,0,0,0,0,0,0,0,0,0,0,0,0,0,0,0,0,0,0,0,0,0,0,0,0,0,0,0,0,0,0,0,0,0,0,0,0,0,0,0,0,0,0,0,0,0,0,0,0,0,0,0,0,0,
1,1,1,1,1,1,1,1,1,1,1,1,1,1,1,1,1,1,1,1,1541,1,1,1,1,1,1542,1543,1,1,1,1,1,1544,1545,1546,1,1,1,1,1,1,1,1541,1542,1543,1,1,1,1,1,1544,1545,1546,1,1,1,1,1,1,1,1541,1542,1543,1,1,1,1,1,1,1,1,1,1,1,1,1,1,1544,1545,1546,1,1,1,1,1,1,1,1541,1542,1543,1,1,1,1,1,1,1,1,1,1,1,1,3470,1,1,3472,1,1,1,1,1,1,1,1,1,1,3470,1,1,1,3472,1,1,1,3470,1,3313,1,3314,1,1,1,1,1,0,1,1,3313,1,3314,1,1,3472,1,1,3313,1,3314,1,1,3470,1,1,3472,1,1,3470,1,1,1,1,1,1,1,1,1,1,1,1,1,1,1,3443,3444,1,1,1,1,1,1,1,1,1,1,1,1,1,3427,3428,1,1,1,1,3472,1,1,1,1,1,3470,1,1,1,1,1,1,1,1,1,1,3472,1,1,1,1,1,1,1,1,1,1473,1474,1475,1476,1473,1474,1475,1476,1473,1474,1475,1476,1473,1474,1475,1476,1473,1474,1475,1476,1473,1474,1475,1476,1473,1474,1475,1476,1473,1474,1475,1476,1473,1474,1475,1476,1473,1474,1475,1476,1473,1474,1475,1476,1473,1474,1475,1476,1473,1474,1475,1476,1473,1474,1475,1476,1473,1474,1475,1476,1473,1474,1475,1476,1473,1474,1475,1476,1473,1474,1475,1476,1473,1474,1475,1476,1473,1474,1475,1476,1473,1474,1475,1476,1473,1474,1475,1476,1473,1474,1475,1476,1473,1474,1475,1476,1473,1474,1475,1476,1473,1474,1475,1476,1473,1474,1475,1476,1473,1474,1475,1476,1473,1474,1475,1476,1457,1458,1459,1460,1457,1458,1459,1460,1457,1458,1459,1460,1457,1458,1459,1460,1457,1458,1459,1460,1457,1458,1459,1460,1457,1458,1459,1460,1457,1458,1459,1460,1457,1458,1459,1460,1457,1458,1459,1460,1457,1458,1459,1460,1457,1458,1459,1460,1457,1458,1459,1460,1457,1458,1459,1460,1457,1458,1459,1460,1457,1458,1459,1460,1457,1458,1459,1460,1457,1458,1459,1460,1457,1458,1459,1460,1457,1458,1459,1460,1457,1458,1459,1460,1457,1458,1459,1460,1457,1458,1459,1460,1457,1458,1459,1460,1457,1458,1459,1460,1457,1458,1459,1460,1457,1458,1459,1460,1457,1458,1459,1460,1457,1458,1459,1460,1457,1458,1459,1460,1457,1458,1459,1460,1457,1458,1459,1460,1457,1458,1459,1460,1457,1458,1459,1460,1457,1458,1459,1460,1457,1458,1459,1460,1457,1458,1459,1460,1457,1458,1459,1460,1457,1458,1459,1460,1457,1458,1459,1460,1457,1458,1459,1460,1457,1458,1459,1460,1457,1458,1459,1460,1457,1458,1459,1460,1457,1458,1459,1460,1457,1458,1459,1460,1457,1458,1459,1460,1457,1458,1459,1460,1457,1458,1459,1460,1457,1458,1459,1460,1457,1458,1459,1460,1457,1458,1459,1460,1457,1458,1459,1460,1457,1458,1459,1460,1457,1458,1459,1460,1457,1458,1459,1460,1457,1458,1459,1460,1457,1458,1459,1460,1457,1458,1459,1460,1457,1458,1459,1460,1457,1458,1459,1460,1457,1458,1459,1460,1457,1458,1459,1460,1457,1458,1459,1460,1457,1458,1459,1460,1457,1458,1459,1460,1457,1458,1459,1460,1457,1458,1459,1460,1457,1458,1459,1460,1457,1458,1459,1460,1457,1458,1459,1460,1457,1458,1459,1460,1457,1458,1459,1460,1457,1458,1459,1460,1457,1458,1459,1460,1457,1458,1459,1460,1457,1458,1459,1460,1457,1458,1459,1460,1457,1458,1459,1460,1457,1458,1459,1460,1457,1458,1459,1460,1457,1458,1459,1460,1457,1458,1459,1460,1457,1458,1459,1460,1457,1458,1459,1460,1457,1458,1459,1460,1457,1458,1459,1460,1457,1458,1459,1460,1457,1458,1459,1460,1457,1458,1459,1460,1457,1458,1459,1460,1457,1458,1459,1460,1,1,1,3472,1,1,3470,1,1,3472,1,1,1,1,1,1,1,3472,1,1,1,3470,1,1,1,3472,1,1,1,1,1,3472,1,1,1,3470,1,1,3472,1,1,1,1,1,1,1,1,3472,1,1,3470,1,1,3472,1,1,1,1,1,1,1,3472,1,1,1,3470,1,1,3472,1,1,3313,1,3314,1,3472,1,1,1,1,1,1,3470,1,1,1,1,1,1,3472,1,1,1,1,1,1,3472,1,1,1,1,1,1,1,3472,1,1,3470,1,1,3472,1,3472,1,1,1,1,1,1509,1,1,1,1,1,1,1,1,1,1,1,1,3456,1,1,1,1,1,1,1,1,1,1,1,1,1,1,1,1,3456,1,1,1,1,1,1,1,1,1,1,1,1,1,1,1,1,1,1,1,3456,1,1,1,1,1,1,1,1,1,1,1,1,1,1,1,1,1,1,3456,1,1,0,0,0,0,0,0,0,0,3456,0,0,0,0,0,0,0,0,3456,0,0,0,0,0,0,0,0,3456,0,0,0,0,0,0,0,0,0,0,1541,1542,1543,0,0,0,0,0,0,0,0,0,0,0,0,0,0,0,0,0,0,0,0,0,0,0,0,0,0,0,0,0,0,0,0,0,0,0,0,0,0,0,0,0,0,0,0,0,0,0,0,0,0,0,0,0,0,0,0,0,0,0,0,0,0,0,0,0,0,0,0,0,0,0,0,0,0,0,0,0,0,0,0,0,0,0,0,0,0,0,0,0,0,0,0,0,0,0,0,0,0,0,0,0,0,0,0,0,0,0,0,0,0,0,0,0,0,0,0,0,0,0,0,0,0,0,0,0,1541,1542,1543,0,0,0,0,0,0,0,0,0,1511,1542,1543,0,0,0,1511,1512,0,0,0,0,1541,1542,1543,0,0,0,0,0,0,1511,1512,0,1541,1542,1543,0,0,0,0,0,0,0,0,0,0,0,0,0,1544,1545,1546,0,1541,1542,1543,0,0,0,0,0,0,0,0,0,0,1511,1512,0,0,1541,1542,1543,0,0,0,0,0,0,1511,1512,0,0,0,0,0,0,0,0,1541,0,0,1542,1543,0,0,0,0,0,0,0,0,0,0,0,0,0,0,0,0,0,0,0,1547,0,0,1552,0,0,0,0,0,0,1541,1542,1543,1544,1545,1546,0,0,0,0,0,0,0,0,0,0,0,0,1541,1542,1543,0,0,1544,1545,1546,0,0,0,0,0,0,0,0,0,0,0,0,1541,1542,1543,0,0,0,0,0,0,0,0,0,0,0,0,0,0,0,0,0,0,0,0,0,0,0,0,0,0,0,0,0,0,0,0,0,0,0,0,0,0,0,3454,0,0,0,3456,0,0,0,0,3454,0,0,0,0,0,0,0,0,0,1544,1545,1546,0,0,0,0,0,0,0,0,1541,1542,1543,0,0,0,0,0,0,0,0,0,1511,1512,0,0,0,0,1509,1510,0,0,0,0,0,0,0,0,0,1544,1545,1542,1543,0,0,0,0,0,0,1544,1545,1542,1543,0,0,0,0,0,0,0,0,0,0,0,0,0,0,0,0,0,0,0,0,0,0,0,0,0,0,0,0,0,0,0,0,0,0,0,0,0,0,0,0,0,0,0,0,0,0,0,0,0,0,0,0,0,0,0,0,0,0,0,
1,1,1,1,1,1,1,1,1,1,1,1,1,1541,1,1,1,1,1,1542,1543,1,1,1,1,1,1,1,1,1,1,1,1,1,1,1544,1545,1,1,1,1,1,1542,1543,1,1,1,1,1,1,1,1,1,1544,1545,1,1,1,1,1,1542,1543,1,1,1,1,1,1,1,1,1,1,1,1,1,1,1,1,1,1,1544,1545,1,1,1,1,1,1542,1543,1,1,1,1,1,1,1,1,1,1,1,1,1,1,3470,1,1,3472,1,1,1,1,1,1,1,1,1,1,3470,1,1,1,3472,1,1,1,3470,1,1,1,1,1,1,1,1,3313,1,3314,1,1,1,1,1,1,3472,1,1,1,1,1,1,1,3470,1,1,3472,1,1,3470,1,1,1,1,1,1,1,1,1,1,1,1,1,1,1,3443,3444,1,1,1,1,1,1,1,1,1,1,1,1,1,3427,3428,1,1,1,1,3472,1,1,1,1,1,3470,1,1,1,1,1,1,1,1,1,1,3472,1,1,1,1,1,1,1,1,1,1,1,1,1,1,1,1,1,1,1,1,1,1,1,1,1,1,1,1,1,1,1,1,1,1,1,1,1,1,1,1,1,1,1,1,1,1,1,1,1,1,1,1,1,1,1,1,1,1,1,1,1,1,1,1,1,1,1,1,1,1,1,1,1,1,1,1,1,1,1,1,1,1,1,1,1,1,1,1,1,1,1,1,1,1,1,1,1,1,1,1,1,1,1,1,1,1,1,1,1,1,1,1,1,1,1,1,1,1,1,1,1,0,0,0,0,1473,1474,1475,1476,1473,1474,1475,1476,1473,1474,1475,1476,1473,1474,1475,1476,1473,1474,1475,1476,1473,1474,1475,1476,1473,1474,1475,1476,1473,1474,1475,1476,1473,1474,1475,1476,1473,1474,1475,1476,1473,1474,1475,1476,1473,1474,1475,1476,1473,1474,1475,1476,1473,1474,1475,1476,1473,1474,1475,1476,1473,1474,1475,1476,1473,1474,1475,1476,1473,1474,1475,1476,1473,1474,1475,1476,1473,1474,1475,1476,1473,1474,1475,1476,1473,1474,1475,1476,1473,1474,1475,1476,1473,1474,1475,1476,1473,1474,1475,1476,1473,1474,1475,1476,1473,1474,1475,1476,1473,1474,1475,1476,1473,1474,1475,1476,1473,1474,1475,1476,1473,1474,1475,1476,1473,1474,1475,1476,1473,1474,1475,1476,1473,1474,1475,1476,1473,1474,1475,1476,1473,1474,1475,1476,1473,1474,1475,1476,1473,1474,1475,1476,1473,1474,1475,1476,1473,1474,1475,1476,1473,1474,1475,1476,1473,1474,1475,1476,1473,1474,1475,1476,1473,1474,1475,1476,1473,1474,1475,1476,1473,1474,1475,1476,1473,1474,1475,1476,1473,1474,1475,1476,1473,1474,1475,1476,1473,1474,1475,1476,1473,1474,1475,1476,1473,1474,1475,1476,1473,1474,1475,1476,1473,1474,1475,1476,1473,1474,1475,1476,1473,1474,1475,1476,1473,1474,1475,1476,1473,1474,1475,1476,1473,1474,1475,1476,1473,1474,1475,1476,1473,1474,1475,1476,1473,1474,1475,1476,1473,1474,1475,1476,1473,1474,1475,1476,1473,1474,1475,1476,1473,1474,1475,1476,1473,1474,1475,1476,1473,1474,1475,1476,1473,1474,1475,1476,1473,1474,1475,1476,1473,1474,1475,1476,1473,1474,1475,1476,1473,1474,1475,1476,1473,1474,1475,1476,1473,1474,1475,1476,1473,1474,1475,1476,1473,1474,1475,1476,1473,1474,1475,1476,1473,1474,1475,1476,1473,1474,1475,1476,1473,1474,1475,1476,1473,1474,1475,1476,1473,1474,1475,1476,1473,1474,1475,1476,1473,1474,1475,1476,1473,1474,1475,1476,1473,1474,1475,1476,1473,1474,1475,1476,1473,1474,1475,1476,1473,1474,1475,1476,1473,1474,1475,1476,1473,1474,1475,1476,1,1,1,3472,1,1,3470,1,1,3472,1,1,1,1,1,1,1,3472,1,1,1,3470,1,1,1,3472,1,1,1,1,1,3472,1,1,1,3470,1,1,3472,1,1,1,1,1,1,1,1,3472,1,1,3470,1,1,3472,1,1,1,1,1,1,1,3472,1,1,1,3470,1,1,3472,1,1,1,1,1,1,3472,1,1,1,1,1,1,3470,1,1,1,1,1,1,3472,1,1,1,1,1,1,3472,1,1,1,1,1,1,1,3472,1,1,3470,1,1,3472,1,3472,1,3313,1,3314,1509,1510,1,1,1,1,1,1,1,1,1,1,1,1,1,1,1,1,1,1,1,1,1,1,1,1,1,1,1,1,1,1,1,1,1,1,1,1,1,1,1,1,1,1,1,1,1,1,1,1,1,1,1,1,1,1,1,1,1,1,1,1,1,1,1,1,1,1,1,1,1,1,1,0,0,0,0,0,0,0,0,0,0,0,0,0,0,0,0,0,0,0,0,0,0,0,0,0,0,0,0,0,0,0,0,0,0,0,0,0,0,0,0,0,0,0,0,0,0,0,0,0,0,0,0,0,0,0,0,0,0,0,0,0,0,0,0,0,0,0,0,0,0,0,0,0,0,0,0,0,0,0,0,0,0,0,0,0,0,0,0,0,0,0,0,0,0,0,0,0,0,0,0,0,0,0,0,0,0,0,0,0,0,0,0,0,0,0,0,0,0,0,0,0,0,0,0,0,0,0,0,0,3454,0,0,0,0,0,0,0,0,0,0,0,0,0,0,0,0,0,0,0,0,0,0,0,0,3454,0,0,0,0,0,0,0,0,1541,1542,1543,0,0,0,0,0,0,0,0,0,0,0,0,0,0,0,0,0,0,1511,1512,0,1541,1542,1543,0,0,0,0,0,0,0,0,0,1511,1542,1543,0,0,0,0,0,0,0,0,0,0,0,0,0,0,0,0,0,0,0,0,0,0,0,0,0,0,0,0,0,0,0,0,0,0,0,0,0,0,0,0,0,0,0,0,0,0,1511,1512,0,0,0,1541,0,0,1542,1543,0,0,0,0,0,0,0,0,0,0,0,0,0,0,0,0,0,0,0,0,0,0,0,0,0,0,0,0,0,0,0,1541,1542,1543,0,0,0,0,1544,1545,1546,0,0,0,0,0,0,0,0,1541,1542,1543,0,0,0,0,0,0,1544,1545,1546,0,0,0,0,0,0,0,0,1541,1542,1543,0,0,0,0,0,0,0,0,0,0,0,0,3456,0,0,0,0,0,0,0,0,0,0,0,0,0,0,0,0,0,0,0,0,0,0,0,3456,0,0,0,0,3454,0,0,0,3456,0,0,0,0,3454,0,0,0,0,0,0,0,0,0,0,0,1544,1545,1546,0,0,0,0,1541,1542,1543,0,0,0,0,0,0,0,0,0,0,0,0,1511,1512,0,0,1509,1510,0,0,0,0,0,0,0,0,0,0,0,0,0,0,0,0,0,0,0,0,0,0,0,0,0,0,0,0,0,0,0,0,0,0,0,0,0,0,0,0,0,0,0,0,0,0,0,0,0,0,0,0,0,0,0,0,0,0,0,0,0,0,0,0,0,0,0,0,0,0,0,0,0,0,0,0,0,0,0,0,0,0,0,
1,1,1,1,1,1,1,1,1,1,1,1,1542,1543,1,1,1,1,1,1,1,1,1,1,1,1,1,1,1,1,1,1,1,1,1,1,1,1,1,1,1,1,1,1,1,1,1,1,1,1,1,1,1,1,1,1,1,1,1,1,1,1,1,1,1,1,1,1,1,1,1,1,1,1,1,1,1,1,1,1,1,1,1,1,1,1,1,1,1,1,1,1,1,1,1,1,1,1,1,1,1,1,1,3470,1,1,3472,1,1,1,1,1,1,1,1,1,1,3470,1,1,1,3472,1,1,1,3470,1,1,1,1,1,1,1,1,1,1,1,1,1,1,1,1,1,3472,1,1,1,1,1,1,1,3470,1,1,3472,1,1,3470,1,1,1,1,1,1,1,1,1,1,1,1,1,1,1,3443,3444,1,1,1,1,1,1,1,1,1,1,1,1,1,3427,3428,1,1,1,1,3472,1,1,1,1,1,3470,1,1,1,1,1,1,1,1,1,1,3472,1,1,1,1,1,1,1,1,1,1,1,1,1,1,1,1,1,1,1,1,1,1,1,1,1,1,1,1,1,1,1,1,1,1,1,1,1,1,1,1,1,1,1,1,1,1,1,1,1,1,1,1,1,1,1,1,1,1,1,1,1,1,1,1,1,1,1,1,1,1,1,1,1,1,1,1,1,1,1,1,1,1,1,1,1,1,1,1,1,1,1,1,1,1,1,1,1,1,1,1,1,1,1,1,1,1,1,1,1,1,1,1,1,1,1,1,1,1,1,1,1,1,1,0,0,0,1,1,1,1,1,1,1,1,1,1,1,1,1,1,1,1,1,1,1,1,1,1,1,1,1,1,1,1,1,1,1,1,1,1,1,1,1,1,1,1,1,1,1,1,1,1,1,1,1,1,1,1,1,1,1,1,1,1,1,1,1,1,1,1,1,1,1,1,1,1,1,1,1,1,1,1,1,1,1,1,1,1,1,1,1,1,1,1,1,1,1,1,1,1,1,1,1,1,1,1,1,1,1,1,1,1,1,1,1,1,1,1,1,1,1,1,1,1,1,1,1,1,1,1,1,1,1,1,1,1,1,1,1,1,1,1,1,1,1,1,1,1,1,1,1,1,1,1,1,1,1,1,1,1,1,1,1,1,1,1,1,1,1,1,1,1,1,1,1,1,1,1,1,1,1,1,1,1,1,1,1,1,1,1,1,1,1,1,1,1,1,1,1,1,1,1,1,1,1,1,1,1,1,1,1,1,1,1,1,1,1,1,1,1,1,1,1,1,1,1,1,1,1,1,1,1,1,1,1,1,1,1,1,1,1,1,1,1,1,1,1,1,1,1,1,1,1,1,1,1,1,1,1,1,1,1,1,1,1,1,1,1,1,1,1,1,1,1,1,1,1,1,1,1,1,1,1,1,1,1,1,1,1,1,1,1,1,1,1,1,1,1,1,1,1,1,1,1,1,1,1,1,1,1,1,1,1,1,1,1,1,1,1,1,1,1,1,1,1,1,1,1,1,1,1,1,1,1,1,1,1,1,1,1,1,1,1,1,1,1,1,1,1,1,1,1,1,1,1,1,1,1,1,1,1,1,1,1,1,1,1,1,1,1,1,1,1,1,1,1,3472,1,1,3470,1,1,3472,1,1,1,1,1,1,1,3472,1,1,1,3470,1,1,1,3472,1,1,1,1,1,3472,1,1,1,3470,1,1,3472,1,1,1,1,1,1,1,1,3472,1,1,3470,1,1,3472,1,1,1,1,1,1,1,3472,1,1,1,3470,1,1,3472,1,1,1,1,1,1,3472,1,1,1,3470,1,1,3470,1,1,1,1,1,1,3472,1,1,1,1,1,1,3472,1,1,1,1,1,1,1,3472,1,1,3470,1,1,3472,1,3472,1,1,1,1509,1510,1,1,1,1,1,1,1,1,1,1,1,1,1,1,1,1,1,1,1,1,1,1,1,1,1,1,1,1,1,1,1,1,1,1,1,1,1,1,1,1,1,1,1,1,1,1,1,1,1,1,1,1,1,1,1,1,1,1,1,1,1,1,1,1,1,1,1,1,1,1,1,1,0,0,0,0,0,0,0,0,0,0,0,0,0,0,0,0,0,0,0,0,0,0,0,0,0,0,0,0,0,0,0,0,0,0,0,0,0,0,0,0,0,0,0,0,0,0,0,0,0,0,0,0,0,0,0,0,0,0,0,0,0,0,0,0,0,0,0,0,0,0,0,0,0,0,0,0,0,0,0,0,0,0,0,0,0,0,0,0,0,0,0,0,0,0,0,0,0,0,0,0,0,0,0,0,0,0,0,0,0,0,0,0,0,0,0,0,0,0,0,0,0,0,0,0,0,0,0,0,0,0,0,0,0,0,0,0,0,0,0,0,0,0,0,0,0,0,0,0,0,0,0,0,0,0,0,0,0,0,0,0,0,0,0,0,0,0,0,0,0,0,0,0,0,0,0,0,0,0,0,0,0,0,0,0,0,1511,1542,1543,0,0,0,0,0,0,0,0,0,0,0,0,0,0,0,0,0,0,0,0,0,0,0,0,0,0,0,0,0,0,0,0,0,0,0,0,0,0,0,0,0,0,0,0,0,0,0,0,0,0,0,0,0,0,0,0,0,0,0,0,0,1511,1512,0,1542,1543,0,0,0,0,0,0,0,0,0,0,0,0,0,0,0,0,0,0,0,0,0,0,0,0,0,0,0,0,0,0,0,0,0,1541,1542,1543,0,0,0,0,0,0,0,0,1544,1545,1546,0,0,0,0,1541,1542,1543,0,0,0,0,0,0,0,0,0,0,1544,1545,1546,0,0,0,0,1541,1542,1543,0,0,0,0,0,0,0,0,0,0,0,0,0,0,3456,0,0,0,0,0,0,0,0,0,0,0,0,0,0,0,0,0,0,0,0,0,0,0,3456,0,0,0,0,3454,0,0,0,3456,0,0,0,0,3454,0,0,0,0,0,0,0,0,0,0,0,0,0,1544,1545,1546,1541,1542,1543,0,0,0,0,0,0,0,0,0,0,0,0,0,0,0,1511,1512,1509,1510,0,0,0,0,0,0,0,0,0,0,0,0,0,0,0,0,0,0,0,0,0,0,0,0,0,0,0,0,0,0,0,0,0,0,0,0,0,0,0,0,0,0,0,0,0,0,0,0,0,0,0,0,0,0,0,0,0,0,0,0,0,0,0,0,0,0,0,0,0,0,0,0,0,0,0,0,0,0,0,0,0,0,0,0
</data>
 </layer>
 <layer id="1" name="l1" width="1398" height="27">
  <data encoding="csv">
1,1,1,1,1,1,1,1,1,1,1,1,1,1,1,1,1,1,1,1,1,1,1,1,1,1,1,1,1,1,1,1,1,1,1,1,1,1,1,1,1,1,1,1,1,1,1,1,1,1,1,1,1,1,1,1,1,1,1,1,1,1,1,1,1,1,1,1,1,1,1,1,1,1,1,1,1,1,1,1,1,1,1,1,1,1,1,1,1,1,1,1,1,1,1,1,1,1,1,1,1,1,1,1,1,1,1,1,1,1,1,1,1,1,1,1,1,1,1,1,1,1,1,1,1,1,1,1,1,1,1,1,1,1,1,1,1,1,1,1,1,1,1,1,1,1,1,1,1,1,1,1,1,1,1,1,1,1,1,1,1,1,1,1,1,1,1,1,1,1,1,1,1,1,1,1,1,1,1,1,1,1,1,1,1,1,1,1,1,1,1,1,1,1,1,1,1,1,1,1,1,1,1,1,1,1,1,1,1,1,1,1,1,1,1,1,1,1,1,1,1,1,1,1,1,1,1,1,1,1,1,1,1,1,1,1,1,1,1,1,1,1,1,1,1,1,1,1,1,1,1,1,1,1,1,1,1,1,1,1,1,1,1,1,1,1,1,1,1,1,1,1,1,1,1,1,1,1,1,1,1,1,1,1,1,1,1,1,1,1,1,1,1,1,1,1,1,1,1,1,1,1,1,1,1,1,1,1,1,1,1,1,1,1,1,1,1,1,1,1,1,1,1,1,1,1,1,1,1,1,1,1,1,1,1,1,1,1,1,1,1,1,1,1,1,1,1,1,1,1,1,1,1,1,1,1,1,1,1,1,1,1,1,1,1,1,1,1,1,1,1,1,1,1,1,1,1,1,1,1,1,1,1,1,1,1,1,1,1,1,1,1,1,1,1,1,1,1,1,1,1,1,1,1,1,1,1,1,1,1,1,1,1,1,1,1,1,1,1,1,1,1,1,1,1,1,1,1,1,1,1,1,1,1,1,1,1,1,1,1,1,1,1,1,1,1,1,1,1,1,1,1,1,1,1,1,1,1,1,1,1,1,1,1,1,1,1,1,1,1,1,1,1,1,1,1,1,1,1,1,1,1,1,1,1,1,1,1,1,1,1,1,1,1,1,1,1,1,1,1,1,1,1,1,1,1,1,1,1,1,1,1,1,1,1,1,1,1,1,1,1,1,1,1,1,1,1,1,1,1,1,1,1,1,1,1,1,1,1,1,1,1,1,1,1,1,1,1,1,1,1,1,1,1,1,1,1,1,1,1,1,1,1,1,1,1,1,1,1,1,1,1,1,1,1,1,1,1,1,1,1,1,1,1,1,1,1,1,1,1,1,1,1,1,1,1,1,1,1,1,1,1,1,1,1,1,1,1,1,1,1,1,1,1,1,1,1,1,1,1,1,1,1,1,1,1,1,1,1,1,1,1,1,1,1,1,1,1,1,1,1,1,1,1,1,1,1,1,1,1,1,1,1,1,1,1,1,1,1,1,1,1,1,1,1,1,1,1,1,1,1,1,1,1,1,1,1,1,1,1,1,1,1,1,1,1,1,1,1,1,1,1,1,1,1,1,1,1,1,1,1,1,1,1,1,1,1,1,1,1,1,1,1,1,1,1,1,1,1,1,1,1,1,1,1,1,1,1,1,1,1,1,1,1,1,1,1,1,1,1,1,1,1,1,1,1,1,1,1,1,1,1,1,1,1,1,1,1,1,1,1,1,1,1,1,1,1,1,1,1,1,1,1,1,1,1,1,1,1,1,1,1,1,1,1,1,1,1,1,1,1,1,1,1,1,1,1,1,1,1,1,1,1,1,1,1,1,1,1,1,1,1,1,1,1,1,1,1,1,1,1,1,1,1,1,1,1,1,1,1,1,1,1,1,1,1,1,1,1,1,1,1,1,1,1,1,1,1,1,1,1,1,1,1,1,1,1,1,1,1,1,1,1,1,1,1,1,1,1,1,1,1,1,1,1,1,1,1,1,1,1,1,1,1,1,1,1,1,1,1,1,1,1,1,1,0,0,0,0,0,0,0,0,0,0,0,0,0,0,0,0,0,0,0,0,0,0,0,0,0,0,0,0,0,0,0,0,0,0,0,0,0,0,0,0,0,0,0,0,0,0,0,0,0,0,0,0,0,0,0,0,0,0,0,0,0,0,0,0,0,0,0,0,0,0,0,0,0,0,0,0,0,0,0,0,0,0,0,0,0,0,0,0,0,0,0,0,0,0,0,0,0,0,0,0,0,0,0,0,0,0,0,0,0,0,0,0,0,0,0,0,0,0,0,0,0,0,0,0,0,0,0,0,0,0,0,0,0,0,0,0,0,0,0,0,0,0,0,0,0,0,0,0,0,0,0,0,0,0,0,0,0,0,0,0,0,0,0,0,0,0,0,0,0,0,0,0,0,0,0,0,0,0,0,0,0,0,0,0,0,0,0,0,0,0,0,0,0,0,0,0,0,0,0,0,0,0,0,0,0,0,0,0,0,0,0,0,0,0,0,0,0,0,0,0,0,0,0,0,0,0,0,0,0,0,0,0,0,0,0,0,0,0,0,0,0,0,0,0,0,0,0,0,0,0,0,0,0,0,0,0,0,0,0,0,0,0,0,0,0,0,0,0,0,0,0,0,0,0,0,0,0,0,0,0,0,0,0,0,0,0,0,0,0,0,0,0,0,0,0,0,0,0,0,0,0,0,0,0,0,0,0,0,0,0,0,0,0,0,0,0,0,0,0,0,0,0,0,0,0,0,0,0,0,0,0,0,0,0,0,0,0,0,0,0,0,0,0,0,0,0,0,0,0,0,0,0,0,0,0,0,0,0,0,0,0,0,0,0,0,0,0,0,0,0,0,0,0,0,0,0,0,0,0,0,0,0,0,0,0,0,0,0,0,0,0,0,0,0,0,0,0,0,0,0,0,0,0,0,0,0,0,0,0,0,0,0,0,0,0,0,0,0,0,0,0,0,0,0,0,0,0,0,0,0,0,0,0,0,0,0,0,0,0,0,0,0,0,0,0,0,0,0,0,0,0,0,0,0,0,0,0,0,0,0,0,0,0,0,0,0,0,0,0,0,0,0,0,0,0,0,0,0,0,0,0,0,0,0,0,0,0,0,0,0,0,0,0,0,0,0,0,0,0,0,0,1,58,
1,1,1,1,1,1,1,1,1,1,1,1,1,1,1,1,1,1,1,1,1,1,1,1,1,1,1,1,1,1,1,1,1,1,1,1,1,1,1,1,1,1,1,1,1,1,1,1,1,1,1,1,1,1,1,1,1,1,1,1,1,1,1,1,1,1,1,1,1,1,1,1,1,1,1,1,1,1,1,1,1,1,1,1,1,1,1,1,1,1,1,1,1,1,1,1,1,1,1,1,1,1,1,1,1,1,1,1,1,1,1,1,1,1,1,1,1,1,1,1,1,1,1,1,1,1,1,1,1,1,1,1,1,1,1,1,1,1,1,1,1,1,1,1,1,1,1,1,1,1,1,1,1,1,1,1,1,1,1,1,1,1,1,1,1,1,1,1,1,1,1,1,1,1,1,1,1,1,1,1,1,1,1,1,1,1,1,1,1,1,1,1,1,1,1,1,1,1,1,1,1,1,1,1,1,1,1,1,1,1,1,1,1,1,1,1,1,1,1,1,1,1,1,1,1,1,1,1,1,1,1,1,1,1,1,1,1,1,1,1,1,1,1,1,1,1,1,1,1,1,1,1,1,1,1,1,1,1,1,1,1,1,1,1,1,1,1,1,1,1,1,1,1,1,1,1,1,1,1,1,1,1,1,1,1,1,1,1,1,1,1,1,1,1,1,1,1,1,1,1,1,1,1,1,1,1,1,1,1,1,1,1,1,1,1,1,1,1,1,1,1,1,1,1,1,1,1,1,1,1,1,1,1,1,1,1,1,1,1,1,1,1,1,1,1,1,1,1,1,1,1,1,1,1,1,1,1,1,1,1,1,1,1,1,1,1,1,1,1,1,1,1,1,1,1,1,1,1,1,1,1,1,1,1,1,1,1,1,1,1,1,1,1,1,1,1,1,1,1,1,1,1,1,1,1,1,1,1,1,1,1,1,1,1,1,1,1,1,1,1,1,1,1,1,1,1,1,1,1,1,1,1,1,1,1,1,1,1,1,1,1,1,1,1,1,1,1,1,1,1,1,1,1,1,1,1,1,1,1,1,1,1,1,1,1,1,1,1,1,1,1,1,1,1,1,1,1,1,1,1,1,1,1,1,1,1,1,1,1,1,1,1,1,1,1,1,1,1,1,1,1,1,1,1,1,1,1,1,1,1,1,1,1,1,1,1,1,1,1,1,1,1,1,1,1,1,1,1,1,1,1,1,1,1,1,1,1,1,1,1,1,1,1,1,1,1,1,1,1,1,1,1,1,1,1,1,1,1,1,1,1,1,1,1,1,1,1,1,1,1,1,1,1,1,1,1,1,1,1,1,1,1,1,1,1,1,1,1,1,1,1,1,1,1,1,1,1,1,1,1,1,1,1,1,1,1,1,1,1,1,1,1,1,1,1,1,1,1,1,1,1,1,1,1,1,1,1,1,1,1,1,1,1,1,1,1,1,1,1,1,1,1,1,1,1,1,1,1,1,1,1,1,1,1,1,1,1,1,1,1,1,1,1,1,1,1,1,1,1,1,1,1,1,1,1,1,1,1,1,1,1,1,1,1,1,1,1,1,1,1,1,1,1,1,1,1,1,1,1,1,1,1,1,1,1,1,1,1,1,1,1,1,1,1,1,1,1,1,1,1,1,1,1,1,1,1,1,1,1,1,1,1,1,1,1,1,1,1,1,1,1,1,1,1,1,1,1,1,1,1,1,1,1,1,1,1,1,1,1,1,1,1,1,1,1,1,1,1,1,1,1,1,1,1,1,1,1,1,1,1,1,1,1,1,1,1,1,1,1,1,1,1,1,1,1,1,1,1,1,1,1,1,1,1,1,1,1,1,1,1,1,1,1,1,1,1,1,1,1,1,1,1,1,1,1,1,1,1,1,1,1,1,1,1,1,1,1,1,1,1,1,1,1,1,1,1,1,1,1,1,1,1,1,1,1,1,1,1,1,1,1,1,1,1,1,1,1,1,1,1,1,1,1,1,1,1,1,1,1,1,1,1,1,1,1,1,1,1,1,1,1,1,1,1,1,0,0,0,0,0,0,0,0,0,0,0,0,0,0,0,0,0,0,0,0,0,0,0,0,0,0,0,0,0,0,0,0,0,0,0,0,0,0,0,0,0,0,0,0,0,0,0,0,0,0,0,0,0,0,0,0,0,0,0,0,0,0,0,0,0,0,0,0,0,0,0,0,0,0,0,0,0,0,0,0,0,0,0,0,0,0,0,0,0,0,0,0,0,0,0,0,0,0,0,0,0,0,0,0,0,0,0,0,0,0,0,0,0,0,0,0,0,0,0,0,0,0,0,0,0,0,0,0,0,0,0,0,0,0,0,0,0,0,0,0,0,0,0,0,0,0,0,0,0,0,0,0,0,0,0,0,0,0,0,0,0,0,0,0,0,0,0,0,0,0,0,0,0,0,0,0,0,0,0,0,0,0,0,0,0,0,0,0,0,0,0,0,0,0,0,0,0,0,0,0,0,0,0,0,0,0,0,0,0,0,0,0,0,0,0,0,0,0,0,0,0,0,0,0,0,0,0,0,0,0,0,0,0,0,0,0,0,0,0,0,0,0,0,0,0,0,0,0,0,0,0,0,0,0,0,0,0,0,0,0,0,0,0,0,0,0,0,0,0,0,0,0,0,0,0,0,0,0,0,0,0,0,0,0,0,0,0,0,0,0,0,0,0,0,0,0,0,0,0,0,0,0,0,0,0,0,0,0,0,0,0,0,0,0,0,0,0,0,0,0,0,0,0,0,0,0,0,0,0,0,0,0,0,0,0,0,0,0,0,0,0,0,0,0,0,0,0,0,0,0,0,0,0,0,0,0,0,0,0,0,0,0,0,0,0,0,0,0,0,0,0,0,0,0,0,0,0,0,0,0,0,0,0,0,0,0,0,0,0,0,0,0,0,0,0,0,0,0,0,0,0,0,0,0,0,0,0,0,0,0,0,0,0,0,0,0,0,0,0,0,0,0,0,0,0,0,0,0,0,0,0,0,0,0,0,0,0,0,0,0,0,0,0,0,0,0,0,0,0,0,0,0,0,0,0,0,0,0,0,0,0,0,0,0,0,0,0,0,0,0,0,0,0,0,0,0,0,0,0,0,0,0,0,0,0,0,0,0,0,0,0,0,0,0,0,0,0,0,0,0,0,1,58,
1,1,1,1,1,1,1,1,1,1,1,1,1,1,1,1,1,1,1,1,1,1,1,1,1,1,1,1,1,1,1,1,1,1,1,1,1,1,1,1,1,1,1,1,1,1,1,1,1,1,1,1,1,1,1,1,1,1,1,1,1,1,1,1,1,1,1,1,1,1,1,1,1,1,1,1,1,1,1,1,1,1,1,1,1,1,1,1,1,1,1,1,1,1,1,1,1,1,1,1,1,1,1,1,1,1,1,1,1,1,1,1,1,1,1,1,1,1,1,1,1,1,1,1,1,1,1,1,1,1,1,1,1,1,1,1,1,1,1,1,1,1,1,1,1,1,1,1,1,1,1,1,1,1,1,1,1,1,1,1,1,1,1,1,1,1,1,1,1,1,1,1,1,1,1,1,1,1,1,1,1,1,1,1,1,1,1,1,1,1,1,1,1,1,1,1,1,1,1,1,1,1,1,1,1,1,1,1,1,1,1,1,1,1,1,1,1,1,1,1,1,1,1,1,1,1,1,1,1,1,1,1,1,1,1,1,1,1,1,1,1,1,1,1,1,1,1,1,1,1,1,1,1,1,1,1,1,1,1,1,1,1,1,1,1,1,1,1,1,1,1,1,1,1,1,1,1,1,1,1,1,1,1,1,1,1,1,1,1,1,1,1,1,1,1,1,1,1,1,1,1,1,1,1,1,1,1,1,1,1,1,1,1,1,1,1,1,1,1,1,1,1,1,1,1,1,1,1,1,1,1,1,1,1,1,1,1,1,1,1,1,1,1,1,1,1,1,1,1,1,1,1,1,1,1,1,1,1,1,1,1,1,1,1,1,1,1,1,1,1,1,1,1,1,1,1,1,1,1,1,1,1,1,1,1,1,1,1,1,1,1,1,1,1,1,1,1,1,1,1,1,1,1,1,1,1,1,1,1,1,1,1,1,1,1,1,1,1,1,1,1,1,1,1,1,1,1,1,1,1,1,1,1,1,1,1,1,1,1,1,1,1,1,1,1,1,1,1,1,1,1,1,1,1,1,1,1,1,1,1,1,1,1,1,1,1,1,1,1,1,1,1,1,1,1,1,1,1,1,1,1,1,1,1,1,1,1,1,1,1,1,1,1,1,1,1,1,1,1,1,1,1,1,1,1,1,1,1,1,1,1,1,1,1,1,1,1,1,1,1,1,1,1,1,1,1,1,1,1,1,1,1,1,1,1,1,1,1,1,1,1,1,1,1,1,1,1,1,1,1,1,1,1,1,1,1,1,1,1,1,1,1,1,1,1,1,1,1,1,1,1,1,1,1,1,1,1,1,1,1,1,1,1,1,1,1,1,1,1,1,1,1,1,1,1,1,1,1,1,1,1,1,1,1,1,1,1,1,1,1,1,1,1,1,1,1,1,1,1,1,1,1,1,1,1,1,1,1,1,1,1,1,1,1,1,1,1,1,1,1,1,1,1,1,1,1,1,1,1,1,1,1,1,1,1,1,1,1,1,1,1,1,1,1,1,1,1,1,1,1,1,1,1,1,1,1,1,1,1,1,1,1,1,1,1,1,1,1,1,1,1,1,1,1,1,1,1,1,1,1,1,1,1,1,1,1,1,1,1,1,1,1,1,1,1,1,1,1,1,1,1,1,1,1,1,1,1,1,1,1,1,1,1,1,1,1,1,1,1,1,1,1,1,1,1,1,1,1,1,1,1,1,1,1,1,1,1,1,1,1,1,1,1,1,1,1,1,1,1,1,1,1,1,1,1,1,1,1,1,1,1,1,1,1,1,1,1,1,1,1,1,1,1,1,1,1,1,1,1,1,1,1,1,1,1,1,1,1,1,1,1,1,1,1,1,1,1,1,1,1,1,1,1,1,1,1,1,1,1,1,1,1,1,1,1,1,1,1,1,1,1,1,1,1,1,1,1,1,1,1,1,1,1,1,1,1,1,1,1,1,1,1,1,1,1,1,1,1,1,1,1,1,1,1,1,1,1,1,1,1,1,1,1,1,1,1,1,1,1,1,1,1,1,1,1,0,0,0,0,0,0,0,0,0,0,0,0,0,0,0,0,0,0,0,0,0,0,0,0,0,0,0,0,0,0,0,0,0,0,0,0,0,0,0,0,0,0,0,0,0,0,0,0,0,0,0,0,0,0,0,0,0,0,0,0,0,0,0,0,0,0,0,0,0,0,0,0,0,0,0,0,0,0,0,0,0,0,0,0,0,0,0,0,0,0,0,0,0,0,0,0,0,0,0,0,0,0,0,0,0,0,0,0,0,0,0,0,0,0,0,0,0,0,0,0,0,0,0,0,0,0,0,0,0,0,0,0,0,0,0,0,0,0,0,0,0,0,0,0,0,0,0,0,0,0,0,0,0,0,0,0,0,0,0,0,0,0,0,0,0,0,0,0,0,0,0,0,0,0,0,0,0,0,0,0,0,0,0,0,0,0,0,0,0,0,0,0,0,0,0,0,0,0,0,0,0,0,0,0,0,0,0,0,0,0,0,0,0,0,0,0,0,0,0,0,0,0,0,0,0,0,0,0,0,0,0,0,0,0,0,0,0,0,0,0,0,0,0,0,0,0,0,0,0,0,0,0,0,0,0,0,0,0,0,0,0,0,0,0,0,0,0,0,0,0,0,0,0,0,0,0,0,0,0,0,0,0,0,0,0,0,0,0,0,0,0,0,0,0,0,0,0,0,0,0,0,0,0,0,0,0,0,0,0,0,0,0,0,0,0,0,0,0,0,0,0,0,0,0,0,0,0,0,0,0,0,0,0,0,0,0,0,0,0,0,0,0,0,0,0,0,0,0,0,0,0,0,0,0,0,0,0,0,0,0,0,0,0,0,0,0,0,0,0,0,0,0,0,0,0,0,0,0,0,0,0,0,0,0,0,0,0,0,0,0,0,0,0,0,0,0,0,0,0,0,0,0,0,0,0,0,0,0,0,0,0,0,0,0,0,0,0,0,0,0,0,0,0,0,0,0,0,0,0,0,0,0,0,0,0,0,0,0,0,0,0,0,0,0,0,0,0,0,0,0,0,0,0,0,0,0,0,0,0,0,0,0,0,0,0,0,0,0,0,0,0,0,0,0,0,0,0,0,0,0,0,0,0,0,0,0,0,0,0,0,0,0,0,0,0,0,0,0,0,0,0,1,58,
1,1,1,1,1,1,1,1,1,1,1,1,1,1,1,1,1,1,1,1,1,1,1,1,1,1,1,1,1,1,1,1,1,1,1,1,1,1,1,1,1,1,1,1,1,1,1,1,1,1,1,1,1,1,1,1,1,1,1,1,1,1,1,1,1,1,1,1,1,1,1,1,1,1,1,1,1,1,1,1,1,1,1,1,1,1,1,1,1,1,1,1,1,1,1,1,1,1,1,1,1,1,1,1,1,1,1,1,1,1,1,1,1,1,1,1,1,1,1,1,1,1,1,1,1,1,1,1,1,1,1,1,1,1,1,1,1,1,1,1,1,1,1,1,1,1,1,1,1,1,1,1,1,1,1,1,1,1,1,1,1,1,1,1,1,1,1,1,1,1,1,1,1,1,1,1,1,1,1,1,1,1,1,1,1,1,1,1,1,1,1,1,1,1,1,1,1,1,1,1,1,1,1,1,1,1,1,1,1,1,1,1,1,1,1,1,1,1,1,1,1,1,1,1,1,1,1,1,1,1,1,1,1,1,1,1,1,1,1,1,1,1,1,1,1,1,1,1,1,1,1,1,1,1,1,1,1,1,1,1,1,1,1,1,1,1,1,1,1,1,1,1,1,1,1,1,1,1,1,1,1,1,1,1,1,1,1,1,1,1,1,1,1,1,1,1,1,1,1,1,1,1,1,1,1,1,1,1,1,1,1,1,1,1,1,1,1,1,1,1,1,1,1,1,1,1,1,1,1,1,1,1,1,1,1,1,1,1,1,1,1,1,1,1,1,1,1,1,1,1,1,1,1,1,1,1,1,1,1,1,1,1,1,1,1,1,1,1,1,1,1,1,1,1,1,1,1,1,1,1,1,1,1,1,1,1,1,1,1,1,1,1,1,1,1,1,1,1,1,1,1,1,1,1,1,1,1,1,1,1,1,1,1,1,1,1,1,1,1,1,1,1,1,1,1,1,1,1,1,1,1,1,1,1,1,1,1,1,1,1,1,1,1,1,1,1,1,1,1,1,1,1,1,1,1,1,1,1,1,1,1,1,1,1,1,1,1,1,1,1,1,1,1,1,1,1,1,1,1,1,1,1,1,1,1,1,1,1,1,1,1,1,1,1,1,1,1,1,1,1,1,1,1,1,1,1,1,1,1,1,1,1,1,1,1,1,1,1,1,1,1,1,1,1,1,1,1,1,1,1,1,1,1,1,1,1,1,1,1,1,1,1,1,1,1,1,1,1,1,1,1,1,1,1,1,1,1,1,1,1,1,1,1,1,1,1,1,1,1,1,1,1,1,1,1,1,1,1,1,1,1,1,1,1,1,1,1,1,1,1,1,1,1,1,1,1,1,1,1,1,1,1,1,1,1,1,1,1,1,1,1,1,1,1,1,1,1,1,1,1,1,1,1,1,1,1,1,1,1,1,1,1,1,1,1,1,1,1,1,1,1,1,1,1,1,1,1,1,1,1,1,1,1,1,1,1,1,1,1,1,1,1,1,1,1,1,1,1,1,1,1,1,1,1,1,1,1,1,1,1,1,1,1,1,1,1,1,1,1,1,1,1,1,1,1,1,1,1,1,1,1,1,1,1,1,1,1,1,1,1,1,1,1,1,1,1,1,1,1,1,1,1,1,1,1,1,1,1,1,1,1,1,1,1,1,1,1,1,1,1,1,1,1,1,1,1,1,1,1,1,1,1,1,1,1,1,1,1,1,1,1,1,1,1,1,1,1,1,1,1,1,1,1,1,1,1,1,1,1,1,1,1,1,1,1,1,1,1,1,1,1,1,1,1,1,1,1,1,1,1,1,1,1,1,1,1,1,1,1,1,1,1,1,1,1,1,1,1,1,1,1,1,1,1,1,1,1,1,1,1,1,1,1,1,1,1,1,1,1,1,1,1,1,1,1,1,1,1,1,1,1,1,1,1,1,1,1,1,1,1,1,1,1,1,1,1,1,1,1,1,1,1,1,1,1,1,1,1,1,1,1,1,1,1,1,1,1,1,1,1,1,1,1,1,1,0,0,0,0,0,0,0,0,0,0,0,0,0,0,0,0,0,0,0,0,0,0,0,0,0,0,0,0,0,0,0,0,0,0,0,0,0,0,0,0,0,0,0,0,0,0,0,0,0,0,0,0,0,0,0,0,0,0,0,0,0,0,0,0,0,0,0,0,0,0,0,0,0,0,0,0,0,0,0,0,0,0,0,0,0,0,0,0,0,0,0,0,0,0,0,0,0,0,0,0,0,0,0,0,0,0,0,0,0,0,0,0,0,0,0,0,0,0,0,0,0,0,0,0,0,0,0,0,0,0,0,0,0,0,0,0,0,0,0,0,0,0,0,0,0,0,0,0,0,0,0,0,0,0,0,0,0,0,0,0,0,0,0,0,0,0,0,0,0,0,0,0,0,0,0,0,0,0,0,0,0,0,0,0,0,0,0,0,0,0,0,0,0,0,0,0,0,0,0,0,0,0,0,0,0,0,0,0,0,0,0,0,0,0,0,0,0,0,0,0,0,0,0,0,0,0,0,0,0,0,0,0,0,0,0,0,0,0,0,0,0,0,0,0,0,0,0,0,0,0,0,0,0,0,0,0,0,0,0,0,0,0,0,0,0,0,0,0,0,0,0,0,0,0,0,0,0,0,0,0,0,0,0,0,0,0,0,0,0,0,0,0,0,0,0,0,0,0,0,0,0,0,0,0,0,0,0,0,0,0,0,0,0,0,0,0,0,0,0,0,0,0,0,0,0,0,0,0,0,0,0,0,0,0,0,0,0,0,0,0,0,0,0,0,0,0,0,0,0,0,0,0,0,0,0,0,0,0,0,0,0,0,0,0,0,0,0,0,0,0,0,0,0,0,0,0,0,0,0,0,0,0,0,0,0,0,0,0,0,0,0,0,0,0,0,0,0,0,0,0,0,0,0,0,0,0,0,0,0,0,0,0,0,0,0,0,0,0,0,0,0,0,0,0,0,0,0,0,0,0,0,0,0,0,0,0,0,0,0,0,0,0,0,0,0,0,0,0,0,0,0,0,0,0,0,0,0,0,0,0,0,0,0,0,0,0,0,0,0,0,0,0,0,0,0,0,0,0,0,0,0,0,0,0,0,0,0,0,0,0,0,0,0,0,0,0,0,0,0,0,0,1,58,
1,1,1,1,1,1,1,1,1,1,1,1,1,1,1,1,1,1,1,1,1,1,1,1,1,1,1,1,1,1,1,1,1,1,1,1,1,1,1,1,1,1,1,1,1,1,1,1,1,1,1,1,1,1,1,1,1,1,1,1,1,1,1,1,1,1,1,1,1,1,1,1,1,1,1,1,1,1,1,1,1,1,1,1,1,1,1,1,1,1,1,1,1,1,1,1,1,1,1,1,1,1,1,1,1,1,1,1,1,1,1,1,1,1,1,1,1,1,1,1,1,1,1,1,1,1,1,1,1,1,1,1,1,1,1,1,1,1,1,1,1,1,1,1,1,1,1,1,1,1,1,1,1,1,1,1,1,1,1,1,1,1,1,1,1,1,1,1,1,1,1,1,1,1,1,1,1,1,1,1,1,1,1,1,1,1,1,1,1,1,1,1,1,1,1,1,1,1,1,1,1,1,1,1,1,1,1,1,1,1,1,1,1,1,1,1,1,1,1,1,1,1,1,1,1,1,1,1,1,1,1,1,1,1,1,1,1,1,1,1,1,1,1,1,1,1,1,1,1,1,1,1,1,1,1,1,1,1,1,1,1,1,1,1,1,1,1,1,1,1,1,1,1,1,1,1,1,1,1,1,1,1,1,1,1,1,1,1,1,1,1,1,1,1,1,1,1,1,1,1,1,1,1,1,1,1,1,1,1,1,1,1,1,1,1,1,1,1,1,1,1,1,1,1,1,1,1,1,1,1,1,1,1,1,1,1,1,1,1,1,1,1,1,1,1,1,1,1,1,1,1,1,1,1,1,1,1,1,1,1,1,1,1,1,1,1,1,1,1,1,1,1,1,1,1,1,1,1,1,1,1,1,1,1,1,1,1,1,1,1,1,1,1,1,1,1,1,1,1,1,1,1,1,1,1,1,1,1,1,1,1,1,1,1,1,1,1,1,1,1,1,1,1,1,1,1,1,1,1,1,1,1,1,1,1,1,1,1,1,1,1,1,1,1,1,1,1,1,1,1,1,1,1,1,1,1,1,1,1,1,1,1,1,1,1,1,1,1,1,1,1,1,1,1,1,1,1,1,1,1,1,1,1,1,1,1,1,1,1,1,1,1,1,1,1,1,1,1,1,1,1,1,1,1,1,1,1,1,1,1,1,1,1,1,1,1,1,1,1,1,1,1,1,1,1,1,1,1,1,1,1,1,1,1,1,1,1,1,1,1,1,1,1,1,1,1,1,1,1,1,1,1,1,1,1,1,1,1,1,1,1,1,1,1,1,1,1,1,1,1,1,1,1,1,1,1,1,1,1,1,1,1,1,1,1,1,1,1,1,1,1,1,1,1,1,1,1,1,1,1,1,1,1,1,1,1,1,1,1,1,1,1,1,1,1,1,1,1,1,1,1,1,1,1,1,1,1,1,1,1,1,1,1,1,1,1,1,1,1,1,1,1,1,1,1,1,1,1,1,1,1,1,1,1,1,1,1,1,1,1,1,1,1,1,1,1,1,1,1,1,1,1,1,1,1,1,1,1,1,1,1,1,1,1,1,1,1,1,1,1,1,1,1,1,1,1,1,1,1,1,1,1,1,1,1,1,1,1,1,1,1,1,1,1,1,1,1,1,1,1,1,1,1,1,1,1,1,1,1,1,1,1,1,1,1,1,1,1,1,1,1,1,1,1,1,1,1,1,1,1,1,1,1,1,1,1,1,1,1,1,1,1,1,1,1,1,1,1,1,1,1,1,1,1,1,1,1,1,1,1,1,1,1,1,1,1,1,1,1,1,1,1,1,1,1,1,1,1,1,1,1,1,1,1,1,1,1,1,1,1,1,1,1,1,1,1,1,1,1,1,1,1,1,1,1,1,1,1,1,1,1,1,1,1,1,1,1,1,1,1,1,1,1,1,1,1,1,1,1,1,1,1,1,1,1,1,1,1,1,1,1,1,1,1,1,1,1,1,1,1,1,1,1,1,1,1,1,1,1,1,1,1,1,1,1,1,1,1,1,1,1,1,1,1,1,0,0,0,0,0,0,0,0,0,0,0,0,0,0,0,0,0,0,0,0,0,0,0,0,0,0,0,0,0,0,0,0,0,0,0,0,0,0,0,0,0,0,0,0,0,0,0,0,0,0,0,0,0,0,0,0,0,0,0,0,0,0,0,0,0,0,0,0,0,0,0,0,0,0,0,0,0,0,0,0,0,0,0,0,0,0,0,0,0,0,0,0,0,0,0,0,0,0,0,0,0,0,0,0,0,0,0,0,0,0,0,0,0,0,0,0,0,0,0,0,0,0,0,0,0,0,0,0,0,0,0,0,0,0,0,0,0,0,0,0,0,0,0,0,0,0,0,0,0,0,0,0,0,0,0,0,0,0,0,0,0,0,0,0,0,0,0,0,0,0,0,0,0,0,0,0,0,0,0,0,0,0,0,0,0,0,0,0,0,0,0,0,0,0,0,0,0,0,0,0,0,0,0,0,0,0,0,0,0,0,0,0,0,0,0,0,0,0,0,0,0,0,0,0,0,0,0,0,0,0,0,0,0,0,0,0,0,0,0,0,0,0,0,0,0,0,0,0,0,0,0,0,0,0,0,0,0,0,0,0,0,0,0,0,0,0,0,0,0,0,0,0,0,0,0,0,0,0,0,0,0,0,0,0,0,0,0,0,0,0,0,0,0,0,0,0,0,0,0,0,0,0,0,0,0,0,0,0,0,0,0,0,0,0,0,0,0,0,0,0,0,0,0,0,0,0,0,0,0,0,0,0,0,0,0,0,0,0,0,0,0,0,0,0,0,0,0,0,0,0,0,0,0,0,0,0,0,0,0,0,0,0,0,0,0,0,0,0,0,0,0,0,0,0,0,0,0,0,0,0,0,0,0,0,0,0,0,0,0,0,0,0,0,0,0,0,0,0,0,0,0,0,0,0,0,0,0,0,0,0,0,0,0,0,0,0,0,0,0,0,0,0,0,0,0,0,0,0,0,0,0,0,0,0,0,0,0,0,0,0,0,0,0,0,0,0,0,0,0,0,0,0,0,0,0,0,0,0,0,0,0,0,0,0,0,0,0,0,0,0,0,0,0,0,0,0,0,0,0,0,0,0,0,0,0,0,0,0,0,0,0,0,0,0,0,0,0,0,0,0,0,1,58,
1,1,1,1,1,1,1,1,1,1,1,1,1,1,1,1,1,1,1,1,1,1,1,1,1,1,1,1,1,1,1,1,1,1,1,1,1,1,1,1,1,1,1,1,1,1,1,1,1,1,1,1,1,1,1,1,1,1,1,1,1,1,1,1,1,1,1,1,1,1,1,1,1,1,1,1,1,1,1,1,1,1,1,1,1,1,1,1,1,1,1,1,1,1,1,1,1,1,1,1,1,1,1,1,1,1,1,1,1,1,1,1,1,1,1,1,1,1,1,1,1,1,1,1,1,1,1,1,1,1,1,1,1,1,1,1,1,1,1,1,1,1,1,1,1,1,1,1,1,1,1,1,1,1,1,1,1,1,1,1,1,1,1,1,1,1,1,1,1,1,1,1,1,1,1,1,1,1,1,1,1,1,1,1,1,1,1,1,1,1,1,1,1,1,1,1,1,1,1,1,1,1,1,1,1,1,1,1,1,1,1,1,1,1,1,1,1,1,1,1,1,1,1,1,1,1,1,1,1,1,1,1,1,1,1,1,1,1,1,1,1,1,1,1,1,1,1,1,1,1,1,1,1,1,1,1,1,1,1,1,1,1,1,1,1,1,1,1,1,1,1,1,1,1,1,1,1,1,1,1,1,1,1,1,1,1,1,1,1,1,1,1,1,1,1,1,1,1,1,1,1,1,1,1,1,1,1,1,1,1,1,1,1,1,1,1,1,1,1,1,1,1,1,1,1,1,1,1,1,1,1,1,1,1,1,1,1,1,1,1,1,1,1,1,1,1,1,1,1,1,1,1,1,1,1,1,1,1,1,1,1,1,1,1,1,1,1,1,1,1,1,1,1,1,1,1,1,1,1,1,1,1,1,1,1,1,1,1,1,1,1,1,1,1,1,1,1,1,1,1,1,1,1,1,1,1,1,1,1,1,1,1,1,1,1,1,1,1,1,1,1,1,1,1,1,1,1,1,1,1,1,1,1,1,1,1,1,1,1,1,1,1,1,1,1,1,1,1,1,1,1,1,1,1,1,1,1,1,1,1,1,1,1,1,1,1,1,1,1,1,1,1,1,1,1,1,1,1,1,1,1,1,1,1,1,1,1,1,1,1,1,1,1,1,1,1,1,1,1,1,1,1,1,1,1,1,1,1,1,1,1,1,1,1,1,1,1,1,1,1,1,1,1,1,1,1,1,1,1,1,1,1,1,1,1,1,1,1,1,1,1,1,1,1,1,1,1,1,1,1,1,1,1,1,1,1,1,1,1,1,1,1,1,1,1,1,1,1,1,1,1,1,1,1,1,1,1,1,1,1,1,1,1,1,1,1,1,1,1,1,1,1,1,1,1,1,1,1,1,1,1,1,1,1,1,1,1,1,1,1,1,1,1,1,1,1,1,1,1,1,1,1,1,1,1,1,1,1,1,1,1,1,1,1,1,1,1,1,1,1,1,1,1,1,1,1,1,1,1,1,1,1,1,1,1,1,1,1,1,1,1,1,1,1,1,1,1,1,1,1,1,1,1,1,1,1,1,1,1,1,1,1,1,1,1,1,1,1,1,1,1,1,1,718,718,718,718,718,718,718,718,718,718,709,1,1,1,1,1,1,1,1,1,1,1,1,1,1,1,1,1,1,1,1,1,1,1,1,1,737,1,1,1,1,1,1,1,1,1,1,1,1,1,1,1,1,1,1,1,1,1,1,1,1,1,1,1,1,1,1,1,1,1,1,1,1,1,1,1,1,1,1,1,1,1,1,1,1,1,1,1,1,1,1,1,1,1,1,1,1,1,1,1,1,1,1,1,1,1,1,1,1,1,1,1,1,1,1,1,1,1,1,1,1,1,1,1,1,1,1,1,1,1,1,1,1,1,1,1,1,1,1,1,1,1,1,1,1,1,1,1,1,1,1,1,1,1,1,1,1,1,1,1,1,1,1,1,1,1,1,1,1,1,1,1,1,1,1,1,1,1,1,1,1,1,1,1,1,1,1,1,1,1,1,1,1,1,1,1,1,1,1,1,1,1,0,0,0,0,0,0,0,0,0,0,0,0,0,0,0,0,0,0,0,0,0,0,0,0,0,0,0,0,0,0,0,0,0,0,0,0,0,0,0,0,0,0,0,0,0,0,0,0,0,0,0,0,0,0,0,0,0,0,0,0,0,0,0,0,0,0,0,0,0,0,0,0,0,0,0,0,0,0,0,0,0,0,0,0,0,0,0,0,0,0,0,0,0,0,0,0,0,0,0,0,0,0,0,0,0,0,0,0,0,0,0,0,0,0,0,0,0,0,0,0,0,0,0,0,0,0,0,0,0,0,0,0,0,0,0,0,0,0,0,0,0,0,0,0,0,0,0,0,0,0,0,0,0,0,0,0,0,0,0,0,0,0,0,0,0,0,0,0,0,0,0,0,0,0,0,0,0,0,0,0,0,0,0,0,0,0,0,0,0,0,0,0,0,0,0,0,0,0,0,0,0,0,0,0,0,0,0,0,0,0,0,0,0,0,0,0,0,0,0,0,0,0,0,0,0,0,0,0,0,0,0,0,0,0,0,0,0,0,0,0,0,0,0,0,0,0,0,0,0,0,0,0,0,0,0,0,0,0,0,0,0,0,0,0,0,0,0,0,0,0,0,0,0,0,0,0,0,0,0,0,0,0,0,0,0,0,0,0,0,0,0,0,0,0,0,0,0,0,0,0,0,0,0,0,0,0,0,0,0,0,0,0,0,0,0,0,0,0,0,0,0,0,0,0,0,0,0,0,0,0,0,0,0,0,0,0,0,0,0,0,0,0,0,0,0,0,0,0,0,0,0,0,0,0,0,0,0,0,0,0,0,0,0,0,0,0,0,0,0,0,0,0,0,0,0,0,0,0,0,0,0,0,0,0,0,0,0,0,0,0,0,0,0,0,0,0,0,0,0,0,0,0,0,0,0,0,0,0,0,0,0,0,0,0,0,0,0,0,0,0,0,0,0,0,0,0,0,0,0,0,0,0,0,0,0,0,0,0,0,0,0,0,0,0,0,0,0,0,0,0,0,0,0,0,0,0,0,0,0,0,0,0,0,0,0,0,0,0,0,0,0,0,0,0,0,0,0,0,0,0,0,0,0,0,0,0,0,0,0,0,0,0,0,0,0,0,0,0,0,0,0,1,58,
1,1,1,1,1,1,1,1,1,1,1,1,1,1,1,1,1,1,1,1,1,1,1,1,1,1,1,1,1,1,1,1,1,1,1,1,1,1,1,1,1,1,1,1,1,1,1,1,1,1,1,1,1,1,1,1,1,1,1,1,1,1,1,1,1,1,1,1,1,1,1,1,1,1,1,1,1,1,1,1,1,1,1,1,1,1,1,1,1,1,1,1,1,1,1,1,1,1,1,1,1,1,1,1,1,1,1,1,1,1,1,1,1,1,1,1,1,1,1,1,1,1,1,1,1,1,1,1,1,1,1,1,1,1,1,1,1,1,1,1,1,1,1,1,1,1,1,1,1,1,1,1,1,1,1,1,1,1,1,1,1,1,1,1,1,1,1,1,1,1,1,1,1,1,1,1,1,1,1,1,1,1,1,1,1,1,1,1,1,1,1,1,1,1,1,1,1,1,1,1,1,1,1,1,1,1,1,1,1,1,1,1,1,1,1,1,1,1,1,1,1,1,1,1,1,1,1,1,1,1,1,1,1,1,1,1,1,1,1,1,1,1,1,1,1,1,1,1,1,1,1,1,1,1,1,1,1,1,1,1,1,1,1,1,1,1,1,1,1,1,1,1,1,1,1,1,1,1,1,1,1,1,1,1,1,1,1,1,1,1,1,1,1,1,1,1,1,1,1,1,1,1,1,1,1,1,1,1,1,1,1,1,1,1,1,1,1,1,1,1,1,1,1,1,1,1,1,1,1,1,1,1,1,1,1,1,1,1,1,1,1,1,1,1,1,1,1,1,1,1,1,1,1,1,1,1,1,1,1,1,1,1,1,1,1,1,1,1,1,1,1,1,1,1,1,1,1,1,1,1,1,1,1,1,1,1,1,1,1,1,1,1,1,1,1,1,1,1,1,1,1,1,1,1,1,1,1,1,1,1,1,1,1,1,1,1,1,1,1,1,1,1,1,1,1,1,1,1,1,1,1,1,1,1,1,1,1,1,1,1,1,1,1,1,1,1,1,1,1,1,1,1,1,1,1,1,1,1,1,1,1,1,1,1,1,1,1,1,1,1,1,1,1,1,1,1,1,1,1,1,1,1,1,1,1,1,1,1,1,1,1,1,1,1,1,1,1,1,1,1,1,1,1,1,1,1,1,1,1,1,1,1,1,1,1,1,1,1,1,1,1,1,1,1,1,1,1,1,1,1,1,1,1,1,1,1,1,1,1,1,1,1,1,1,1,1,1,1,1,1,1,1,1,1,1,1,1,1,1,1,1,1,1,1,1,1,1,1,1,1,1,1,1,1,1,1,1,1,1,1,1,1,1,1,1,1,1,1,1,1,1,1,1,1,1,1,1,1,1,1,1,1,1,1,1,1,1,1,1,1,1,1,1,1,1,1,1,1,1,1,1,1,1,1,1,1,1,1,1,1,1,1,1,1,1,1,1,1,1,1,1,1,1,1,1,1,1,1,1,1,1,1,1,1,1,1,1,1,1,1,1,1,1,1,1,1,1,1,1,1,1,1,1,1,1,1,1,1,1,1,1,1,1,1,1,1,1,1,1,1,1,1,1,718,718,718,718,718,718,718,718,718,718,709,1,1,1,1,1,1,1,1,1,1,1,1,1,1,1,1,1,1,1,1,1,1,1,1,1,879,1,1,1,1,1,1,1,1,1,1,1,1,1,1,1,1,1,1,1,1,1,1,1,1,1,1,1,1,1,1,1,1,1,1,1,1,1,1,1,1,1,1,1,1,1,1,1,1,1,1,1,1,1,1,1,1,1,1,1,1,1,1,1,1,1,1,1,1,1,1,1,1,1,1,1,1,1,1,1,1,1,1,1,1,1,1,1,1,1,1,1,1,1,1,1,1,1,1,1,1,1,1,1,1,1,1,1,1,1,1,1,1,1,1,1,1,1,1,1,1,1,1,1,1,1,1,1,1,1,1,1,1,1,1,1,1,1,1,1,1,1,1,1,1,1,1,1,1,1,1,1,1,1,1,1,1,1,1,1,1,1,1,1,1,1,0,0,0,0,0,0,0,0,0,0,0,0,0,0,0,0,0,0,0,0,0,0,0,0,0,0,0,0,0,0,0,0,0,0,0,0,0,0,0,0,0,0,0,0,0,0,0,0,0,0,0,0,0,0,0,0,0,0,0,0,0,0,0,0,0,0,0,0,0,0,0,0,0,0,0,0,0,0,0,0,0,0,0,0,0,0,0,0,0,0,0,0,0,0,0,0,0,0,0,0,0,0,0,0,0,0,0,0,0,0,0,0,0,0,0,0,0,0,0,0,0,0,0,0,0,0,0,0,0,0,0,0,0,0,0,0,0,0,0,0,0,0,0,0,0,0,0,0,0,0,0,0,0,0,0,0,0,0,0,0,0,0,0,0,0,0,0,0,0,0,0,0,0,0,0,0,0,0,0,0,0,0,0,0,0,0,0,0,0,0,0,0,0,0,0,0,0,0,0,0,0,0,0,0,0,0,0,0,0,0,0,0,0,0,0,0,0,0,0,0,0,0,0,0,0,0,0,0,0,0,0,0,0,0,0,0,0,0,0,0,0,0,0,0,0,0,0,0,0,0,0,0,0,0,0,0,0,0,0,0,0,0,0,0,0,0,0,0,0,0,0,0,0,0,0,0,0,0,0,0,0,0,0,0,0,0,0,0,0,0,0,0,0,0,0,0,0,0,0,0,0,0,0,0,0,0,0,0,0,0,0,0,0,0,0,0,0,0,0,0,0,0,0,0,0,0,0,0,0,0,0,0,0,0,0,0,0,0,0,0,0,0,0,0,0,0,0,0,0,0,0,0,0,0,0,0,0,0,0,0,0,0,0,0,0,0,0,0,0,0,0,0,0,0,0,0,0,0,0,0,0,0,0,0,0,0,0,0,0,0,0,0,0,0,0,0,0,0,0,0,0,0,0,0,0,0,0,0,0,0,0,0,0,0,0,0,0,0,0,0,0,0,0,0,0,0,0,0,0,0,0,0,0,0,0,0,0,0,0,0,0,0,0,0,0,0,0,0,0,0,0,0,0,0,0,0,0,0,0,0,0,0,0,0,0,0,0,0,0,0,0,0,0,0,0,0,0,0,0,0,0,0,0,0,0,0,0,0,0,0,0,0,0,0,0,0,0,0,0,0,0,1,58,
1,1,1,1,1,1,1,1,1,1,1,1,1,1,1,1,1,1,1,1,1,1,1,1,1,1,1,1,1,1,1,1,1,1,1,1,1,1,1,1,1,1,1,1,1,1,1,1,1,1,1,1,1,1,1,1,1,1,1,1,1,1,1,1,1,1,1,1,1,1,1,1,1,1,1,1,1,1,1,1,1,1,1,1,1,1,1,1,1,1,1,1,1,1,1,1,1,1,1,1,1,1,1,1,1,1,1,1,1,1,1,1,737,1,1,1,1,1,1,1,1,1,1,1,1,1,1,1,1,1,1,1,1,1,1,1,1,1,1,1,1,1,1,1,1,1,1,1,1,1,1,1,1,1,1,1,1,1,1,1,1,1,1,1,1,1,1,1,1,1,1,1,1,1,1,1,1,1,1,1,1,1,1,1,1,1,1,1,1,1,1,1,1,1,1,1,1,1,1,1,1,1,1,1,1,1,1,1,1,1,1,1,1,1,1,1,1,1,1,1,1,1,1,1,1,1,1,1,1,1,1,1,1,1,1,1,1,1,1,1,1,1,1,1,1,1,1,1,1,1,1,1,1,1,1,1,1,1,1,1,1,1,1,1,1,1,1,1,1,1,1,1,1,1,1,1,1,1,1,1,1,1,1,1,1,1,1,1,1,1,1,1,1,1,1,1,1,1,1,1,1,1,1,1,1,1,1,1,1,1,1,1,1,1,1,1,1,1,1,1,1,1,1,1,1,1,1,1,1,1,1,1,1,1,1,1,1,1,1,1,1,1,1,1,1,1,1,1,1,1,1,1,1,1,1,1,1,1,1,1,1,1,1,1,1,1,1,1,1,1,1,1,1,1,1,1,1,1,1,1,1,1,1,1,1,1,1,1,1,1,1,1,1,1,1,1,1,1,1,1,1,1,1,1,1,1,1,1,1,1,1,1,1,1,1,1,1,1,1,1,1,1,1,1,1,1,1,1,1,1,1,1,1,1,1,1,1,1,1,1,1,1,1,1,1,1,1,1,1,1,1,1,1,1,1,1,1,1,1,1,1,1,1,1,1,1,1,1,1,1,1,1,1,1,1,1,1,1,1,1,1,1,1,1,1,1,1,1,1,1,1,1,1,1,1,1,1,1,1,1,1,1,1,1,1,1,1,1,1,1,1,1,1,1,1,1,1,1,1,1,1,1,1,1,1,1,1,1,1,1,1,1,1,1,1,1,1,1,1,1,1,1,1,1,1,1,1,1,1,1,1,1,1,1,1,1,1,1,1,1,1,1,1,1,1,1,1,1,1,1,1,1,1,1,1,1,1,1,1,1,1,1,1,1,1,1,1,1,1,1,1,1,1,1,1,1,1,1,1,1,1,1,1,1,1,1,1,1,1,1,1,1,1,1,1,1,1,1,1,1,1,1,1,1,1,1,1,1,1,1,1,1,1,1,1,1,1,1,1,1,1,1,1,1,1,1,1,1,1,1,1,1,1,1,1,1,1,1,1,1,1,1,1,1,1,1,1,1,1,1,1,1,1,1,1,1,1,1,1,1,1,1,1,1,1,1,1,1,1,1,1,1,1,718,718,718,718,718,718,718,718,718,718,709,1,1,1,1,1,1,1,1,1,1,1,1,1,1,1,1,1,1,1,1,1,1,1,1,1,737,1,1,1,1,1,1,1,1,1,1,1,1,1,1,1,1,1,1,1,1,1,1,1,1,1,1,1,1,1,1,1,1,1,1,1,1,1,1,1,1,1,1,1,1,1,1,1,1,1,1,1,1,1,1,1,1,1,1,1,1,1,1,1,1,1,1,1,1,1,1,1,1,1,1,1,1,1,1,1,1,1,1,1,1,1,1,1,1,1,1,1,1,34,708,718,718,718,718,718,718,718,718,718,0,0,1,1,1,1,1,1,1,1,1,1,1,1,1,1,1,1,1,1,1,1,1,1,1,1,1,1,1,1,1,1,1,1,1,1,1,1,1,1,1,1,1,1,1,1,1,1,1,1,1,1,1,1,1,1,1,1,1,1,1,1,0,0,0,0,0,0,0,0,0,0,0,0,0,0,0,0,0,0,0,0,0,0,0,0,0,0,0,0,0,0,0,0,0,0,0,0,0,0,0,0,0,0,0,0,0,0,0,0,0,0,0,0,0,0,0,0,0,0,0,0,0,0,0,0,0,0,0,0,0,0,0,0,0,0,0,0,0,0,0,0,0,0,0,0,0,0,0,0,0,0,0,0,0,0,0,0,0,0,0,0,0,0,0,0,0,0,0,0,0,0,0,0,0,0,0,0,0,0,0,0,0,0,0,0,0,0,0,0,0,0,0,0,0,0,0,0,0,0,0,0,0,0,0,0,0,0,0,0,0,0,0,0,0,0,0,0,0,0,0,0,0,0,0,0,0,0,0,0,0,0,0,0,0,0,0,0,0,0,0,0,0,0,0,0,0,0,0,0,0,0,0,0,0,0,0,0,0,0,0,0,0,0,0,0,0,0,0,0,0,0,0,0,0,0,0,0,0,0,0,0,0,0,0,0,0,0,0,0,0,0,0,0,0,0,0,0,0,0,0,0,0,0,0,0,0,0,0,0,0,0,0,0,0,0,0,0,0,0,0,0,0,0,0,0,0,0,0,0,0,0,0,0,0,0,0,0,0,0,0,0,0,0,0,0,0,0,0,0,0,0,0,0,0,0,0,0,0,0,0,0,0,0,0,0,0,0,0,0,0,0,0,0,0,0,0,0,0,0,0,0,0,0,0,0,0,0,0,0,0,0,0,0,0,0,0,0,0,0,0,0,0,0,0,0,0,0,0,0,0,0,0,0,0,0,0,0,0,0,0,0,0,0,0,0,0,0,0,0,0,0,0,0,0,0,0,0,0,0,0,0,0,0,0,0,0,0,0,0,0,0,0,0,0,0,0,0,0,0,0,0,0,0,0,0,0,0,0,0,0,0,0,0,0,0,0,0,0,0,0,0,0,0,0,0,0,0,0,0,0,0,0,0,0,0,0,0,0,0,0,0,0,0,0,0,0,0,0,0,0,0,0,0,0,0,0,0,0,0,0,0,0,0,0,0,0,0,0,0,0,0,0,0,0,0,0,0,0,0,0,0,0,0,0,0,0,0,0,0,0,0,0,0,0,0,0,0,0,0,0,0,0,1,58,
1,1,1,1,1,1,1,1,1,1,1,1,1,1,1,1,1,1,1,1,1,1,1,1,1,1,1,1,1,1,1,1,1,1,1,1,1,1,1,1,1,1,1,1,1,1,1,1,1,1,1,1,1,1,1,1,1,1,1,1,1,1,1,1,1,1,1,1,1,1,1,1,1,1,1,1,1,1,1,1,1,1,1,1,1,1,1,1,1,1,1,1,1,1,1,1,1,1,1,1,1,1,1,1,1,1,1,1,1,1,1,1,879,1,1,1,1,1,1,1,1,1,1,1,1,1,1,1,1,1,1,1,1,1,1,1,1,737,1,1,1,1,1,1,1,1,1,1,1,1,1,1,1,1,1,1,1,1,1,1,1,1,1,1,1,1,1,1,1,737,1,1,1,1,1,1,1,1,1,1,1,1,1,1,737,1,1,0,0,0,0,0,0,0,0,1,1,1,1,1,1,1,1,1,1,1,1,1,1,1,1,1,1,1,1,1,1,1,1,1,1,1,1,1,1,1,1,1,1,1,1,1,1,1,1,1,1,1,1,1,1,1,1,1,1,1,1,1,1,1,1,1,1,1,1,1,1,1,1,1,1,1,1,1,1,1,1,1,1,1,1,1,1,1,1,1,1,1,1,1,1,1,1,1,1,1,1,1,1,1,1,1,1,1,1,1,1,1,1,1,1,1,1,1,1,1,1,1,1,1,1,1,1,1,1,1,1,1,1,1,1,1,1,1,1,1,1,1,1,1,1,1,1,1,1,1,1,1,1,1,1,1,1,1,1,1,1,1,1,1,1,1,1,1,1,1,1,1,1,1,1,1,1,1,1,1,1,1,1,1,1,1,1,1,1,1,1,1,1,1,1,1,1,1,1,1,1,1,1,1,1,1,1,1,1,1,1,1,1,1,1,1,1,1,1,1,1,1,1,1,1,1,1,1,1,1,1,1,1,1,1,1,1,1,1,1,1,1,1,1,1,1,1,1,1,1,1,1,1,1,1,1,1,1,1,1,1,1,1,1,1,1,1,1,1,1,1,1,1,1,1,1,1,1,1,1,1,1,1,1,1,1,1,1,1,1,1,1,1,1,1,1,1,1,1,1,1,1,1,1,1,1,1,1,1,1,1,1,1,1,1,1,1,1,1,1,1,1,1,1,1,1,1,1,1,1,1,1,1,1,1,1,1,1,1,1,1,1,1,1,1,1,1,1,1,1,1,1,1,1,1,1,1,1,1,1,1,1,1,1,1,1,1,1,1,1,1,1,1,1,1,1,1,1,1,1,1,1,1,1,1,1,1,1,1,1,1,1,1,1,1,1,1,1,1,1,1,1,1,1,1,1,1,1,1,1,1,1,1,1,1,1,1,1,1,1,1,1,1,1,1,1,1,1,1,1,1,1,1,1,1,1,1,1,1,1,1,1,1,1,1,1,1,1,1,1,1,1,1,1,1,1,1,1,1,1,1,1,1,1,1,1,1,1,1,1,1,1,1,1,1,1,1,1,1,1,1,1,1,1,1,1,1,1,1,1,1,1,1,1,1,1,1,1,1,1,1,1,1,1,1,1,1,718,718,718,718,718,718,718,718,718,718,709,1,1,1,1,1,1,1,1,1,1,1,1,1,1,1,1,1,1,1,1,1,1,1,1,1,879,1,1,1,1,1,1,1,1,1,1,1,1,1,1,1,1,1,1,1,1,1,1,1,1,1,1,1,1,1,1,1,1,1,1,1,1,1,1,1,1,1,1,1,1,1,1,1,1,1,1,1,1,1,1,1,1,1,1,1,1,1,1,1,1,1,1,1,1,1,1,1,1,1,1,1,1,1,1,1,1,1,1,1,1,1,1,1,1,1,1,1,1,34,708,718,718,718,718,718,718,718,718,718,0,0,1,1,1,1,1,1,1,1,1,1,1,1,1,1,1,1,1,1,1,1,1,1,1,1,1,1,1,1,1,1,1,1,1,1,1,1,1,1,1,1,1,1,1,1,1,1,1,1,1,1,1,1,1,1,1,1,1,1,1,1,0,0,0,0,0,0,0,0,0,0,0,0,0,0,0,0,0,0,0,0,0,0,0,0,0,0,0,0,0,0,0,0,0,0,0,0,0,0,0,0,0,0,0,0,0,0,0,0,0,0,0,0,0,0,0,0,0,0,0,0,0,0,0,0,0,0,0,0,0,0,0,0,0,0,0,0,0,0,0,0,0,0,0,0,0,0,0,0,0,0,0,0,0,0,0,0,0,0,0,0,0,0,0,0,0,0,0,0,0,0,0,0,0,0,0,0,0,0,0,0,0,0,0,0,0,0,0,0,0,0,0,0,0,0,0,0,0,0,0,0,0,0,0,0,0,0,0,0,0,0,0,0,0,0,0,0,0,0,0,0,0,0,0,0,0,0,0,0,0,0,0,0,0,0,0,0,0,0,0,0,0,0,0,0,0,0,0,0,0,0,0,0,0,0,0,0,0,0,0,0,0,0,0,0,0,0,0,0,0,0,0,0,0,0,0,0,0,0,0,0,0,0,0,0,0,0,0,0,0,0,0,0,0,0,0,0,0,0,0,0,0,0,0,0,0,0,0,0,0,0,0,0,0,0,0,0,0,0,0,0,0,0,0,0,0,0,0,0,0,0,0,0,0,0,0,0,0,0,0,0,0,0,0,0,0,0,0,0,0,0,0,0,0,0,0,0,0,0,0,0,0,0,0,0,0,0,0,0,0,0,0,0,0,0,0,0,0,0,0,0,0,0,0,0,0,0,0,0,0,0,0,0,0,0,0,0,0,0,0,0,0,0,0,0,0,0,0,0,0,0,0,0,0,0,0,0,0,0,0,0,0,0,0,0,0,0,0,0,0,0,0,0,0,0,0,0,0,0,0,0,0,0,0,0,0,0,0,0,0,0,0,0,0,0,0,0,0,0,0,0,0,0,0,0,0,0,0,0,0,0,0,0,0,0,0,0,0,0,0,0,0,0,0,0,0,0,0,0,0,0,0,0,0,0,0,0,0,0,0,0,0,0,0,0,0,0,0,0,0,0,0,0,0,0,0,0,0,0,0,0,0,0,0,0,0,0,0,0,0,0,0,0,0,0,0,0,0,0,0,0,0,0,0,0,0,0,0,0,0,0,0,0,0,0,0,0,0,0,0,0,0,1,58,
1,1,1,1,1,1,1,1,1,1,1,1,1,1,1,1,1,1,1,1,1,1,1,1,1,1,1,1,1,1,1,1,1,1,1,1,1,1,1,1,1,1,1,1,1,1,1,1,1,1,1,1,1,1,1,1,1,1,1,1,1,1,1,1,1,1,1,1,1,1,1,1,1,1,1,1,1,1,1,1,1,1,1,1,1,1,1,1,1,1,1,1,1,1,1,1,1,1,1,1,1,1,1,1,1,1,1,1,1,1,1,1,737,1,1,1,1,1,1,1,1,1,1,1,1,1,1,1,1,1,1,1,1,1,1,1,1,879,1,1,1,1,1,1,1,1,1,1,1,1,1,1,1,1,1,1,1,1,1,1,1,1,1,1,1,1,1,1,1,879,1,1,1,1,1,1,1,1,1,1,1,1,1,1,879,1,1,0,0,0,0,0,0,0,0,1,1,1,1,1,1,1,1,1,1,737,1,1,1,1,1,1,1,1,1,1,1,755,1,1,1,1,1,1,1,1,1,1,1,1,1,1,1,1,1,1,1,1,1,1,1,1,1,1,1,1,1,1,1,1,1,1,1,1,1,1,1,1,1,1,1,1,1,1,1,1,1,1,1,1,1,1,1,1,1,1,1,1,1,1,1,1,1,1,1,1,1,1,1,1,1,1,1,1,1,1,1,1,1,1,1,1,1,1,1,1,1,1,1,1,1,1,1,1,1,1,1,1,1,1,1,1,1,1,1,1,1,1,1,1,1,1,1,1,1,1,1,1,1,1,1,1,1,1,1,1,1,1,1,1,1,1,1,1,1,1,1,1,1,1,1,1,1,1,1,1,1,1,1,1,1,1,1,1,1,1,1,1,1,1,1,1,1,1,1,1,1,1,1,1,1,1,1,1,1,1,1,1,1,1,1,1,1,1,1,1,1,1,1,1,1,1,1,1,1,1,1,1,1,1,1,1,1,1,1,1,1,1,1,1,1,1,1,1,1,1,1,1,1,1,1,1,1,1,1,1,1,1,1,1,1,1,1,1,1,1,1,1,1,1,1,1,1,1,1,1,1,1,1,1,1,1,1,1,1,1,1,1,1,1,1,1,1,1,1,1,1,1,1,1,1,1,1,1,1,1,1,1,1,1,1,1,1,1,1,1,1,1,1,1,1,1,1,1,1,1,1,1,1,1,1,1,1,1,1,1,1,1,1,1,1,1,1,1,1,1,1,1,1,1,1,1,1,1,1,1,1,1,1,1,1,1,1,1,1,1,1,1,1,1,1,1,1,1,1,1,1,1,1,1,1,1,1,1,1,1,1,1,1,1,1,1,1,1,1,1,1,1,1,1,1,1,1,1,1,1,1,1,1,1,1,1,1,1,1,1,1,1,1,1,1,1,1,1,1,1,1,1,1,1,1,1,1,1,1,1,1,1,1,1,1,1,1,1,1,1,1,1,1,1,1,1,1,1,1,1,1,1,1,1,1,1,1,1,1,1,1,1,1,1,1,1,1,1,1,1,1,1,1,1,1,1,1,1,1,1,1,1,1,1,1,1,1,1,1,1,1,1,1,1,1,1,1,718,718,718,718,718,718,718,718,718,718,709,1,1,1,1,1,1,1,1,1,1,1,1,1,1,1,1,1,1,1,1,1,1,1,1,1,737,1,1,1,1,1,1,1,1,1,1,1,1,1,1,1,1,1,1,1,1,1,1,1,1,1,1,1,1,1,1,1,1,1,1,1,1,1,1,1,1,1,1,1,1,1,1,1,1,1,1,1,1,1,1,1,1,1,1,1,1,1,1,1,1,1,1,1,1,1,1,1,1,1,1,1,1,1,1,1,1,1,1,1,1,1,1,1,1,1,1,1,1,34,708,718,718,718,718,718,718,718,718,718,0,0,1,1,1,1,1,1,1,1,1,1,1,1,1,1,1,1,1,1,1,1,1,1,1,1,1,1,1,1,1,1,1,1,1,1,1,1,1,1,1,1,1,1,1,1,1,1,1,1,1,1,1,1,1,1,1,1,1,1,1,1,0,0,0,0,0,0,0,0,0,0,0,0,0,0,0,0,0,0,0,0,0,0,0,0,0,0,0,0,0,0,0,0,0,0,0,0,0,0,0,0,0,0,0,0,0,0,0,0,0,0,0,0,0,0,0,0,0,0,0,0,0,0,0,0,0,0,0,0,0,0,0,0,0,0,0,0,0,0,0,0,0,0,0,0,0,0,0,0,0,0,0,0,0,0,0,0,0,0,0,0,0,0,0,0,0,0,0,0,0,0,0,0,0,0,0,0,0,0,0,0,0,0,0,0,0,0,0,0,0,0,0,0,0,0,0,0,0,0,0,0,0,0,0,0,0,0,0,0,0,0,0,0,0,0,0,0,0,0,0,0,0,0,0,0,0,0,0,0,0,0,0,0,0,0,0,0,0,0,0,0,0,0,0,0,0,0,0,0,0,0,0,0,0,0,0,0,0,0,0,0,0,0,0,0,0,0,0,0,0,0,0,0,0,0,0,0,0,0,0,0,0,0,0,0,0,0,0,0,0,0,0,0,0,0,0,0,0,0,0,0,0,0,0,0,0,0,0,0,0,0,0,0,0,0,0,0,0,0,0,0,0,0,0,0,0,0,0,0,0,0,0,0,0,0,0,0,0,0,0,0,0,0,0,0,0,0,0,0,0,0,0,0,0,0,0,0,0,0,0,0,0,0,0,0,0,0,0,0,0,0,0,0,0,0,0,0,0,0,0,0,0,0,0,0,0,0,0,0,0,0,0,0,0,0,0,0,0,0,0,0,0,0,0,0,0,0,0,0,0,0,0,0,0,0,0,0,0,0,0,0,0,0,0,0,0,0,0,0,0,0,0,0,0,0,0,0,0,0,0,0,0,0,0,0,0,0,0,0,0,0,0,0,0,0,0,0,0,0,0,0,0,0,0,0,0,0,0,0,0,0,0,0,0,0,0,0,0,0,0,0,0,0,0,0,0,0,0,0,0,0,0,0,0,0,0,0,0,0,0,0,0,0,0,0,0,0,0,0,0,0,0,0,0,0,0,0,0,0,0,0,0,0,0,0,0,0,0,0,0,0,0,0,0,0,0,0,0,0,0,0,0,0,0,0,0,0,0,0,0,0,0,0,0,0,0,0,0,0,0,0,0,1,58,
1,1,1,1,1,1,1,1,1,1,1,1,1,1,1,1,1,1,1,1,1,1,1,1,1,1,1,1,1,1,1,1,1,1,1,1,1,1,1,1,1,1,1,1,1,1,1,1,1,1,1,1,1,1,1,1,1,1,1,1,1,1,1,1,1,1,1,1,1,1,1,1,1,1,1,1,1,1,1,1,1,1,1,1,1,1,1,1,1,1,1,1,1,1,1,1,1,1,1,1,1,1,1,1,1,1,1,1,1,1,1,1,879,1,1,1,1,1,1,1,1,1,1,1,1,1,1,1,1,1,1,1,1,1,1,1,1,737,1,1,1,1,1,1,1,1,1,1,1,1,1,1,1,1,1,1,1,1,1,1,1,1,1,1,1,1,1,1,1,737,1,1,1,1,1,1,1,1,1,1,1,1,1,1,737,1,1,0,0,0,0,0,0,0,0,1,1,1,1,1,1,1,1,1,1,879,1,1,1,1,1,1,1,1,1,1,1,755,1,1,1,1,1,1,1,1,1,1,1,1,1,1,1,1,1,1,1,1,1,1,1,1,1,1,1,1,1,1,1,1,1,1,1,1,1,1,1,1,1,1,1,1,1,1,1,1,1,1,1,1,1,1,1,1,1,1,1,1,1,1,1,1,1,1,1,1,1,1,1,1,1,1,1,1,1,1,1,1,1,1,1,1,1,1,1,1,1,1,1,1,1,1,1,1,1,1,1,1,1,1,1,1,1,1,1,1,1,1,1,1,1,1,1,1,1,1,1,1,1,1,1,1,1,1,1,1,1,1,1,1,1,1,1,1,1,1,1,1,1,1,1,1,1,1,1,1,1,1,1,1,1,1,1,1,1,1,1,1,1,1,1,1,1,1,1,1,1,1,1,1,1,1,1,1,1,1,1,1,1,1,1,1,1,1,1,1,1,1,1,1,1,1,1,1,1,1,1,1,1,1,1,1,1,1,1,1,1,1,1,1,1,1,1,1,1,1,1,1,1,1,1,1,1,1,1,1,1,1,1,1,1,1,1,1,1,1,1,1,1,1,1,1,1,1,1,1,1,1,1,1,1,1,1,1,1,1,1,1,1,1,1,1,1,1,1,1,1,1,1,1,1,1,1,1,1,1,1,1,1,1,1,1,1,1,1,1,1,1,1,1,1,1,1,1,1,1,1,1,1,1,1,1,1,1,1,1,1,1,1,1,1,1,1,1,1,1,1,1,1,1,1,1,1,1,1,1,1,1,1,1,1,1,1,1,1,1,1,1,1,1,1,1,1,1,1,1,1,1,1,1,1,1,1,1,1,1,1,1,1,1,1,1,1,1,1,1,1,1,1,1,1,1,1,1,1,1,1,1,1,1,1,1,1,1,1,1,1,1,1,1,1,1,1,1,1,1,1,1,1,1,1,1,1,1,1,1,1,1,1,1,1,1,1,1,1,1,1,1,1,1,1,1,1,1,1,1,1,1,1,1,1,1,1,1,1,1,1,1,1,1,1,1,1,1,1,1,1,1,1,1,1,1,1,1,1,1,1,1,1,1,1,1,1,1,1,1,1,1,1,1,1,1,1,718,718,718,718,718,718,718,718,718,718,709,1,1,1,1,1,1,1,1,1,1,1,1,1,1,1,1,1,1,1,1,1,1,1,1,1,879,1,1,1,1,1,1,1,1,1,1,1,1,1,1,1,1,1,1,1,1,1,1,1,1,1,1,1,1,1,1,1,1,1,1,1,1,1,1,1,1,1,1,1,1,1,1,1,1,1,1,1,1,1,1,1,1,1,1,1,1,1,1,1,1,1,1,1,1,1,1,1,1,1,1,1,1,1,1,1,1,1,1,1,1,1,1,1,1,1,1,1,1,34,708,718,718,718,718,718,718,718,718,718,0,0,1,1,1,1,1,1,1,1,1,1,1,1,1,1,1,1,1,1,1,1,1,1,1,1,1,1,1,1,1,1,1,1,1,1,1,1,1,1,1,1,1,1,1,1,1,1,1,1,1,1,1,1,1,1,1,1,1,1,1,1,0,0,0,0,0,0,0,0,0,0,0,0,0,0,0,0,0,0,0,0,0,0,0,0,0,0,0,0,0,0,0,0,0,0,0,0,0,0,0,0,0,0,0,0,0,0,0,0,0,0,0,0,0,0,0,0,0,0,0,0,0,0,0,0,0,0,0,0,0,0,0,0,0,0,0,0,0,0,0,0,0,0,0,0,0,0,0,0,0,0,0,0,0,0,0,0,0,0,0,0,0,0,0,0,0,0,0,0,0,0,0,0,0,0,0,0,0,0,0,0,0,0,0,0,0,0,0,0,0,0,0,0,0,0,0,0,0,0,0,0,0,0,0,0,0,0,0,0,0,0,0,0,0,0,0,0,0,0,0,0,0,0,0,0,0,0,0,0,0,0,0,0,0,0,0,0,0,0,0,0,0,0,0,0,0,0,0,0,0,0,0,0,0,0,0,0,0,0,0,0,0,0,0,0,0,0,0,0,0,0,0,0,0,0,0,0,0,0,0,0,0,0,0,0,0,0,0,0,0,0,0,0,0,0,0,0,0,0,0,0,0,0,0,0,0,0,0,0,0,0,0,0,0,0,0,0,0,0,0,0,0,0,0,0,0,0,0,0,0,0,0,0,0,0,0,0,0,0,0,0,0,0,0,0,0,0,0,0,0,0,0,0,0,0,0,0,0,0,0,0,0,0,0,0,0,0,0,0,0,0,0,0,0,0,0,0,0,0,0,0,0,0,0,0,0,0,0,0,0,0,0,0,0,0,0,0,0,0,0,0,0,0,0,0,0,0,0,0,0,0,0,0,0,0,0,0,0,0,0,0,0,0,0,0,0,0,0,0,0,0,0,0,0,0,0,0,0,0,0,0,0,0,0,0,0,0,0,0,0,0,0,0,0,0,0,0,0,0,0,0,0,0,0,0,0,0,0,0,0,0,0,0,0,0,0,0,0,0,0,0,0,0,0,0,0,0,0,0,0,0,0,0,0,0,0,0,0,0,0,0,0,0,0,0,0,0,0,0,0,0,0,0,0,0,0,0,0,0,0,0,0,0,0,0,0,0,0,0,0,0,0,0,0,0,0,0,0,0,0,0,0,0,0,0,0,0,0,0,0,0,0,0,0,0,0,0,0,0,0,0,0,1,58,
1,1,1,1,1,1,1,1,1,1,1,1,1,1,1,1,1,1,1,1,1,1,1,1,1,1,1,1,1,1,1,1,1,1,1,1,1,1,1,1,1,1,1,1,1,1,1,1,1,1,1,1,1,1,1,1,1,1,1,1,1,1,1,1,1,1,1,1,1,1,1,1,1,1,1,1,1,1,1,1,1,1,1,1,1,1,1,1,1,1,1,1,1,1,1,1,1,1,1,1,1,1,1,1,1,1,1,1,1,1,1,1,737,1,1,1,1,1,1,1,1,1,1,1,1,1,1,1,1,1,1,1,1,1,1,1,1,879,1,1,1,1,1,1,1,1,1,1,1,737,1,1,1,1,1,1,1,1,1,1,1,1,1,1,1,1,1,1,1,879,1,1,1,1,1,1,1,1,1,1,1,1,1,1,879,1,1,0,0,0,0,0,0,0,0,1,1,1,1,1,1,1,1,1,1,737,1,1,1,1,1,1,1,1,1,1,1,755,1,1,1,1,1,1,1,1,1,1,1,1,1,1,1,1,1,1,1,1,1,1,1,1,1,1,1,1,1,1,1,1,1,1,1,1,1,1,1,1,1,1,1,1,1,1,1,1,1,1,1,1,1,1,1,1,1,1,1,1,1,1,1,1,1,1,1,1,1,1,1,1,1,1,1,1,1,1,1,1,1,1,1,1,1,1,1,1,1,1,1,1,1,1,1,1,1,1,1,1,1,1,1,1,1,1,1,1,1,1,1,1,1462,1463,1464,1,1,1,1,1,1,1,1,1,1,1,1,1,1,1,1,1,1,1,1,1,1,1,1,1,1,1,1,1,1,1,1,1,1,1,1,1,1,1,1,1,1,1,1,1,1,1,1,1,1,1,1,1,1,1,1,1,1,1,1,1,1,1,1,1,1,1,1,1,1,1,1,1,1,1,1,1,1,1,1,1,1,1,1,1,1,1,1,1,1,1,1,1,1,1,1,1,1,1,1,1,1,1,1,1,1,1,1,1,1,1,1,1,1,1,1,1,1,1,1,1,1,1,1,1,1,1,1,1,1,1,1,1,1,1,1,1,1,1,1,1,1,1,1,1,1,1,1,1,1,1,1,1,1,1,1,1,1,1,1,1,1,1,1,1,1,1,1,1,1,1,1,1,1,1,1,1,1,1,1,1,1,1,1,1,1,1,1,1,1,1,1,1,1,1,1,1,1,1,1,1,1,1,1,1,1,1,1,1,1,1,1,1,1,1,1,1,1,1,1,1,1,1,1,1,1,1,1,1,1,1,1,1,1,1,1,1,1,1,1,1,1,1,1,1,1,1,1,1,1,1,1,1,1,1,1,1,1,1,1,1,1,1,1,1,1,1,1,1,1,1,1,1,1,1,1,1,1,1,1,1,1,1,1,1,1,1,1,1,1,1,1,1,0,0,1,1,1,1,1,1,1,1,1,1,1,1,1,1,1,1,1,1,1,1,1,1,1,1,1,1,1,1,1,1,1,1,1,1,1,1,1,1,1,1,1,1,1,1,1,1,1,1,1,1,1,1,1,1,1,1,1,1,1,1,1,1,1,1,1,718,718,718,718,718,718,718,718,718,718,709,1,1,1,1,1,1,1,1,1,1,1,1,1,1,1,1,1,1,1,1,1,1,1,1,7644,737,7642,1,1,1,1,1,1,1,1,1,1,1,1,1,1,1,1,1,1,1,1,1,1,1,1,1,1,1,1,1,1,1,1,1,1,1,1,1,1,1,1,1,1,1,1,1,1,1,1,1,1,1,1,1,1,1,1,1,1,1,1,1,1,1,1,1,1,1,1,1,1,1,1,1,1,1,1,1,1,1,1,1,1,1,1,1,1,1,1,1,1,1,34,708,718,718,718,718,718,718,718,718,718,0,0,1,1,1,1,1,1,1,1,1,1,1,1,1,1,1,1,1,1,1,1,1,1,1,1,1,1,1,1,1,1,1,1,1,1,1,1,1,1,1,1,1,1,1,1,1,1,1,1,1,1,1,1,1,1,1,1,1,1,1,1,0,0,0,0,0,0,0,0,0,0,0,0,0,0,0,0,0,0,0,0,0,0,0,0,0,0,0,0,0,0,0,0,0,0,0,0,0,0,0,0,0,0,0,0,0,0,0,0,0,0,0,0,0,0,0,0,0,0,0,0,0,0,0,0,0,0,0,0,0,0,0,0,0,0,0,0,0,0,0,0,0,0,0,0,0,0,0,0,0,0,0,0,0,0,0,0,0,0,0,0,0,0,0,0,0,0,0,0,0,0,0,0,0,0,0,0,0,0,0,0,0,0,0,0,0,0,0,0,0,0,0,0,0,0,0,0,0,0,0,0,0,0,0,0,0,0,0,0,0,0,0,0,0,0,0,0,0,0,0,0,0,0,0,0,0,0,0,0,0,0,0,0,0,0,0,0,0,0,0,0,0,0,0,0,0,0,0,0,0,0,0,0,0,0,0,0,0,0,0,0,0,0,0,0,0,0,0,0,0,0,0,0,0,0,0,0,0,0,0,0,0,0,0,0,0,0,0,0,0,0,0,0,0,0,0,0,0,0,0,0,0,0,0,0,0,0,0,0,0,0,0,0,0,0,0,0,0,0,0,0,0,0,0,0,0,0,0,0,0,0,0,0,0,0,0,0,0,0,0,0,0,0,0,0,0,0,0,0,0,0,0,0,0,0,0,0,0,0,0,0,0,0,0,0,0,0,0,0,0,0,0,0,0,0,0,0,0,0,0,0,0,0,0,0,0,0,0,0,0,0,0,0,0,0,0,0,0,0,0,0,0,0,0,0,0,0,0,0,0,0,0,0,0,0,0,0,0,0,0,0,0,0,0,0,0,0,0,0,0,0,0,0,0,0,0,0,0,0,0,0,0,0,0,0,0,0,0,0,0,0,0,0,0,0,0,0,0,0,0,0,0,0,0,0,0,0,0,0,0,0,0,0,0,0,0,0,0,0,0,0,0,0,0,0,0,0,0,0,0,0,0,0,0,0,0,0,0,0,0,0,0,0,0,0,0,0,0,0,0,0,0,0,0,0,0,0,0,0,0,0,0,0,0,0,0,0,0,0,0,0,0,0,0,0,0,0,0,0,0,0,0,0,0,0,0,0,0,0,0,0,0,0,0,0,0,0,0,0,0,0,0,1,58,
1,1,1,1,1,1,1,1,1,1,1,1,1,1,1,1,1,1,1,1,1,1,1,1,1,1,1,1,1,1,1,1,1,1,1,1,1,1,1,1,1,1,1,1,1,1,1,1,1,1,1,1,1,1,1,1,1,1,1,1,1,1,1,1,1,1,1,1,1,1,1,1,1,1,1,1,1,1,1,1,1,1,1,1,1,1,1,1,1,1,1,1,1,1,1,1,1,1,1,1,1,1,1,1,1,1,1,1,1,1,1,1,879,1,1,1,1,1,1,1,1,1,1,1,1,1,1,1,1,1,1,1,1,1,1,1,1,737,1,1,1,1,1,1,1,1,1,1,1,879,1,1,1,1,1,1,1,1,1,1,1,1,1,1,1,1,1,1,7644,737,7642,1,1,1,1,1,1,1,1,1,1,1,1,7644,737,7642,1,0,0,0,0,0,0,0,0,1,1,737,1,1,1,1,1,1,1,879,1,1,1,1,1,1,1,1,1,1,1,740,2322,1,1,1,1,1,1,1,1,1,1,1,1,1,1,1,1,1,1,1,1,1,1,1,1,1,1,1,1,1,1,1,1,1,1,1,1,1,1,1,1,1,1,1,1,1,1,1,1,1,1,1,1,1,1,1,1,1,1,1,1,1,1,1,1,1,1,1,1,1,1,1,1,1,1,1,1,1,1,1,1,1,1,1,1,1,1,1,1,1,1,1477,1478,1479,1480,1477,1478,1479,1480,1477,1478,1479,1480,1477,1478,1479,707,707,707,707,707,707,707,779,780,32,32,32,0,32,32,32,931,32,32,32,0,32,32,32,0,32,32,32,928,32,32,32,0,32,32,32,0,32,32,32,928,32,32,32,0,32,32,32,1,32,32,32,931,32,32,32,1,32,32,32,1,32,32,32,928,32,32,32,1,32,32,32,0,32,32,32,928,32,32,32,1,32,32,32,1,32,32,32,931,32,32,32,1,32,32,32,1,32,32,32,928,32,32,32,1,32,32,32,1,32,32,32,928,32,32,32,1,32,32,32,1,32,32,32,931,32,32,32,1,32,32,32,1,32,32,32,928,32,32,32,1,32,32,32,1,32,32,32,928,32,32,962,894,894,894,894,948,32,32,32,32,32,947,894,894,894,894,894,894,894,894,948,32,32,32,32,32,32,32,32,962,894,894,894,894,963,32,32,32,947,894,894,894,894,894,894,948,32,32,947,894,894,894,894,894,894,894,894,894,894,894,948,32,32,32,32,32,962,894,894,963,32,32,32,32,32,32,32,32,945,894,894,894,894,894,894,894,894,948,32,32,32,947,894,894,894,894,894,894,948,947,894,894,894,894,894,894,948,32,32,962,894,894,963,32,32,771,718,718,718,718,718,718,718,718,718,718,718,772,32,32,771,718,718,718,718,718,718,718,718,718,718,772,32,32,771,718,718,718,718,718,718,718,718,718,718,772,771,718,718,718,718,772,771,718,718,718,718,718,718,718,718,718,718,718,718,718,718,718,718,718,718,718,718,718,718,718,718,718,718,718,718,718,718,718,718,718,718,718,718,718,718,718,718,717,707,707,707,707,707,707,707,707,707,707,707,707,707,707,716,718,718,718,718,718,718,718,718,718,709,1,1,1,1,1,1,1,1,1,1,1,1,1,1,1,1,1,1,1,1,1,1,1,1,1,1,1,1,1,1,1,1,1,1,1,1,1,1,1,1,1,1,1,1,1,1,1,1,1,1,1,1,1,1,1,1,1,1,1,1,1,1,1,1,1,1,1,1,1,1,1,1,1,1,1,1,1,1,1,1,1,1,1,1,1,1,1,1,1,1,1,1,1,1,1,1,1,1,1,1,1,1,1,1,1,1,1,1,1,1,1,1,1,1,1,1,1,1,34,708,718,718,718,718,718,718,718,718,718,1429,1430,1431,1432,1429,1430,1431,1432,1429,1430,1431,1432,1429,1430,1431,1432,1429,1430,1431,1432,1429,1430,1431,1432,1429,1430,1431,1432,1429,1430,1431,1432,1429,1430,1431,1432,1429,1430,1431,1432,1429,1430,1431,1432,1429,1430,1431,1432,1429,1430,1431,1432,1429,1430,1431,1432,1429,1430,1431,1432,1429,1430,1431,1432,1429,1430,1431,1432,1429,1430,1431,1432,1429,1430,1431,1432,1429,1430,1431,1432,1429,1430,1431,1432,1429,1430,1431,1432,1429,1430,1431,1432,1429,1430,1431,1432,1429,1430,1431,1432,1429,1430,1431,1432,1429,1430,1431,1432,1429,1430,1431,1432,0,0,0,0,0,0,0,0,0,0,0,0,0,0,0,0,0,0,0,0,0,0,0,0,0,0,0,0,0,0,0,0,0,0,0,0,0,0,0,0,0,0,0,0,0,0,0,0,0,0,0,0,0,0,0,0,0,0,0,0,0,0,0,0,0,0,0,0,0,0,0,0,0,0,0,0,0,0,0,0,0,0,0,0,0,0,0,0,0,0,0,0,0,0,0,0,0,0,0,0,0,0,0,0,0,0,0,0,0,0,0,0,0,0,0,0,0,0,0,0,0,0,0,0,0,0,0,0,0,0,0,0,0,0,0,0,0,0,0,0,0,0,0,0,0,0,0,0,0,0,0,0,0,0,0,0,0,0,0,0,0,0,0,0,0,0,0,0,0,0,0,0,0,0,0,0,0,0,0,0,0,0,0,0,0,0,0,0,0,0,0,0,0,0,0,0,0,0,0,0,0,0,0,0,0,0,0,0,0,0,0,0,0,0,0,0,0,0,0,0,0,0,0,0,0,0,0,0,0,0,0,0,0,0,0,0,0,0,0,0,0,0,0,0,0,0,0,0,0,0,0,0,0,0,0,0,0,0,0,0,0,0,0,0,0,0,0,0,0,0,0,0,0,0,0,0,0,0,0,0,0,0,0,0,0,0,0,0,0,0,0,0,0,0,0,0,0,0,0,0,0,0,0,0,0,0,0,0,0,0,0,0,0,0,0,0,0,0,0,0,0,0,0,0,0,0,0,0,0,0,0,0,0,0,0,0,0,0,0,0,0,0,0,0,0,0,0,0,0,0,0,0,0,0,0,0,0,0,0,0,0,0,0,0,0,0,0,0,0,0,0,0,0,0,0,0,0,0,0,0,0,0,0,0,0,0,0,0,0,0,0,0,0,0,0,0,0,0,0,0,0,0,0,0,0,0,0,0,0,0,0,0,0,0,0,0,0,0,0,0,0,0,0,0,0,0,0,0,0,0,0,0,0,0,0,0,0,0,0,0,0,0,0,0,0,0,0,0,0,0,0,1,58,
1429,1430,1431,1432,1429,1430,1431,1432,1429,1430,1431,1432,1429,1430,1431,1432,1429,1430,1431,1432,1429,1430,1431,1432,1429,1430,1431,1432,1429,1430,1431,1432,1429,1430,1431,1432,1429,1430,1431,1432,1429,1430,1431,1432,1429,1430,1431,1432,1429,1430,1431,1432,1429,1430,1431,1432,1429,1430,1431,1432,1429,1430,1431,1432,1429,1430,1431,1432,1429,1430,1431,1432,1429,1430,1431,1432,1429,1430,1431,1432,1429,1430,1431,1432,1429,1430,1431,1432,1429,1430,1431,1432,1429,1430,1431,1432,1429,1430,1431,1432,33,1,1,1,1,1,1,1,1,1,1,7644,737,7642,1,1,1,1,1,1,1,1,1,1,1,1,1,1,1,1,1,1,1,1,1,1,1,879,1,1,1,1,1,1,1,1,1,1,1,737,1,1,1,1,1,1,1,1,1,1,1,1,1,1,1,1,1,1,1,1,1,1,1,1,1,1,1,1,1,1,1,1,1,1,1,1,1,0,0,0,0,0,0,0,0,1,1,879,1,1,1,1,1,1,7644,737,7642,1,1,1,1,1,1,1,1,1,1,2329,2330,2327,2328,1,1,1,1,755,32,32,32,32,32,32,32,32,32,32,32,32,32,32,755,1,1,1,1,755,32,32,32,32,32,32,879,32,32,32,879,32,32,32,32,32,32,32,755,1061,32,32,32,32,32,32,755,1061,32,32,32,32,32,32,32,32,32,32,32,32,32,32,32,32,32,32,32,32,32,32,32,32,32,32,879,32,32,32,32,32,32,32,32,32,0,32,32,32,0,32,32,32,32,32,32,32,32,0,32,32,32,32,32,32,32,1,1,1,1,1,1,1,1,1,931,1,1,1,1,1,1,1,1,1,1,1,3470,1,1,1,1,1,1,1,1,1,1,1,3470,1,1,1,1,1,1,1,1,1,1,1,931,1,1,1,1,1,1,1,1,1,1,1,3470,1,1,1,1,1,1,1,1,1,1,1,3470,1,1,1,1,1,1,1,1,1,1,1,931,1,1,1,1,1,1,1,1,1,1,1,3470,1,1,1,1,1,1,1,1,1,1,1,3470,1,1,1,1,1,1,1,1,1,1,1,931,1,1,1,1,1,1,1,1,1,1,1,3470,1,1,1,1,1,1,1,1,1,1,1,3470,1,1,961,894,894,894,948,1,1,1,1,1,1,1,947,894,894,894,894,894,894,948,1,1,1,1,1,1,1,1,1,961,894,894,894,894,964,1,1,1,1,947,894,894,894,894,948,1,1,1,1,947,894,894,894,894,894,894,894,894,894,948,1,1,1,1,1,1,961,894,894,964,1,1,1,1,1,1,1,1,953,954,894,894,894,894,894,894,948,1,1,1,1,1,947,894,894,894,894,948,1,1,947,894,894,894,894,948,1,1,1,961,894,894,964,1,1,1,771,718,718,718,718,718,718,718,718,718,772,1,1,1,1,771,718,718,718,718,718,718,718,718,772,1,1,1,1,771,718,718,718,718,772,771,718,718,772,1,1,771,718,718,772,1,1,771,718,718,718,718,718,718,772,771,718,718,718,718,718,718,718,718,718,718,718,718,718,718,718,718,718,718,718,718,718,718,718,718,718,718,718,718,718,718,718,787,32,32,32,32,32,32,32,32,32,32,32,32,32,32,786,718,718,718,718,718,718,718,718,718,709,1,1,1,1,1,1,1,1,1,1,1,1,1,1,1,1,1,1,1,1,1,1,1,1,1,1,1,1,1,1,1,1,1,1,1,1,1,1,1,1,1,1,1,1,1,1,1,1,1,1,1,1,1,1,1,1,1,1,1,1,1,1,1,1,1,1,1,1,1,1,1,1,1,1,1,1,1,1,1,1,1,1,1,1,1,1,1,1,1,1,1,1,1,1,1,1,1,1,1,1,1,1,1,1,1,1,1,1,1,1,1,1,1,1,1,1,1,1,1,786,718,718,718,718,718,718,718,718,718,1445,1446,1447,1448,1445,1446,1447,1448,1445,1446,1447,1448,1445,1446,1447,1448,1445,1446,1447,1448,1445,1446,1447,1448,1445,1446,1447,1448,1445,1446,1447,1448,1445,1446,1447,1448,1445,1446,1447,1448,1445,1446,1447,1448,1445,1446,1447,1448,1445,1446,1447,1448,1445,1446,1447,1448,1445,1446,1447,1448,1445,1446,1447,1448,1445,1446,1447,1448,1445,1446,1447,1448,1445,1446,1447,1448,1445,1446,1447,1448,1445,1446,1447,1448,1445,1446,1447,1448,1445,1446,1447,1448,1445,1446,1447,1448,1445,1446,1447,1448,1445,1446,1447,1448,1445,1446,1447,1448,1445,1446,1447,1448,1429,1430,1431,1432,0,0,0,0,0,0,0,0,0,0,0,0,0,0,0,0,0,0,0,0,0,0,0,0,0,0,0,0,0,0,0,0,0,0,0,0,0,0,0,0,0,0,0,0,0,0,0,0,0,0,0,0,0,0,0,0,0,0,0,0,0,0,0,0,0,0,0,0,0,0,0,0,0,0,0,0,0,0,0,0,0,0,0,0,0,0,0,0,0,0,0,0,0,0,0,0,1429,1430,1431,1432,1429,1430,1431,1432,1429,1430,1431,1432,1429,1430,1431,1432,1429,1430,1431,1432,1429,1430,1431,1432,1429,1430,1431,1432,1429,1430,1431,1432,1429,1430,1431,1432,1429,1430,1431,1432,1429,1430,1431,1432,1429,1430,1431,1432,1429,1430,1431,1432,1429,1430,1431,1432,1429,1430,1431,1432,1429,1430,1431,1432,1429,1430,1431,1432,1429,1430,1431,1432,1429,1430,1431,1432,1429,1430,1431,1432,1429,1430,1431,1432,1429,1430,1431,1432,1429,1430,1431,1432,1429,1430,1431,1432,1429,1430,1431,1432,1429,1430,1431,1432,1429,1430,1431,1432,1429,1430,1431,1432,1429,1430,1431,1432,1429,1430,1431,1432,1429,1430,1431,1432,1429,1430,1431,1432,1429,1430,1431,1432,1429,1430,1431,1432,1429,1430,1431,1432,1429,1430,1431,1432,1429,1430,1431,1432,1429,1430,1431,1432,1429,1430,1431,1432,1429,1430,1431,1432,1429,1430,1431,1432,1429,1430,1431,1432,1429,1430,1431,1432,1429,1430,1431,1432,1429,1430,1431,1432,1429,1430,1431,1432,1429,1430,1431,1432,1429,1430,1431,1432,1429,1430,1431,1432,0,0,0,0,0,0,0,0,0,0,0,0,0,0,0,0,0,0,0,0,0,0,0,0,0,0,0,0,0,0,0,0,0,0,0,0,0,0,0,0,0,0,0,0,1429,1430,1431,1432,1429,1430,1431,1432,1429,1430,1431,1432,1429,1430,1431,1432,1429,1430,1431,1432,1429,1430,1431,1432,1429,1430,1431,1432,1429,1430,1431,1432,1429,1430,1431,1432,1429,1430,1431,1432,1429,1430,1431,1432,1429,1430,1431,1432,1429,1430,1431,1432,1429,1430,1431,1432,1429,1430,1431,1432,885,33,0,0,0,0,0,0,0,0,0,0,0,0,0,0,0,0,0,0,0,0,0,0,0,0,0,0,0,0,0,0,0,0,0,0,0,0,0,0,0,0,0,0,0,0,0,0,0,0,0,1,58,
1445,1446,1447,1448,1445,1446,1447,1448,1445,1446,1447,1448,1445,1446,1447,1448,1445,1446,1447,1448,1445,1446,1447,1448,1445,1446,1447,1448,1445,1446,1447,1448,1445,1446,1447,1448,1445,1446,1447,1448,1445,1446,1447,1448,1445,1446,1447,1448,1445,1446,1447,1448,1445,1446,1447,1448,1445,1446,1447,1448,1445,1446,1447,1448,1445,1446,1447,1448,1445,1446,1447,1448,1445,1446,1447,1448,1445,1446,1447,1448,1445,1446,1447,1448,1445,1446,1447,1448,1445,1446,1447,1448,1445,1446,1447,1448,1445,1446,1447,1448,33,1,1,1,1,1,1,1,1,1,1,1,1,1,1,1,1,1,1,1,1,1,1,1,1,1,1,1,1,1,1,1,1,1,1,1,1,737,1,1,1,1,1,1,1,1,1,1,1,879,1,1,1,1,1,1,1,1,1,1,1,1,1,1,1,1,1,1,1,1,1,1,1,1,1,1,1,1,1,1,1,1,1,1,1,1,1,0,0,0,0,0,0,0,0,1,1,737,1,1,1,1,1,1,1,1,1,1,1,1,1,1,1,1,1,1,1,1,1,2329,2330,756,756,756,756,745,1,1,1,1,1,1,1,1,1,1,1,1,1,1,744,756,756,756,756,745,1,1,1,1,1,7644,737,7642,1,7644,737,7642,1,1,1,1,1,1,752,1065,1,1,1,1,1,1,752,1065,1,1,1,1,1,1,1,1,1,1,1,1,1,1,1,1,1,1,1,1,1,1,1,1,1,7644,737,7642,1,1,1,1,1,1,1,1,0,7636,1,3315,0,3316,1,1,1,1,1,1,0,0,0,1,1,1,1,1,1,1,1,1,1,1,1,1,1,1,928,1,1,1,1,1,1,1,1,1,1,1,3470,1,1,1,1,1,1,1,1,1,1,1,3470,1,1,1,1,1,1,1,1,1,1,1,928,1,1,1,1,1,1,1,1,1,1,1,3470,1,1,1,1,1,1,1,1,1,1,1,3470,1,1,1,1,1,1,1,1,1,1,1,928,1,1,1,1,1,1,1,1,1,1,1,3470,1,1,1,1,1,1,1,1,1,1,1,3470,1,1,1,1,1,1,1,1,1,1,1,928,1,1,1,1,1,1,1,1,1,1,1,3470,1,1,1,1,1,1,1,1,1,1,1,3470,1,1,1,962,894,948,1,1,1,1,1,1,1,1,1,947,894,894,894,894,948,1,1,1,1,1,1,1,1,1,1,1,962,894,894,963,1,1,1,1,1,1,947,894,894,948,1,1,1,1,1,1,947,883,883,883,883,883,883,883,948,1,1,1,1,1,1,1,1,962,963,1,1,1,1,1,1,1,1,1,1,1,953,954,894,894,894,948,1,1,1,1,1,1,1,947,894,894,948,1,1,1,1,947,894,894,948,1,1,1,1,1,962,963,1,1,1,1,1,771,718,718,718,718,718,718,718,772,1,1,1,1,1,1,771,718,718,718,718,718,718,772,1,1,1,1,1,1,771,718,718,772,1,1,771,772,1,1,1,1,771,772,1,1,1,1,771,718,718,718,718,772,1,1,771,718,718,707,707,707,707,707,707,707,707,707,707,707,707,707,707,707,707,707,707,707,707,707,707,707,707,707,707,707,707,788,1,1,1,1,1,1,1,1,1,1,1,1,1,1,785,707,707,707,707,707,707,707,707,707,713,1,1,1,1,1,1,1,1,1,1,1,1,1,1,1,1,1,1,1,1,1,1,1,1,1,1,1,1,1,1,1,1,1,1,1,1,1,1,1,1,1,1,1,1,1,1,1,1,1,1,1,1,1,1,1,1,1,1,1,1,1,1,1,1,1,1,1,1,1,1,1,1,1,1,1,1,1,1,1,1,1,1,1,1,1,1,1,1,1,1,1,1,1,1,1,1,1,1,1,1,1,1,1,1,1,1,1,1,1,1,1,1,1,1,1,1,1,1,1,785,718,718,718,718,718,718,718,718,718,1461,1462,1463,1464,1461,1462,1463,1464,1461,1462,1463,1464,1461,1462,1463,1464,1461,1462,1463,1464,1461,1462,1463,1464,1461,1462,1463,1464,1461,1462,1463,1464,1461,1462,1463,1464,1461,1462,1463,1464,1461,1462,1463,1464,1461,1462,1463,1464,1461,1462,1463,1464,1461,1462,1463,1464,1461,1462,1463,1464,1461,1462,1463,1464,1461,1462,1463,1464,1461,1462,1463,1464,1461,1462,1463,1464,1461,1462,1463,1464,1461,1462,1463,1464,1461,1462,1463,1464,1461,1462,1463,1464,1461,1462,1463,1464,1461,1462,1463,1464,1461,1462,1463,1464,1461,1462,1463,1464,1461,1462,1463,1464,1445,1446,1447,1448,1429,1430,1431,1432,1429,1430,1431,1432,1429,1430,1431,1432,1429,1430,1431,1432,1429,1430,1431,1432,1429,1430,1431,1432,1429,1430,1431,1432,1429,1430,1431,1432,1429,1430,1431,1432,1429,1430,1431,1432,1429,1430,1431,1432,1429,1430,1431,1432,1429,1430,1431,1432,1429,1430,1431,1432,1429,1430,1431,1432,1429,1430,1431,1432,1429,1430,1431,1432,1429,1430,1431,1432,1429,1430,1431,1432,1429,1430,1431,1432,1429,1430,1431,1432,1429,1430,1431,1432,1429,1430,1431,1432,1429,1430,1431,1432,1445,1446,1447,1448,1445,1446,1447,1448,1445,1446,1447,1448,1445,1446,1447,1448,1445,1446,1447,1448,1445,1446,1447,1448,1445,1446,1447,1448,1445,1446,1447,1448,1445,1446,1447,1448,1445,1446,1447,1448,1445,1446,1447,1448,1445,1446,1447,1448,1445,1446,1447,1448,1445,1446,1447,1448,1445,1446,1447,1448,1445,1446,1447,1448,1445,1446,1447,1448,1445,1446,1447,1448,1445,1446,1447,1448,1445,1446,1447,1448,1445,1446,1447,1448,1445,1446,1447,1448,1445,1446,1447,1448,1445,1446,1447,1448,1445,1446,1447,1448,1445,1446,1447,1448,1445,1446,1447,1448,1445,1446,1447,1448,1445,1446,1447,1448,1445,1446,1447,1448,1445,1446,1447,1448,1445,1446,1447,1448,1445,1446,1447,1448,1445,1446,1447,1448,1445,1446,1447,1448,1445,1446,1447,1448,1445,1446,1447,1448,1445,1446,1447,1448,1445,1446,1447,1448,1445,1446,1447,1448,1445,1446,1447,1448,1445,1446,1447,1448,1445,1446,1447,1448,1445,1446,1447,1448,1445,1446,1447,1448,1445,1446,1447,1448,1445,1446,1447,1448,1445,1446,1447,1448,1445,1446,1447,1448,1429,1430,1431,1432,1429,1430,1431,1432,1429,1430,1431,1432,1429,1430,1431,1432,1429,1430,1431,1432,1429,1430,1431,1432,1429,1430,1431,1432,1429,1430,1431,1432,1429,1430,1431,1432,1429,1430,1431,1432,1429,1430,1431,1432,1445,1446,1447,1448,1445,1446,1447,1448,1445,1446,1447,1448,1445,1446,1447,1448,1445,1446,1447,1448,1445,1446,1447,1448,1445,1446,1447,1448,1445,1446,1447,1448,1445,1446,1447,1448,1445,1446,1447,1448,1445,1446,1447,1448,1445,1446,1447,1448,1445,1446,1447,1448,1445,1446,1447,1448,1445,1446,1447,1448,885,33,0,0,0,0,0,0,0,0,0,0,0,0,0,0,0,0,0,0,0,0,0,0,0,0,0,0,0,0,0,0,0,0,0,0,0,0,0,0,0,0,0,0,0,0,0,0,0,0,0,1,58,
1461,1462,1463,1464,1461,1462,1463,1464,1461,1462,1463,1464,1461,1462,1463,1464,1461,1462,1463,1464,1461,1462,1463,1464,1461,1462,1463,1464,1461,1462,1463,1464,1461,1462,1463,1464,1461,1462,1463,1464,1461,1462,1463,1464,1461,1462,1463,1464,1461,1462,1463,1464,1461,1462,1463,1464,1461,1462,1463,1464,1461,1462,1463,1464,1461,1462,1463,1464,1461,1462,1463,1464,1461,1462,1463,1464,1461,1462,1463,1464,1461,1462,1463,1464,1461,1462,1463,1464,1461,1462,1463,1464,1461,1462,1463,1464,1461,1462,1463,1464,33,1,1,1,1,1,1,1,1,1,1,1,1,1,1,1,1,1,1,1,1,1,1,1,1,1,1,1,1,1,1,1,1,1,1,1,1,879,1,1,1,1,1,1,1,1,1,1,1,737,1,1,1,1,1,1,1,1,1,1,1,1,1,1,1,1,1,1,1,1,1,1,1,1,1,1,1,1,1,1,1,1,1,1,1,1,1,0,0,0,0,0,0,0,0,1,1,879,1,1,1,1,1,1,1,1,1,1,1,1,1,1,1,1,1,1,1,1,1,1,1,1,1,1,1,7737,1,1,1,1,1,1,1,1,1,1,1,1,1,1,1,1,1,1,1,1,1,1,1,1,1,1,1,1,1,1,1,1,1,1,1,1,1,1,7735,1,1,1,1,1,1,1,1,1,1,1,1,1,1,1,1,1,1,1,1,1,1,1,1,1,1,1,1,1,1,1,1,1,1,1,1,1,1,0,0,0,1,1,1,3315,0,3316,1,1,1,1,1,1,1,1,1,1,1,1,1,1,1,1,1,1,1,1,1,1,1,1,1,1,1,1,3470,1,1,1,1,1,1,1,1,1,1,1,3470,1,1,1,1,1,1,1,1,1,1,1,3470,1,1,1,1,1,1,1,1,1,1,1,3470,1,1,1,1,1,1,1,1,1,1,1,3470,1,1,1,1,1,1,1,1,1,1,1,3470,1,1,1,1,1,1,1,1,1,1,1,3470,1,1,1,1,1,1,1,1,1,1,1,3470,1,1,1,1,1,1,1,1,1,1,1,3470,1,1,1,1,1,1,1,1,1,1,1,3470,1,1,1,1,1,1,1,1,1,1,1,3470,1,1,1,1,1,1,1,1,1,1,1,3470,1,1,1,961,948,1,1,1,1,1,1,1,1,1,1,1,947,894,894,948,1,1,1,1,1,1,1,1,1,1,1,1,961,894,894,964,1,1,1,1,1,1,1,947,948,1,1,1,1,1,1,1,1,32,32,32,32,32,32,32,1,1,1,1,1,1,1,1,1,961,964,1,1,1,1,1,1,1,1,1,1,1,1,1,953,954,948,1,1,1,1,1,1,1,1,1,947,948,1,1,1,1,1,1,947,948,1,1,1,1,1,1,961,964,1,1,1,1,1,1,771,718,718,718,718,718,772,1,1,1,1,1,1,1,1,771,718,718,718,718,772,1,1,1,1,1,1,1,1,771,772,1,1,1,1,1,1,1,1,1,1,1,1,1,1,1,1,771,718,718,772,1,1,1,1,771,772,32,32,32,32,32,32,32,32,32,32,32,32,32,32,32,32,32,32,32,32,32,32,32,32,32,32,32,32,1,0,0,0,0,0,0,0,0,0,0,0,0,0,1,1,1,1,1,1,1,1,1,1,1,1,1,1,1,1,1,1,1,1,1,1,1,1,1,1,1,1,1,1,1,1,1,1,1,1,1,1,1,1,1,1,1,1,1,1,1,1,1,1,1,1,1,1,1,1,1,1,1,1,1,1,1,1,1,1,1,1,1,1,1,1,1,1,1,1,1,1,1,1,1,1,1,1,1,1,1,1,1,1,1,1,1,1,1,1,1,1,1,1,1,1,1,1,1,1,1,1,1,1,1,1,1,1,1,1,1,1,1,1,1,1,1,1,1,1,1,1,1,1,1,1,771,718,718,718,718,718,718,718,718,1477,1478,1479,1480,1477,1478,1479,1480,1477,1478,1479,1480,1477,1478,1479,1480,1477,1478,1479,1480,1477,1478,1479,1480,1477,1478,1479,1480,1477,1478,1479,1480,1477,1478,1479,1480,1477,1478,1479,1480,1477,1478,1479,1480,1477,1478,1479,1480,1477,1478,1479,1480,1477,1478,1479,1480,1477,1478,1479,1480,1477,1478,1479,1480,1477,1478,1479,1480,1477,1478,1479,1480,1477,1478,1479,1480,1477,1478,1479,1480,1477,1478,1479,1480,1477,1478,1479,1480,1477,1478,1479,1480,1477,1478,1479,1480,1477,1478,1479,1480,1477,1478,1479,1480,1477,1478,1479,1480,1477,1478,1479,1480,1461,1462,1463,1464,1445,1446,1447,1448,1445,1446,1447,1448,1445,1446,1447,1448,1445,1446,1447,1448,1445,1446,1447,1448,1445,1446,1447,1448,1445,1446,1447,1448,1445,1446,1447,1448,1445,1446,1447,1448,1445,1446,1447,1448,1445,1446,1447,1448,1445,1446,1447,1448,1445,1446,1447,1448,1445,1446,1447,1448,1445,1446,1447,1448,1445,1446,1447,1448,1445,1446,1447,1448,1445,1446,1447,1448,1445,1446,1447,1448,1445,1446,1447,1448,1445,1446,1447,1448,1445,1446,1447,1448,1445,1446,1447,1448,1445,1446,1447,1448,1461,1462,1463,1464,1461,1462,1463,1464,1461,1462,1463,1464,1461,1462,1463,1464,1461,1462,1463,1464,1461,1462,1463,1464,1461,1462,1463,1464,1461,1462,1463,1464,1461,1462,1463,1464,1461,1462,1463,1464,1461,1462,1463,1464,1461,1462,1463,1464,1461,1462,1463,1464,1461,1462,1463,1464,1461,1462,1463,1464,1461,1462,1463,1464,1461,1462,1463,1464,1461,1462,1463,1464,1461,1462,1463,1464,1461,1462,1463,1464,1461,1462,1463,1464,1461,1462,1463,1464,1461,1462,1463,1464,1461,1462,1463,1464,1461,1462,1463,1464,1461,1462,1463,1464,1461,1462,1463,1464,1461,1462,1463,1464,1461,1462,1463,1464,1461,1462,1463,1464,1461,1462,1463,1464,1461,1462,1463,1464,1461,1462,1463,1464,1461,1462,1463,1464,1461,1462,1463,1464,1461,1462,1463,1464,1461,1462,1463,1464,1461,1462,1463,1464,1461,1462,1463,1464,1461,1462,1463,1464,1461,1462,1463,1464,1461,1462,1463,1464,1461,1462,1463,1464,1461,1462,1463,1464,1461,1462,1463,1464,1461,1462,1463,1464,1461,1462,1463,1464,1461,1462,1463,1464,1461,1462,1463,1464,1445,1446,1447,1448,1445,1446,1447,1448,1445,1446,1447,1448,1445,1446,1447,1448,1445,1446,1447,1448,1445,1446,1447,1448,1445,1446,1447,1448,1445,1446,1447,1448,1445,1446,1447,1448,1445,1446,1447,1448,1445,1446,1447,1448,1461,1462,1463,1464,1461,1462,1463,1464,1461,1462,1463,1464,1461,1462,1463,1464,1461,1462,1463,1464,1461,1462,1463,1464,1461,1462,1463,1464,1461,1462,1463,1464,1461,1462,1463,1464,1461,1462,1463,1464,1461,1462,1463,1464,1461,1462,1463,1464,1461,1462,1463,1464,1461,1462,1463,1464,1461,1462,1463,1464,885,33,0,0,0,0,0,0,0,0,0,0,0,0,0,0,0,0,0,0,0,0,0,0,0,0,0,0,0,0,0,0,0,0,0,0,0,0,0,0,0,0,0,0,0,0,0,0,0,0,0,1,58,
1477,1478,1479,1480,1477,1478,1479,1480,1477,1478,1479,1480,1477,1478,1479,1480,1477,1478,1479,1480,1477,1478,1479,1480,1477,1478,1479,1480,1477,1478,1479,1480,1477,1478,1479,1480,1477,1478,1479,1480,1477,1478,1479,1480,1477,1478,1479,1480,1477,1478,1479,1480,1477,1478,1479,1480,1477,1478,1479,1480,1477,1478,1479,1480,1477,1478,1479,1480,1477,1478,1479,1480,1477,1478,1479,1480,1477,1478,1479,1480,1477,1478,1479,1480,1477,1478,1479,1480,1477,1478,1479,1480,1477,1478,1479,1480,1477,1478,1479,1480,33,1,1,1,1,1,1,1,1,1,1,1,1,1,1,1,1,1,1,1,1,1,1,1,1,1,1,1,1,1,1,1,1,1,1,1,1,737,1,1,1,1,1,1,1,1,1,1,1,879,1,1,1,1,1,1,1,1,1,1,1,1,1,1,1,1,1,1,1,1,1,1,1,1,1,1,1,1,1,1,1,1,1,1,1,1,1,0,0,0,0,0,0,0,0,1,1,737,1,1,1,1,1,1,1,1,1,1,1,1,1,1,1,1,1,1,1,1,1,1,1,1,1,1,1,1,1,1,1,1,1,1,1,1,1,1,1,1,1,1,1,1,1,1,1,1,1,1,1,1,1,1,1,1,1,1,1,1,1,1,1,1,1,1,1,1,1,1,1,1,1,1,1,1,1,1,1,1,1,1,1,1,1,1,1,1,1,1,1,1,1,1,1,1,1,1,1,1,1,1,1,1,1,1,1,1,1,1,1,1,1,1,1,1,1,1,1,1,1,1,1,1,1,1,1,1,1,1,1,1,1,1,1,1,1,1,1,1,1,1,3470,1,1,1,1,1,1,1,1,1,1,1,3470,1,1,1,1,1,1,1,1,1,1,1,3470,1,1,1,1,1,1,1,1,1,1,1,3470,1,1,1,1,1,1,1,1,1,1,1,3470,1,1,1,1,1,1,1,1,1,1,1,3470,1,1,1,1,1,1,1,1,1,1,1,3470,1,1,1,1,1,1,1,1,1,1,1,3470,1,1,1,1,1,1,1,1,1,1,1,3470,1,1,1,1,1,1,1,1,1,1,1,3470,1,1,1,1,1,1,1,1,1,1,1,3470,1,1,1,1,1,1,1,1,1,1,1,3470,1,1,1,1,1,1,1,1,1,1,1,1,1,1,1,1,1,947,948,1,1,1,1,1,1,1,781,784,1,1,1,1,1,962,963,1,1,1,1,1,1,1,1,1,1,1,1,1,1,1,1,1,1,1,1,1,1,1,1,1,1,1,1,1,1,1,1,1,1,1,1,1,1,1,1,1,1,1,1,1,1,1,1,1,1,1,1,1,1,1,1,1,1,1,1,1,1,1,1,1,1,1,1,1,1,1,1,1,1,1,1,1,1,1,1,1,1,1,1,1,1,771,718,718,718,772,1,1,1,1,769,770,1,1,1,1,771,718,718,772,1,1,1,1,769,770,1,1,1,1,1,1,1,1,1,1,1,1,1,1,1,1,1,1,1,1,1,1,771,772,1,1,1,1,1,1,1,1,1,1,1,1,1,1,1,1,1,1,1,1,1,1,1,1,1,1,1,1,1,1,1,1,1,1,1,1,0,0,0,0,0,0,0,0,0,0,0,0,0,1,1,1,1,1,1,1,1,1,1,1,1,1,1,1,1,1,1,1,1,1,1,1,1,1,1,1,1,1,1,1,1,1,1,1,1,1,1,1,1,1,1,1,1,1,1,1,1,1,1,1,1,1,1,1,1,1,1,1,1,1,1,1,1,1,1,1,742,738,738,738,743,1,1,1,1,1,1,1,1,1,1,1,1,1,1,1,1,1,1,1,1,1,1,1,1,1,1,1,1,1,1,1,1,1,1,1,1,1,1,1,1,1,1,1,1,1,1,1,1,1,1,1,1,1,1,1,1,1,1,1,1,1,777,778,707,707,707,707,707,707,707,707,707,707,707,707,707,707,707,707,707,707,707,707,707,707,707,707,707,707,707,707,707,707,707,707,707,707,707,707,707,707,707,707,707,707,707,707,707,707,707,707,707,707,707,707,707,707,707,707,707,707,707,707,707,707,707,707,707,707,707,707,707,707,707,707,707,707,707,707,707,707,707,707,707,707,707,707,707,707,707,707,707,707,707,707,707,707,707,707,707,707,707,707,707,707,707,707,707,707,718,718,718,718,718,718,2388,894,894,894,894,894,1477,1478,1479,1480,1461,1462,1463,1464,1461,1462,1463,1464,1461,1462,1463,1464,1461,1462,1463,1464,1461,1462,1463,1464,1461,1462,1463,1464,1461,1462,1463,1464,1461,1462,1463,1464,1461,1462,1463,1464,1461,1462,1463,1464,1461,1462,1463,1464,1461,1462,1463,1464,1461,1462,1463,1464,1461,1462,1463,1464,1461,1462,1463,1464,1461,1462,1463,1464,1461,1462,1463,1464,1461,1462,1463,1464,1461,1462,1463,1464,1461,1462,1463,1464,1461,1462,1463,1464,1461,1462,1463,1464,1461,1462,1463,1464,1461,1462,1463,1464,1477,1478,1479,1480,1477,1478,1479,1480,1477,1478,1479,1480,1477,1478,1479,1480,1477,1478,1479,1480,1477,1478,1479,1480,1477,1478,1479,1480,1477,1478,1479,1480,1477,1478,1479,1480,1477,1478,1479,1480,1477,1478,1479,1480,1477,1478,1479,1480,1477,1478,1479,1480,1477,1478,1479,1480,1477,1478,1479,1480,1477,1478,1479,1480,1477,1478,1479,1480,1477,1478,1479,1480,1477,1478,1479,1480,1477,1478,1479,1480,1477,1478,1479,1480,1477,1478,1479,1480,1477,1478,1479,1480,1477,1478,1479,1480,1477,1478,1479,1480,1477,1478,1479,1480,1477,1478,1479,1480,1477,1478,1479,1480,1477,1478,1479,1480,1477,1478,1479,1480,1477,1478,1479,1480,1477,1478,1479,1480,1477,1478,1479,1480,1477,1478,1479,1480,1477,1478,1479,1480,1477,1478,1479,1480,1477,1478,1479,1480,1477,1478,1479,1480,1477,1478,1479,1480,1477,1478,1479,1480,1477,1478,1479,1480,1477,1478,1479,1480,1477,1478,1479,1480,1477,1478,1479,1480,1477,1478,1479,1480,1477,1478,1479,1480,1477,1478,1479,1480,1477,1478,1479,1480,1477,1478,1479,1480,1461,1462,1463,1464,1461,1462,1463,1464,1461,1462,1463,1464,1461,1462,1463,1464,1461,1462,1463,1464,1461,1462,1463,1464,1461,1462,1463,1464,1461,1462,1463,1464,1461,1462,1463,1464,1461,1462,1463,1464,1461,1462,1463,1464,1477,1478,1479,1480,1477,1478,1479,1480,1477,1478,1479,1480,1477,1478,1479,1480,1477,1478,1479,1480,1477,1478,1479,1480,1477,1478,1479,1480,1477,1478,1479,1480,1477,1478,1479,1480,1477,1478,1479,1480,1477,1478,1479,1480,1477,1478,1479,1480,1477,1478,1479,1480,1477,1478,1479,1480,1477,1478,1479,1480,885,33,0,0,0,0,0,0,0,0,0,0,0,0,0,0,0,0,0,0,0,0,0,0,0,0,0,0,0,0,0,0,0,0,0,0,0,0,0,0,0,0,0,0,0,0,0,0,0,0,0,1,58,
1,1,1,1,1,1,1,1,1,1,1,1,953,954,883,883,883,883,883,892,894,894,894,894,894,894,894,894,894,894,894,894,894,894,894,894,893,883,883,883,883,883,892,894,894,894,894,894,894,894,894,894,894,894,894,894,894,894,894,894,894,894,894,894,894,893,883,883,883,883,883,892,894,894,894,894,894,894,894,894,894,893,883,883,883,883,883,892,894,894,894,894,894,894,894,894,894,894,894,885,33,1,1,1,1,1,1,1,1,1,1,1,1,1,1,1,1,1,1,1,1,1,1,1,1,1,1,1,1,1,1,1,1,1,1,1,1,879,1,1,1,1,1,1,1,1,1,1,7644,737,7642,1,1,1,1,1,1,1,1,1,1,1,1,1,1,1,1,1,1,1,1,1,1,1,1,1,1,1,1,1,1,1,1,1,1,1,1,0,0,0,0,0,0,0,0,1,1,879,1,1,1,1,1,1,1,1,1,1,1,1,1,1,1,1,1,1,1,1,1,1,1,1,1,1,1,1,1,1,1,1,1,1,1,1,1,1,1,1,1,1,1,1,1,1,1,1,1,1,1,1,1,1,1,1,1,1,1,1,1,1,1,1,1,1,1,1,1,1,1,1,1,1,1,1,1,1,1,1,1,1,1,1,1,1,1,1,1,1,1,1,1,1,1,1,1,1,1,1,1,1,1,1,1,1,1,1,1,1,1,1,1,1,1,1,1,1,1,1,1,1,1,1,1,1,1,1,1,1,1,1,1,1,1,1,1,1,1,1,1,1,3470,1,1,1,1,1,1,1,1,1,1,1,3470,1,1,1,1,1,1,1,1,1,1,1,3470,1,1,1,1,1,1,1,1,1,1,1,3470,1,1,1,1,1,1,1,1,1,1,1,3470,1,1,1,1,1,1,1,1,1,1,1,3470,1,1,1,1,1,1,1,1,1,1,1,3470,1,1,1,1,1,1,1,1,1,1,1,3470,1,1,1,1,1,1,1,1,1,1,1,3470,1,1,1,1,1,1,1,1,1,1,1,3470,1,1,1,1,1,1,1,1,1,1,1,3470,1,1,1,1,1,1,1,1,1,1,1,3470,1,1,1,1,1,1,1,1,1,1,1,1,1,1,1,1,1,1,1,1,1,1,1,1,1,1,782,783,1,1,1,1,1,961,964,1,1,1,1,1,1,1,1,1,1,1,1,1,1,1,1,1,1,1,1,1,1,1,1,1,1,1,1,1,1,1,1,1,1,1,1,1,1,1,1,1,1,1,769,775,776,1,1,1,1,1,1,1,1,1,1,1,1,1,1,1,1,1,1,1,1,1,1,1,1,1,1,1,1,1,1,1,1,1,1,1,1,1,1,1,1,1,771,707,772,1,1,1,1,769,718,718,770,1,1,1,1,771,772,1,1,1,1,769,718,718,770,1,1,1,1,1,1,1,1,1,1,769,770,1,1,1,1,769,770,1,1,1,1,1,1,1,1,1,1,1,1,1,1,1,1,1,1,1,1,1,1,1,1,1,1,1,1,1,1,1,1,1,1,1,1,1,1,1,1,1,0,0,0,0,0,0,0,0,0,0,0,0,0,1,1,1,1,1,1,1,1,1,1,1,1,1,1,1,1,1,1,1,1,1,1,1,1,1,1,1,1,1,1,1,1,1,1,1,1,1,1,1,1,1,1,1,1,1,1,1,1,1,1,1,1,1,1,1,1,1,1,1,1,1,1,1,1,1,1,1,2329,2330,739,2331,2332,1,1,1,1,1,1,1,1,1,1,1,1,1,1,1,1,1,1,1,1,1,1,1,1,1,1,1,1,1,1,1,1,1,1,1,1,1,1,1,1,1,1,1,1,1,1,1,1,1,1,1,1,1,1,1,1,1,1,1,1,1,1,1,32,32,32,32,32,32,32,32,32,32,32,32,32,32,32,32,32,32,32,32,32,32,32,32,32,32,32,32,32,32,32,32,32,32,32,32,32,32,32,32,32,32,32,32,32,32,32,32,32,32,32,32,32,32,32,32,32,32,32,32,32,32,32,32,32,32,32,32,32,32,32,32,32,32,32,32,32,32,32,32,32,32,32,32,32,32,32,32,32,32,32,32,32,32,32,32,32,32,32,32,32,32,32,32,32,32,777,778,718,718,718,2388,894,894,894,894,894,894,894,894,894,894,1477,1478,1479,1480,1477,1478,1479,1480,1477,1478,1479,1480,1477,1478,1479,1480,1477,1478,1479,1480,1477,1478,1479,1480,1477,1478,1479,1480,1477,1478,1479,1480,1477,1478,1479,1480,1477,1478,1479,1480,1477,1478,1479,1480,1477,1478,1479,1480,1477,1478,1479,1480,1477,1478,1479,1480,1477,1478,1479,1480,1477,1478,1479,1480,1477,1478,1479,1480,1477,1478,1479,1480,1477,1478,1479,1480,1477,1478,1479,1480,1477,1478,1479,1480,1477,1478,1479,1480,1477,1478,1479,1480,1477,1478,1479,1480,894,894,894,894,894,894,894,894,894,894,894,894,894,894,894,894,894,894,955,956,32,32,32,32,32,32,32,947,894,894,894,955,956,947,894,894,894,894,894,894,955,956,32,32,32,32,32,32,947,894,894,894,894,894,894,955,956,32,32,32,32,32,953,954,894,894,894,894,894,894,894,894,894,894,894,894,894,894,894,894,894,894,883,883,894,894,894,894,894,894,894,894,894,894,894,894,894,894,894,894,894,894,894,894,894,894,894,894,894,894,894,894,894,894,894,894,894,894,894,894,894,894,894,894,894,894,2385,718,718,779,780,0,0,0,0,0,0,0,777,778,718,718,718,718,718,718,718,718,779,780,32,32,32,32,32,32,777,778,718,718,718,718,718,718,718,718,718,718,779,780,32,32,32,32,32,32,777,778,718,718,718,718,718,718,718,2388,894,894,894,893,883,883,883,883,883,883,1477,1478,1479,1480,1477,1478,1479,1480,1477,1478,1479,1480,1477,1478,1479,1480,1477,1478,1479,1480,1477,1478,1479,1480,1477,1478,1479,1480,1477,1478,1479,1480,1477,1478,1479,1480,1477,1478,1479,1480,1477,1478,1479,1480,894,894,894,894,894,894,894,894,894,894,894,894,894,894,894,894,894,955,956,32,32,947,894,894,894,894,894,894,894,894,894,894,948,32,32,953,954,894,894,894,894,894,894,894,894,894,894,894,894,894,894,894,894,894,894,894,894,894,894,894,885,33,0,0,0,0,0,0,0,0,0,0,0,0,0,0,0,0,0,0,0,0,0,0,0,0,0,0,0,0,0,0,0,0,0,0,0,0,0,0,0,0,0,0,0,0,0,0,0,0,0,1,58,
1,1,1,1,1,1,1,1,1,1,1,1,1,1,32,32,32,32,32,953,954,883,883,883,883,883,892,894,894,894,894,894,894,894,893,955,956,32,32,32,32,32,953,954,892,894,894,894,894,894,894,894,894,894,894,894,894,894,894,894,894,894,894,893,955,956,32,32,32,32,32,953,954,892,894,894,894,894,894,893,955,956,32,32,32,32,32,953,954,892,894,894,894,894,894,894,894,894,894,885,33,1,1,1,1,1,1,1,1,1,1,1,1,1,1,1,1,1,1,1,1,1,1,1,1,1,1,1,1,1,1,1,1,1,1,1,7644,737,7642,1,1,1,1,1,1,1,1,1,1,1,1,1,1,1,1,1,1,1,1,1,1,1,1,1,1,1,1,1,1,1,7635,737,7633,1,1,1,1,1,1,1,1,1,1,1,1,7635,737,7633,0,0,0,0,0,0,0,1,7644,737,7642,1,1,1,1,1,1,1,1,1,1,1,1,1,1,1,1,1,1,1,1,1,1,1,1,1,1,7635,737,7633,1,1,1,1,1,1,7732,1,1,1,1,1,1,1,1,1,1,1,1,1,1,1,1,1,1,1,1,1,1,1,1,1,1,1,1,1,1,1,1,1,1,1,1,1,1,1,1,1,1,1,1,1,1,1,1,1,1,1,1,1,1,1,1,1,1,1,1,1,0,1,1,1,1,1,1,1,1,1,1,1,1,1,1,1,1,1,1,1,3313,0,3314,1,1,0,1,1,0,0,0,1,1,1,1,1,1,1,1,1,1,1,1,1,3470,1,1,1,1,1,1,1,1,1,1,1,3470,1,1,1,1,1,1,1,1,1,1,1,3470,1,1,1,1,1,1,1,1,1,1,1,3470,1,1,1,1,1,1,1,1,1,1,1,3470,1,1,1,1,1,1,1,1,1,1,1,3470,1,1,1,1,1,1,1,1,1,1,1,3470,1,1,1,1,1,1,1,1,1,1,1,3470,1,1,1,1,1,1,1,1,1,1,1,3470,1,1,1,1,1,1,1,1,1,1,1,3470,1,1,1,1,1,1,1,1,1,1,1,3470,1,1,1,1,1,1,1,1,1,1,1,3470,1,1,1,769,784,1,1,1,1,1,1,1,769,770,1,1,1,1,1,1,1,1,1,1,1,781,718,718,784,1,1,1,1,1,1,1,1,1,1,769,770,1,1,1,1,1,1,1,1,1,1,1,1,31,31,31,31,31,31,31,1,1,1,1,1,1,1,781,784,1,1,1,1,1,1,1,1,769,718,718,718,775,776,1,1,1,1,1,1,1,1,1,769,770,1,1,1,1,1,1,769,770,1,1,1,1,1,1,1,1,781,784,1,1,1,1,1,769,770,1,1,1,1,32,1,1,1,1,769,718,718,718,718,770,1,1,1,1,1,1,1,1,769,718,718,718,718,770,1,1,1,1,769,770,1,1,769,718,718,770,1,1,769,718,718,770,1,1,1,1,1,1,769,770,1,1,1,1,31,31,31,31,31,31,31,31,31,31,31,31,31,31,31,31,31,31,31,31,31,31,31,31,31,31,31,1,0,0,0,0,0,0,0,0,0,0,0,0,0,1,1,1,1,1,1,1,1,1,1,1,1,1,1,1,1,1,1,1,1,1,1,1,742,738,738,738,743,1,1,1,1,1,1,1,1,1,1,1,1,1,1,1,1,1,1,1,1,1,1,1,1,1,1,1,1,1,1,1,1,1,1,1,1,1,1,1,1,1,879,1,1,1,1,1,1,1,1,1,1,1,1,1,1,1,1,1,1,1,1,1,1,1,1,1,1,1,1,1,1,1,1,1,1,1,1,1,1,1,1,742,738,738,738,743,1,1,1,1,1,1,1,1,1,1,1,1,1,1,1,1,1,1,1,1,1,1,1,1,1,1,1,1,1,1,1,1,1,1,1,1,1,1,1,1,1,1,1,1,1,1,1,1,1,1,1,1,1,1,1,1,1,1,1,1,1,1,1,1,1,1,1,1,1,1,1,1,1,1,1,1,1,1,1,1,1,1,1,1,1,1,1,1,0,0,0,0,0,0,0,0,0,0,0,0,0,0,0,0,0,0,0,0,0,0,0,0,0,0,0,0,0,0,0,0,0,0,0,0,0,0,0,0,777,778,3476,883,883,883,883,883,883,883,892,894,893,883,883,883,892,894,894,894,894,894,894,894,893,883,883,883,892,894,893,883,883,883,883,883,883,883,883,883,892,894,893,883,883,883,883,892,894,894,894,894,893,883,883,883,883,883,883,883,883,883,883,883,883,883,883,883,883,892,894,894,894,894,893,883,883,883,894,883,883,894,883,883,892,893,883,883,883,883,883,883,883,883,883,894,883,883,892,893,883,883,883,894,883,883,894,883,883,892,893,883,883,883,883,883,883,892,894,894,894,894,894,894,894,894,955,956,0,0,0,0,0,0,0,0,0,0,947,955,956,0,0,0,947,894,894,894,955,956,0,0,0,0,0,0,0,0,0,947,894,894,894,955,956,0,0,0,0,0,0,0,0,0,953,954,883,883,892,894,894,894,894,894,894,894,894,894,883,883,955,956,32,32,947,894,894,894,894,894,894,894,894,894,894,894,883,883,894,894,894,894,894,894,894,894,894,894,894,894,894,894,894,894,894,894,883,883,955,956,953,954,894,894,894,2385,718,779,780,0,0,0,0,0,0,0,0,0,0,0,777,778,718,718,718,718,779,780,0,0,0,0,0,0,0,0,0,0,777,778,718,718,718,718,718,718,779,780,0,0,0,0,0,0,0,0,0,0,777,778,718,718,718,718,3476,883,883,883,883,889,32,32,32,32,32,32,899,32,32,32,32,32,884,894,885,32,32,32,32,884,894,885,32,32,32,32,32,32,32,32,32,32,32,32,32,32,32,32,32,32,32,32,32,32,32,899,32,32,32,947,894,894,894,894,894,894,894,894,894,894,894,894,894,894,894,955,956,0,0,0,0,0,947,894,894,894,894,894,894,894,894,948,0,0,0,0,0,953,954,894,894,894,894,894,894,955,956,953,954,894,894,894,894,894,894,883,883,883,883,883,889,33,0,0,0,0,0,0,0,0,0,0,0,0,0,0,0,0,0,0,0,0,0,0,0,0,0,0,0,0,0,0,0,0,0,0,0,0,0,0,0,0,0,0,0,0,0,0,0,0,0,1,58,
1,1,1,1,1,1,1,1,1,1,1,1,1,1,1,1,1,1,1,1,1,32,32,32,32,32,953,954,883,883,883,883,883,955,956,1,1,1,1,1,1,1,1,1,953,954,883,883,883,883,883,883,883,892,894,894,894,894,894,894,894,893,955,956,1,1,1,1,1,1,1,1,1,953,954,883,883,883,955,956,1,1,1,1,1,1,1,1,1,953,954,883,883,883,883,883,883,883,883,889,33,1,1,1,1,1,1,1,1,1,1,1,1,7635,737,7633,1,1,1,1,1,1,1,1,1,1,1,1,1,1,1,1,1,1,1,1,1,1,1,1,1,1,1,1,1,1,1,1,1,1,1,1,1,1,1,1,1,1,1,1,1,1,1,1,1,1,7635,737,7633,1,1,879,1,1,1,1,1,1,1,1,1,7635,737,7633,1,1,879,0,0,0,0,0,0,0,0,1,1,1,1,1,1,1,1,1,1,1,7635,737,7633,1,1,1,1,1,1,1,1,1,1,1,1,1,1,1,1,1,879,1,1,1,1,1,1,1,742,756,756,756,743,1,1,1,1,1,1,1,1,1,1,1,1,1,1,7635,737,7633,1,1,1,1,1,1,1,1,1,1,1,1,751,1063,1,1,1,1,1,1,1,1,1,1,1,1,1,1,1,1,1,1,1,1,1,1,1,1,1,1,0,7635,737,7633,1,7635,737,7633,1,1,1,1,1,1,1,1,1,1,1,1,1,0,1,1,0,0,0,1,1,0,1,1,1,1,1,1,1,1,1,1,1,1,1,1,3470,1,1,1,1,1,1,1,1,1,1,1,3470,1,1,1,1,1,751,1,1,1,1,1,3470,1,1,1,1,1,1,1,1,1,1,1,3470,1,1,1,1,1,1,1,1,1,1,1,3470,1,1,1,1,1,751,1,1,1,1,1,3470,1,1,1,1,1,1,1,1,1,1,1,3470,1,1,1,1,1,1,1,1,1,1,1,3470,1,1,1,1,1,751,1,1,1,1,1,3470,1,1,1,1,1,1,1,1,1,1,1,3470,1,1,1,1,1,1,1,1,1,1,1,3470,1,1,1,1,1,751,1,1,1,1,1,3470,1,1,769,718,783,1,1,1,1,1,1,769,718,718,770,1,1,1,1,1,1,1,1,1,1,782,718,718,783,1,1,1,1,1,1,1,1,1,769,718,718,770,1,1,1,1,1,1,1,1,1,1,769,706,706,706,706,706,706,706,770,1,1,1,1,1,1,782,783,1,1,1,1,1,1,1,769,718,718,718,718,718,718,775,776,1,1,1,1,1,1,769,718,718,770,1,1,1,1,769,718,718,770,1,1,1,1,1,1,1,782,783,1,1,1,1,769,718,718,770,1,1,1,1,1,1,1,769,718,718,718,718,718,718,770,1,1,1,1,1,1,769,718,718,718,718,718,718,770,1,1,769,718,718,770,769,718,718,718,718,770,769,718,718,718,718,770,1,1,1,1,769,718,718,770,1,1,769,706,706,706,706,706,706,706,706,706,706,706,706,706,706,706,706,706,706,706,706,706,706,706,706,706,706,706,784,1,1,1,1,1,1,1,1,1,1,1,1,1,1,781,706,1,1,1,1,1,1,1,1,1,1,1,1,1,1,1,1,1,1,1,1,2329,2330,739,2331,2332,1,1,1,1,1,1,1,1,1,1,1,1,1,1,1,1,1,1,1,1,1,1,1,1,1,742,738,738,738,743,1,1,1,1,1,1,1,1,1,1,1,737,1,1,1,1,1,1,1,1,1,1,1,1,1,1,1,1,1,1,1,1,1,1,1,1,1,1,1,1,1,1,1,1,1,1,1,1,1,1,1,1,2329,2330,739,2331,2332,1,1,1,1,1,1,1,1,1,1,1,1,1,1,1,1,1,1,1,1,1,1,1,1,1,1,1,1,1,1,1,1,1,1,1,1,1,1,1,1,1,1,1,1,1,1,1,1,1,1,1,1,1,1,1,1,1,1,1,1,1,1,1,1,1,1,1,1,1,1,1,1,1,1,1,1,1,1,1,1,1,1,1,1,1,1,1,1,0,0,0,0,0,0,0,0,0,0,0,0,0,0,0,0,0,0,0,0,0,0,0,0,0,0,0,0,0,0,0,0,0,0,0,0,0,0,0,0,0,0,32,32,32,32,32,32,32,32,888,883,889,32,32,32,884,894,894,894,894,894,894,894,885,32,32,32,888,883,889,32,32,32,32,32,32,32,32,32,888,883,889,32,32,32,32,884,894,894,894,894,885,32,32,32,32,32,32,32,0,0,0,0,0,0,0,0,0,888,883,883,892,894,885,32,32,32,899,32,32,896,32,32,884,885,32,32,32,32,32,32,32,32,32,896,32,32,884,885,32,32,32,896,32,32,899,32,32,888,889,32,32,32,32,32,32,884,883,883,883,883,883,883,955,956,0,0,0,0,0,0,0,0,0,0,0,0,0,0,0,0,0,0,0,947,955,956,0,0,0,0,0,0,0,0,0,0,0,0,947,955,956,0,0,0,0,0,0,0,0,0,0,0,0,0,32,32,953,954,894,894,894,894,883,883,955,956,32,32,0,0,0,0,0,947,894,894,894,894,894,883,883,883,955,956,32,32,947,894,894,894,894,894,894,894,894,894,894,894,894,894,883,883,955,956,32,32,0,0,0,0,953,954,3476,779,780,0,0,0,0,0,31,31,0,0,0,0,0,0,0,0,777,778,779,780,0,0,0,0,0,0,0,0,0,0,0,0,0,0,777,778,707,707,779,780,0,0,0,0,0,0,0,0,0,0,0,0,0,0,777,778,779,780,0,0,0,0,0,0,0,0,0,0,0,0,896,0,0,0,0,0,884,894,885,0,0,0,0,888,883,889,0,0,0,0,0,0,0,0,0,0,0,0,0,0,0,0,0,0,0,0,0,0,0,896,0,0,0,0,947,894,894,894,894,894,894,894,894,894,894,894,894,955,956,0,0,0,0,0,0,0,0,947,894,894,894,894,894,894,948,0,0,0,0,0,0,0,0,953,954,894,894,955,956,0,0,0,0,953,954,894,894,955,956,32,32,32,32,32,32,0,0,0,0,0,0,0,0,3490,0,0,0,3490,3489,0,0,0,0,0,0,0,0,0,0,0,0,0,0,0,0,0,0,0,0,0,0,0,0,0,0,0,0,0,0,0,0,0,0,0,0,1,58,
1,1,1,1,1,1,1,1,1,1,1,1,1,1,0,0,0,0,1,1,1,1,1,1,1,1,1,1,32,32,32,32,32,1,1,1,1,1,1,1,1,1,1,1,1,1,32,32,32,32,32,32,32,953,954,892,894,894,894,893,955,956,1,1,1,1,1,1,1,1,1,1,1,1,1,32,32,32,1,1,1,1,1,1,1,1,1,1,1,1,1,32,32,32,32,32,32,32,32,32,1,1,1,1,1,1,1,1,1,7635,737,7633,1,1,879,1,1,1,1,1,1,1,1,1,1,1,1,1,1,1,1,1,1,1,1,1,1,1,1,1,1,1,1,1,1,1,1,1,1,1,1,1,1,1,1,1,1,1,1,1,7635,737,7633,1,1,1,1,879,1,1,1,737,1,1,1,7635,737,7633,1,1,1,1,879,1,1,1,737,0,0,0,7635,737,7633,0,0,1,7635,737,7633,1,1,1,7635,737,7633,1,1,879,1,1,1,1,1,1,1,1,1,1,1,1,31,31,31,31,31,31,737,31,31,31,31,31,31,31,755,1,1,1,755,31,31,31,31,31,31,31,31,31,31,31,31,31,31,31,879,31,31,31,31,31,31,31,31,31,31,31,31,31,755,1061,31,31,31,31,31,31,31,31,31,31,31,31,31,31,31,31,31,31,31,31,31,31,31,31,31,31,31,31,879,31,31,31,879,31,31,31,31,31,31,31,31,31,31,31,31,31,31,0,31,31,31,0,31,31,31,0,31,31,31,31,31,31,31,1,1,1,1,1,0,1,1,1,1,1,1,1,1,1,1,1,1,1,1,1,1,1,1,1,755,1,1,1,1,1,1,1,1,1,1,1,1,1,1,1,1,1,1,1,1,1,1,1,1,1,1,1,1,1,1,1,1,1,1,1,755,1,1,1,1,1,1,1,1,1,1,1,1,1,1,1,1,1,1,1,1,1,1,1,1,1,1,1,1,1,1,1,1,1,1,1,755,1,1,1,1,1,1,1,1,1,1,1,1,1,1,1,1,1,1,1,1,1,1,1,1,1,1,1,1,1,1,1,1,1,1,1,755,1,1,1,1,1,1,1,769,718,718,718,784,1,1,1,1,769,718,718,718,718,770,1,1,1,1,1,1,1,1,781,718,718,718,718,784,1,1,1,1,1,1,1,769,718,718,718,718,770,1,1,1,1,1,1,1,1,769,718,718,718,718,718,718,718,718,718,770,1,1,1,1,781,718,718,784,1,1,1,1,1,769,718,718,718,718,718,718,718,718,772,1,1,1,1,1,769,718,718,718,718,770,1,1,769,718,718,718,718,770,1,1,1,1,1,781,718,718,784,1,1,769,718,718,718,718,770,1,1,1,1,1,769,718,718,718,718,718,718,718,718,770,1,1,1,1,769,718,718,718,718,718,718,718,718,770,769,718,718,718,718,718,718,718,718,718,718,718,718,718,718,718,718,770,1,1,769,718,718,718,718,770,769,718,718,718,718,718,718,718,718,718,718,718,718,718,718,718,718,718,718,718,718,718,718,718,718,718,718,718,718,783,31,31,31,31,31,31,31,31,31,31,31,31,31,31,782,718,718,718,718,718,718,718,718,718,718,718,709,1,1,1,1,1,1,1,1,1,1,1,879,1,1,1,1,1,1,1,1,1,1,1,1,1,1,1,1,1,1,1,1,1,1,1,1,1,1,1,2329,2330,739,2331,2332,1,1,1,1,1,1,1,1,1,1,1,879,1,1,1,1,1,1,1,1,1,1,1,1,1,1,1,1,1,1,1,1,1,1,1,1,1,1,1,1,1,1,1,1,1,742,738,738,738,743,1,1,1,1,879,1,1,1,1,1,1,1,1,1,1,1,1,1,1,1,1,1,1,1,1,1,1,1,1,1,1,1,1,1,1,1,1,1,1,1,1,1,1,1,1,1,1,1,1,1,1,1,1,1,1,1,1,1,1,1,1,1,1,1,1,1,1,1,1,1,1,1,1,1,1,1,1,1,1,1,1,1,1,1,1,1,1,1,1,1,1,1,1,1,1,0,0,0,0,0,0,0,0,0,0,0,0,0,0,0,0,0,0,0,0,0,0,0,0,0,0,0,0,0,0,0,0,0,0,0,0,0,0,0,0,0,0,0,0,0,0,0,0,0,0,0,0,0,0,0,0,888,883,883,883,883,883,883,883,889,0,0,0,0,0,0,0,0,0,0,0,0,0,0,0,0,0,0,0,0,0,0,888,883,883,883,883,889,0,0,0,0,0,0,0,0,0,0,0,0,0,0,0,0,0,0,0,888,883,889,0,0,0,896,0,0,0,0,0,888,889,0,0,0,0,0,0,0,0,0,0,0,0,888,889,0,0,0,0,0,0,896,0,0,0,0,0,0,0,0,0,0,896,32,32,32,32,32,32,0,0,0,0,0,0,0,0,0,0,0,0,0,0,0,0,0,0,0,0,0,0,0,0,0,0,0,0,0,0,0,0,0,0,0,0,0,0,0,0,0,0,0,0,0,0,0,0,0,0,0,0,0,0,0,0,953,954,955,956,32,32,0,0,0,0,0,0,0,0,0,0,947,883,883,955,956,32,32,32,0,0,0,0,0,947,894,894,894,894,894,894,894,894,883,883,955,956,32,32,0,0,0,0,0,0,0,0,0,0,0,0,0,0,0,0,949,950,882,882,951,952,0,0,0,0,0,0,0,0,0,0,0,0,0,0,0,0,31,31,0,0,0,0,0,0,0,0,32,32,0,0,0,0,0,0,0,0,31,31,0,0,0,0,0,0,0,0,0,0,0,0,0,0,0,0,0,0,0,0,0,0,0,0,0,0,0,0,888,883,889,0,0,0,0,0,0,0,0,0,0,0,0,0,0,0,0,0,0,0,0,0,0,0,0,0,0,0,0,0,0,0,0,0,0,0,0,953,954,894,894,894,894,894,894,894,894,955,956,0,0,0,0,0,0,0,0,0,0,0,947,894,894,894,894,948,0,0,0,0,0,0,0,0,0,0,0,947,948,0,0,0,0,0,0,0,0,947,948,0,0,0,0,0,0,0,0,0,0,0,0,0,0,0,0,0,0,0,0,3491,3488,0,0,0,0,0,0,0,0,0,0,0,0,0,0,0,0,0,0,0,0,0,0,0,0,0,0,0,0,0,0,0,0,0,0,0,0,1,58,
1,1,1,1,1,1,1,1,1,1,1,1,1,0,0,0,0,0,1,1,1,1,1,1,1,1,1,1,1,1,1,1,1,1,1,1,1,949,950,882,951,952,1,1,1,1,1,1,1,1,1,1,1,1,1,953,954,883,955,956,1,1,1,1,1,1,1,1,31,1,1,1,1,1,1,1,1,1,1,1,1,1,949,950,882,951,952,1,1,1,1,1,1,1,1,1,1,1,1,1,1,1,1,1,1,1,1,1,1,1,879,1,1,1,737,1,1,1,1,1,1,1,1,1,1,1,1,1,1,1,1,1,1,1,1,1,1,1,1,1,1,1,1,1,1,1,1,1,1,1,1,1,1,1,1,1,1,1,1,1,1,879,1,7635,737,7633,1,737,1,1,1,879,1,1,1,1,879,1,7635,737,7633,1,737,1,1,1,879,0,0,0,0,879,0,0,0,1,1,879,1,1,1,1,1,879,1,1,1,737,1,1,1,1,1,1,1,1,1,1,1,1,742,756,756,756,756,756,745,0,0,1,1,1,1,1,1,1,1,1,1,1,1,1,1,1,1,1,1,1,1,1,1,1,1,1,1,1,1,1,1,1,1,1,1,1,1,1,1,1,1,1,1,1,1,1,1,1,1,1,1,1,1,1,1,1,1,1,1,1,1,1,1,1,1,1,1,1,1,1,1,1,1,1,1,1,1,1,1,1,1,1,1,1,1,1,1,1,1,1425,1426,1427,1428,1425,1426,1427,1428,1425,706,706,706,706,706,706,706,775,776,31,31,31,0,31,31,31,0,31,31,31,751,31,31,31,0,31,31,31,0,31,31,31,755,31,31,31,1,31,31,31,1,31,31,31,751,31,31,31,1,31,31,31,1,31,31,31,751,31,31,31,1,31,31,31,1,31,31,31,755,31,31,31,1,31,31,31,1,31,31,31,751,31,31,31,1,31,31,31,1,31,31,31,751,31,31,31,1,31,31,31,1,31,31,31,755,31,31,31,1,31,31,31,1,31,31,31,751,31,31,31,1,31,31,31,1,31,31,31,751,31,31,31,1,31,31,31,1,31,31,31,755,31,31,31,1,31,31,769,718,718,718,718,783,31,31,31,769,718,718,718,718,718,718,770,31,31,31,31,31,31,31,782,718,718,718,718,783,31,31,31,31,31,31,769,718,718,718,718,718,718,770,31,31,31,31,31,31,769,718,718,718,718,718,718,718,718,718,718,718,770,31,31,31,782,718,718,783,31,31,31,31,769,718,718,718,718,718,718,718,718,772,31,31,31,31,31,769,718,718,718,718,718,718,770,769,718,718,718,718,718,718,770,31,31,31,31,782,718,718,783,31,769,718,718,718,718,718,718,770,31,31,31,769,718,718,718,718,718,718,718,718,718,718,770,31,31,769,718,718,718,718,718,718,718,718,718,718,718,718,718,718,718,718,718,718,718,718,718,718,718,718,718,718,718,718,770,769,718,718,718,718,718,718,718,718,718,718,718,718,718,718,718,718,718,718,718,718,718,718,718,718,718,718,718,718,718,718,718,718,718,718,718,715,706,706,706,706,706,706,706,706,706,706,706,706,706,706,714,718,718,718,718,718,718,718,718,718,718,718,709,1,1,1,1,1,1,1,1,1,1,1,737,1,1,1,1,1,1,1,1,1,1,1,1,1,1,1,1,1,1,1,1,1,1,1,1,1,1,1,1,1,879,1,1,1,1,1,1,1,1,1,1,1,1,1,737,1,1,1,1,1,1,1,1,1,1,1,1,1,1,1,1,1,1,1,1,1,1,1,1,1,1,1,1,1,1,1,1,1,2329,2330,739,2331,2332,1,1,1,1,737,1,1,1,1,1,1,1,1,1,1,1,1,1,1,1,1,1,1,1,1,1,1,1,1,1,1,1,1,1,1,1,1,1,1,1,1,1,1,1,1,1,1,1,1,1,1,1,1,1,1,1,1,1,1,1,1,1,1,1,1,1,1,1,1,1,1,1,1,1,1,1,1,1,1,1,1,1,1,1,1,1,1,1,1,1,1,1,1,1,1,0,0,0,0,0,0,0,0,0,0,0,0,0,0,0,0,0,0,0,0,0,0,0,0,0,0,0,0,0,0,0,0,0,0,0,0,0,0,0,0,0,0,0,0,0,0,0,0,0,0,0,0,0,0,0,0,0,0,0,0,0,0,0,0,0,0,0,0,0,0,0,0,0,0,0,0,0,0,0,0,0,0,0,0,0,0,0,0,0,0,0,0,0,0,0,0,0,0,0,0,0,0,0,0,0,0,0,0,0,0,0,0,0,0,0,0,0,0,0,0,0,0,0,0,0,0,0,0,0,0,0,0,0,0,0,0,0,0,0,0,0,0,0,0,0,0,0,0,0,0,0,0,0,0,0,0,0,0,0,0,0,0,0,0,0,0,0,0,0,0,0,0,773,774,770,0,0,0,0,0,0,0,0,0,0,0,0,0,0,0,0,0,0,0,0,0,0,0,0,0,0,0,0,0,0,0,0,0,773,774,770,0,0,0,0,0,0,0,0,0,0,0,0,0,0,0,0,0,0,0,0,0,0,0,0,0,0,32,32,0,0,0,0,0,0,0,0,0,0,0,947,894,894,894,883,883,955,956,32,32,0,0,0,0,0,0,0,0,0,0,0,0,0,0,0,0,0,0,949,950,894,894,894,894,894,894,951,952,0,0,0,0,0,0,0,0,0,0,0,0,949,950,882,882,951,952,0,0,0,0,0,0,0,0,0,0,0,0,0,0,949,950,882,882,951,952,0,0,0,0,0,0,0,0,0,0,0,0,0,0,0,0,0,0,0,0,0,0,0,0,0,0,0,0,0,0,0,0,0,0,0,0,0,0,0,0,0,0,0,0,0,0,0,0,0,0,0,0,0,0,0,0,0,0,0,0,0,0,0,0,0,0,0,953,954,894,894,894,894,955,956,0,0,0,0,0,0,0,773,774,770,0,0,0,0,947,894,894,948,0,0,0,0,769,775,776,0,0,0,0,0,0,0,0,0,0,0,0,0,0,0,0,0,0,0,0,0,0,0,0,0,0,0,0,0,0,0,0,0,0,0,0,0,0,0,0,0,0,0,0,0,0,0,0,0,0,0,0,0,0,0,0,0,0,0,0,0,0,0,0,0,0,0,0,0,0,0,0,0,0,0,1,58,
1,1,1,1,1,1,1,1,1,1,1,1,1,1,0,0,0,0,1,1,1,1,1,1,1,1,1,1,1,1,1,1,1,1,1,1,1,777,778,707,779,780,1,1,1,1,1,1,1,1,1,1,1,1,1,1,1,32,1,1,1,1,1,1,1,1,773,774,706,775,776,1,1,1,1,1,1,1,1,1,1,1,777,778,707,779,780,1,1,1,1,1,1,1,1,1,1,1,1,1,1,1,1,1,1,1,1,1,1,1,737,1,1,1,879,1,1,1,1,1,1,1,1,1,1,1,1,1,1,1,1,1,1,1,1,1,1,1,1,1,1,1,1,1,1,1,1,1,1,1,1,1,1,1,1,1,1,1,1,1,1,737,1,1,879,1,1,879,1,1,1,737,1,1,1,1,737,1,1,879,1,1,879,1,1,1,737,0,0,0,0,737,0,0,0,1,1,737,1,1,1,1,1,737,1,1,1,879,1,1,1,1,1,1,1,1,1,1,1,1,755,1,1,1,1,1,1,1,1,1,1,1,1,1,1,1,1,1,1,1,1,1,1,1,1,1,1,1,1,1,1,1,1,1,1,1,1,1,1,1,1,1,1,1,1,1,1,1,1,1,1,1,1,1,1,1,1,1,1,1,1,1,1,1,1,1,1,1,1,1,1,1,1,1,1,1,1,1,1,1,1,1,1,1,1,1,1,1,1,1,1,1,1,1,1,1,1,1,1,1,1,1,1,1,1,1,1,1,1,1,1,1,1,1,3491,3474,3474,1,1,1,1,1,1,1,1,1,1,1,1,1,1,1,1,1,1,1,1,1,1,1,1,1,1,1,1,1,1,1,1,1,1,1,1,1,1,1,1,1,1,1,1,1,1,1,1,1,1,1,1,1,1,1,1,1,1,1,1,1,1,1,1,1,1,1,1,1,1,1,1,1,1,1,1,1,1,1,1,1,1,1,1,1,1,1,1,1,1,1,1,1,1,1,1,1,1,1,1,1,1,1,1,1,1,1,1,1,1,1,1,1,1,1,1,1,1,1,1,1,1,1,1,1,1,1,1,1,1,1,1,1,1,1,1,1,1,1,1,1,1,1,1,1,1,1,1,1,1,1,1,1,1,1,1,1,1,1,1,1,1,1,1,1,1,1,1,1,1,1,1,1,1,1,1,1,1,1,1,1,1,1,1,1,1,1,1,1,1,1,1,1,1,1,1,1,1,1,1,1,1,1,1,1,1,1,1,1,1,1,1,1,1,1,1,1,1,1,1,1,1,1,1,1,1,1,1,1,1,1,1,1,1,1,1,1,1,1,1,1,1,1,1,1,1,1,1,1,1,1,1,1,1,1,1,1,1,1,1,1,1,1,1,1,1,1,1,1,1,1,1,1,1,1,1,1,1,1,1,1,1,1,1,1,1,1,1,1,1,1,1,1,1,1,1,1,1,1,1,1,1,1,1,1,1,1,1,1,1,1,1,1,1,1,1,1,1,1,1,1,1,1,1,1,1,1,1,1,1,1,1,1,1,1,1,1,1,1,1,1,1,1,1,1,1,1,1,1,1,1,1,1,1,1,1,718,718,718,718,718,718,718,718,718,718,718,718,709,1,1,1,1,1,1,1,1,1,1,1,879,1,1,1,1,1,1,1,1,1,1,1,1,1,1,1,1,1,1,1,1,1,1,1,1,1,1,1,1,1,737,1,1,1,1,1,1,1,1,1,1,1,1,1,879,1,1,1,1,1,1,1,1,1,1,1,1,1,1,1,1,1,1,1,1,1,1,1,1,1,1,1,1,1,1,1,1,1,1,1,879,1,1,1,1,1,1,879,1,1,1,1,1,1,1,1,1,1,1,1,1,1,1,1,1,1,1,1,1,1,1,1,1,1,1,1,1,1,1,1,1,1,1,1,1,1,1,1,1,1,1,1,1,1,1,1,1,1,1,1,1,1,1,1,1,1,1,1,1,1,1,1,1,1,1,1,1,1,1,1,1,1,1,1,1,1,1,1,1,1,1,1,1,1,1,1,1,1,0,0,0,0,0,0,0,0,0,0,0,0,0,0,0,0,0,0,0,0,0,0,0,0,0,0,0,0,0,0,0,0,0,0,0,0,0,0,0,0,0,0,0,0,0,0,0,0,0,0,0,0,0,0,0,0,0,0,0,0,0,0,0,0,0,0,0,0,0,0,0,0,0,0,0,0,0,0,0,0,0,0,0,0,0,0,0,0,0,0,0,0,0,0,0,0,0,0,0,0,0,0,0,0,0,0,0,0,0,0,0,0,0,0,0,0,0,0,0,0,0,0,0,0,0,0,0,0,0,0,0,0,0,0,0,0,0,0,0,0,0,0,0,0,0,0,0,0,0,0,0,0,0,0,0,0,0,0,0,0,0,0,0,0,0,0,0,0,0,0,773,774,718,718,718,770,0,0,0,0,0,0,0,0,0,0,0,0,0,0,0,0,0,0,773,774,770,0,0,0,0,0,0,0,0,0,773,774,718,718,718,770,0,0,0,0,0,0,0,0,0,0,0,0,0,0,0,0,31,31,773,774,770,0,0,0,0,0,0,0,0,0,0,0,0,0,0,0,0,0,0,947,955,956,32,32,0,0,0,0,0,0,0,0,0,0,31,31,773,774,770,0,0,0,0,0,0,0,953,954,894,894,894,894,894,894,955,956,0,0,0,0,0,0,0,0,0,0,0,0,953,954,883,883,955,956,0,0,0,0,0,0,0,0,0,0,0,0,0,0,953,954,883,883,955,956,0,0,0,0,0,0,0,0,0,0,0,0,0,0,0,0,0,0,0,0,0,0,0,0,0,0,0,0,0,0,0,0,0,0,0,0,0,0,0,0,0,0,0,0,0,0,0,0,0,0,0,0,0,0,0,0,0,0,0,0,0,0,0,0,0,0,0,0,0,953,954,955,956,0,0,0,0,0,0,0,773,774,718,718,718,770,0,0,0,0,947,948,0,0,0,0,769,718,718,718,775,776,0,0,0,0,0,0,0,0,769,770,0,0,0,0,0,0,0,0,0,0,0,0,0,0,0,0,0,0,0,0,0,0,0,0,0,0,0,0,0,0,0,0,0,0,0,0,0,0,0,0,0,0,0,0,0,0,0,0,0,0,0,0,0,0,0,0,0,0,0,0,0,0,0,1,58,
1,1,1,1,1,1,1,1,1,1,1,1,1,1,0,5972,5972,0,1,1,1,1,1,1,1,1,1,1,31,31,31,31,31,1,1,1,1,1,1,1,1,1,1,1,1,1,31,31,31,31,31,1,1,1,1,1,1,1,1,1,1,1,1,1,773,774,714,718,718,718,715,775,776,31,31,31,31,31,1,1,1,1,1,1,1,1,1,1,1,1,1,31,31,31,31,1,1,1,1,1,1,1,1,1,1,1,1,1,1,1,879,1,1,1,737,1,1,1,1,1,1,1,1,1,1,1,1,1,1,1,1,1,1,1,1,1,1,1,1,1,1,1,1,1,1,1,1,1,1,1,1,1,1,1,1,1,1,1,1,1,1,879,1,1,737,1,1,737,1,1,1,879,1,1,1,1,879,1,1,737,1,1,737,1,1,1,879,0,0,0,0,879,0,0,0,1,1,879,1,1,1,1,1,879,1,1,1,737,1,1,1,1,1,1,1,1,1,1,1,1,755,1,1,1,1,1,1,1,1,1,1,1,1,1,1,1,1,1,1,1,1,1,1,1,1,1,1,1,1,1,1,1,1,1,1,1,1,1,1,1,1,1,1,1,1,1,1,1,1,1,1,1,1,1,1,1,1,1,1,1,1,1,1,1,1,1,1,1,1,1,1,1,1,1,1,1,1,1,1,1,1,1,1,1,1,1,1,1,1,1,1,1,1,1,1,1,1,1,1,1,1,1,1,1,1,1,1,1,1,1,1,1,1,1,1,1,1,1,1,1,1,1,1,1,1,1,1,1,1,1,1,1,1,1,1,1,1,1,1,1,1,1,1,1,1,1,1,1,1,1,1,1,1,1,1,1,1,1,1,1,1,1,1,1,1,1,1,1,1,1,1,1,1,1,1,1,1,1,1,1,1,1,1,1,1,1,1,1,1,1,1,1,1,1,1,1,1,1,1,1,1,1,1,1,1,1,1,1,1,1,1,1,1,1,1,1,1,1,1,1,1,1,1,1,1,1,1,1,1,1,1,1,1,1,1,1,1,1,1,1,1,1,1,1,1,1,1,1,1,1,1,1,1,1,1,1,1,1,1,1,1,1,1,1,1,1,1,1,1,1,1,1,1,1,1,1,1,1,1,1,1,1,1,1,1,1,1,1,1,1,1,1,1,1,1,1,1,1,1,1,1,1,1,1,1,1,1,1,1,1,1,1,1,1,1,1,1,1,1,1,1,1,1,1,1,1,1,1,1,1,1,1,1,1,1,1,1,1,1,1,1,1,1,1,1,1,1,1,1,1,1,1,1,1,1,1,1,1,1,1,1,1,1,1,1,1,1,1,1,1,1,1,1,1,1,1,1,1,1,1,1,1,1,1,1,1,1,1,1,1,1,1,1,1,1,1,1,1,1,1,1,1,1,1,1,1,1,1,1,1,1,1,1,1,1,1,1,1,1,1,1,1,1,1,1,1,1,1,1,1,1,1,1,1,1,1,1,1,1,1,1,1,1,1,1,1,1,1,1,1,1,1,1,1,1,1,1,1,1,1,1,1,1,1,1,1,1,1,1,1,1,1,1,718,718,718,718,718,718,718,718,718,718,718,718,709,1,1,1,1,1,1,1,1,1,1,1,737,1,1,1,1,1,1,1,1,1,1,1,1,1,1,1,1,1,1,1,1,1,1,1,1,1,1,1,1,1,879,1,1,1,1,1,1,1,1,1,1,1,1,1,737,1,1,1,1,1,1,1,1,1,1,1,1,1,1,1,1,1,1,1,1,1,1,1,1,1,1,1,1,7635,737,7633,1,1,1,1,737,1,1,1,1,1,1,737,1,1,1,1,1,1,1,1,1,1,1,1,1,1,1,1,1,1,1,1,1,1,1,1,1,1,1,1,1,1,1,1,1,1,1,1,1,1,1,1,1,1,1,1,1,1,1,1,1,1,1,1,1,1,1,1,1,1,1,1,1,1,1,1,1,1,1,1,1,1,1,1,1,1,1,1,1,1,1,1,1,1,1,1,1,1,1,1,1,1,0,0,0,0,0,0,0,0,0,0,0,0,0,0,0,0,0,0,0,0,0,0,0,0,0,0,0,0,0,0,0,0,0,0,0,0,0,0,0,0,773,774,775,776,0,0,0,0,0,0,0,0,710,706,706,706,711,0,0,0,0,0,0,0,0,0,0,0,0,0,0,710,706,706,711,0,0,0,0,0,0,0,0,710,706,711,0,0,0,0,0,0,0,0,0,0,0,0,0,0,0,0,0,0,0,0,0,0,0,0,0,0,0,0,0,0,0,0,0,0,0,0,0,0,0,0,0,0,0,0,0,0,0,0,0,0,0,0,0,0,0,0,0,0,0,0,0,0,0,0,0,0,0,0,0,0,0,0,0,0,0,0,0,0,0,0,0,0,773,774,718,718,718,718,718,718,770,0,0,0,773,774,770,0,0,0,0,0,0,0,0,0,773,774,718,718,718,770,0,0,0,0,0,0,773,774,718,718,718,718,718,718,770,31,31,31,31,0,0,0,0,0,0,0,31,31,773,774,706,706,714,718,718,770,0,0,0,0,0,0,0,31,31,31,773,774,770,0,0,0,0,0,0,0,0,0,0,0,0,0,0,0,31,31,773,774,706,706,714,718,718,770,0,0,0,0,0,0,0,0,953,954,883,883,955,956,0,0,0,0,0,0,0,0,0,0,0,0,0,0,0,0,32,32,0,0,0,0,0,0,0,0,31,31,0,0,0,0,0,0,0,0,32,32,0,0,0,0,0,0,0,0,0,0,0,0,0,0,0,0,0,0,0,0,0,0,0,0,0,0,0,0,0,0,0,0,0,0,0,0,0,0,0,0,0,0,0,0,0,0,0,0,0,0,0,0,0,0,0,0,0,0,0,0,0,0,0,0,0,0,0,0,0,0,0,0,0,0,0,0,0,0,0,0,773,774,718,718,718,718,718,718,770,0,0,0,0,0,0,0,0,769,718,718,718,718,718,718,775,776,0,0,0,0,773,774,718,718,775,776,0,0,0,0,773,774,706,706,706,706,706,706,706,706,711,0,0,0,0,0,0,0,0,0,0,0,0,0,0,0,0,0,0,0,0,0,0,0,0,0,0,0,0,0,0,0,0,0,0,0,0,0,0,0,0,0,0,0,0,0,0,1,58,
1,1,1,1,1,1,1,1,1,1,1,1,1,1,1,1,1,1,1,1,1,31,31,31,31,31,773,774,706,706,706,706,706,775,776,1,1,1,1,1,1,1,1,1,773,774,706,706,706,706,706,775,776,1,1,1,1,1,1,1,1,1,773,774,714,718,718,718,718,718,718,718,715,706,706,706,706,706,775,776,1,1,1,1,1,1,1,1,1,773,774,706,706,706,706,706,706,706,706,711,1,1,1,1,1,1,1,1,1,1,737,1,1,1,879,1,1,1,1,0,1,1,1,1,1,1,1,7635,737,7633,1,1,1,1,1,1,1,1,7635,737,7633,1,1,1,1,1,7635,737,7633,1,1,1,1,1,1,1,1,1,1,1,1,737,1,1,879,1,1,879,1,1,1,737,1,1,1,1,737,1,1,879,1,1,879,1,1,1,737,0,0,0,0,737,0,0,0,1,1,737,1,1,1,1,1,737,1,1,1,879,1,1,1,1,1,1,1,1,1,1,1,1,755,1,1,1,1,1,1,1,1,1,1,1,1,1,1,1,1,1,1,1,1,1,1,1,1,1,1,1,1,1,1,1,1,1,1,1,1,1,1,1,1,1,1,1,1,1,1,1,1,1,1,1,1,1,1,1,1,1,1,1,1,1,1,1,1,1,1,1,1,1,1,1,1,1,1,1,1,1,1,1,1,1,1,1,1,1,1,1,1,1,1,1,1,1,1,1,1,1,1,1,1,1,1,1,1,1,1,1,1,1,1,1,1,1,1,1,1,1,1,1,1,1,1,1,1,1,1,1,1,1,1,1,1,1,1,1,1,1,1,1,1,1,1,1,1,1,1,1,1,1,1,1,1,1,1,1,1,1,1,1,1,1,1,1,1,1,1,1,1,1,1,1,1,1,1,1,1,1,1,1,1,1,1,1,1,1,1,1,1,1,1,1,1,1,1,1,1,1,1,1,1,1,1,1,1,1,1,1,1,1,1,1,1,1,1,1,1,1,1,1,1,1,1,1,1,1,1,1,1,1,1,1,1,1,1,1,1,1,1,1,1,1,1,1,1,1,1,1,1,1,1,1,1,1,1,1,1,1,1,1,1,1,1,1,1,1,1,1,1,1,1,1,1,1,1,1,1,1,1,1,1,1,1,1,1,1,1,1,1,1,1,1,1,1,1,1,1,1,1,1,1,1,1,1,1,1,1,1,1,1,1,1,1,1,1,1,1,1,1,1,1,1,1,1,1,1,1,1,1,1,1,1,1,1,1,1,1,1,1,1,1,1,1,1,1,1,1,1,1,1,1,1,1,1,1,1,1,1,1,1,1,1,1,1,1,1,1,1,1,1,1,1,1,1,1,1,1,1,1,1,1,1,1,1,1,1,1,1,1,1,1,1,1,1,1,1,1,1,1,1,1,1,1,1,1,1,1,1,1,1,1,1,1,1,1,1,1,1,1,1,1,1,1,1,1,1,1,1,1,1,1,1,1,1,1,1,1,1,1,1,1,1,1,1,1,1,1,1,1,1,1,1,1,1,1,1,1,1,1,1,1,1,1,1,1,1,1,1,1,1,1,1,1,718,718,718,718,718,718,718,718,718,718,718,718,709,1,1,1,1,1,1,1,1,1,1,1,879,1,1,1,1,1,1,1,1,1,1,1,1,1,1,1,1,1,1,1,1,1,1,1,1,1,1,1,1,1,737,1,1,1,1,1,1,1,1,1,1,1,1,1,879,1,1,1,1,1,1,1,1,1,1,1,1,1,1,7635,737,7633,1,1,1,1,1,1,1,1,1,1,1,1,879,1,1,1,1,1,879,1,1,1,1,1,1,879,1,1,1,1,1,1,1,1,1,1,1,1,1,1,1,1,1,1,1,31,31,31,31,31,31,31,31,31,31,31,31,31,31,31,31,31,31,31,31,31,31,31,31,31,31,31,31,31,31,31,31,31,31,31,31,31,31,31,31,31,31,31,31,31,31,31,31,31,31,31,31,31,31,31,31,31,31,31,31,31,31,31,31,31,31,31,31,31,31,31,31,31,31,31,31,31,31,31,31,31,31,31,31,31,31,31,31,31,31,31,31,31,31,31,31,31,31,31,31,31,31,31,31,31,31,31,31,31,773,774,718,718,718,718,775,776,0,0,0,0,0,0,708,718,718,718,709,31,31,31,31,31,31,31,31,710,706,711,31,31,31,708,718,718,709,31,31,31,719,31,31,31,31,708,718,709,31,31,31,31,31,31,31,31,710,706,711,31,31,31,31,31,0,0,0,0,0,0,0,0,0,0,710,706,711,0,0,0,719,0,0,0,0,0,710,711,0,0,0,0,0,0,0,0,0,0,0,0,710,711,0,0,0,0,0,0,719,0,0,0,0,0,0,0,0,0,0,719,0,0,0,0,0,0,0,0,773,774,718,718,718,718,718,718,718,718,718,770,773,774,718,718,718,770,0,0,0,0,0,0,773,774,718,718,718,718,718,718,770,0,0,0,773,774,718,718,718,718,718,718,718,718,715,706,706,706,706,775,776,31,31,31,773,774,706,706,714,718,718,718,718,718,718,718,770,31,31,31,31,773,774,706,706,706,714,718,718,770,0,0,0,0,0,0,0,0,0,0,31,31,773,774,706,706,714,718,718,718,718,718,718,718,706,706,706,775,776,0,0,0,0,0,32,32,0,0,0,0,0,0,0,0,773,774,775,776,0,0,0,0,0,0,0,0,0,0,0,0,0,0,773,774,706,706,775,776,0,0,0,0,0,0,0,0,0,0,0,0,0,0,773,774,775,776,0,0,0,0,0,0,0,0,0,0,0,0,0,0,0,0,0,0,710,706,711,0,0,0,0,0,0,0,0,0,0,0,0,0,0,0,0,0,0,0,0,0,0,0,0,0,0,0,0,0,0,0,0,0,0,769,775,776,0,0,0,0,0,0,0,0,0,0,773,774,718,718,718,718,718,718,718,718,718,770,0,0,0,0,0,0,769,718,718,718,718,718,718,718,718,718,775,776,773,774,718,718,718,718,718,718,775,776,773,774,718,718,718,718,718,718,718,718,718,718,709,0,0,0,0,0,0,0,0,0,0,0,0,0,0,0,0,0,0,0,0,0,0,0,0,0,0,0,0,0,0,0,0,0,0,0,0,0,0,0,0,0,0,0,0,0,0,1,58,
1,1,1,1,1,1,1,1,1,1,1,1,1,1,31,31,31,31,31,773,774,706,706,706,706,706,714,718,718,718,718,718,718,718,715,775,776,31,31,31,31,31,773,774,714,718,718,718,718,718,718,718,715,775,776,31,31,31,31,31,773,774,714,718,718,718,718,718,718,718,718,718,718,718,718,718,718,718,718,715,775,776,31,31,31,31,31,773,774,714,718,718,718,718,718,718,718,718,718,709,1,1,1,1,1,1,1,1,1,1,879,1,1,1,737,1,1,1,1,1,1,1,1,1,1,1,1,1,879,1,1,1,1,1,7635,737,7633,1,1,879,1,1,1,1,1,1,1,879,1,1,1,1,1,1,1,1,1,1,1,1,1,879,1,1,737,1,1,737,1,1,1,879,1,1,1,1,879,1,1,737,1,1,737,1,1,1,879,0,0,0,0,879,0,0,0,1,1,879,1,1,1,1,1,879,1,1,1,737,1,1,1,1,1,1,1,1,1,1,1,1,755,126,126,126,126,126,126,126,126,126,126,126,126,126,126,126,126,1,1,1,1,1,1,1,1,1,1,1,1,1,1,1,1,1,1,1,1,1,1,1,1,1,1,1,1,1,1,1,1,1,1,1,1,1,1,1,1,1,1,1,1,1,1,1,1,1,1,1,1,1,1,1,1,1,1,1,1,1,1,1,1,1,1,1,1,1,1,1,1,1,1,1,1,1,1,1,1,1,1,1,1,1,1,1,1,1,1,1,1,1,1,1,1,1,1,1,1,1,1,1,1,1,1,1,1,1,1,1,1,1,1,1,1,1,1,1,1,1,1,1,1,1,1,1,1,1,1,1,1,1,1,1,1,1,1,1,1,1,1,1,1,1,1,1,1,1,1,1,1,1,1,1,1,1,1,1,1,1,1,1,1,1,1,1,1,1,1,1,1,1,1,1,1,1,1,1,1,1,1,1,1,1,1,1,1,1,1,1,1,1,1,1,1,1,1,1,1,1,1,1,1,1,1,1,1,1,1,1,1,1,1,1,1,1,1,1,1,1,1,1,1,1,1,1,1,1,1,1,1,1,1,1,1,1,1,1,1,1,1,1,1,1,1,1,1,1,1,1,1,1,1,1,1,1,1,1,1,1,1,1,1,1,1,1,1,1,1,1,1,1,1,1,1,1,1,1,1,1,1,1,1,1,1,1,1,1,1,1,1,1,1,1,1,1,1,1,1,1,1,1,1,1,1,1,1,1,1,1,1,1,1,1,1,1,1,1,1,1,1,1,1,1,1,1,1,1,1,1,1,1,1,1,1,1,1,1,1,1,1,1,1,1,1,1,1,1,1,1,1,1,1,1,1,1,1,1,1,1,1,1,1,1,1,1,1,1,1,1,1,1,1,1,1,1,1,1,1,1,1,1,1,1,1,1,1,1,1,1,1,1,1,1,1,1,1,1,1,1,1,1,1,1,1,1,1,1,1,1,1,1,1,1,1,1,1,1,1,1,1,1,1,1,1,1,1,1,1,1,1,1,1,1,1,1,1,1,1,1,1,1,1,1,1,1,1,1,1,1,1,1,1,1,1,718,718,718,718,718,718,718,718,718,718,718,718,709,1,1,1,1,1,1,1,1,1,1,1,737,1,1,1,1,1,1,1,1,1,1,1,1,1,1,1,1,1,1,1,1,1,1,1,1,1,1,1,1,1,879,1,1,1,1,1,1,1,1,1,1,1,1,1,737,1,1,1,1,1,1,1,1,1,1,1,1,1,1,1,879,1,1,1,1,1,1,1,1,1,1,1,1,1,737,1,1,1,1,1,737,1,1,1,1,1,1,737,1,1,1,1,1,1,1,1,1,1,1,1,1,1,7635,737,7633,1,769,706,706,706,706,706,706,706,706,706,706,706,706,706,706,706,706,706,706,706,706,706,706,706,706,706,706,706,706,706,706,706,706,706,706,706,706,706,706,706,706,706,706,706,706,706,706,706,706,706,706,706,706,706,706,706,706,706,706,706,706,706,706,706,706,706,706,706,706,706,706,706,706,706,706,706,706,706,706,706,706,706,706,706,706,706,706,706,706,706,706,706,706,706,706,706,706,706,706,706,706,706,706,706,706,706,706,706,706,706,718,718,718,718,718,718,718,718,706,706,706,706,706,706,714,718,718,718,715,706,706,706,706,706,706,706,706,714,718,715,706,706,706,714,718,718,715,706,706,706,718,706,706,706,706,714,718,715,706,706,706,706,706,706,706,706,714,718,715,706,706,706,706,706,775,776,0,0,0,0,0,710,706,706,714,718,709,31,31,31,723,31,31,719,31,31,708,709,31,31,31,31,31,31,31,31,31,719,31,31,708,709,31,31,31,719,31,31,723,31,31,710,711,31,31,31,31,31,31,723,31,31,31,31,31,31,773,774,718,718,718,718,718,718,718,718,718,718,718,718,718,718,718,718,718,718,770,0,0,0,773,774,718,718,718,718,718,718,718,718,718,770,773,774,718,718,718,718,718,718,718,718,718,718,718,718,718,718,718,718,715,706,706,706,714,718,718,718,718,718,718,718,718,718,718,718,718,706,706,706,706,714,718,718,718,718,718,718,718,718,770,0,0,0,0,0,31,31,773,774,706,706,714,718,718,718,718,718,718,718,718,718,718,718,718,718,718,718,718,775,776,0,0,0,0,0,0,0,0,0,0,0,773,774,718,718,718,718,775,776,0,0,0,0,0,0,0,0,0,0,773,774,718,718,718,718,718,718,775,776,0,0,0,0,0,0,0,0,0,0,773,774,718,718,718,718,775,776,0,0,0,0,0,0,0,0,0,0,719,0,0,0,0,0,708,718,709,0,0,0,0,710,706,711,0,0,0,0,0,0,0,0,0,0,0,0,0,0,0,0,0,0,0,0,0,0,0,719,0,0,769,718,718,718,775,776,0,0,0,0,0,0,773,774,718,718,718,718,718,718,718,718,718,718,718,718,770,0,0,0,0,769,718,718,718,718,718,718,718,718,718,718,718,718,718,718,718,718,718,718,718,718,718,718,718,718,718,718,718,718,718,718,718,718,718,718,709,0,0,0,0,0,0,0,0,0,0,0,0,0,0,0,0,0,0,0,0,0,0,0,0,0,0,0,0,0,0,0,0,0,0,0,0,0,0,0,0,0,0,0,0,0,0,1,58,
1,1,1,1,0,1,1,1,1,0,1,1,773,774,706,706,706,706,706,714,718,718,718,718,718,718,718,718,718,718,718,718,718,718,718,718,715,706,706,706,706,706,714,718,718,718,718,718,718,718,718,718,718,718,715,706,706,706,706,706,714,718,718,718,718,718,718,718,718,718,718,718,718,718,718,718,718,718,718,718,718,715,706,706,706,706,706,714,718,718,718,718,718,718,718,718,718,718,718,709,31,31,31,31,31,31,31,31,31,31,737,31,31,31,879,31,31,31,31,31,31,31,31,31,31,31,31,31,737,31,31,31,31,31,31,879,31,31,31,737,31,31,31,31,31,31,31,737,31,31,31,31,31,31,31,31,31,31,31,31,31,737,31,31,879,31,31,879,31,31,31,737,31,31,31,31,737,31,31,879,31,31,879,31,31,31,737,31,31,31,31,737,31,31,31,31,31,737,31,31,31,31,31,737,31,31,31,879,31,31,31,31,31,31,31,31,31,31,31,31,755,126,126,126,126,126,126,126,126,126,126,126,126,126,126,126,126,1,1,1,1,1,1,1,1,1,1,1,1,1,1,1,1,1,1,1,1,1,1,1,1,1,1,1,1,1,1,1,1,1,1,1,1,1,1,1,1,1,1,1,1,1,1,1,1,1,1,1,1,1,1,1,1,1,1,1,1,1,1,1,1,1,1,1,1,1,1,1,1,1,1,1,1,1,1,1,1,1,1,1,1,1,1,1,1,1,1,1,1,1,1,1,1,1,1,1,1,1,1,1,1,1,1,1,1,1,1,1,1,1,1,1,1,1,1,1,1,1,1,1,1,1,1,1,1,1,1,1,1,1,1,1,1,1,1,1,1,1,1,1,1,1,1,1,1,1,1,1,1,1,1,1,1,1,1,1,1,1,1,1,1,1,1,1,1,1,1,1,1,1,1,1,1,1,1,1,1,1,1,1,1,1,1,1,1,1,1,1,1,1,1,1,1,1,1,1,1,1,1,1,1,1,1,1,1,1,1,1,1,1,1,1,1,1,1,1,1,1,1,1,1,1,1,1,1,1,1,1,1,1,1,1,1,1,1,1,1,1,1,1,1,1,1,1,1,1,1,1,1,1,1,1,1,1,1,1,1,1,1,1,1,1,1,1,1,1,1,1,1,1,1,1,1,1,1,1,1,1,1,1,1,1,1,1,1,1,1,1,1,1,1,1,1,1,1,1,1,1,1,1,1,1,1,1,1,1,1,1,1,1,1,1,1,1,1,1,1,1,1,1,1,1,1,1,1,1,1,1,1,1,1,1,1,1,1,1,1,1,1,1,1,1,1,1,1,1,1,1,1,1,1,1,1,1,1,1,1,1,1,1,1,1,1,1,1,1,1,1,1,1,1,1,1,1,1,1,1,1,1,1,1,1,1,1,1,1,1,1,1,1,1,1,1,1,1,1,1,1,1,1,1,1,1,1,1,1,1,1,1,1,1,1,1,1,1,1,1,1,1,1,1,1,1,1,1,1,1,1,1,1,1,1,1,1,1,1,1,1,1,1,1,1,1,1,1,1,1,1,1,1,1,1,1,718,718,718,718,718,718,718,718,718,718,718,718,709,31,31,31,31,31,31,31,31,31,31,31,879,31,31,31,31,31,31,31,31,31,31,31,31,31,31,31,31,31,31,31,31,31,31,31,31,31,31,31,31,31,737,31,31,31,31,31,31,31,31,31,31,31,31,31,879,31,31,31,31,31,31,31,31,31,31,31,31,31,31,31,737,31,31,31,31,31,31,31,31,31,31,31,31,31,879,31,31,31,31,31,879,31,31,31,31,31,31,879,31,31,31,31,31,31,31,31,31,31,31,31,31,31,31,879,31,769,718,718,718,718,718,718,718,718,718,718,1425,1426,1427,1428,1425,1426,1427,1428,1425,1426,1427,1428,1425,1426,1427,1428,1425,1426,1427,1428,1425,1426,1427,1428,1425,1426,1427,1428,1425,1426,1427,1428,1425,1426,1427,1428,1425,1426,1427,1428,1425,1426,1427,1428,1425,1426,1427,1428,1425,1426,1427,1428,1425,1426,1427,1428,1425,1426,1427,1428,1425,1426,1427,1428,1425,1426,1427,1428,1425,1426,1427,1428,1425,1426,1427,1428,1425,1426,1427,1428,1425,1426,1427,1428,1425,1426,1427,1428,1425,1426,1427,1428,1425,1426,1427,1428,1425,1426,1427,1428,1425,1426,1427,1428,1425,1426,1427,1428,1425,1426,1427,1428,1425,1426,1427,1428,1425,1426,1427,1428,1425,1426,1427,1428,1425,1426,1427,1428,1425,1426,1427,1428,1425,1426,1427,1428,1425,1426,1427,1428,1425,1426,1427,1428,1425,1426,1427,1428,1425,1426,1427,1428,1425,1426,1427,1428,718,718,718,718,718,718,718,718,718,715,706,706,706,706,706,714,718,718,718,718,715,706,706,706,718,706,706,718,706,706,714,715,706,706,706,706,706,706,706,706,706,718,706,706,714,715,706,706,706,718,706,706,718,706,706,714,715,706,706,706,706,706,706,718,706,706,706,706,706,706,718,718,718,718,718,718,718,718,718,718,718,718,718,718,718,718,718,718,718,718,718,770,773,774,718,718,718,718,718,718,718,718,718,718,718,718,718,718,718,718,718,718,718,718,718,718,718,718,718,718,718,718,718,718,718,718,718,718,718,718,718,718,718,718,718,718,718,718,718,718,718,718,718,718,718,718,718,718,718,718,718,718,718,718,718,770,31,31,773,774,706,706,714,718,718,718,718,718,718,718,718,718,718,718,718,718,718,718,718,718,718,718,718,718,718,775,776,0,0,0,0,0,0,0,773,774,718,718,718,718,718,718,718,718,775,776,31,31,31,31,31,31,773,774,718,718,718,718,718,718,718,718,718,718,775,776,31,31,31,31,31,31,773,774,718,718,718,718,718,718,718,718,706,706,706,711,31,31,31,31,31,31,723,31,31,31,31,31,708,718,709,31,31,31,31,708,718,709,31,31,31,31,31,31,31,31,31,31,31,31,31,31,31,31,31,31,31,31,31,31,31,723,31,769,718,718,718,718,718,718,775,776,31,31,773,774,718,718,718,718,718,718,718,718,718,718,718,718,718,718,718,770,31,31,769,718,718,718,718,718,718,718,718,718,718,718,718,718,718,718,718,718,718,718,718,718,718,718,718,718,718,718,718,718,718,718,718,718,718,718,709,31,31,31,31,31,31,31,31,31,31,31,31,31,31,31,31,31,31,31,31,31,31,31,31,31,31,31,31,31,31,31,31,31,31,31,31,31,31,31,0,0,0,0,0,0,0,1,58
</data>
 </layer>
 <objectgroup id="7" name="SP">
  <object id="422" gid="16395" x="176" y="432" width="16" height="16"/>
  <object id="423" gid="16447" x="248" y="368" width="16" height="16">
   <properties>
    <property name="color channel" value="3"/>
   </properties>
  </object>
  <object id="424" gid="16388" x="223" y="256" width="16" height="16">
   <properties>
    <property name="Channel" value="1"/>
    <property name="Color" type="color" value="#ffb40002"/>
   </properties>
  </object>
  <object id="479" gid="16388" x="405" y="256" width="16" height="16">
   <properties>
    <property name="Channel" value="1"/>
    <property name="Color" type="color" value="#ffb40002"/>
   </properties>
  </object>
  <object id="482" gid="16388" x="591" y="256" width="16" height="16">
   <properties>
    <property name="Channel" value="1"/>
    <property name="Color" type="color" value="#ffb40002"/>
   </properties>
  </object>
  <object id="486" gid="16388" x="767" y="256" width="16" height="16">
   <properties>
    <property name="Channel" value="1"/>
    <property name="Color" type="color" value="#ffb40002"/>
   </properties>
  </object>
  <object id="491" gid="16388" x="868" y="256" width="16" height="16">
   <properties>
    <property name="Channel" value="1"/>
    <property name="Color" type="color" value="#ffb40002"/>
   </properties>
  </object>
  <object id="497" gid="16388" x="1065" y="256" width="16" height="16">
   <properties>
    <property name="Channel" value="1"/>
    <property name="Color" type="color" value="#ffb40002"/>
   </properties>
  </object>
  <object id="501" gid="16388" x="1244" y="256" width="16" height="16">
   <properties>
    <property name="Channel" value="1"/>
    <property name="Color" type="color" value="#ffb40002"/>
   </properties>
  </object>
  <object id="505" gid="16388" x="1424" y="256" width="16" height="16">
   <properties>
    <property name="Channel" value="1"/>
    <property name="Color" type="color" value="#ffb40002"/>
   </properties>
  </object>
  <object id="425" gid="16388" x="239" y="256" width="16" height="16">
   <properties>
    <property name="Channel" value="1"/>
    <property name="Color" type="color" value="#ff000000"/>
    <property name="Frames" type="int" value="21"/>
   </properties>
  </object>
  <object id="478" gid="16388" x="421" y="256" width="16" height="16">
   <properties>
    <property name="Channel" value="1"/>
    <property name="Color" type="color" value="#ff000000"/>
    <property name="Frames" type="int" value="21"/>
   </properties>
  </object>
  <object id="483" gid="16388" x="607" y="256" width="16" height="16">
   <properties>
    <property name="Channel" value="1"/>
    <property name="Color" type="color" value="#ff000000"/>
    <property name="Frames" type="int" value="21"/>
   </properties>
  </object>
  <object id="487" gid="16388" x="783" y="256" width="16" height="16">
   <properties>
    <property name="Channel" value="1"/>
    <property name="Color" type="color" value="#ff000000"/>
    <property name="Frames" type="int" value="21"/>
   </properties>
  </object>
  <object id="492" gid="16388" x="884" y="256" width="16" height="16">
   <properties>
    <property name="Channel" value="1"/>
    <property name="Color" type="color" value="#ff000000"/>
    <property name="Frames" type="int" value="21"/>
   </properties>
  </object>
  <object id="498" gid="16388" x="1081" y="256" width="16" height="16">
   <properties>
    <property name="Channel" value="1"/>
    <property name="Color" type="color" value="#ff000000"/>
    <property name="Frames" type="int" value="21"/>
   </properties>
  </object>
  <object id="502" gid="16388" x="1260" y="256" width="16" height="16">
   <properties>
    <property name="Channel" value="1"/>
    <property name="Color" type="color" value="#ff000000"/>
    <property name="Frames" type="int" value="21"/>
   </properties>
  </object>
  <object id="506" gid="16388" x="1440" y="256" width="16" height="16">
   <properties>
    <property name="Channel" value="1"/>
    <property name="Color" type="color" value="#ff000000"/>
    <property name="Frames" type="int" value="21"/>
   </properties>
  </object>
  <object id="431" gid="16388" x="315" y="256" width="16" height="16">
   <properties>
    <property name="Channel" value="2"/>
    <property name="Color" type="color" value="#ffb40002"/>
    <property name="Frames" type="int" value="0"/>
   </properties>
  </object>
  <object id="481" gid="16388" x="497" y="256" width="16" height="16">
   <properties>
    <property name="Channel" value="2"/>
    <property name="Color" type="color" value="#ffb40002"/>
    <property name="Frames" type="int" value="0"/>
   </properties>
  </object>
  <object id="484" gid="16388" x="676" y="256" width="16" height="16">
   <properties>
    <property name="Channel" value="2"/>
    <property name="Color" type="color" value="#ffb40002"/>
    <property name="Frames" type="int" value="0"/>
   </properties>
  </object>
  <object id="496" gid="16388" x="800" y="256" width="16" height="16">
   <properties>
    <property name="Channel" value="2"/>
    <property name="Color" type="color" value="#ffb40002"/>
    <property name="Frames" type="int" value="0"/>
   </properties>
  </object>
  <object id="494" gid="16388" x="965" y="256" width="16" height="16">
   <properties>
    <property name="Channel" value="2"/>
    <property name="Color" type="color" value="#ffb40002"/>
    <property name="Frames" type="int" value="0"/>
   </properties>
  </object>
  <object id="499" gid="16388" x="1155" y="256" width="16" height="16">
   <properties>
    <property name="Channel" value="2"/>
    <property name="Color" type="color" value="#ffb40002"/>
    <property name="Frames" type="int" value="0"/>
   </properties>
  </object>
  <object id="503" gid="16388" x="1336" y="256" width="16" height="16">
   <properties>
    <property name="Channel" value="2"/>
    <property name="Color" type="color" value="#ffb40002"/>
    <property name="Frames" type="int" value="0"/>
   </properties>
  </object>
  <object id="432" gid="16388" x="331" y="256" width="16" height="16">
   <properties>
    <property name="Channel" value="2"/>
    <property name="Color" type="color" value="#ff000000"/>
    <property name="Frames" type="int" value="18"/>
   </properties>
  </object>
  <object id="480" gid="16388" x="513" y="256" width="16" height="16">
   <properties>
    <property name="Channel" value="2"/>
    <property name="Color" type="color" value="#ff000000"/>
    <property name="Frames" type="int" value="18"/>
   </properties>
  </object>
  <object id="490" gid="16388" x="692" y="256" width="16" height="16">
   <properties>
    <property name="Channel" value="2"/>
    <property name="Color" type="color" value="#ff000000"/>
    <property name="Frames" type="int" value="18"/>
   </properties>
  </object>
  <object id="495" gid="16388" x="816" y="256" width="16" height="16">
   <properties>
    <property name="Channel" value="2"/>
    <property name="Color" type="color" value="#ff000000"/>
    <property name="Frames" type="int" value="18"/>
   </properties>
  </object>
  <object id="493" gid="16388" x="981" y="256" width="16" height="16">
   <properties>
    <property name="Channel" value="2"/>
    <property name="Color" type="color" value="#ff000000"/>
    <property name="Frames" type="int" value="18"/>
   </properties>
  </object>
  <object id="500" gid="16388" x="1171" y="256" width="16" height="16">
   <properties>
    <property name="Channel" value="2"/>
    <property name="Color" type="color" value="#ff000000"/>
    <property name="Frames" type="int" value="18"/>
   </properties>
  </object>
  <object id="504" gid="16388" x="1352" y="256" width="16" height="16">
   <properties>
    <property name="Channel" value="2"/>
    <property name="Color" type="color" value="#ff000000"/>
    <property name="Frames" type="int" value="18"/>
   </properties>
  </object>
  <object id="435" gid="16388" x="460" y="256" width="16" height="16">
   <properties>
    <property name="Channel" value="GROUND"/>
    <property name="Color" type="color" value="#ff8b0000"/>
   </properties>
  </object>
  <object id="508" gid="16388" x="836" y="256" width="16" height="16">
   <properties>
    <property name="Channel" value="GROUND"/>
    <property name="Color" type="color" value="#ff8b0000"/>
   </properties>
  </object>
  <object id="436" gid="16388" x="476" y="256" width="16" height="16">
   <properties>
    <property name="Channel" value="GROUND"/>
    <property name="Color" type="color" value="#ff000000"/>
    <property name="Frames" type="int" value="18"/>
   </properties>
  </object>
  <object id="507" gid="16388" x="852" y="256" width="16" height="16">
   <properties>
    <property name="Channel" value="GROUND"/>
    <property name="Color" type="color" value="#ff000000"/>
    <property name="Frames" type="int" value="18"/>
   </properties>
  </object>
  <object id="437" gid="16388" x="476" y="240" width="16" height="16">
   <properties>
    <property name="Channel" value="BG"/>
    <property name="Color" type="color" value="#ff000000"/>
    <property name="Frames" type="int" value="21"/>
   </properties>
  </object>
  <object id="510" gid="16388" x="852" y="240" width="16" height="16">
   <properties>
    <property name="Channel" value="BG"/>
    <property name="Color" type="color" value="#ff000000"/>
    <property name="Frames" type="int" value="21"/>
   </properties>
  </object>
  <object id="438" gid="16388" x="460" y="240" width="16" height="16">
   <properties>
    <property name="Channel" value="BG"/>
    <property name="Color" type="color" value="#ffab0000"/>
   </properties>
  </object>
  <object id="509" gid="16388" x="836" y="240" width="16" height="16">
   <properties>
    <property name="Channel" value="BG"/>
    <property name="Color" type="color" value="#ffab0000"/>
   </properties>
  </object>
  <object id="453" gid="16388" x="832" y="224" width="16" height="16">
   <properties>
    <property name="Channel" value="4"/>
    <property name="Color" type="color" value="#ff000000"/>
    <property name="Frames" type="int" value="30"/>
   </properties>
  </object>
  <object id="454" gid="16388" x="832" y="208" width="16" height="16">
   <properties>
    <property name="Channel" value="3"/>
    <property name="Color" type="color" value="#ff000000"/>
    <property name="Frames" type="int" value="30"/>
   </properties>
  </object>
  <object id="463" gid="16388" x="1206" y="256" width="16" height="16">
   <properties>
    <property name="Channel" value="GROUND"/>
    <property name="Color" type="color" value="#ff8b0000"/>
   </properties>
  </object>
  <object id="464" gid="16388" x="1222" y="256" width="16" height="16">
   <properties>
    <property name="Channel" value="GROUND"/>
    <property name="Color" type="color" value="#ff000000"/>
    <property name="Frames" type="int" value="18"/>
   </properties>
  </object>
  <object id="465" gid="16388" x="1222" y="240" width="16" height="16">
   <properties>
    <property name="Channel" value="BG"/>
    <property name="Color" type="color" value="#ff000000"/>
    <property name="Frames" type="int" value="21"/>
   </properties>
  </object>
  <object id="466" gid="16388" x="1206" y="240" width="16" height="16">
   <properties>
    <property name="Channel" value="BG"/>
    <property name="Color" type="color" value="#ffab0000"/>
   </properties>
  </object>
  <object id="473" gid="16388" x="1520" y="256" width="16" height="16">
   <properties>
    <property name="Channel" value="3"/>
    <property name="Color" type="color" value="#ff000000"/>
    <property name="Frames" type="int" value="21"/>
   </properties>
  </object>
  <object id="474" gid="16388" x="1520" y="240" width="16" height="16">
   <properties>
    <property name="Channel" value="2"/>
    <property name="Color" type="color" value="#ff450006"/>
    <property name="Frames" type="int" value="18"/>
   </properties>
  </object>
  <object id="475" gid="16388" x="1520" y="224" width="16" height="16">
   <properties>
    <property name="Channel" value="1"/>
    <property name="Color" type="color" value="#ffcc0200"/>
    <property name="Frames" type="int" value="21"/>
   </properties>
  </object>
  <object id="476" gid="16388" x="1520" y="272" width="16" height="16">
   <properties>
    <property name="Channel" value="4"/>
    <property name="Color" type="color" value="#ff000000"/>
    <property name="Frames" type="int" value="18"/>
   </properties>
  </object>
  <object id="511" gid="16389" x="256" y="416" width="16" height="16">
   <properties>
    <property name="color channel" value="2"/>
   </properties>
  </object>
  <object id="596" gid="16389" x="256" y="304" width="16" height="16">
   <properties>
    <property name="color channel" value="1"/>
    <property name="vflip" type="bool" value="true"/>
   </properties>
  </object>
  <object id="597" gid="16389" x="368" y="320" width="16" height="16">
   <properties>
    <property name="color channel" value="1"/>
    <property name="vflip" type="bool" value="true"/>
   </properties>
  </object>
  <object id="598" gid="16389" x="480" y="336" width="16" height="16">
   <properties>
    <property name="color channel" value="1"/>
    <property name="vflip" type="bool" value="true"/>
   </properties>
  </object>
  <object id="599" gid="16389" x="624" y="304" width="16" height="16">
   <properties>
    <property name="color channel" value="1"/>
    <property name="vflip" type="bool" value="true"/>
   </properties>
  </object>
  <object id="615" gid="16389" x="1088" y="304" width="16" height="16">
   <properties>
    <property name="color channel" value="1"/>
    <property name="vflip" type="bool" value="true"/>
   </properties>
  </object>
  <object id="616" gid="16389" x="1344" y="304" width="16" height="16">
   <properties>
    <property name="color channel" value="1"/>
    <property name="vflip" type="bool" value="true"/>
   </properties>
  </object>
  <object id="611" gid="16389" x="816" y="336" width="16" height="16">
   <properties>
    <property name="color channel" value="1"/>
    <property name="vflip" type="bool" value="true"/>
   </properties>
  </object>
  <object id="512" gid="16389" x="368" y="400" width="16" height="16">
   <properties>
    <property name="color channel" value="2"/>
   </properties>
  </object>
  <object id="586" gid="16389" x="480" y="384" width="16" height="16">
   <properties>
    <property name="color channel" value="2"/>
   </properties>
  </object>
  <object id="587" gid="16389" x="552" y="405" width="16" height="16">
   <properties>
    <property name="color channel" value="2"/>
    <property name="enable rotation" type="bool" value="true"/>
    <property name="rotation angle" type="int" value="26"/>
   </properties>
  </object>
  <object id="606" gid="16389" x="552" y="315" width="16" height="16">
   <properties>
    <property name="color channel" value="1"/>
    <property name="enable rotation" type="bool" value="true"/>
    <property name="rotation angle" type="int" value="154"/>
   </properties>
  </object>
  <object id="612" gid="16389" x="872" y="347" width="16" height="16">
   <properties>
    <property name="color channel" value="2"/>
    <property name="enable rotation" type="bool" value="true"/>
    <property name="rotation angle" type="int" value="206"/>
   </properties>
  </object>
  <object id="740" gid="16389" x="1152" y="317" width="16" height="16">
   <properties>
    <property name="color channel" value="1"/>
    <property name="enable rotation" type="bool" value="true"/>
    <property name="rotation angle" type="int" value="206"/>
   </properties>
  </object>
  <object id="738" gid="16389" x="872" y="347" width="16" height="16">
   <properties>
    <property name="color channel" value="2"/>
    <property name="enable rotation" type="bool" value="true"/>
    <property name="rotation angle" type="int" value="206"/>
   </properties>
  </object>
  <object id="739" gid="16389" x="872" y="347" width="16" height="16">
   <properties>
    <property name="color channel" value="1"/>
    <property name="enable rotation" type="bool" value="true"/>
    <property name="rotation angle" type="int" value="206"/>
   </properties>
  </object>
  <object id="613" gid="16389" x="952" y="347" width="16" height="16">
   <properties>
    <property name="color channel" value="1"/>
    <property name="enable rotation" type="bool" value="true"/>
    <property name="rotation angle" type="int" value="154"/>
   </properties>
  </object>
  <object id="589" gid="16389" x="840" y="405" width="16" height="16">
   <properties>
    <property name="color channel" value="2"/>
    <property name="enable rotation" type="bool" value="true"/>
    <property name="rotation angle" type="int" value="26"/>
   </properties>
  </object>
  <object id="590" gid="16389" x="984" y="405" width="16" height="16">
   <properties>
    <property name="color channel" value="2"/>
    <property name="enable rotation" type="bool" value="true"/>
    <property name="rotation angle" type="int" value="-26"/>
   </properties>
  </object>
  <object id="591" gid="16389" x="1048" y="373" width="16" height="16">
   <properties>
    <property name="color channel" value="2"/>
    <property name="enable rotation" type="bool" value="true"/>
    <property name="rotation angle" type="int" value="-26"/>
   </properties>
  </object>
  <object id="592" gid="16389" x="1128" y="373" width="16" height="16">
   <properties>
    <property name="color channel" value="2"/>
    <property name="enable rotation" type="bool" value="true"/>
    <property name="rotation angle" type="int" value="26"/>
   </properties>
  </object>
  <object id="593" gid="16389" x="1272" y="405" width="16" height="16">
   <properties>
    <property name="color channel" value="2"/>
    <property name="enable rotation" type="bool" value="true"/>
    <property name="rotation angle" type="int" value="26"/>
   </properties>
  </object>
  <object id="513" gid="16389" x="624" y="416" width="16" height="16">
   <properties>
    <property name="color channel" value="2"/>
   </properties>
  </object>
  <object id="514" gid="16389" x="768" y="384" width="16" height="16">
   <properties>
    <property name="color channel" value="2"/>
   </properties>
  </object>
  <object id="515" gid="16389" x="912" y="416" width="16" height="16">
   <properties>
    <property name="color channel" value="2"/>
   </properties>
  </object>
  <object id="516" gid="16389" x="1200" y="384" width="16" height="16">
   <properties>
    <property name="color channel" value="2"/>
   </properties>
  </object>
  <object id="517" gid="16389" x="1344" y="416" width="16" height="16">
   <properties>
    <property name="color channel" value="2"/>
   </properties>
  </object>
  <object id="518" gid="16390" x="1472" y="384" width="16" height="16">
   <properties>
    <property name="color channel" value="2"/>
    <property name="hflip" type="bool" value="true"/>
   </properties>
  </object>
  <object id="610" gid="16390" x="752" y="336" width="16" height="16">
   <properties>
    <property name="color channel" value="1"/>
    <property name="hflip" type="bool" value="false"/>
    <property name="vflip" type="bool" value="true"/>
   </properties>
  </object>
  <object id="741" gid="16390" x="1216" y="336" width="16" height="16">
   <properties>
    <property name="color channel" value="1"/>
    <property name="hflip" type="bool" value="false"/>
    <property name="vflip" type="bool" value="true"/>
   </properties>
  </object>
  <object id="519" gid="16390" x="192" y="429" width="16" height="16">
   <properties>
    <property name="color channel" value="2"/>
    <property name="enable rotation" type="bool" value="true"/>
    <property name="hflip" type="bool" value="false"/>
    <property name="rotation angle" type="int" value="-26"/>
   </properties>
  </object>
  <object id="595" gid="16390" x="192" y="291" width="16" height="16">
   <properties>
    <property name="color channel" value="1"/>
    <property name="enable rotation" type="bool" value="true"/>
    <property name="hflip" type="bool" value="false"/>
    <property name="rotation angle" type="int" value="206"/>
    <property name="vflip" type="bool" value="false"/>
   </properties>
  </object>
  <object id="521" gid="16390" x="304" y="413" width="16" height="16">
   <properties>
    <property name="color channel" value="2"/>
    <property name="enable rotation" type="bool" value="true"/>
    <property name="hflip" type="bool" value="false"/>
    <property name="rotation angle" type="int" value="-26"/>
   </properties>
  </object>
  <object id="604" gid="16390" x="304" y="307" width="16" height="16">
   <properties>
    <property name="color channel" value="1"/>
    <property name="enable rotation" type="bool" value="true"/>
    <property name="hflip" type="bool" value="false"/>
    <property name="rotation angle" type="int" value="206"/>
    <property name="vflip" type="bool" value="false"/>
   </properties>
  </object>
  <object id="605" gid="16390" x="416" y="323" width="16" height="16">
   <properties>
    <property name="color channel" value="1"/>
    <property name="enable rotation" type="bool" value="true"/>
    <property name="hflip" type="bool" value="false"/>
    <property name="rotation angle" type="int" value="206"/>
    <property name="vflip" type="bool" value="false"/>
   </properties>
  </object>
  <object id="608" gid="16390" x="704" y="323" width="16" height="16">
   <properties>
    <property name="color channel" value="1"/>
    <property name="enable rotation" type="bool" value="true"/>
    <property name="hflip" type="bool" value="false"/>
    <property name="rotation angle" type="int" value="206"/>
    <property name="vflip" type="bool" value="false"/>
   </properties>
  </object>
  <object id="744" gid="16390" x="1408" y="317" width="16" height="16">
   <properties>
    <property name="color channel" value="1"/>
    <property name="enable rotation" type="bool" value="true"/>
    <property name="hflip" type="bool" value="false"/>
    <property name="rotation angle" type="int" value="206"/>
    <property name="vflip" type="bool" value="false"/>
   </properties>
  </object>
  <object id="609" gid="16390" x="672" y="307" width="16" height="16">
   <properties>
    <property name="color channel" value="1"/>
    <property name="enable rotation" type="bool" value="true"/>
    <property name="hflip" type="bool" value="false"/>
    <property name="rotation angle" type="int" value="206"/>
    <property name="vflip" type="bool" value="false"/>
   </properties>
  </object>
  <object id="614" gid="16390" x="1033" y="307" width="16" height="16">
   <properties>
    <property name="color channel" value="1"/>
    <property name="enable rotation" type="bool" value="true"/>
    <property name="hflip" type="bool" value="false"/>
    <property name="rotation angle" type="int" value="154"/>
    <property name="vflip" type="bool" value="false"/>
   </properties>
  </object>
  <object id="743" gid="16390" x="1266" y="327" width="16" height="16">
   <properties>
    <property name="color channel" value="1"/>
    <property name="enable rotation" type="bool" value="true"/>
    <property name="hflip" type="bool" value="false"/>
    <property name="rotation angle" type="int" value="154"/>
    <property name="vflip" type="bool" value="false"/>
   </properties>
  </object>
  <object id="522" gid="16390" x="416" y="397" width="16" height="16">
   <properties>
    <property name="color channel" value="2"/>
    <property name="enable rotation" type="bool" value="true"/>
    <property name="hflip" type="bool" value="false"/>
    <property name="rotation angle" type="int" value="-26"/>
   </properties>
  </object>
  <object id="600" gid="16390" x="672" y="413" width="16" height="16">
   <properties>
    <property name="color channel" value="2"/>
    <property name="enable rotation" type="bool" value="true"/>
    <property name="hflip" type="bool" value="false"/>
    <property name="rotation angle" type="int" value="-26"/>
   </properties>
  </object>
  <object id="602" gid="16390" x="1392" y="413" width="16" height="16">
   <properties>
    <property name="color channel" value="2"/>
    <property name="enable rotation" type="bool" value="true"/>
    <property name="hflip" type="bool" value="false"/>
    <property name="rotation angle" type="int" value="-26"/>
   </properties>
  </object>
  <object id="601" gid="16390" x="704" y="397" width="16" height="16">
   <properties>
    <property name="color channel" value="2"/>
    <property name="enable rotation" type="bool" value="true"/>
    <property name="hflip" type="bool" value="false"/>
    <property name="rotation angle" type="int" value="-26"/>
   </properties>
  </object>
  <object id="603" gid="16390" x="1424" y="397" width="16" height="16">
   <properties>
    <property name="color channel" value="2"/>
    <property name="enable rotation" type="bool" value="true"/>
    <property name="hflip" type="bool" value="false"/>
    <property name="rotation angle" type="int" value="-26"/>
   </properties>
  </object>
  <object id="524" gid="16394" x="1696" y="336" width="16" height="16">
   <properties>
    <property name="bg layer" value="0"/>
   </properties>
  </object>
  <object id="2270" gid="16394" x="1648" y="368" width="16" height="16">
   <properties>
    <property name="bg layer" value="0"/>
   </properties>
  </object>
  <object id="2273" gid="16394" x="1872" y="288" width="16" height="16">
   <properties>
    <property name="bg layer" value="0"/>
   </properties>
  </object>
  <object id="2276" gid="16394" x="1936" y="272" width="16" height="16">
   <properties>
    <property name="bg layer" value="0"/>
   </properties>
  </object>
  <object id="2279" gid="16394" x="2288" y="384" width="16" height="16">
   <properties>
    <property name="bg layer" value="0"/>
   </properties>
  </object>
  <object id="2282" gid="16394" x="2416" y="368" width="16" height="16">
   <properties>
    <property name="bg layer" value="0"/>
   </properties>
  </object>
  <object id="2285" gid="16394" x="2464" y="336" width="16" height="16">
   <properties>
    <property name="bg layer" value="0"/>
   </properties>
  </object>
  <object id="2286" gid="16394" x="3104" y="368" width="16" height="16">
   <properties>
    <property name="bg layer" value="0"/>
   </properties>
  </object>
  <object id="2289" gid="16394" x="3200" y="368" width="16" height="16">
   <properties>
    <property name="bg layer" value="0"/>
   </properties>
  </object>
  <object id="2292" gid="16394" x="3376" y="304" width="16" height="16">
   <properties>
    <property name="bg layer" value="0"/>
   </properties>
  </object>
  <object id="525" gid="16402" x="1760" y="320" width="16" height="16"/>
  <object id="526" gid="16402" x="1792" y="240" width="16" height="16">
   <properties>
    <property name="vflip" type="bool" value="true"/>
   </properties>
  </object>
  <object id="527" gid="16404" x="1824" y="304" width="16" height="16"/>
  <object id="530" gid="16394" x="2000" y="256" width="16" height="16">
   <properties>
    <property name="bg layer" value="0"/>
    <property name="z index" type="int" value="15"/>
   </properties>
  </object>
  <object id="533" gid="16403" x="2512" y="304" width="16" height="16">
   <properties>
    <property name="bg layer" value="0"/>
   </properties>
  </object>
  <object id="539" gid="16411" x="3440" y="272" width="16" height="16"/>
  <object id="540" gid="16400" x="3440" y="272" width="16" height="16"/>
  <object id="541" gid="16394" x="3680" y="288" width="16" height="16">
   <properties>
    <property name="bg layer" value="0"/>
   </properties>
  </object>
  <object id="542" gid="16400" x="4416" y="304" width="16" height="16">
   <properties>
    <property name="bg layer" value="0"/>
    <property name="enable rotation" type="bool" value="true"/>
    <property name="rotation angle" type="int" value="90"/>
   </properties>
  </object>
  <object id="543" gid="16394" x="4496" y="240" width="16" height="16">
   <properties>
    <property name="bg layer" value="0"/>
   </properties>
  </object>
  <object id="544" gid="16394" x="4560" y="264" width="16" height="16">
   <properties>
    <property name="bg layer" value="0"/>
   </properties>
  </object>
  <object id="545" gid="16394" x="4624" y="288" width="16" height="16">
   <properties>
    <property name="bg layer" value="0"/>
   </properties>
  </object>
  <object id="546" gid="16399" x="4720" y="272" width="16" height="16">
   <properties>
    <property name="bg layer" value="0"/>
    <property name="enable rotation" type="bool" value="true"/>
    <property name="rotation angle" type="int" value="-90"/>
   </properties>
  </object>
  <object id="547" gid="16400" x="4928" y="304" width="16" height="16">
   <properties>
    <property name="bg layer" value="0"/>
    <property name="enable rotation" type="bool" value="true"/>
    <property name="rotation angle" type="int" value="64"/>
   </properties>
  </object>
  <object id="548" gid="16402" x="4768" y="304" width="16" height="16"/>
  <object id="549" gid="16402" x="4800" y="256" width="16" height="16">
   <properties>
    <property name="vflip" type="bool" value="true"/>
   </properties>
  </object>
  <object id="550" gid="16404" x="4832" y="304" width="16" height="16"/>
  <object id="551" gid="16395" x="2048" y="384" width="16" height="16"/>
  <object id="552" gid="16402" x="2160" y="400" width="16" height="16"/>
  <object id="553" gid="16402" x="2192" y="320" width="16" height="16">
   <properties>
    <property name="vflip" type="bool" value="true"/>
   </properties>
  </object>
  <object id="554" gid="16404" x="2224" y="384" width="16" height="16"/>
  <object id="556" gid="16402" x="2352" y="384" width="16" height="16"/>
  <object id="557" gid="16402" x="2384" y="304" width="16" height="16">
   <properties>
    <property name="vflip" type="bool" value="true"/>
   </properties>
  </object>
  <object id="558" gid="16402" x="2672" y="304" width="16" height="16"/>
  <object id="561" gid="16402" x="2912" y="304" width="16" height="16"/>
  <object id="566" gid="16402" x="3248" y="320" width="16" height="16"/>
  <object id="559" gid="16402" x="2704" y="224" width="16" height="16">
   <properties>
    <property name="vflip" type="bool" value="true"/>
   </properties>
  </object>
  <object id="563" gid="16402" x="2944" y="224" width="16" height="16">
   <properties>
    <property name="vflip" type="bool" value="true"/>
   </properties>
  </object>
  <object id="568" gid="16402" x="3280" y="240" width="16" height="16">
   <properties>
    <property name="vflip" type="bool" value="true"/>
   </properties>
  </object>
  <object id="560" gid="16404" x="2736" y="288" width="16" height="16"/>
  <object id="562" gid="16404" x="2976" y="288" width="16" height="16"/>
  <object id="567" gid="16404" x="3312" y="304" width="16" height="16"/>
  <object id="569" gid="16404" x="3616" y="288" width="16" height="16"/>
  <object id="570" gid="16402" x="4032" y="256" width="16" height="16">
   <properties>
    <property name="vflip" type="bool" value="true"/>
   </properties>
  </object>
  <object id="571" gid="16402" x="4064" y="304" width="16" height="16"/>
  <object id="572" gid="16404" x="4096" y="256" width="16" height="16">
   <properties>
    <property name="vflip" type="bool" value="true"/>
   </properties>
  </object>
  <object id="573" gid="16394" x="4160" y="256" width="16" height="16">
   <properties>
    <property name="bg layer" value="0"/>
   </properties>
  </object>
  <object id="574" gid="16402" x="5136" y="312" width="16" height="16">
   <properties>
    <property name="bg layer" value="1"/>
   </properties>
  </object>
  <object id="575" gid="16402" x="5168" y="248" width="16" height="16">
   <properties>
    <property name="bg layer" value="1"/>
    <property name="vflip" type="bool" value="true"/>
   </properties>
  </object>
  <object id="576" gid="16404" x="5200" y="296" width="16" height="16">
   <properties>
    <property name="bg layer" value="1"/>
   </properties>
  </object>
  <object id="577" gid="16403" x="5280" y="288" width="16" height="16"/>
  <object id="579" gid="16442" x="5344" y="272" width="16" height="16"/>
  <object id="580" gid="16439" x="5344" y="272" width="16" height="16"/>
  <object id="581" gid="16430" x="5344" y="272" width="16" height="16"/>
  <object id="582" gid="16399" x="5360" y="272" width="16" height="16"/>
  <object id="583" gid="16492" x="2000" y="256" width="16" height="16">
   <properties>
    <property name="bg layer" value="0"/>
    <property name="color channel" value="4"/>
    <property name="z index" type="int" value="0"/>
   </properties>
  </object>
  <object id="584" gid="16387" x="1520" y="360" width="16" height="16"/>
  <object id="585" gid="16438" x="1520" y="360" width="16" height="16"/>
  <object id="617" gid="16438" x="7626" y="280" width="16" height="16"/>
  <object id="618" gid="16499" x="7643" y="276" width="16" height="16"/>
  <object id="619" gid="16400" x="3952" y="304" width="16" height="16">
   <properties>
    <property name="bg layer" value="0"/>
    <property name="enable rotation" type="bool" value="true"/>
    <property name="rotation angle" type="int" value="90"/>
   </properties>
  </object>
  <object id="630" gid="16428" x="11120" y="319" width="16" height="16">
   <properties>
    <property name="bg layer" value="0"/>
    <property name="metatile ID appearance" type="int" value="705"/>
   </properties>
  </object>
  <object id="631" gid="16428" x="11136" y="318" width="16" height="16">
   <properties>
    <property name="bg layer" value="0"/>
    <property name="metatile ID appearance" type="int" value="705"/>
   </properties>
  </object>
  <object id="632" gid="16428" x="11152" y="317" width="16" height="16">
   <properties>
    <property name="bg layer" value="0"/>
    <property name="metatile ID appearance" type="int" value="705"/>
   </properties>
  </object>
  <object id="633" gid="16428" x="11168" y="316" width="16" height="16">
   <properties>
    <property name="bg layer" value="0"/>
    <property name="metatile ID appearance" type="int" value="705"/>
   </properties>
  </object>
  <object id="634" gid="16428" x="11184" y="315" width="16" height="16">
   <properties>
    <property name="bg layer" value="0"/>
    <property name="metatile ID appearance" type="int" value="705"/>
   </properties>
  </object>
  <object id="635" gid="16428" x="11200" y="314" width="16" height="16">
   <properties>
    <property name="bg layer" value="0"/>
    <property name="metatile ID appearance" type="int" value="705"/>
   </properties>
  </object>
  <object id="636" gid="16428" x="11216" y="313" width="16" height="16">
   <properties>
    <property name="bg layer" value="0"/>
    <property name="metatile ID appearance" type="int" value="705"/>
   </properties>
  </object>
  <object id="637" gid="16428" x="11232" y="312" width="16" height="16">
   <properties>
    <property name="bg layer" value="0"/>
    <property name="metatile ID appearance" type="int" value="705"/>
   </properties>
  </object>
  <object id="638" gid="16428" x="11248" y="311" width="16" height="16">
   <properties>
    <property name="bg layer" value="0"/>
    <property name="metatile ID appearance" type="int" value="705"/>
   </properties>
  </object>
  <object id="639" gid="16428" x="11264" y="310" width="16" height="16">
   <properties>
    <property name="bg layer" value="0"/>
    <property name="metatile ID appearance" type="int" value="705"/>
   </properties>
  </object>
  <object id="640" gid="16428" x="11280" y="309" width="16" height="16">
   <properties>
    <property name="bg layer" value="0"/>
    <property name="metatile ID appearance" type="int" value="710"/>
   </properties>
  </object>
  <object id="641" gid="16395" x="11280" y="293" width="16" height="16"/>
  <object id="642" gid="16438" x="11280" y="246" width="16" height="16">
   <properties>
    <property name="enable rotation" type="bool" value="true"/>
    <property name="rotation angle" type="int" value="-90"/>
   </properties>
  </object>
  <object id="643" gid="16431" x="9472" y="279" width="16" height="16">
   <properties>
    <property name="enable rotation" type="bool" value="true"/>
    <property name="rotation angle" type="int" value="45"/>
   </properties>
  </object>
  <object id="644" gid="16387" x="11088" y="280" width="16" height="16"/>
  <object id="645" gid="16437" x="11088" y="265" width="16" height="16"/>
  <object id="646" gid="16437" x="11088" y="295" width="16" height="16"/>
  <object id="647" gid="16421" x="8848" y="208" width="16" height="16">
   <properties>
    <property name="bg layer" value="2"/>
    <property name="vflip" type="bool" value="true"/>
   </properties>
  </object>
  <object id="648" gid="16421" x="8896" y="352" width="16" height="16">
   <properties>
    <property name="bg layer" value="0"/>
   </properties>
  </object>
  <object id="649" gid="16394" x="11376" y="320" width="16" height="16">
   <properties>
    <property name="bg layer" value="0"/>
   </properties>
  </object>
  <object id="650" gid="16395" x="11504" y="288" width="16" height="16"/>
  <object id="651" gid="16401" x="11616" y="320" width="16" height="16">
   <properties>
    <property name="bg layer" value="0"/>
   </properties>
  </object>
  <object id="652" gid="16395" x="11664" y="208" width="16" height="16">
   <properties>
    <property name="vflip" type="bool" value="true"/>
   </properties>
  </object>
  <object id="653" gid="16394" x="11728" y="256" width="16" height="16">
   <properties>
    <property name="bg layer" value="0"/>
   </properties>
  </object>
  <object id="654" gid="16399" x="11808" y="256" width="16" height="16">
   <properties>
    <property name="bg layer" value="0"/>
    <property name="enable rotation" type="bool" value="true"/>
    <property name="rotation angle" type="int" value="-56"/>
   </properties>
  </object>
  <object id="655" gid="16394" x="11840" y="304" width="16" height="16">
   <properties>
    <property name="bg layer" value="0"/>
   </properties>
  </object>
  <object id="656" gid="16402" x="11984" y="304" width="16" height="16"/>
  <object id="657" gid="16399" x="12032" y="224" width="16" height="16">
   <properties>
    <property name="bg layer" value="0"/>
    <property name="enable rotation" type="bool" value="true"/>
    <property name="rotation angle" type="int" value="-90"/>
   </properties>
  </object>
  <object id="658" gid="16394" x="12080" y="256" width="16" height="16">
   <properties>
    <property name="bg layer" value="0"/>
   </properties>
  </object>
  <object id="659" gid="16395" x="12208" y="256" width="16" height="16"/>
  <object id="660" gid="16394" x="12320" y="304" width="16" height="16">
   <properties>
    <property name="bg layer" value="0"/>
   </properties>
  </object>
  <object id="661" gid="16395" x="12432" y="384" width="16" height="16"/>
  <object id="662" gid="16394" x="12544" y="416" width="16" height="16">
   <properties>
    <property name="bg layer" value="0"/>
   </properties>
  </object>
  <object id="663" gid="16394" x="12592" y="384" width="16" height="16">
   <properties>
    <property name="bg layer" value="0"/>
   </properties>
  </object>
  <object id="664" gid="16395" x="12656" y="368" width="16" height="16"/>
  <object id="665" gid="16402" x="12896" y="288" width="16" height="16"/>
  <object id="666" gid="16399" x="12944" y="208" width="16" height="16">
   <properties>
    <property name="bg layer" value="0"/>
    <property name="enable rotation" type="bool" value="true"/>
    <property name="rotation angle" type="int" value="-90"/>
   </properties>
  </object>
  <object id="667" gid="16394" x="12992" y="240" width="16" height="16">
   <properties>
    <property name="bg layer" value="0"/>
   </properties>
  </object>
  <object id="669" gid="16395" x="13120" y="400" width="16" height="16"/>
  <object id="670" gid="16386" x="13136" y="336" width="16" height="16">
   <properties>
    <property name="enable rotation" type="bool" value="true"/>
    <property name="rotation angle" type="int" value="-90"/>
   </properties>
  </object>
  <object id="671" gid="16430" x="13136" y="336" width="16" height="16">
   <properties>
    <property name="enable rotation" type="bool" value="true"/>
    <property name="rotation angle" type="int" value="-90"/>
   </properties>
  </object>
  <object id="682" gid="16458" x="16832" y="368" width="16" height="16"/>
  <object id="683" gid="16430" x="16832" y="368" width="16" height="16"/>
  <object id="684" gid="16442" x="16832" y="368" width="16" height="16"/>
  <object id="685" gid="16399" x="16832" y="368" width="16" height="16"/>
  <object id="686" gid="16428" x="14992" y="304" width="16" height="16">
   <properties>
    <property name="bg layer" value="1"/>
    <property name="metatile ID appearance" type="int" value="2387"/>
   </properties>
  </object>
  <object id="693" gid="16428" x="19664" y="304" width="16" height="16">
   <properties>
    <property name="bg layer" value="1"/>
    <property name="metatile ID appearance" type="int" value="2387"/>
   </properties>
  </object>
  <object id="687" gid="16428" x="18704" y="320" width="16" height="16">
   <properties>
    <property name="bg layer" value="1"/>
    <property name="metatile ID appearance" type="int" value="2384"/>
   </properties>
  </object>
  <object id="688" gid="16413" x="17776" y="352" width="16" height="16"/>
  <object id="689" gid="16431" x="18704" y="360" width="16" height="16"/>
  <object id="690" gid="16386" x="18704" y="360" width="16" height="16"/>
  <object id="691" gid="16414" x="18704" y="360" width="16" height="16"/>
  <object id="692" gid="16457" x="18704" y="360" width="16" height="16"/>
  <object id="694" gid="16387" x="19632" y="360" width="16" height="16"/>
  <object id="695" gid="16404" x="19744" y="416" width="16" height="16"/>
  <object id="696" gid="16404" x="19744" y="320" width="16" height="16">
   <properties>
    <property name="vflip" type="bool" value="true"/>
   </properties>
  </object>
  <object id="697" gid="16394" x="19792" y="336" width="16" height="16">
   <properties>
    <property name="bg layer" value="0"/>
   </properties>
  </object>
  <object id="698" gid="16394" x="19792" y="400" width="16" height="16">
   <properties>
    <property name="bg layer" value="0"/>
   </properties>
  </object>
  <object id="699" gid="16395" x="19856" y="400" width="16" height="16"/>
  <object id="700" gid="16395" x="19856" y="336" width="16" height="16">
   <properties>
    <property name="vflip" type="bool" value="true"/>
   </properties>
  </object>
  <object id="701" gid="16404" x="20096" y="400" width="16" height="16"/>
  <object id="702" gid="16404" x="20096" y="336" width="16" height="16">
   <properties>
    <property name="vflip" type="bool" value="true"/>
   </properties>
  </object>
  <object id="703" gid="16403" x="20144" y="416" width="16" height="16">
   <properties>
    <property name="bg layer" value="0"/>
   </properties>
  </object>
  <object id="704" gid="16403" x="20176" y="400" width="16" height="16">
   <properties>
    <property name="bg layer" value="0"/>
   </properties>
  </object>
  <object id="705" gid="16403" x="20144" y="320" width="16" height="16">
   <properties>
    <property name="bg layer" value="0"/>
   </properties>
  </object>
  <object id="706" gid="16403" x="20176" y="336" width="16" height="16">
   <properties>
    <property name="bg layer" value="0"/>
   </properties>
  </object>
  <object id="707" gid="16394" x="20208" y="352" width="16" height="16">
   <properties>
    <property name="bg layer" value="0"/>
   </properties>
  </object>
  <object id="708" gid="16394" x="20208" y="384" width="16" height="16">
   <properties>
    <property name="bg layer" value="0"/>
   </properties>
  </object>
  <object id="709" gid="16394" x="20256" y="368" width="16" height="16">
   <properties>
    <property name="bg layer" value="0"/>
   </properties>
  </object>
  <object id="710" gid="16403" x="20320" y="352" width="16" height="16">
   <properties>
    <property name="bg layer" value="0"/>
   </properties>
  </object>
  <object id="711" gid="16403" x="20320" y="384" width="16" height="16">
   <properties>
    <property name="bg layer" value="0"/>
   </properties>
  </object>
  <object id="713" gid="16394" x="20400" y="368" width="16" height="16">
   <properties>
    <property name="bg layer" value="0"/>
   </properties>
  </object>
  <object id="714" gid="16395" x="20480" y="400" width="16" height="16"/>
  <object id="715" gid="16395" x="20480" y="336" width="16" height="16">
   <properties>
    <property name="vflip" type="bool" value="true"/>
   </properties>
  </object>
  <object id="716" gid="16395" x="21584" y="368" width="16" height="16"/>
  <object id="717" gid="16387" x="21472" y="344" width="16" height="16"/>
  <object id="718" gid="16458" x="20553" y="360" width="16" height="16"/>
  <object id="719" gid="16386" x="20553" y="360" width="16" height="16"/>
  <object id="720" gid="16414" x="14992" y="344" width="16" height="16"/>
  <object id="721" gid="16411" x="14992" y="344" width="16" height="16"/>
  <object id="722" gid="16431" x="14992" y="344" width="16" height="16"/>
  <object id="723" gid="16395" x="15856" y="384" width="16" height="16"/>
  <object id="724" gid="16457" x="15920" y="360" width="16" height="16"/>
  <object id="725" gid="16404" x="16144" y="384" width="16" height="16"/>
  <object id="726" gid="16404" x="16144" y="352" width="16" height="16">
   <properties>
    <property name="vflip" type="bool" value="true"/>
   </properties>
  </object>
  <object id="727" gid="16404" x="16320" y="384" width="16" height="16"/>
  <object id="728" gid="16404" x="16320" y="352" width="16" height="16">
   <properties>
    <property name="vflip" type="bool" value="true"/>
   </properties>
  </object>
  <object id="729" gid="16394" x="16384" y="336" width="16" height="16">
   <properties>
    <property name="bg layer" value="0"/>
   </properties>
  </object>
  <object id="730" gid="16394" x="16384" y="400" width="16" height="16">
   <properties>
    <property name="bg layer" value="0"/>
   </properties>
  </object>
  <object id="731" gid="16404" x="16544" y="384" width="16" height="16"/>
  <object id="732" gid="16404" x="16544" y="352" width="16" height="16">
   <properties>
    <property name="vflip" type="bool" value="true"/>
   </properties>
  </object>
  <object id="733" gid="16404" x="16720" y="400" width="16" height="16"/>
  <object id="734" gid="16404" x="16720" y="336" width="16" height="16">
   <properties>
    <property name="vflip" type="bool" value="true"/>
   </properties>
  </object>
  <object id="735" gid="16394" x="16784" y="336" width="16" height="16">
   <properties>
    <property name="bg layer" value="0"/>
   </properties>
  </object>
  <object id="736" gid="16394" x="16784" y="400" width="16" height="16">
   <properties>
    <property name="bg layer" value="0"/>
   </properties>
  </object>
  <object id="737" gid="16413" x="10848" y="279" width="16" height="16"/>
  <object id="745" gid="16389" x="1483" y="334" width="16" height="16">
   <properties>
    <property name="color channel" value="1"/>
    <property name="vflip" type="bool" value="true"/>
   </properties>
  </object>
  <object id="746" gid="16391" x="1528" y="336" width="16" height="16">
   <properties>
    <property name="color channel" value="1"/>
    <property name="vflip" type="bool" value="true"/>
   </properties>
  </object>
  <object id="747" gid="16388" x="1568" y="176" width="16" height="16">
   <properties>
    <property name="Channel" value="3"/>
    <property name="Color" type="color" value="#ffcc0200"/>
   </properties>
  </object>
  <object id="782" gid="16388" x="1952" y="176" width="16" height="16">
   <properties>
    <property name="Channel" value="3"/>
    <property name="Color" type="color" value="#ffcc0200"/>
   </properties>
  </object>
  <object id="806" gid="16388" x="2336" y="176" width="16" height="16">
   <properties>
    <property name="Channel" value="3"/>
    <property name="Color" type="color" value="#ffcc0200"/>
   </properties>
  </object>
  <object id="843" gid="16388" x="2720" y="176" width="16" height="16">
   <properties>
    <property name="Channel" value="3"/>
    <property name="Color" type="color" value="#ffcc0200"/>
   </properties>
  </object>
  <object id="867" gid="16388" x="3104" y="176" width="16" height="16">
   <properties>
    <property name="Channel" value="3"/>
    <property name="Color" type="color" value="#ffcc0200"/>
   </properties>
  </object>
  <object id="764" gid="16388" x="1760" y="176" width="16" height="16">
   <properties>
    <property name="Channel" value="3"/>
    <property name="Color" type="color" value="#ffcc0200"/>
   </properties>
  </object>
  <object id="771" gid="16388" x="2144" y="176" width="16" height="16">
   <properties>
    <property name="Channel" value="3"/>
    <property name="Color" type="color" value="#ffcc0200"/>
   </properties>
  </object>
  <object id="795" gid="16388" x="2528" y="176" width="16" height="16">
   <properties>
    <property name="Channel" value="3"/>
    <property name="Color" type="color" value="#ffcc0200"/>
   </properties>
  </object>
  <object id="844" gid="16388" x="2912" y="176" width="16" height="16">
   <properties>
    <property name="Channel" value="3"/>
    <property name="Color" type="color" value="#ffcc0200"/>
   </properties>
  </object>
  <object id="868" gid="16388" x="3296" y="176" width="16" height="16">
   <properties>
    <property name="Channel" value="3"/>
    <property name="Color" type="color" value="#ffcc0200"/>
   </properties>
  </object>
  <object id="752" gid="16388" x="1632" y="176" width="16" height="16">
   <properties>
    <property name="Channel" value="3"/>
    <property name="Color" type="color" value="#ffcc0200"/>
   </properties>
  </object>
  <object id="779" gid="16388" x="2016" y="176" width="16" height="16">
   <properties>
    <property name="Channel" value="3"/>
    <property name="Color" type="color" value="#ffcc0200"/>
   </properties>
  </object>
  <object id="803" gid="16388" x="2400" y="176" width="16" height="16">
   <properties>
    <property name="Channel" value="3"/>
    <property name="Color" type="color" value="#ffcc0200"/>
   </properties>
  </object>
  <object id="845" gid="16388" x="2784" y="176" width="16" height="16">
   <properties>
    <property name="Channel" value="3"/>
    <property name="Color" type="color" value="#ffcc0200"/>
   </properties>
  </object>
  <object id="869" gid="16388" x="3168" y="176" width="16" height="16">
   <properties>
    <property name="Channel" value="3"/>
    <property name="Color" type="color" value="#ffcc0200"/>
   </properties>
  </object>
  <object id="761" gid="16388" x="1824" y="176" width="16" height="16">
   <properties>
    <property name="Channel" value="3"/>
    <property name="Color" type="color" value="#ffcc0200"/>
   </properties>
  </object>
  <object id="772" gid="16388" x="2208" y="176" width="16" height="16">
   <properties>
    <property name="Channel" value="3"/>
    <property name="Color" type="color" value="#ffcc0200"/>
   </properties>
  </object>
  <object id="796" gid="16388" x="2592" y="176" width="16" height="16">
   <properties>
    <property name="Channel" value="3"/>
    <property name="Color" type="color" value="#ffcc0200"/>
   </properties>
  </object>
  <object id="846" gid="16388" x="2976" y="176" width="16" height="16">
   <properties>
    <property name="Channel" value="3"/>
    <property name="Color" type="color" value="#ffcc0200"/>
   </properties>
  </object>
  <object id="870" gid="16388" x="3360" y="176" width="16" height="16">
   <properties>
    <property name="Channel" value="3"/>
    <property name="Color" type="color" value="#ffcc0200"/>
   </properties>
  </object>
  <object id="756" gid="16388" x="1696" y="176" width="16" height="16">
   <properties>
    <property name="Channel" value="3"/>
    <property name="Color" type="color" value="#ffcc0200"/>
   </properties>
  </object>
  <object id="777" gid="16388" x="2080" y="176" width="16" height="16">
   <properties>
    <property name="Channel" value="3"/>
    <property name="Color" type="color" value="#ffcc0200"/>
   </properties>
  </object>
  <object id="801" gid="16388" x="2464" y="176" width="16" height="16">
   <properties>
    <property name="Channel" value="3"/>
    <property name="Color" type="color" value="#ffcc0200"/>
   </properties>
  </object>
  <object id="847" gid="16388" x="2848" y="176" width="16" height="16">
   <properties>
    <property name="Channel" value="3"/>
    <property name="Color" type="color" value="#ffcc0200"/>
   </properties>
  </object>
  <object id="871" gid="16388" x="3232" y="176" width="16" height="16">
   <properties>
    <property name="Channel" value="3"/>
    <property name="Color" type="color" value="#ffcc0200"/>
   </properties>
  </object>
  <object id="759" gid="16388" x="1888" y="176" width="16" height="16">
   <properties>
    <property name="Channel" value="3"/>
    <property name="Color" type="color" value="#ffcc0200"/>
   </properties>
  </object>
  <object id="773" gid="16388" x="2272" y="176" width="16" height="16">
   <properties>
    <property name="Channel" value="3"/>
    <property name="Color" type="color" value="#ffcc0200"/>
   </properties>
  </object>
  <object id="797" gid="16388" x="2656" y="176" width="16" height="16">
   <properties>
    <property name="Channel" value="3"/>
    <property name="Color" type="color" value="#ffcc0200"/>
   </properties>
  </object>
  <object id="848" gid="16388" x="3040" y="176" width="16" height="16">
   <properties>
    <property name="Channel" value="3"/>
    <property name="Color" type="color" value="#ffcc0200"/>
   </properties>
  </object>
  <object id="748" gid="16388" x="1584" y="176" width="16" height="16">
   <properties>
    <property name="Channel" value="3"/>
    <property name="Color" type="color" value="#ff000000"/>
   </properties>
  </object>
  <object id="781" gid="16388" x="1968" y="176" width="16" height="16">
   <properties>
    <property name="Channel" value="3"/>
    <property name="Color" type="color" value="#ff000000"/>
   </properties>
  </object>
  <object id="805" gid="16388" x="2352" y="176" width="16" height="16">
   <properties>
    <property name="Channel" value="3"/>
    <property name="Color" type="color" value="#ff000000"/>
   </properties>
  </object>
  <object id="849" gid="16388" x="2736" y="176" width="16" height="16">
   <properties>
    <property name="Channel" value="3"/>
    <property name="Color" type="color" value="#ff000000"/>
   </properties>
  </object>
  <object id="873" gid="16388" x="3120" y="176" width="16" height="16">
   <properties>
    <property name="Channel" value="3"/>
    <property name="Color" type="color" value="#ff000000"/>
   </properties>
  </object>
  <object id="763" gid="16388" x="1776" y="176" width="16" height="16">
   <properties>
    <property name="Channel" value="3"/>
    <property name="Color" type="color" value="#ff000000"/>
   </properties>
  </object>
  <object id="774" gid="16388" x="2160" y="176" width="16" height="16">
   <properties>
    <property name="Channel" value="3"/>
    <property name="Color" type="color" value="#ff000000"/>
   </properties>
  </object>
  <object id="798" gid="16388" x="2544" y="176" width="16" height="16">
   <properties>
    <property name="Channel" value="3"/>
    <property name="Color" type="color" value="#ff000000"/>
   </properties>
  </object>
  <object id="850" gid="16388" x="2928" y="176" width="16" height="16">
   <properties>
    <property name="Channel" value="3"/>
    <property name="Color" type="color" value="#ff000000"/>
   </properties>
  </object>
  <object id="874" gid="16388" x="3312" y="176" width="16" height="16">
   <properties>
    <property name="Channel" value="3"/>
    <property name="Color" type="color" value="#ff000000"/>
   </properties>
  </object>
  <object id="751" gid="16388" x="1648" y="176" width="16" height="16">
   <properties>
    <property name="Channel" value="3"/>
    <property name="Color" type="color" value="#ff000000"/>
   </properties>
  </object>
  <object id="780" gid="16388" x="2032" y="176" width="16" height="16">
   <properties>
    <property name="Channel" value="3"/>
    <property name="Color" type="color" value="#ff000000"/>
   </properties>
  </object>
  <object id="804" gid="16388" x="2416" y="176" width="16" height="16">
   <properties>
    <property name="Channel" value="3"/>
    <property name="Color" type="color" value="#ff000000"/>
   </properties>
  </object>
  <object id="851" gid="16388" x="2800" y="176" width="16" height="16">
   <properties>
    <property name="Channel" value="3"/>
    <property name="Color" type="color" value="#ff000000"/>
   </properties>
  </object>
  <object id="875" gid="16388" x="3184" y="176" width="16" height="16">
   <properties>
    <property name="Channel" value="3"/>
    <property name="Color" type="color" value="#ff000000"/>
   </properties>
  </object>
  <object id="762" gid="16388" x="1840" y="176" width="16" height="16">
   <properties>
    <property name="Channel" value="3"/>
    <property name="Color" type="color" value="#ff000000"/>
   </properties>
  </object>
  <object id="775" gid="16388" x="2224" y="176" width="16" height="16">
   <properties>
    <property name="Channel" value="3"/>
    <property name="Color" type="color" value="#ff000000"/>
   </properties>
  </object>
  <object id="799" gid="16388" x="2608" y="176" width="16" height="16">
   <properties>
    <property name="Channel" value="3"/>
    <property name="Color" type="color" value="#ff000000"/>
   </properties>
  </object>
  <object id="852" gid="16388" x="2992" y="176" width="16" height="16">
   <properties>
    <property name="Channel" value="3"/>
    <property name="Color" type="color" value="#ff000000"/>
   </properties>
  </object>
  <object id="876" gid="16388" x="3376" y="176" width="16" height="16">
   <properties>
    <property name="Channel" value="3"/>
    <property name="Color" type="color" value="#ff000000"/>
   </properties>
  </object>
  <object id="755" gid="16388" x="1712" y="176" width="16" height="16">
   <properties>
    <property name="Channel" value="3"/>
    <property name="Color" type="color" value="#ff000000"/>
   </properties>
  </object>
  <object id="778" gid="16388" x="2096" y="176" width="16" height="16">
   <properties>
    <property name="Channel" value="3"/>
    <property name="Color" type="color" value="#ff000000"/>
   </properties>
  </object>
  <object id="802" gid="16388" x="2480" y="176" width="16" height="16">
   <properties>
    <property name="Channel" value="3"/>
    <property name="Color" type="color" value="#ff000000"/>
   </properties>
  </object>
  <object id="853" gid="16388" x="2864" y="176" width="16" height="16">
   <properties>
    <property name="Channel" value="3"/>
    <property name="Color" type="color" value="#ff000000"/>
   </properties>
  </object>
  <object id="877" gid="16388" x="3248" y="176" width="16" height="16">
   <properties>
    <property name="Channel" value="3"/>
    <property name="Color" type="color" value="#ff000000"/>
   </properties>
  </object>
  <object id="760" gid="16388" x="1904" y="176" width="16" height="16">
   <properties>
    <property name="Channel" value="3"/>
    <property name="Color" type="color" value="#ff000000"/>
   </properties>
  </object>
  <object id="776" gid="16388" x="2288" y="176" width="16" height="16">
   <properties>
    <property name="Channel" value="3"/>
    <property name="Color" type="color" value="#ff000000"/>
   </properties>
  </object>
  <object id="800" gid="16388" x="2672" y="176" width="16" height="16">
   <properties>
    <property name="Channel" value="3"/>
    <property name="Color" type="color" value="#ff000000"/>
   </properties>
  </object>
  <object id="854" gid="16388" x="3056" y="176" width="16" height="16">
   <properties>
    <property name="Channel" value="3"/>
    <property name="Color" type="color" value="#ff000000"/>
   </properties>
  </object>
  <object id="749" gid="16388" x="1584" y="160" width="16" height="16">
   <properties>
    <property name="Channel" value="4"/>
    <property name="Color" type="color" value="#ffcc0200"/>
   </properties>
  </object>
  <object id="794" gid="16388" x="1968" y="160" width="16" height="16">
   <properties>
    <property name="Channel" value="4"/>
    <property name="Color" type="color" value="#ffcc0200"/>
   </properties>
  </object>
  <object id="818" gid="16388" x="2352" y="160" width="16" height="16">
   <properties>
    <property name="Channel" value="4"/>
    <property name="Color" type="color" value="#ffcc0200"/>
   </properties>
  </object>
  <object id="855" gid="16388" x="2736" y="160" width="16" height="16">
   <properties>
    <property name="Channel" value="4"/>
    <property name="Color" type="color" value="#ffcc0200"/>
   </properties>
  </object>
  <object id="879" gid="16388" x="3120" y="160" width="16" height="16">
   <properties>
    <property name="Channel" value="4"/>
    <property name="Color" type="color" value="#ffcc0200"/>
   </properties>
  </object>
  <object id="770" gid="16388" x="1776" y="160" width="16" height="16">
   <properties>
    <property name="Channel" value="4"/>
    <property name="Color" type="color" value="#ffcc0200"/>
   </properties>
  </object>
  <object id="783" gid="16388" x="2160" y="160" width="16" height="16">
   <properties>
    <property name="Channel" value="4"/>
    <property name="Color" type="color" value="#ffcc0200"/>
   </properties>
  </object>
  <object id="807" gid="16388" x="2544" y="160" width="16" height="16">
   <properties>
    <property name="Channel" value="4"/>
    <property name="Color" type="color" value="#ffcc0200"/>
   </properties>
  </object>
  <object id="856" gid="16388" x="2928" y="160" width="16" height="16">
   <properties>
    <property name="Channel" value="4"/>
    <property name="Color" type="color" value="#ffcc0200"/>
   </properties>
  </object>
  <object id="880" gid="16388" x="3312" y="160" width="16" height="16">
   <properties>
    <property name="Channel" value="4"/>
    <property name="Color" type="color" value="#ffcc0200"/>
   </properties>
  </object>
  <object id="754" gid="16388" x="1648" y="160" width="16" height="16">
   <properties>
    <property name="Channel" value="4"/>
    <property name="Color" type="color" value="#ffcc0200"/>
   </properties>
  </object>
  <object id="791" gid="16388" x="2032" y="160" width="16" height="16">
   <properties>
    <property name="Channel" value="4"/>
    <property name="Color" type="color" value="#ffcc0200"/>
   </properties>
  </object>
  <object id="815" gid="16388" x="2416" y="160" width="16" height="16">
   <properties>
    <property name="Channel" value="4"/>
    <property name="Color" type="color" value="#ffcc0200"/>
   </properties>
  </object>
  <object id="857" gid="16388" x="2800" y="160" width="16" height="16">
   <properties>
    <property name="Channel" value="4"/>
    <property name="Color" type="color" value="#ffcc0200"/>
   </properties>
  </object>
  <object id="881" gid="16388" x="3184" y="160" width="16" height="16">
   <properties>
    <property name="Channel" value="4"/>
    <property name="Color" type="color" value="#ffcc0200"/>
   </properties>
  </object>
  <object id="767" gid="16388" x="1840" y="160" width="16" height="16">
   <properties>
    <property name="Channel" value="4"/>
    <property name="Color" type="color" value="#ffcc0200"/>
   </properties>
  </object>
  <object id="784" gid="16388" x="2224" y="160" width="16" height="16">
   <properties>
    <property name="Channel" value="4"/>
    <property name="Color" type="color" value="#ffcc0200"/>
   </properties>
  </object>
  <object id="808" gid="16388" x="2608" y="160" width="16" height="16">
   <properties>
    <property name="Channel" value="4"/>
    <property name="Color" type="color" value="#ffcc0200"/>
   </properties>
  </object>
  <object id="858" gid="16388" x="2992" y="160" width="16" height="16">
   <properties>
    <property name="Channel" value="4"/>
    <property name="Color" type="color" value="#ffcc0200"/>
   </properties>
  </object>
  <object id="882" gid="16388" x="3376" y="160" width="16" height="16">
   <properties>
    <property name="Channel" value="4"/>
    <property name="Color" type="color" value="#ffcc0200"/>
   </properties>
  </object>
  <object id="758" gid="16388" x="1712" y="160" width="16" height="16">
   <properties>
    <property name="Channel" value="4"/>
    <property name="Color" type="color" value="#ffcc0200"/>
   </properties>
  </object>
  <object id="789" gid="16388" x="2096" y="160" width="16" height="16">
   <properties>
    <property name="Channel" value="4"/>
    <property name="Color" type="color" value="#ffcc0200"/>
   </properties>
  </object>
  <object id="813" gid="16388" x="2480" y="160" width="16" height="16">
   <properties>
    <property name="Channel" value="4"/>
    <property name="Color" type="color" value="#ffcc0200"/>
   </properties>
  </object>
  <object id="859" gid="16388" x="2864" y="160" width="16" height="16">
   <properties>
    <property name="Channel" value="4"/>
    <property name="Color" type="color" value="#ffcc0200"/>
   </properties>
  </object>
  <object id="883" gid="16388" x="3248" y="160" width="16" height="16">
   <properties>
    <property name="Channel" value="4"/>
    <property name="Color" type="color" value="#ffcc0200"/>
   </properties>
  </object>
  <object id="765" gid="16388" x="1904" y="160" width="16" height="16">
   <properties>
    <property name="Channel" value="4"/>
    <property name="Color" type="color" value="#ffcc0200"/>
   </properties>
  </object>
  <object id="785" gid="16388" x="2288" y="160" width="16" height="16">
   <properties>
    <property name="Channel" value="4"/>
    <property name="Color" type="color" value="#ffcc0200"/>
   </properties>
  </object>
  <object id="809" gid="16388" x="2672" y="160" width="16" height="16">
   <properties>
    <property name="Channel" value="4"/>
    <property name="Color" type="color" value="#ffcc0200"/>
   </properties>
  </object>
  <object id="860" gid="16388" x="3056" y="160" width="16" height="16">
   <properties>
    <property name="Channel" value="4"/>
    <property name="Color" type="color" value="#ffcc0200"/>
   </properties>
  </object>
  <object id="750" gid="16388" x="1600" y="160" width="16" height="16">
   <properties>
    <property name="Channel" value="4"/>
    <property name="Color" type="color" value="#ff000000"/>
   </properties>
  </object>
  <object id="793" gid="16388" x="1984" y="160" width="16" height="16">
   <properties>
    <property name="Channel" value="4"/>
    <property name="Color" type="color" value="#ff000000"/>
   </properties>
  </object>
  <object id="817" gid="16388" x="2368" y="160" width="16" height="16">
   <properties>
    <property name="Channel" value="4"/>
    <property name="Color" type="color" value="#ff000000"/>
   </properties>
  </object>
  <object id="861" gid="16388" x="2752" y="160" width="16" height="16">
   <properties>
    <property name="Channel" value="4"/>
    <property name="Color" type="color" value="#ff000000"/>
   </properties>
  </object>
  <object id="885" gid="16388" x="3136" y="160" width="16" height="16">
   <properties>
    <property name="Channel" value="4"/>
    <property name="Color" type="color" value="#ff000000"/>
   </properties>
  </object>
  <object id="769" gid="16388" x="1792" y="160" width="16" height="16">
   <properties>
    <property name="Channel" value="4"/>
    <property name="Color" type="color" value="#ff000000"/>
   </properties>
  </object>
  <object id="786" gid="16388" x="2176" y="160" width="16" height="16">
   <properties>
    <property name="Channel" value="4"/>
    <property name="Color" type="color" value="#ff000000"/>
   </properties>
  </object>
  <object id="810" gid="16388" x="2560" y="160" width="16" height="16">
   <properties>
    <property name="Channel" value="4"/>
    <property name="Color" type="color" value="#ff000000"/>
   </properties>
  </object>
  <object id="862" gid="16388" x="2944" y="160" width="16" height="16">
   <properties>
    <property name="Channel" value="4"/>
    <property name="Color" type="color" value="#ff000000"/>
   </properties>
  </object>
  <object id="886" gid="16388" x="3328" y="160" width="16" height="16">
   <properties>
    <property name="Channel" value="4"/>
    <property name="Color" type="color" value="#ff000000"/>
   </properties>
  </object>
  <object id="753" gid="16388" x="1664" y="160" width="16" height="16">
   <properties>
    <property name="Channel" value="4"/>
    <property name="Color" type="color" value="#ff000000"/>
   </properties>
  </object>
  <object id="792" gid="16388" x="2048" y="160" width="16" height="16">
   <properties>
    <property name="Channel" value="4"/>
    <property name="Color" type="color" value="#ff000000"/>
   </properties>
  </object>
  <object id="816" gid="16388" x="2432" y="160" width="16" height="16">
   <properties>
    <property name="Channel" value="4"/>
    <property name="Color" type="color" value="#ff000000"/>
   </properties>
  </object>
  <object id="863" gid="16388" x="2816" y="160" width="16" height="16">
   <properties>
    <property name="Channel" value="4"/>
    <property name="Color" type="color" value="#ff000000"/>
   </properties>
  </object>
  <object id="887" gid="16388" x="3200" y="160" width="16" height="16">
   <properties>
    <property name="Channel" value="4"/>
    <property name="Color" type="color" value="#ff000000"/>
   </properties>
  </object>
  <object id="768" gid="16388" x="1856" y="160" width="16" height="16">
   <properties>
    <property name="Channel" value="4"/>
    <property name="Color" type="color" value="#ff000000"/>
   </properties>
  </object>
  <object id="787" gid="16388" x="2240" y="160" width="16" height="16">
   <properties>
    <property name="Channel" value="4"/>
    <property name="Color" type="color" value="#ff000000"/>
   </properties>
  </object>
  <object id="811" gid="16388" x="2624" y="160" width="16" height="16">
   <properties>
    <property name="Channel" value="4"/>
    <property name="Color" type="color" value="#ff000000"/>
   </properties>
  </object>
  <object id="864" gid="16388" x="3008" y="160" width="16" height="16">
   <properties>
    <property name="Channel" value="4"/>
    <property name="Color" type="color" value="#ff000000"/>
   </properties>
  </object>
  <object id="888" gid="16388" x="3392" y="160" width="16" height="16">
   <properties>
    <property name="Channel" value="4"/>
    <property name="Color" type="color" value="#ff000000"/>
   </properties>
  </object>
  <object id="757" gid="16388" x="1728" y="160" width="16" height="16">
   <properties>
    <property name="Channel" value="4"/>
    <property name="Color" type="color" value="#ff000000"/>
   </properties>
  </object>
  <object id="790" gid="16388" x="2112" y="160" width="16" height="16">
   <properties>
    <property name="Channel" value="4"/>
    <property name="Color" type="color" value="#ff000000"/>
   </properties>
  </object>
  <object id="814" gid="16388" x="2496" y="160" width="16" height="16">
   <properties>
    <property name="Channel" value="4"/>
    <property name="Color" type="color" value="#ff000000"/>
   </properties>
  </object>
  <object id="865" gid="16388" x="2880" y="160" width="16" height="16">
   <properties>
    <property name="Channel" value="4"/>
    <property name="Color" type="color" value="#ff000000"/>
   </properties>
  </object>
  <object id="889" gid="16388" x="3264" y="160" width="16" height="16">
   <properties>
    <property name="Channel" value="4"/>
    <property name="Color" type="color" value="#ff000000"/>
   </properties>
  </object>
  <object id="766" gid="16388" x="1920" y="160" width="16" height="16">
   <properties>
    <property name="Channel" value="4"/>
    <property name="Color" type="color" value="#ff000000"/>
   </properties>
  </object>
  <object id="788" gid="16388" x="2304" y="160" width="16" height="16">
   <properties>
    <property name="Channel" value="4"/>
    <property name="Color" type="color" value="#ff000000"/>
   </properties>
  </object>
  <object id="812" gid="16388" x="2688" y="160" width="16" height="16">
   <properties>
    <property name="Channel" value="4"/>
    <property name="Color" type="color" value="#ff000000"/>
   </properties>
  </object>
  <object id="866" gid="16388" x="3072" y="160" width="16" height="16">
   <properties>
    <property name="Channel" value="4"/>
    <property name="Color" type="color" value="#ff000000"/>
   </properties>
  </object>
  <object id="891" gid="16388" x="3440" y="208" width="16" height="16">
   <properties>
    <property name="Channel" value="2"/>
    <property name="Color" type="color" value="#ff860000"/>
    <property name="Frames" type="int" value="27"/>
   </properties>
  </object>
  <object id="892" gid="16388" x="3440" y="176" width="16" height="16">
   <properties>
    <property name="Channel" value="3"/>
    <property name="Color" type="color" value="#ffe30200"/>
   </properties>
  </object>
  <object id="893" gid="16388" x="3456" y="176" width="16" height="16">
   <properties>
    <property name="Channel" value="3"/>
    <property name="Color" type="color" value="#ff000000"/>
    <property name="Frames" type="int" value="63"/>
   </properties>
  </object>
  <object id="894" gid="16388" x="3456" y="160" width="16" height="16">
   <properties>
    <property name="Channel" value="4"/>
    <property name="Color" type="color" value="#ff000000"/>
    <property name="Color Blending" type="bool" value="true"/>
    <property name="Frames" type="int" value="600"/>
   </properties>
  </object>
  <object id="895" gid="16390" x="1568" y="336" width="16" height="16">
   <properties>
    <property name="color channel" value="1"/>
    <property name="vflip" type="bool" value="true"/>
   </properties>
  </object>
  <object id="896" gid="16390" x="1600" y="304" width="16" height="16">
   <properties>
    <property name="color channel" value="1"/>
    <property name="enable rotation" type="bool" value="true"/>
    <property name="rotation angle" type="int" value="90"/>
   </properties>
  </object>
  <object id="897" gid="16391" x="1600" y="224" width="16" height="16">
   <properties>
    <property name="color channel" value="1"/>
    <property name="enable rotation" type="bool" value="true"/>
    <property name="rotation angle" type="int" value="90"/>
   </properties>
  </object>
  <object id="901" gid="16432" x="1696" y="336" width="16" height="16">
   <properties>
    <property name="bg layer" value="1"/>
    <property name="color channel" value="4"/>
    <property name="z index" type="int" value="10"/>
   </properties>
  </object>
  <object id="2269" gid="16432" x="1648" y="368" width="16" height="16">
   <properties>
    <property name="bg layer" value="1"/>
    <property name="color channel" value="4"/>
    <property name="z index" type="int" value="10"/>
   </properties>
  </object>
  <object id="2272" gid="16432" x="1872" y="288" width="16" height="16">
   <properties>
    <property name="bg layer" value="1"/>
    <property name="color channel" value="4"/>
    <property name="z index" type="int" value="10"/>
   </properties>
  </object>
  <object id="2275" gid="16432" x="1936" y="272" width="16" height="16">
   <properties>
    <property name="bg layer" value="1"/>
    <property name="color channel" value="4"/>
    <property name="z index" type="int" value="10"/>
   </properties>
  </object>
  <object id="2278" gid="16432" x="2288" y="384" width="16" height="16">
   <properties>
    <property name="bg layer" value="1"/>
    <property name="color channel" value="4"/>
    <property name="z index" type="int" value="10"/>
   </properties>
  </object>
  <object id="3303" gid="16432" x="12992" y="240" width="16" height="16">
   <properties>
    <property name="bg layer" value="1"/>
    <property name="color channel" value="3"/>
    <property name="z index" type="int" value="15"/>
   </properties>
  </object>
  <object id="3469" gid="16432" x="16784" y="400" width="16" height="16">
   <properties>
    <property name="bg layer" value="1"/>
    <property name="color channel" value="1"/>
    <property name="z index" type="int" value="15"/>
   </properties>
  </object>
  <object id="3478" gid="16432" x="16384" y="400" width="16" height="16">
   <properties>
    <property name="bg layer" value="1"/>
    <property name="color channel" value="1"/>
    <property name="z index" type="int" value="15"/>
   </properties>
  </object>
  <object id="3474" gid="16432" x="16784" y="336" width="16" height="16">
   <properties>
    <property name="bg layer" value="1"/>
    <property name="color channel" value="2"/>
    <property name="z index" type="int" value="15"/>
   </properties>
  </object>
  <object id="3472" gid="16432" x="16384" y="336" width="16" height="16">
   <properties>
    <property name="bg layer" value="1"/>
    <property name="color channel" value="2"/>
    <property name="z index" type="int" value="15"/>
   </properties>
  </object>
  <object id="3750" gid="16432" x="20320" y="384" width="16" height="16">
   <properties>
    <property name="bg layer" value="1"/>
    <property name="color channel" value="2"/>
    <property name="z index" type="int" value="15"/>
   </properties>
  </object>
  <object id="3762" gid="16432" x="20176" y="400" width="16" height="16">
   <properties>
    <property name="bg layer" value="1"/>
    <property name="color channel" value="2"/>
    <property name="z index" type="int" value="15"/>
   </properties>
  </object>
  <object id="3754" gid="16432" x="20400" y="368" width="16" height="16">
   <properties>
    <property name="bg layer" value="1"/>
    <property name="color channel" value="2"/>
    <property name="z index" type="int" value="10"/>
   </properties>
  </object>
  <object id="3764" gid="16432" x="20256" y="368" width="16" height="16">
   <properties>
    <property name="bg layer" value="1"/>
    <property name="color channel" value="2"/>
    <property name="z index" type="int" value="10"/>
   </properties>
  </object>
  <object id="3760" gid="16432" x="20320" y="352" width="16" height="16">
   <properties>
    <property name="bg layer" value="1"/>
    <property name="color channel" value="1"/>
    <property name="z index" type="int" value="15"/>
   </properties>
  </object>
  <object id="3758" gid="16432" x="20176" y="336" width="16" height="16">
   <properties>
    <property name="bg layer" value="1"/>
    <property name="color channel" value="1"/>
    <property name="z index" type="int" value="15"/>
   </properties>
  </object>
  <object id="3756" gid="16432" x="19792" y="336" width="16" height="16">
   <properties>
    <property name="bg layer" value="1"/>
    <property name="color channel" value="1"/>
    <property name="z index" type="int" value="15"/>
   </properties>
  </object>
  <object id="3752" gid="16432" x="19792" y="400" width="16" height="16">
   <properties>
    <property name="bg layer" value="1"/>
    <property name="color channel" value="2"/>
    <property name="z index" type="int" value="15"/>
   </properties>
  </object>
  <object id="3337" gid="16432" x="12944" y="208" width="16" height="16">
   <properties>
    <property name="bg layer" value="1"/>
    <property name="color channel" value="3"/>
    <property name="z index" type="int" value="15"/>
   </properties>
  </object>
  <object id="3335" gid="16432" x="12544" y="416" width="16" height="16">
   <properties>
    <property name="bg layer" value="1"/>
    <property name="color channel" value="3"/>
    <property name="z index" type="int" value="15"/>
   </properties>
  </object>
  <object id="3333" gid="16432" x="12592" y="384" width="16" height="16">
   <properties>
    <property name="bg layer" value="1"/>
    <property name="color channel" value="3"/>
    <property name="z index" type="int" value="15"/>
   </properties>
  </object>
  <object id="3329" gid="16432" x="12320" y="304" width="16" height="16">
   <properties>
    <property name="bg layer" value="1"/>
    <property name="color channel" value="3"/>
    <property name="z index" type="int" value="15"/>
   </properties>
  </object>
  <object id="3327" gid="16432" x="12080" y="256" width="16" height="16">
   <properties>
    <property name="bg layer" value="1"/>
    <property name="color channel" value="3"/>
    <property name="z index" type="int" value="15"/>
   </properties>
  </object>
  <object id="3325" gid="16432" x="12032" y="224" width="16" height="16">
   <properties>
    <property name="bg layer" value="1"/>
    <property name="color channel" value="3"/>
    <property name="z index" type="int" value="15"/>
   </properties>
  </object>
  <object id="3323" gid="16432" x="11840" y="304" width="16" height="16">
   <properties>
    <property name="bg layer" value="1"/>
    <property name="color channel" value="3"/>
    <property name="z index" type="int" value="15"/>
   </properties>
  </object>
  <object id="3321" gid="16432" x="11808" y="256" width="16" height="16">
   <properties>
    <property name="bg layer" value="1"/>
    <property name="color channel" value="3"/>
    <property name="z index" type="int" value="15"/>
   </properties>
  </object>
  <object id="3319" gid="16432" x="11728" y="256" width="16" height="16">
   <properties>
    <property name="bg layer" value="1"/>
    <property name="color channel" value="3"/>
    <property name="z index" type="int" value="15"/>
   </properties>
  </object>
  <object id="3317" gid="16432" x="11616" y="320" width="16" height="16">
   <properties>
    <property name="bg layer" value="1"/>
    <property name="color channel" value="3"/>
    <property name="z index" type="int" value="15"/>
   </properties>
  </object>
  <object id="3315" gid="16432" x="11376" y="320" width="16" height="16">
   <properties>
    <property name="bg layer" value="1"/>
    <property name="color channel" value="3"/>
    <property name="z index" type="int" value="15"/>
   </properties>
  </object>
  <object id="2281" gid="16432" x="2416" y="368" width="16" height="16">
   <properties>
    <property name="bg layer" value="1"/>
    <property name="color channel" value="4"/>
    <property name="z index" type="int" value="10"/>
   </properties>
  </object>
  <object id="2284" gid="16432" x="2464" y="336" width="16" height="16">
   <properties>
    <property name="bg layer" value="1"/>
    <property name="color channel" value="4"/>
    <property name="z index" type="int" value="10"/>
   </properties>
  </object>
  <object id="2287" gid="16432" x="3104" y="368" width="16" height="16">
   <properties>
    <property name="bg layer" value="1"/>
    <property name="color channel" value="4"/>
    <property name="z index" type="int" value="10"/>
   </properties>
  </object>
  <object id="2290" gid="16432" x="3200" y="368" width="16" height="16">
   <properties>
    <property name="bg layer" value="1"/>
    <property name="color channel" value="4"/>
    <property name="z index" type="int" value="10"/>
   </properties>
  </object>
  <object id="2293" gid="16432" x="3376" y="304" width="16" height="16">
   <properties>
    <property name="bg layer" value="1"/>
    <property name="color channel" value="4"/>
    <property name="z index" type="int" value="10"/>
   </properties>
  </object>
  <object id="903" gid="16432" x="1664" y="272" width="16" height="16">
   <properties>
    <property name="bg layer" value="1"/>
    <property name="color channel" value="4"/>
    <property name="z index" type="int" value="10"/>
   </properties>
  </object>
  <object id="2252" gid="16432" x="1744" y="240" width="16" height="16">
   <properties>
    <property name="bg layer" value="1"/>
    <property name="color channel" value="4"/>
    <property name="z index" type="int" value="10"/>
   </properties>
  </object>
  <object id="2295" gid="16432" x="1648" y="440" width="16" height="16">
   <properties>
    <property name="bg layer" value="1"/>
    <property name="color channel" value="4"/>
    <property name="z index" type="int" value="10"/>
   </properties>
  </object>
  <object id="2255" gid="16432" x="1840" y="208" width="16" height="16">
   <properties>
    <property name="bg layer" value="1"/>
    <property name="color channel" value="4"/>
    <property name="z index" type="int" value="10"/>
   </properties>
  </object>
  <object id="2298" gid="16432" x="1872" y="440" width="16" height="16">
   <properties>
    <property name="bg layer" value="1"/>
    <property name="color channel" value="4"/>
    <property name="z index" type="int" value="10"/>
   </properties>
  </object>
  <object id="2301" gid="16432" x="1936" y="440" width="16" height="16">
   <properties>
    <property name="bg layer" value="1"/>
    <property name="color channel" value="4"/>
    <property name="z index" type="int" value="10"/>
   </properties>
  </object>
  <object id="2304" gid="16432" x="2112" y="440" width="16" height="16">
   <properties>
    <property name="bg layer" value="1"/>
    <property name="color channel" value="4"/>
    <property name="z index" type="int" value="10"/>
   </properties>
  </object>
  <object id="2307" gid="16432" x="2288" y="440" width="16" height="16">
   <properties>
    <property name="bg layer" value="1"/>
    <property name="color channel" value="4"/>
    <property name="z index" type="int" value="10"/>
   </properties>
  </object>
  <object id="2310" gid="16432" x="2416" y="440" width="16" height="16">
   <properties>
    <property name="bg layer" value="1"/>
    <property name="color channel" value="4"/>
    <property name="z index" type="int" value="10"/>
   </properties>
  </object>
  <object id="2322" gid="16432" x="2544" y="440" width="16" height="16">
   <properties>
    <property name="bg layer" value="1"/>
    <property name="color channel" value="4"/>
    <property name="z index" type="int" value="10"/>
   </properties>
  </object>
  <object id="2325" gid="16432" x="2704" y="440" width="16" height="16">
   <properties>
    <property name="bg layer" value="1"/>
    <property name="color channel" value="4"/>
    <property name="z index" type="int" value="10"/>
   </properties>
  </object>
  <object id="2364" gid="16432" x="2944" y="440" width="16" height="16">
   <properties>
    <property name="bg layer" value="1"/>
    <property name="color channel" value="4"/>
    <property name="z index" type="int" value="10"/>
   </properties>
  </object>
  <object id="2367" gid="16432" x="3104" y="440" width="16" height="16">
   <properties>
    <property name="bg layer" value="1"/>
    <property name="color channel" value="4"/>
    <property name="z index" type="int" value="10"/>
   </properties>
  </object>
  <object id="2370" gid="16432" x="3200" y="440" width="16" height="16">
   <properties>
    <property name="bg layer" value="1"/>
    <property name="color channel" value="4"/>
    <property name="z index" type="int" value="10"/>
   </properties>
  </object>
  <object id="2373" gid="16432" x="3360" y="440" width="16" height="16">
   <properties>
    <property name="bg layer" value="1"/>
    <property name="color channel" value="4"/>
    <property name="z index" type="int" value="10"/>
   </properties>
  </object>
  <object id="2376" gid="16432" x="3472" y="440" width="16" height="16">
   <properties>
    <property name="bg layer" value="1"/>
    <property name="color channel" value="4"/>
    <property name="z index" type="int" value="10"/>
   </properties>
  </object>
  <object id="2258" gid="16432" x="1920" y="192" width="16" height="16">
   <properties>
    <property name="bg layer" value="1"/>
    <property name="color channel" value="4"/>
    <property name="z index" type="int" value="10"/>
   </properties>
  </object>
  <object id="2259" gid="16432" x="2064" y="240" width="16" height="16">
   <properties>
    <property name="bg layer" value="1"/>
    <property name="color channel" value="4"/>
    <property name="z index" type="int" value="10"/>
   </properties>
  </object>
  <object id="2262" gid="16432" x="2128" y="288" width="16" height="16">
   <properties>
    <property name="bg layer" value="1"/>
    <property name="color channel" value="4"/>
    <property name="z index" type="int" value="10"/>
   </properties>
  </object>
  <object id="2265" gid="16432" x="2240" y="288" width="16" height="16">
   <properties>
    <property name="bg layer" value="1"/>
    <property name="color channel" value="4"/>
    <property name="z index" type="int" value="10"/>
   </properties>
  </object>
  <object id="2313" gid="16432" x="2320" y="272" width="16" height="16">
   <properties>
    <property name="bg layer" value="1"/>
    <property name="color channel" value="4"/>
    <property name="z index" type="int" value="10"/>
   </properties>
  </object>
  <object id="2316" gid="16432" x="2432" y="272" width="16" height="16">
   <properties>
    <property name="bg layer" value="1"/>
    <property name="color channel" value="4"/>
    <property name="z index" type="int" value="10"/>
   </properties>
  </object>
  <object id="2319" gid="16432" x="2512" y="224" width="16" height="16">
   <properties>
    <property name="bg layer" value="1"/>
    <property name="color channel" value="4"/>
    <property name="z index" type="int" value="10"/>
   </properties>
  </object>
  <object id="2328" gid="16432" x="2592" y="256" width="16" height="16">
   <properties>
    <property name="bg layer" value="1"/>
    <property name="color channel" value="4"/>
    <property name="z index" type="int" value="10"/>
   </properties>
  </object>
  <object id="2337" gid="16432" x="2776" y="336" width="16" height="16">
   <properties>
    <property name="bg layer" value="1"/>
    <property name="color channel" value="4"/>
    <property name="z index" type="int" value="10"/>
   </properties>
  </object>
  <object id="2346" gid="16432" x="3016" y="336" width="16" height="16">
   <properties>
    <property name="bg layer" value="1"/>
    <property name="color channel" value="4"/>
    <property name="z index" type="int" value="10"/>
   </properties>
  </object>
  <object id="2331" gid="16432" x="2656" y="224" width="16" height="16">
   <properties>
    <property name="bg layer" value="1"/>
    <property name="color channel" value="4"/>
    <property name="z index" type="int" value="10"/>
   </properties>
  </object>
  <object id="2334" gid="16432" x="2752" y="192" width="16" height="16">
   <properties>
    <property name="bg layer" value="1"/>
    <property name="color channel" value="4"/>
    <property name="z index" type="int" value="10"/>
   </properties>
  </object>
  <object id="2340" gid="16432" x="2816" y="224" width="16" height="16">
   <properties>
    <property name="bg layer" value="1"/>
    <property name="color channel" value="4"/>
    <property name="z index" type="int" value="10"/>
   </properties>
  </object>
  <object id="2343" gid="16432" x="2880" y="240" width="16" height="16">
   <properties>
    <property name="bg layer" value="1"/>
    <property name="color channel" value="4"/>
    <property name="z index" type="int" value="10"/>
   </properties>
  </object>
  <object id="2349" gid="16432" x="2992" y="224" width="16" height="16">
   <properties>
    <property name="bg layer" value="1"/>
    <property name="color channel" value="4"/>
    <property name="z index" type="int" value="10"/>
   </properties>
  </object>
  <object id="2352" gid="16432" x="3072" y="256" width="16" height="16">
   <properties>
    <property name="bg layer" value="1"/>
    <property name="color channel" value="4"/>
    <property name="z index" type="int" value="10"/>
   </properties>
  </object>
  <object id="2355" gid="16432" x="3216" y="256" width="16" height="16">
   <properties>
    <property name="bg layer" value="1"/>
    <property name="color channel" value="4"/>
    <property name="z index" type="int" value="10"/>
   </properties>
  </object>
  <object id="2358" gid="16432" x="3344" y="224" width="16" height="16">
   <properties>
    <property name="bg layer" value="1"/>
    <property name="color channel" value="4"/>
    <property name="z index" type="int" value="10"/>
   </properties>
  </object>
  <object id="2361" gid="16432" x="3424" y="352" width="16" height="16">
   <properties>
    <property name="bg layer" value="1"/>
    <property name="color channel" value="4"/>
    <property name="z index" type="int" value="10"/>
   </properties>
  </object>
  <object id="2440" gid="16432" x="5280" y="288" width="16" height="16">
   <properties>
    <property name="bg layer" value="1"/>
    <property name="color channel" value="3"/>
    <property name="z index" type="int" value="10"/>
   </properties>
  </object>
  <object id="2459" gid="16432" x="4928" y="304" width="16" height="16">
   <properties>
    <property name="bg layer" value="1"/>
    <property name="color channel" value="3"/>
    <property name="z index" type="int" value="10"/>
   </properties>
  </object>
  <object id="2457" gid="16432" x="4720" y="272" width="16" height="16">
   <properties>
    <property name="bg layer" value="1"/>
    <property name="color channel" value="3"/>
    <property name="z index" type="int" value="10"/>
   </properties>
  </object>
  <object id="2455" gid="16432" x="4624" y="288" width="16" height="16">
   <properties>
    <property name="bg layer" value="1"/>
    <property name="color channel" value="3"/>
    <property name="z index" type="int" value="10"/>
   </properties>
  </object>
  <object id="2453" gid="16432" x="4560" y="264" width="16" height="16">
   <properties>
    <property name="bg layer" value="1"/>
    <property name="color channel" value="3"/>
    <property name="z index" type="int" value="10"/>
   </properties>
  </object>
  <object id="2451" gid="16432" x="4496" y="240" width="16" height="16">
   <properties>
    <property name="bg layer" value="1"/>
    <property name="color channel" value="3"/>
    <property name="z index" type="int" value="10"/>
   </properties>
  </object>
  <object id="2449" gid="16432" x="4416" y="304" width="16" height="16">
   <properties>
    <property name="bg layer" value="1"/>
    <property name="color channel" value="3"/>
    <property name="z index" type="int" value="10"/>
   </properties>
  </object>
  <object id="2447" gid="16432" x="4160" y="256" width="16" height="16">
   <properties>
    <property name="bg layer" value="1"/>
    <property name="color channel" value="3"/>
    <property name="z index" type="int" value="10"/>
   </properties>
  </object>
  <object id="2445" gid="16432" x="3952" y="304" width="16" height="16">
   <properties>
    <property name="bg layer" value="1"/>
    <property name="color channel" value="3"/>
    <property name="z index" type="int" value="10"/>
   </properties>
  </object>
  <object id="2443" gid="16432" x="3680" y="288" width="16" height="16">
   <properties>
    <property name="bg layer" value="1"/>
    <property name="color channel" value="3"/>
    <property name="z index" type="int" value="10"/>
   </properties>
  </object>
  <object id="951" gid="16432" x="2512" y="304" width="16" height="16">
   <properties>
    <property name="bg layer" value="1"/>
    <property name="color channel" value="4"/>
   </properties>
  </object>
  <object id="900" gid="16500" x="1696" y="336" width="16" height="16">
   <properties>
    <property name="bg layer" value="1"/>
    <property name="color channel" value="3"/>
    <property name="z index" type="int" value="15"/>
   </properties>
  </object>
  <object id="2268" gid="16500" x="1648" y="368" width="16" height="16">
   <properties>
    <property name="bg layer" value="1"/>
    <property name="color channel" value="3"/>
    <property name="z index" type="int" value="15"/>
   </properties>
  </object>
  <object id="2271" gid="16500" x="1872" y="288" width="16" height="16">
   <properties>
    <property name="bg layer" value="1"/>
    <property name="color channel" value="3"/>
    <property name="z index" type="int" value="15"/>
   </properties>
  </object>
  <object id="2274" gid="16500" x="1936" y="272" width="16" height="16">
   <properties>
    <property name="bg layer" value="1"/>
    <property name="color channel" value="3"/>
    <property name="z index" type="int" value="15"/>
   </properties>
  </object>
  <object id="2277" gid="16500" x="2288" y="384" width="16" height="16">
   <properties>
    <property name="bg layer" value="1"/>
    <property name="color channel" value="3"/>
    <property name="z index" type="int" value="15"/>
   </properties>
  </object>
  <object id="3302" gid="16500" x="12992" y="240" width="16" height="16">
   <properties>
    <property name="bg layer" value="1"/>
    <property name="color channel" value="4"/>
    <property name="z index" type="int" value="10"/>
   </properties>
  </object>
  <object id="3470" gid="16500" x="16784" y="400" width="16" height="16">
   <properties>
    <property name="bg layer" value="1"/>
    <property name="color channel" value="1"/>
    <property name="z index" type="int" value="10"/>
   </properties>
  </object>
  <object id="3479" gid="16500" x="16384" y="400" width="16" height="16">
   <properties>
    <property name="bg layer" value="1"/>
    <property name="color channel" value="1"/>
    <property name="z index" type="int" value="10"/>
   </properties>
  </object>
  <object id="3475" gid="16500" x="16784" y="336" width="16" height="16">
   <properties>
    <property name="bg layer" value="1"/>
    <property name="color channel" value="2"/>
    <property name="z index" type="int" value="10"/>
   </properties>
  </object>
  <object id="3473" gid="16500" x="16384" y="336" width="16" height="16">
   <properties>
    <property name="bg layer" value="1"/>
    <property name="color channel" value="2"/>
    <property name="z index" type="int" value="10"/>
   </properties>
  </object>
  <object id="3749" gid="16500" x="20320" y="384" width="16" height="16">
   <properties>
    <property name="bg layer" value="1"/>
    <property name="color channel" value="2"/>
    <property name="z index" type="int" value="10"/>
   </properties>
  </object>
  <object id="3763" gid="16500" x="20176" y="400" width="16" height="16">
   <properties>
    <property name="bg layer" value="1"/>
    <property name="color channel" value="2"/>
    <property name="z index" type="int" value="10"/>
   </properties>
  </object>
  <object id="3755" gid="16500" x="20400" y="368" width="16" height="16">
   <properties>
    <property name="bg layer" value="1"/>
    <property name="color channel" value="1"/>
    <property name="z index" type="int" value="15"/>
   </properties>
  </object>
  <object id="3765" gid="16500" x="20256" y="368" width="16" height="16">
   <properties>
    <property name="bg layer" value="1"/>
    <property name="color channel" value="1"/>
    <property name="z index" type="int" value="15"/>
   </properties>
  </object>
  <object id="3761" gid="16500" x="20320" y="352" width="16" height="16">
   <properties>
    <property name="bg layer" value="1"/>
    <property name="color channel" value="1"/>
    <property name="z index" type="int" value="10"/>
   </properties>
  </object>
  <object id="3759" gid="16500" x="20176" y="336" width="16" height="16">
   <properties>
    <property name="bg layer" value="1"/>
    <property name="color channel" value="1"/>
    <property name="z index" type="int" value="10"/>
   </properties>
  </object>
  <object id="3757" gid="16500" x="19792" y="336" width="16" height="16">
   <properties>
    <property name="bg layer" value="1"/>
    <property name="color channel" value="1"/>
    <property name="z index" type="int" value="10"/>
   </properties>
  </object>
  <object id="3753" gid="16500" x="19792" y="400" width="16" height="16">
   <properties>
    <property name="bg layer" value="1"/>
    <property name="color channel" value="2"/>
    <property name="z index" type="int" value="10"/>
   </properties>
  </object>
  <object id="3338" gid="16500" x="12944" y="208" width="16" height="16">
   <properties>
    <property name="bg layer" value="1"/>
    <property name="color channel" value="4"/>
    <property name="z index" type="int" value="10"/>
   </properties>
  </object>
  <object id="3336" gid="16500" x="12544" y="416" width="16" height="16">
   <properties>
    <property name="bg layer" value="1"/>
    <property name="color channel" value="4"/>
    <property name="z index" type="int" value="10"/>
   </properties>
  </object>
  <object id="3334" gid="16500" x="12592" y="384" width="16" height="16">
   <properties>
    <property name="bg layer" value="1"/>
    <property name="color channel" value="4"/>
    <property name="z index" type="int" value="10"/>
   </properties>
  </object>
  <object id="3330" gid="16500" x="12320" y="304" width="16" height="16">
   <properties>
    <property name="bg layer" value="1"/>
    <property name="color channel" value="4"/>
    <property name="z index" type="int" value="10"/>
   </properties>
  </object>
  <object id="3328" gid="16500" x="12080" y="256" width="16" height="16">
   <properties>
    <property name="bg layer" value="1"/>
    <property name="color channel" value="4"/>
    <property name="z index" type="int" value="10"/>
   </properties>
  </object>
  <object id="3326" gid="16500" x="12032" y="224" width="16" height="16">
   <properties>
    <property name="bg layer" value="1"/>
    <property name="color channel" value="4"/>
    <property name="z index" type="int" value="10"/>
   </properties>
  </object>
  <object id="3324" gid="16500" x="11840" y="304" width="16" height="16">
   <properties>
    <property name="bg layer" value="1"/>
    <property name="color channel" value="4"/>
    <property name="z index" type="int" value="10"/>
   </properties>
  </object>
  <object id="3322" gid="16500" x="11808" y="256" width="16" height="16">
   <properties>
    <property name="bg layer" value="1"/>
    <property name="color channel" value="4"/>
    <property name="z index" type="int" value="10"/>
   </properties>
  </object>
  <object id="3320" gid="16500" x="11728" y="256" width="16" height="16">
   <properties>
    <property name="bg layer" value="1"/>
    <property name="color channel" value="4"/>
    <property name="z index" type="int" value="10"/>
   </properties>
  </object>
  <object id="3318" gid="16500" x="11616" y="320" width="16" height="16">
   <properties>
    <property name="bg layer" value="1"/>
    <property name="color channel" value="4"/>
    <property name="z index" type="int" value="10"/>
   </properties>
  </object>
  <object id="3316" gid="16500" x="11376" y="320" width="16" height="16">
   <properties>
    <property name="bg layer" value="1"/>
    <property name="color channel" value="4"/>
    <property name="z index" type="int" value="10"/>
   </properties>
  </object>
  <object id="2280" gid="16500" x="2416" y="368" width="16" height="16">
   <properties>
    <property name="bg layer" value="1"/>
    <property name="color channel" value="3"/>
    <property name="z index" type="int" value="15"/>
   </properties>
  </object>
  <object id="2283" gid="16500" x="2464" y="336" width="16" height="16">
   <properties>
    <property name="bg layer" value="1"/>
    <property name="color channel" value="3"/>
    <property name="z index" type="int" value="15"/>
   </properties>
  </object>
  <object id="2288" gid="16500" x="3104" y="368" width="16" height="16">
   <properties>
    <property name="bg layer" value="1"/>
    <property name="color channel" value="3"/>
    <property name="z index" type="int" value="15"/>
   </properties>
  </object>
  <object id="2291" gid="16500" x="3200" y="368" width="16" height="16">
   <properties>
    <property name="bg layer" value="1"/>
    <property name="color channel" value="3"/>
    <property name="z index" type="int" value="15"/>
   </properties>
  </object>
  <object id="2294" gid="16500" x="3376" y="304" width="16" height="16">
   <properties>
    <property name="bg layer" value="1"/>
    <property name="color channel" value="3"/>
    <property name="z index" type="int" value="15"/>
   </properties>
  </object>
  <object id="902" gid="16500" x="1664" y="272" width="16" height="16">
   <properties>
    <property name="bg layer" value="1"/>
    <property name="color channel" value="3"/>
    <property name="z index" type="int" value="15"/>
   </properties>
  </object>
  <object id="2251" gid="16500" x="1744" y="240" width="16" height="16">
   <properties>
    <property name="bg layer" value="1"/>
    <property name="color channel" value="3"/>
    <property name="z index" type="int" value="15"/>
   </properties>
  </object>
  <object id="2296" gid="16500" x="1648" y="440" width="16" height="16">
   <properties>
    <property name="bg layer" value="1"/>
    <property name="color channel" value="3"/>
    <property name="z index" type="int" value="15"/>
   </properties>
  </object>
  <object id="2254" gid="16500" x="1840" y="208" width="16" height="16">
   <properties>
    <property name="bg layer" value="1"/>
    <property name="color channel" value="3"/>
    <property name="z index" type="int" value="15"/>
   </properties>
  </object>
  <object id="2299" gid="16500" x="1872" y="440" width="16" height="16">
   <properties>
    <property name="bg layer" value="1"/>
    <property name="color channel" value="3"/>
    <property name="z index" type="int" value="15"/>
   </properties>
  </object>
  <object id="2302" gid="16500" x="1936" y="440" width="16" height="16">
   <properties>
    <property name="bg layer" value="1"/>
    <property name="color channel" value="3"/>
    <property name="z index" type="int" value="15"/>
   </properties>
  </object>
  <object id="2305" gid="16500" x="2112" y="440" width="16" height="16">
   <properties>
    <property name="bg layer" value="1"/>
    <property name="color channel" value="3"/>
    <property name="z index" type="int" value="15"/>
   </properties>
  </object>
  <object id="2308" gid="16500" x="2288" y="440" width="16" height="16">
   <properties>
    <property name="bg layer" value="1"/>
    <property name="color channel" value="3"/>
    <property name="z index" type="int" value="15"/>
   </properties>
  </object>
  <object id="2311" gid="16500" x="2416" y="440" width="16" height="16">
   <properties>
    <property name="bg layer" value="1"/>
    <property name="color channel" value="3"/>
    <property name="z index" type="int" value="15"/>
   </properties>
  </object>
  <object id="2323" gid="16500" x="2544" y="440" width="16" height="16">
   <properties>
    <property name="bg layer" value="1"/>
    <property name="color channel" value="3"/>
    <property name="z index" type="int" value="15"/>
   </properties>
  </object>
  <object id="2326" gid="16500" x="2704" y="440" width="16" height="16">
   <properties>
    <property name="bg layer" value="1"/>
    <property name="color channel" value="3"/>
    <property name="z index" type="int" value="15"/>
   </properties>
  </object>
  <object id="2365" gid="16500" x="2944" y="440" width="16" height="16">
   <properties>
    <property name="bg layer" value="1"/>
    <property name="color channel" value="3"/>
    <property name="z index" type="int" value="15"/>
   </properties>
  </object>
  <object id="2368" gid="16500" x="3104" y="440" width="16" height="16">
   <properties>
    <property name="bg layer" value="1"/>
    <property name="color channel" value="3"/>
    <property name="z index" type="int" value="15"/>
   </properties>
  </object>
  <object id="2371" gid="16500" x="3200" y="440" width="16" height="16">
   <properties>
    <property name="bg layer" value="1"/>
    <property name="color channel" value="3"/>
    <property name="z index" type="int" value="15"/>
   </properties>
  </object>
  <object id="2374" gid="16500" x="3360" y="440" width="16" height="16">
   <properties>
    <property name="bg layer" value="1"/>
    <property name="color channel" value="3"/>
    <property name="z index" type="int" value="15"/>
   </properties>
  </object>
  <object id="2377" gid="16500" x="3472" y="440" width="16" height="16">
   <properties>
    <property name="bg layer" value="1"/>
    <property name="color channel" value="3"/>
    <property name="z index" type="int" value="15"/>
   </properties>
  </object>
  <object id="2257" gid="16500" x="1920" y="192" width="16" height="16">
   <properties>
    <property name="bg layer" value="1"/>
    <property name="color channel" value="3"/>
    <property name="z index" type="int" value="15"/>
   </properties>
  </object>
  <object id="2260" gid="16500" x="2064" y="240" width="16" height="16">
   <properties>
    <property name="bg layer" value="1"/>
    <property name="color channel" value="3"/>
    <property name="z index" type="int" value="15"/>
   </properties>
  </object>
  <object id="2263" gid="16500" x="2128" y="288" width="16" height="16">
   <properties>
    <property name="bg layer" value="1"/>
    <property name="color channel" value="3"/>
    <property name="z index" type="int" value="15"/>
   </properties>
  </object>
  <object id="2266" gid="16500" x="2240" y="288" width="16" height="16">
   <properties>
    <property name="bg layer" value="1"/>
    <property name="color channel" value="3"/>
    <property name="z index" type="int" value="15"/>
   </properties>
  </object>
  <object id="2314" gid="16500" x="2320" y="272" width="16" height="16">
   <properties>
    <property name="bg layer" value="1"/>
    <property name="color channel" value="3"/>
    <property name="z index" type="int" value="15"/>
   </properties>
  </object>
  <object id="2317" gid="16500" x="2432" y="272" width="16" height="16">
   <properties>
    <property name="bg layer" value="1"/>
    <property name="color channel" value="3"/>
    <property name="z index" type="int" value="15"/>
   </properties>
  </object>
  <object id="2320" gid="16500" x="2512" y="224" width="16" height="16">
   <properties>
    <property name="bg layer" value="1"/>
    <property name="color channel" value="3"/>
    <property name="z index" type="int" value="15"/>
   </properties>
  </object>
  <object id="2329" gid="16500" x="2592" y="256" width="16" height="16">
   <properties>
    <property name="bg layer" value="1"/>
    <property name="color channel" value="3"/>
    <property name="z index" type="int" value="15"/>
   </properties>
  </object>
  <object id="2338" gid="16500" x="2776" y="336" width="16" height="16">
   <properties>
    <property name="bg layer" value="1"/>
    <property name="color channel" value="3"/>
    <property name="z index" type="int" value="15"/>
   </properties>
  </object>
  <object id="2347" gid="16500" x="3016" y="336" width="16" height="16">
   <properties>
    <property name="bg layer" value="1"/>
    <property name="color channel" value="3"/>
    <property name="z index" type="int" value="15"/>
   </properties>
  </object>
  <object id="2332" gid="16500" x="2656" y="224" width="16" height="16">
   <properties>
    <property name="bg layer" value="1"/>
    <property name="color channel" value="3"/>
    <property name="z index" type="int" value="15"/>
   </properties>
  </object>
  <object id="2335" gid="16500" x="2752" y="192" width="16" height="16">
   <properties>
    <property name="bg layer" value="1"/>
    <property name="color channel" value="3"/>
    <property name="z index" type="int" value="15"/>
   </properties>
  </object>
  <object id="2341" gid="16500" x="2816" y="224" width="16" height="16">
   <properties>
    <property name="bg layer" value="1"/>
    <property name="color channel" value="3"/>
    <property name="z index" type="int" value="15"/>
   </properties>
  </object>
  <object id="2344" gid="16500" x="2880" y="240" width="16" height="16">
   <properties>
    <property name="bg layer" value="1"/>
    <property name="color channel" value="3"/>
    <property name="z index" type="int" value="15"/>
   </properties>
  </object>
  <object id="2350" gid="16500" x="2992" y="224" width="16" height="16">
   <properties>
    <property name="bg layer" value="1"/>
    <property name="color channel" value="3"/>
    <property name="z index" type="int" value="15"/>
   </properties>
  </object>
  <object id="2353" gid="16500" x="3072" y="256" width="16" height="16">
   <properties>
    <property name="bg layer" value="1"/>
    <property name="color channel" value="3"/>
    <property name="z index" type="int" value="15"/>
   </properties>
  </object>
  <object id="2356" gid="16500" x="3216" y="256" width="16" height="16">
   <properties>
    <property name="bg layer" value="1"/>
    <property name="color channel" value="3"/>
    <property name="z index" type="int" value="15"/>
   </properties>
  </object>
  <object id="2359" gid="16500" x="3344" y="224" width="16" height="16">
   <properties>
    <property name="bg layer" value="1"/>
    <property name="color channel" value="3"/>
    <property name="z index" type="int" value="15"/>
   </properties>
  </object>
  <object id="2362" gid="16500" x="3424" y="352" width="16" height="16">
   <properties>
    <property name="bg layer" value="1"/>
    <property name="color channel" value="3"/>
    <property name="z index" type="int" value="15"/>
   </properties>
  </object>
  <object id="2441" gid="16500" x="5280" y="288" width="16" height="16">
   <properties>
    <property name="bg layer" value="1"/>
    <property name="color channel" value="3"/>
    <property name="z index" type="int" value="15"/>
   </properties>
  </object>
  <object id="2460" gid="16500" x="4928" y="304" width="16" height="16">
   <properties>
    <property name="bg layer" value="1"/>
    <property name="color channel" value="3"/>
    <property name="z index" type="int" value="15"/>
   </properties>
  </object>
  <object id="2458" gid="16500" x="4720" y="272" width="16" height="16">
   <properties>
    <property name="bg layer" value="1"/>
    <property name="color channel" value="3"/>
    <property name="z index" type="int" value="15"/>
   </properties>
  </object>
  <object id="2456" gid="16500" x="4624" y="288" width="16" height="16">
   <properties>
    <property name="bg layer" value="1"/>
    <property name="color channel" value="3"/>
    <property name="z index" type="int" value="15"/>
   </properties>
  </object>
  <object id="2454" gid="16500" x="4560" y="264" width="16" height="16">
   <properties>
    <property name="bg layer" value="1"/>
    <property name="color channel" value="3"/>
    <property name="z index" type="int" value="15"/>
   </properties>
  </object>
  <object id="2452" gid="16500" x="4496" y="240" width="16" height="16">
   <properties>
    <property name="bg layer" value="1"/>
    <property name="color channel" value="3"/>
    <property name="z index" type="int" value="15"/>
   </properties>
  </object>
  <object id="2450" gid="16500" x="4416" y="304" width="16" height="16">
   <properties>
    <property name="bg layer" value="1"/>
    <property name="color channel" value="3"/>
    <property name="z index" type="int" value="15"/>
   </properties>
  </object>
  <object id="2448" gid="16500" x="4160" y="256" width="16" height="16">
   <properties>
    <property name="bg layer" value="1"/>
    <property name="color channel" value="3"/>
    <property name="z index" type="int" value="15"/>
   </properties>
  </object>
  <object id="2446" gid="16500" x="3952" y="304" width="16" height="16">
   <properties>
    <property name="bg layer" value="1"/>
    <property name="color channel" value="3"/>
    <property name="z index" type="int" value="15"/>
   </properties>
  </object>
  <object id="2444" gid="16500" x="3680" y="288" width="16" height="16">
   <properties>
    <property name="bg layer" value="1"/>
    <property name="color channel" value="3"/>
    <property name="z index" type="int" value="15"/>
   </properties>
  </object>
  <object id="952" gid="16500" x="2512" y="304" width="16" height="16">
   <properties>
    <property name="bg layer" value="1"/>
    <property name="color channel" value="3"/>
   </properties>
  </object>
  <object id="922" gid="16500" x="2000" y="256" width="16" height="16">
   <properties>
    <property name="bg layer" value="1"/>
    <property name="color channel" value="3"/>
    <property name="z index" type="int" value="15"/>
   </properties>
  </object>
  <object id="904" gid="16507" x="1664" y="272" width="16" height="16">
   <properties>
    <property name="bg layer" value="0"/>
   </properties>
  </object>
  <object id="2250" gid="16507" x="1744" y="240" width="16" height="16">
   <properties>
    <property name="bg layer" value="0"/>
   </properties>
  </object>
  <object id="2253" gid="16507" x="1840" y="208" width="16" height="16">
   <properties>
    <property name="bg layer" value="0"/>
   </properties>
  </object>
  <object id="2300" gid="16507" x="1872" y="440" width="16" height="16">
   <properties>
    <property name="bg layer" value="1"/>
   </properties>
  </object>
  <object id="2303" gid="16507" x="1936" y="440" width="16" height="16">
   <properties>
    <property name="bg layer" value="1"/>
   </properties>
  </object>
  <object id="2306" gid="16507" x="2112" y="440" width="16" height="16">
   <properties>
    <property name="bg layer" value="1"/>
   </properties>
  </object>
  <object id="2309" gid="16507" x="2288" y="440" width="16" height="16">
   <properties>
    <property name="bg layer" value="1"/>
   </properties>
  </object>
  <object id="2312" gid="16507" x="2416" y="440" width="16" height="16">
   <properties>
    <property name="bg layer" value="1"/>
   </properties>
  </object>
  <object id="2324" gid="16507" x="2544" y="440" width="16" height="16">
   <properties>
    <property name="bg layer" value="1"/>
   </properties>
  </object>
  <object id="2327" gid="16507" x="2704" y="440" width="16" height="16">
   <properties>
    <property name="bg layer" value="1"/>
   </properties>
  </object>
  <object id="2366" gid="16507" x="2944" y="440" width="16" height="16">
   <properties>
    <property name="bg layer" value="1"/>
   </properties>
  </object>
  <object id="2369" gid="16507" x="3104" y="440" width="16" height="16">
   <properties>
    <property name="bg layer" value="1"/>
   </properties>
  </object>
  <object id="2372" gid="16507" x="3200" y="440" width="16" height="16">
   <properties>
    <property name="bg layer" value="1"/>
   </properties>
  </object>
  <object id="2375" gid="16507" x="3360" y="440" width="16" height="16">
   <properties>
    <property name="bg layer" value="1"/>
   </properties>
  </object>
  <object id="2378" gid="16507" x="3472" y="440" width="16" height="16">
   <properties>
    <property name="bg layer" value="1"/>
   </properties>
  </object>
  <object id="2256" gid="16507" x="1920" y="192" width="16" height="16">
   <properties>
    <property name="bg layer" value="0"/>
   </properties>
  </object>
  <object id="2261" gid="16507" x="2064" y="240" width="16" height="16">
   <properties>
    <property name="bg layer" value="0"/>
   </properties>
  </object>
  <object id="2264" gid="16507" x="2128" y="288" width="16" height="16">
   <properties>
    <property name="bg layer" value="0"/>
   </properties>
  </object>
  <object id="2267" gid="16507" x="2240" y="288" width="16" height="16">
   <properties>
    <property name="bg layer" value="0"/>
   </properties>
  </object>
  <object id="2315" gid="16507" x="2320" y="272" width="16" height="16">
   <properties>
    <property name="bg layer" value="0"/>
   </properties>
  </object>
  <object id="2318" gid="16507" x="2432" y="272" width="16" height="16">
   <properties>
    <property name="bg layer" value="0"/>
   </properties>
  </object>
  <object id="2321" gid="16507" x="2512" y="224" width="16" height="16">
   <properties>
    <property name="bg layer" value="0"/>
   </properties>
  </object>
  <object id="2330" gid="16507" x="2592" y="256" width="16" height="16">
   <properties>
    <property name="bg layer" value="0"/>
   </properties>
  </object>
  <object id="2339" gid="16507" x="2776" y="336" width="16" height="16">
   <properties>
    <property name="bg layer" value="0"/>
   </properties>
  </object>
  <object id="2348" gid="16507" x="3016" y="336" width="16" height="16">
   <properties>
    <property name="bg layer" value="0"/>
   </properties>
  </object>
  <object id="2333" gid="16507" x="2656" y="224" width="16" height="16">
   <properties>
    <property name="bg layer" value="0"/>
   </properties>
  </object>
  <object id="2336" gid="16507" x="2752" y="192" width="16" height="16">
   <properties>
    <property name="bg layer" value="0"/>
   </properties>
  </object>
  <object id="2342" gid="16507" x="2816" y="224" width="16" height="16">
   <properties>
    <property name="bg layer" value="0"/>
   </properties>
  </object>
  <object id="2345" gid="16507" x="2880" y="240" width="16" height="16">
   <properties>
    <property name="bg layer" value="0"/>
   </properties>
  </object>
  <object id="2351" gid="16507" x="2992" y="224" width="16" height="16">
   <properties>
    <property name="bg layer" value="0"/>
   </properties>
  </object>
  <object id="2354" gid="16507" x="3072" y="256" width="16" height="16">
   <properties>
    <property name="bg layer" value="0"/>
   </properties>
  </object>
  <object id="2357" gid="16507" x="3216" y="256" width="16" height="16">
   <properties>
    <property name="bg layer" value="0"/>
   </properties>
  </object>
  <object id="2360" gid="16507" x="3344" y="224" width="16" height="16">
   <properties>
    <property name="bg layer" value="0"/>
   </properties>
  </object>
  <object id="2363" gid="16507" x="3424" y="352" width="16" height="16">
   <properties>
    <property name="bg layer" value="0"/>
   </properties>
  </object>
  <object id="957" gid="16414" x="11088" y="280" width="16" height="16"/>
  <object id="958" gid="16388" x="3597" y="144" width="16" height="16">
   <properties>
    <property name="Channel" value="3"/>
    <property name="Color" type="color" value="#ffe30200"/>
   </properties>
  </object>
  <object id="969" gid="16388" x="4029" y="144" width="16" height="16">
   <properties>
    <property name="Channel" value="3"/>
    <property name="Color" type="color" value="#ffe30200"/>
   </properties>
  </object>
  <object id="991" gid="16388" x="4765" y="144" width="16" height="16">
   <properties>
    <property name="Channel" value="3"/>
    <property name="Color" type="color" value="#ffe30200"/>
   </properties>
  </object>
  <object id="1005" gid="16388" x="5133" y="144" width="16" height="16">
   <properties>
    <property name="Channel" value="3"/>
    <property name="Color" type="color" value="#ffe30200"/>
   </properties>
  </object>
  <object id="970" gid="16388" x="4061" y="144" width="16" height="16">
   <properties>
    <property name="Channel" value="3"/>
    <property name="Color" type="color" value="#ffe30200"/>
   </properties>
  </object>
  <object id="990" gid="16388" x="4797" y="144" width="16" height="16">
   <properties>
    <property name="Channel" value="3"/>
    <property name="Color" type="color" value="#ffe30200"/>
   </properties>
  </object>
  <object id="1004" gid="16388" x="5165" y="144" width="16" height="16">
   <properties>
    <property name="Channel" value="3"/>
    <property name="Color" type="color" value="#ffe30200"/>
   </properties>
  </object>
  <object id="960" gid="16388" x="3631" y="144" width="16" height="16">
   <properties>
    <property name="Channel" value="3"/>
    <property name="Color" type="color" value="#ffe30200"/>
   </properties>
  </object>
  <object id="973" gid="16388" x="4095" y="144" width="16" height="16">
   <properties>
    <property name="Channel" value="3"/>
    <property name="Color" type="color" value="#ffe30200"/>
   </properties>
  </object>
  <object id="989" gid="16388" x="4831" y="144" width="16" height="16">
   <properties>
    <property name="Channel" value="3"/>
    <property name="Color" type="color" value="#ffe30200"/>
   </properties>
  </object>
  <object id="1003" gid="16388" x="5199" y="144" width="16" height="16">
   <properties>
    <property name="Channel" value="3"/>
    <property name="Color" type="color" value="#ffe30200"/>
   </properties>
  </object>
  <object id="994" gid="16388" x="4959" y="144" width="16" height="16">
   <properties>
    <property name="Channel" value="3"/>
    <property name="Color" type="color" value="#ffe30200"/>
   </properties>
  </object>
  <object id="999" gid="16388" x="5071" y="144" width="16" height="16">
   <properties>
    <property name="Channel" value="3"/>
    <property name="Color" type="color" value="#ffe30200"/>
   </properties>
  </object>
  <object id="981" gid="16388" x="4493" y="144" width="16" height="16">
   <properties>
    <property name="Channel" value="3"/>
    <property name="Color" type="color" value="#ffe30200"/>
   </properties>
  </object>
  <object id="1009" gid="16388" x="5261" y="144" width="16" height="16">
   <properties>
    <property name="Channel" value="3"/>
    <property name="Color" type="color" value="#ffe30200"/>
   </properties>
  </object>
  <object id="982" gid="16388" x="4557" y="144" width="16" height="16">
   <properties>
    <property name="Channel" value="3"/>
    <property name="Color" type="color" value="#ffe30200"/>
   </properties>
  </object>
  <object id="984" gid="16388" x="4621" y="144" width="16" height="16">
   <properties>
    <property name="Channel" value="3"/>
    <property name="Color" type="color" value="#ffe30200"/>
   </properties>
  </object>
  <object id="963" gid="16388" x="3684" y="144" width="16" height="16">
   <properties>
    <property name="Channel" value="3"/>
    <property name="Color" type="color" value="#ffe30200"/>
   </properties>
  </object>
  <object id="964" gid="16388" x="3807" y="144" width="16" height="16">
   <properties>
    <property name="Channel" value="3"/>
    <property name="Color" type="color" value="#ffe30200"/>
   </properties>
  </object>
  <object id="966" gid="16388" x="3921" y="144" width="16" height="16">
   <properties>
    <property name="Channel" value="3"/>
    <property name="Color" type="color" value="#ffe30200"/>
   </properties>
  </object>
  <object id="974" gid="16388" x="4157" y="144" width="16" height="16">
   <properties>
    <property name="Channel" value="3"/>
    <property name="Color" type="color" value="#ffe30200"/>
   </properties>
  </object>
  <object id="993" gid="16388" x="4893" y="144" width="16" height="16">
   <properties>
    <property name="Channel" value="3"/>
    <property name="Color" type="color" value="#ffe30200"/>
   </properties>
  </object>
  <object id="997" gid="16388" x="5021" y="144" width="16" height="16">
   <properties>
    <property name="Channel" value="3"/>
    <property name="Color" type="color" value="#ffe30200"/>
   </properties>
  </object>
  <object id="977" gid="16388" x="4365" y="144" width="16" height="16">
   <properties>
    <property name="Channel" value="3"/>
    <property name="Color" type="color" value="#ffe30200"/>
   </properties>
  </object>
  <object id="959" gid="16388" x="3608" y="144" width="16" height="16">
   <properties>
    <property name="Channel" value="3"/>
    <property name="Color" type="color" value="#ff000000"/>
    <property name="Frames" type="int" value="21"/>
   </properties>
  </object>
  <object id="968" gid="16388" x="4040" y="144" width="16" height="16">
   <properties>
    <property name="Channel" value="3"/>
    <property name="Color" type="color" value="#ff000000"/>
    <property name="Frames" type="int" value="21"/>
   </properties>
  </object>
  <object id="988" gid="16388" x="4776" y="144" width="16" height="16">
   <properties>
    <property name="Channel" value="3"/>
    <property name="Color" type="color" value="#ff000000"/>
    <property name="Frames" type="int" value="21"/>
   </properties>
  </object>
  <object id="1002" gid="16388" x="5144" y="144" width="16" height="16">
   <properties>
    <property name="Channel" value="3"/>
    <property name="Color" type="color" value="#ff000000"/>
    <property name="Frames" type="int" value="21"/>
   </properties>
  </object>
  <object id="971" gid="16388" x="4072" y="144" width="16" height="16">
   <properties>
    <property name="Channel" value="3"/>
    <property name="Color" type="color" value="#ff000000"/>
    <property name="Frames" type="int" value="21"/>
   </properties>
  </object>
  <object id="987" gid="16388" x="4808" y="144" width="16" height="16">
   <properties>
    <property name="Channel" value="3"/>
    <property name="Color" type="color" value="#ff000000"/>
    <property name="Frames" type="int" value="21"/>
   </properties>
  </object>
  <object id="1001" gid="16388" x="5176" y="144" width="16" height="16">
   <properties>
    <property name="Channel" value="3"/>
    <property name="Color" type="color" value="#ff000000"/>
    <property name="Frames" type="int" value="21"/>
   </properties>
  </object>
  <object id="961" gid="16388" x="3642" y="144" width="16" height="16">
   <properties>
    <property name="Channel" value="3"/>
    <property name="Color" type="color" value="#ff000000"/>
    <property name="Frames" type="int" value="30"/>
   </properties>
  </object>
  <object id="972" gid="16388" x="4106" y="144" width="16" height="16">
   <properties>
    <property name="Channel" value="3"/>
    <property name="Color" type="color" value="#ff000000"/>
    <property name="Frames" type="int" value="30"/>
   </properties>
  </object>
  <object id="986" gid="16388" x="4842" y="144" width="16" height="16">
   <properties>
    <property name="Channel" value="3"/>
    <property name="Color" type="color" value="#ff000000"/>
    <property name="Frames" type="int" value="30"/>
   </properties>
  </object>
  <object id="1000" gid="16388" x="5210" y="144" width="16" height="16">
   <properties>
    <property name="Channel" value="3"/>
    <property name="Color" type="color" value="#ff000000"/>
    <property name="Frames" type="int" value="30"/>
   </properties>
  </object>
  <object id="995" gid="16388" x="4970" y="144" width="16" height="16">
   <properties>
    <property name="Channel" value="3"/>
    <property name="Color" type="color" value="#ff000000"/>
    <property name="Frames" type="int" value="30"/>
   </properties>
  </object>
  <object id="998" gid="16388" x="5082" y="144" width="16" height="16">
   <properties>
    <property name="Channel" value="3"/>
    <property name="Color" type="color" value="#ff000000"/>
    <property name="Frames" type="int" value="30"/>
   </properties>
  </object>
  <object id="980" gid="16388" x="4509" y="144" width="16" height="16">
   <properties>
    <property name="Channel" value="3"/>
    <property name="Color" type="color" value="#ff000000"/>
    <property name="Frames" type="int" value="30"/>
   </properties>
  </object>
  <object id="1008" gid="16388" x="5277" y="144" width="16" height="16">
   <properties>
    <property name="Channel" value="3"/>
    <property name="Color" type="color" value="#ff000000"/>
    <property name="Frames" type="int" value="30"/>
   </properties>
  </object>
  <object id="983" gid="16388" x="4573" y="144" width="16" height="16">
   <properties>
    <property name="Channel" value="3"/>
    <property name="Color" type="color" value="#ff000000"/>
    <property name="Frames" type="int" value="27"/>
   </properties>
  </object>
  <object id="985" gid="16388" x="4637" y="144" width="16" height="16">
   <properties>
    <property name="Channel" value="3"/>
    <property name="Color" type="color" value="#ff000000"/>
    <property name="Frames" type="int" value="63"/>
   </properties>
  </object>
  <object id="962" gid="16388" x="3700" y="144" width="16" height="16">
   <properties>
    <property name="Channel" value="3"/>
    <property name="Color" type="color" value="#ff000000"/>
    <property name="Frames" type="int" value="63"/>
   </properties>
  </object>
  <object id="965" gid="16388" x="3823" y="144" width="16" height="16">
   <properties>
    <property name="Channel" value="3"/>
    <property name="Color" type="color" value="#ff000000"/>
    <property name="Frames" type="int" value="63"/>
   </properties>
  </object>
  <object id="967" gid="16388" x="3937" y="144" width="16" height="16">
   <properties>
    <property name="Channel" value="3"/>
    <property name="Color" type="color" value="#ff000000"/>
    <property name="Frames" type="int" value="63"/>
   </properties>
  </object>
  <object id="975" gid="16388" x="4173" y="144" width="16" height="16">
   <properties>
    <property name="Channel" value="3"/>
    <property name="Color" type="color" value="#ff000000"/>
    <property name="Frames" type="int" value="93"/>
   </properties>
  </object>
  <object id="992" gid="16388" x="4909" y="144" width="16" height="16">
   <properties>
    <property name="Channel" value="3"/>
    <property name="Color" type="color" value="#ff000000"/>
    <property name="Frames" type="int" value="93"/>
   </properties>
  </object>
  <object id="996" gid="16388" x="5037" y="144" width="16" height="16">
   <properties>
    <property name="Channel" value="3"/>
    <property name="Color" type="color" value="#ff000000"/>
    <property name="Frames" type="int" value="93"/>
   </properties>
  </object>
  <object id="976" gid="16388" x="4381" y="144" width="16" height="16">
   <properties>
    <property name="Channel" value="3"/>
    <property name="Color" type="color" value="#ff000000"/>
    <property name="Frames" type="int" value="93"/>
   </properties>
  </object>
  <object id="1010" gid="16388" x="5312" y="80" width="16" height="16">
   <properties>
    <property name="Channel" value="1"/>
    <property name="Color" type="color" value="#ffe30000"/>
   </properties>
  </object>
  <object id="1015" gid="16388" x="5488" y="80" width="16" height="16">
   <properties>
    <property name="Channel" value="1"/>
    <property name="Color" type="color" value="#ffe30000"/>
   </properties>
  </object>
  <object id="1070" gid="16388" x="6064" y="80" width="16" height="16">
   <properties>
    <property name="Channel" value="1"/>
    <property name="Color" type="color" value="#ffe30000"/>
   </properties>
  </object>
  <object id="1112" gid="16388" x="6944" y="80" width="16" height="16">
   <properties>
    <property name="Channel" value="1"/>
    <property name="Color" type="color" value="#ffe30000"/>
   </properties>
  </object>
  <object id="1175" gid="16388" x="7752" y="80" width="16" height="16">
   <properties>
    <property name="Channel" value="1"/>
    <property name="Color" type="color" value="#ffe30000"/>
   </properties>
  </object>
  <object id="1185" gid="16388" x="7992" y="80" width="16" height="16">
   <properties>
    <property name="Channel" value="1"/>
    <property name="Color" type="color" value="#ffe30000"/>
   </properties>
  </object>
  <object id="1215" gid="16388" x="8456" y="80" width="16" height="16">
   <properties>
    <property name="Channel" value="1"/>
    <property name="Color" type="color" value="#ffe30000"/>
   </properties>
  </object>
  <object id="1228" gid="16388" x="8680" y="80" width="16" height="16">
   <properties>
    <property name="Channel" value="1"/>
    <property name="Color" type="color" value="#ffe30000"/>
   </properties>
  </object>
  <object id="1247" gid="16388" x="8920" y="80" width="16" height="16">
   <properties>
    <property name="Channel" value="1"/>
    <property name="Color" type="color" value="#ffe30000"/>
   </properties>
  </object>
  <object id="1282" gid="16388" x="9384" y="80" width="16" height="16">
   <properties>
    <property name="Channel" value="1"/>
    <property name="Color" type="color" value="#ffe30000"/>
   </properties>
  </object>
  <object id="1286" gid="16388" x="9472" y="80" width="16" height="16">
   <properties>
    <property name="Channel" value="1"/>
    <property name="Color" type="color" value="#ffed0000"/>
    <property name="Frames" type="int" value="7"/>
   </properties>
  </object>
  <object id="1304" gid="16388" x="9925" y="80" width="16" height="16">
   <properties>
    <property name="Channel" value="1"/>
    <property name="Color" type="color" value="#ffed0000"/>
    <property name="Frames" type="int" value="0"/>
   </properties>
  </object>
  <object id="1320" gid="16388" x="10145" y="80" width="16" height="16">
   <properties>
    <property name="Channel" value="1"/>
    <property name="Color" type="color" value="#ffed0000"/>
    <property name="Frames" type="int" value="0"/>
   </properties>
  </object>
  <object id="1340" gid="16388" x="10385" y="80" width="16" height="16">
   <properties>
    <property name="Channel" value="1"/>
    <property name="Color" type="color" value="#ffed0000"/>
    <property name="Frames" type="int" value="0"/>
   </properties>
  </object>
  <object id="1356" gid="16388" x="10578" y="80" width="16" height="16">
   <properties>
    <property name="Channel" value="1"/>
    <property name="Color" type="color" value="#ffed0000"/>
    <property name="Frames" type="int" value="0"/>
   </properties>
  </object>
  <object id="1374" gid="16388" x="10770" y="80" width="16" height="16">
   <properties>
    <property name="Channel" value="1"/>
    <property name="Color" type="color" value="#ffed0000"/>
    <property name="Frames" type="int" value="0"/>
   </properties>
  </object>
  <object id="1312" gid="16388" x="10029" y="80" width="16" height="16">
   <properties>
    <property name="Channel" value="1"/>
    <property name="Color" type="color" value="#ffed0000"/>
    <property name="Frames" type="int" value="0"/>
   </properties>
  </object>
  <object id="1332" gid="16388" x="10267" y="80" width="16" height="16">
   <properties>
    <property name="Channel" value="1"/>
    <property name="Color" type="color" value="#ffed0000"/>
    <property name="Frames" type="int" value="0"/>
   </properties>
  </object>
  <object id="1348" gid="16388" x="10482" y="80" width="16" height="16">
   <properties>
    <property name="Channel" value="1"/>
    <property name="Color" type="color" value="#ffed0000"/>
    <property name="Frames" type="int" value="0"/>
   </properties>
  </object>
  <object id="1364" gid="16388" x="10674" y="80" width="16" height="16">
   <properties>
    <property name="Channel" value="1"/>
    <property name="Color" type="color" value="#ffed0000"/>
    <property name="Frames" type="int" value="0"/>
   </properties>
  </object>
  <object id="1308" gid="16388" x="9970" y="80" width="16" height="16">
   <properties>
    <property name="Channel" value="1"/>
    <property name="Color" type="color" value="#ffed0000"/>
    <property name="Frames" type="int" value="0"/>
   </properties>
  </object>
  <object id="1316" gid="16388" x="10093" y="80" width="16" height="16">
   <properties>
    <property name="Channel" value="1"/>
    <property name="Color" type="color" value="#ffed0000"/>
    <property name="Frames" type="int" value="0"/>
   </properties>
  </object>
  <object id="1328" gid="16388" x="10204" y="80" width="16" height="16">
   <properties>
    <property name="Channel" value="1"/>
    <property name="Color" type="color" value="#ffed0000"/>
    <property name="Frames" type="int" value="0"/>
   </properties>
  </object>
  <object id="1336" gid="16388" x="10324" y="80" width="16" height="16">
   <properties>
    <property name="Channel" value="1"/>
    <property name="Color" type="color" value="#ffed0000"/>
    <property name="Frames" type="int" value="0"/>
   </properties>
  </object>
  <object id="1344" gid="16388" x="10434" y="80" width="16" height="16">
   <properties>
    <property name="Channel" value="1"/>
    <property name="Color" type="color" value="#ffed0000"/>
    <property name="Frames" type="int" value="0"/>
   </properties>
  </object>
  <object id="1352" gid="16388" x="10530" y="80" width="16" height="16">
   <properties>
    <property name="Channel" value="1"/>
    <property name="Color" type="color" value="#ffed0000"/>
    <property name="Frames" type="int" value="0"/>
   </properties>
  </object>
  <object id="1376" gid="16388" x="10722" y="80" width="16" height="16">
   <properties>
    <property name="Channel" value="1"/>
    <property name="Color" type="color" value="#ffed0000"/>
    <property name="Frames" type="int" value="0"/>
   </properties>
  </object>
  <object id="1360" gid="16388" x="10626" y="80" width="16" height="16">
   <properties>
    <property name="Channel" value="1"/>
    <property name="Color" type="color" value="#ffed0000"/>
    <property name="Frames" type="int" value="0"/>
   </properties>
  </object>
  <object id="1372" gid="16388" x="10818" y="80" width="16" height="16">
   <properties>
    <property name="Channel" value="1"/>
    <property name="Color" type="color" value="#ffed0000"/>
    <property name="Frames" type="int" value="0"/>
   </properties>
  </object>
  <object id="1292" gid="16388" x="9584" y="80" width="16" height="16">
   <properties>
    <property name="Channel" value="1"/>
    <property name="Color" type="color" value="#ffed0000"/>
    <property name="Frames" type="int" value="6"/>
   </properties>
  </object>
  <object id="1300" gid="16388" x="9808" y="80" width="16" height="16">
   <properties>
    <property name="Channel" value="1"/>
    <property name="Color" type="color" value="#ffed0000"/>
    <property name="Frames" type="int" value="8"/>
   </properties>
  </object>
  <object id="1296" gid="16388" x="9696" y="80" width="16" height="16">
   <properties>
    <property name="Channel" value="1"/>
    <property name="Color" type="color" value="#ffed0000"/>
    <property name="Frames" type="int" value="4"/>
   </properties>
  </object>
  <object id="1288" gid="16388" x="9472" y="96" width="16" height="16">
   <properties>
    <property name="Channel" value="2"/>
    <property name="Color" type="color" value="#ffed0000"/>
   </properties>
  </object>
  <object id="1302" gid="16388" x="9925" y="96" width="16" height="16">
   <properties>
    <property name="Channel" value="2"/>
    <property name="Color" type="color" value="#ffed0000"/>
   </properties>
  </object>
  <object id="1318" gid="16388" x="10145" y="96" width="16" height="16">
   <properties>
    <property name="Channel" value="2"/>
    <property name="Color" type="color" value="#ffed0000"/>
   </properties>
  </object>
  <object id="1338" gid="16388" x="10385" y="96" width="16" height="16">
   <properties>
    <property name="Channel" value="2"/>
    <property name="Color" type="color" value="#ffed0000"/>
   </properties>
  </object>
  <object id="1354" gid="16388" x="10578" y="96" width="16" height="16">
   <properties>
    <property name="Channel" value="2"/>
    <property name="Color" type="color" value="#ffed0000"/>
   </properties>
  </object>
  <object id="1370" gid="16388" x="10770" y="96" width="16" height="16">
   <properties>
    <property name="Channel" value="2"/>
    <property name="Color" type="color" value="#ffed0000"/>
   </properties>
  </object>
  <object id="1310" gid="16388" x="10029" y="128" width="16" height="16">
   <properties>
    <property name="Channel" value="4"/>
    <property name="Color" type="color" value="#ffed0000"/>
   </properties>
  </object>
  <object id="1330" gid="16388" x="10267" y="128" width="16" height="16">
   <properties>
    <property name="Channel" value="4"/>
    <property name="Color" type="color" value="#ffed0000"/>
   </properties>
  </object>
  <object id="1346" gid="16388" x="10482" y="128" width="16" height="16">
   <properties>
    <property name="Channel" value="4"/>
    <property name="Color" type="color" value="#ffed0000"/>
   </properties>
  </object>
  <object id="1362" gid="16388" x="10674" y="128" width="16" height="16">
   <properties>
    <property name="Channel" value="4"/>
    <property name="Color" type="color" value="#ffed0000"/>
   </properties>
  </object>
  <object id="1306" gid="16388" x="9971" y="112" width="16" height="16">
   <properties>
    <property name="Channel" value="3"/>
    <property name="Color" type="color" value="#ffed0000"/>
   </properties>
  </object>
  <object id="1314" gid="16388" x="10093" y="112" width="16" height="16">
   <properties>
    <property name="Channel" value="3"/>
    <property name="Color" type="color" value="#ffed0000"/>
   </properties>
  </object>
  <object id="1326" gid="16388" x="10204" y="112" width="16" height="16">
   <properties>
    <property name="Channel" value="3"/>
    <property name="Color" type="color" value="#ffed0000"/>
   </properties>
  </object>
  <object id="1334" gid="16388" x="10324" y="112" width="16" height="16">
   <properties>
    <property name="Channel" value="3"/>
    <property name="Color" type="color" value="#ffed0000"/>
   </properties>
  </object>
  <object id="1342" gid="16388" x="10434" y="112" width="16" height="16">
   <properties>
    <property name="Channel" value="3"/>
    <property name="Color" type="color" value="#ffed0000"/>
   </properties>
  </object>
  <object id="1350" gid="16388" x="10530" y="112" width="16" height="16">
   <properties>
    <property name="Channel" value="3"/>
    <property name="Color" type="color" value="#ffed0000"/>
   </properties>
  </object>
  <object id="1368" gid="16388" x="10722" y="112" width="16" height="16">
   <properties>
    <property name="Channel" value="3"/>
    <property name="Color" type="color" value="#ffed0000"/>
   </properties>
  </object>
  <object id="1358" gid="16388" x="10626" y="112" width="16" height="16">
   <properties>
    <property name="Channel" value="3"/>
    <property name="Color" type="color" value="#ffed0000"/>
   </properties>
  </object>
  <object id="1366" gid="16388" x="10818" y="112" width="16" height="16">
   <properties>
    <property name="Channel" value="3"/>
    <property name="Color" type="color" value="#ffed0000"/>
   </properties>
  </object>
  <object id="1290" gid="16388" x="9584" y="112" width="16" height="16">
   <properties>
    <property name="Channel" value="3"/>
    <property name="Color" type="color" value="#ffed0000"/>
   </properties>
  </object>
  <object id="1298" gid="16388" x="9808" y="112" width="16" height="16">
   <properties>
    <property name="Channel" value="3"/>
    <property name="Color" type="color" value="#ffed0000"/>
   </properties>
  </object>
  <object id="1294" gid="16388" x="9696" y="128" width="16" height="16">
   <properties>
    <property name="Channel" value="4"/>
    <property name="Color" type="color" value="#ffed0000"/>
   </properties>
  </object>
  <object id="1258" gid="16388" x="9152" y="80" width="16" height="16">
   <properties>
    <property name="Channel" value="1"/>
    <property name="Color" type="color" value="#ffe30000"/>
   </properties>
  </object>
  <object id="1202" gid="16388" x="8233" y="80" width="16" height="16">
   <properties>
    <property name="Channel" value="1"/>
    <property name="Color" type="color" value="#ffe30000"/>
   </properties>
  </object>
  <object id="1179" gid="16388" x="7856" y="80" width="16" height="16">
   <properties>
    <property name="Channel" value="1"/>
    <property name="Color" type="color" value="#ffe30000"/>
   </properties>
  </object>
  <object id="1192" gid="16388" x="8080" y="80" width="16" height="16">
   <properties>
    <property name="Channel" value="1"/>
    <property name="Color" type="color" value="#ffe30000"/>
   </properties>
  </object>
  <object id="1206" gid="16388" x="8320" y="80" width="16" height="16">
   <properties>
    <property name="Channel" value="1"/>
    <property name="Color" type="color" value="#ffe30000"/>
   </properties>
  </object>
  <object id="1237" gid="16388" x="8784" y="80" width="16" height="16">
   <properties>
    <property name="Channel" value="1"/>
    <property name="Color" type="color" value="#ffe30000"/>
   </properties>
  </object>
  <object id="1253" gid="16388" x="9016" y="80" width="16" height="16">
   <properties>
    <property name="Channel" value="1"/>
    <property name="Color" type="color" value="#ffe30000"/>
   </properties>
  </object>
  <object id="1272" gid="16388" x="9248" y="80" width="16" height="16">
   <properties>
    <property name="Channel" value="1"/>
    <property name="Color" type="color" value="#ffe30000"/>
   </properties>
  </object>
  <object id="1223" gid="16388" x="8544" y="80" width="16" height="16">
   <properties>
    <property name="Channel" value="1"/>
    <property name="Color" type="color" value="#ffe30000"/>
   </properties>
  </object>
  <object id="1098" gid="16388" x="6656" y="80" width="16" height="16">
   <properties>
    <property name="Channel" value="1"/>
    <property name="Color" type="color" value="#ffe30000"/>
   </properties>
  </object>
  <object id="1022" gid="16388" x="5600" y="80" width="16" height="16">
   <properties>
    <property name="Channel" value="1"/>
    <property name="Color" type="color" value="#ffe30000"/>
   </properties>
  </object>
  <object id="1028" gid="16388" x="5776" y="80" width="16" height="16">
   <properties>
    <property name="Channel" value="1"/>
    <property name="Color" type="color" value="#ffe30000"/>
   </properties>
  </object>
  <object id="1082" gid="16388" x="6368" y="80" width="16" height="16">
   <properties>
    <property name="Channel" value="1"/>
    <property name="Color" type="color" value="#ffe30000"/>
   </properties>
  </object>
  <object id="1034" gid="16388" x="5888" y="80" width="16" height="16">
   <properties>
    <property name="Channel" value="1"/>
    <property name="Color" type="color" value="#ffe30000"/>
   </properties>
  </object>
  <object id="1125" gid="16388" x="7056" y="80" width="16" height="16">
   <properties>
    <property name="Channel" value="1"/>
    <property name="Color" type="color" value="#ffe30000"/>
   </properties>
  </object>
  <object id="1132" gid="16388" x="7232" y="80" width="16" height="16">
   <properties>
    <property name="Channel" value="1"/>
    <property name="Color" type="color" value="#ffe30000"/>
   </properties>
  </object>
  <object id="1158" gid="16388" x="7520" y="80" width="16" height="16">
   <properties>
    <property name="Channel" value="1"/>
    <property name="Color" type="color" value="#ffe30000"/>
   </properties>
  </object>
  <object id="1078" gid="16388" x="6192" y="80" width="16" height="16">
   <properties>
    <property name="Channel" value="1"/>
    <property name="Color" type="color" value="#ffe30000"/>
   </properties>
  </object>
  <object id="1089" gid="16388" x="6480" y="80" width="16" height="16">
   <properties>
    <property name="Channel" value="1"/>
    <property name="Color" type="color" value="#ffe30000"/>
   </properties>
  </object>
  <object id="1148" gid="16388" x="7344" y="80" width="16" height="16">
   <properties>
    <property name="Channel" value="1"/>
    <property name="Color" type="color" value="#ffe30000"/>
   </properties>
  </object>
  <object id="1165" gid="16388" x="7616" y="80" width="16" height="16">
   <properties>
    <property name="Channel" value="1"/>
    <property name="Color" type="color" value="#ffe30000"/>
   </properties>
  </object>
  <object id="1102" gid="16388" x="6768" y="80" width="16" height="16">
   <properties>
    <property name="Channel" value="1"/>
    <property name="Color" type="color" value="#ffe30000"/>
   </properties>
  </object>
  <object id="1011" gid="16388" x="5328" y="80" width="16" height="16">
   <properties>
    <property name="Channel" value="1"/>
    <property name="Color" type="color" value="#ff000000"/>
    <property name="Frames" type="int" value="27"/>
   </properties>
  </object>
  <object id="1014" gid="16388" x="5504" y="80" width="16" height="16">
   <properties>
    <property name="Channel" value="1"/>
    <property name="Color" type="color" value="#ff000000"/>
    <property name="Frames" type="int" value="21"/>
   </properties>
  </object>
  <object id="1069" gid="16388" x="6080" y="80" width="16" height="16">
   <properties>
    <property name="Channel" value="1"/>
    <property name="Color" type="color" value="#ff000000"/>
    <property name="Frames" type="int" value="21"/>
   </properties>
  </object>
  <object id="1113" gid="16388" x="6960" y="80" width="16" height="16">
   <properties>
    <property name="Channel" value="1"/>
    <property name="Color" type="color" value="#ff000000"/>
    <property name="Frames" type="int" value="21"/>
   </properties>
  </object>
  <object id="1174" gid="16388" x="7768" y="80" width="16" height="16">
   <properties>
    <property name="Channel" value="1"/>
    <property name="Color" type="color" value="#ff000000"/>
    <property name="Frames" type="int" value="21"/>
   </properties>
  </object>
  <object id="1184" gid="16388" x="8008" y="80" width="16" height="16">
   <properties>
    <property name="Channel" value="1"/>
    <property name="Color" type="color" value="#ff000000"/>
    <property name="Frames" type="int" value="21"/>
   </properties>
  </object>
  <object id="1214" gid="16388" x="8472" y="80" width="16" height="16">
   <properties>
    <property name="Channel" value="1"/>
    <property name="Color" type="color" value="#ff000000"/>
    <property name="Frames" type="int" value="21"/>
   </properties>
  </object>
  <object id="1229" gid="16388" x="8696" y="80" width="16" height="16">
   <properties>
    <property name="Channel" value="1"/>
    <property name="Color" type="color" value="#ff000000"/>
    <property name="Frames" type="int" value="21"/>
   </properties>
  </object>
  <object id="1246" gid="16388" x="8936" y="80" width="16" height="16">
   <properties>
    <property name="Channel" value="1"/>
    <property name="Color" type="color" value="#ff000000"/>
    <property name="Frames" type="int" value="21"/>
   </properties>
  </object>
  <object id="1283" gid="16388" x="9400" y="80" width="16" height="16">
   <properties>
    <property name="Channel" value="1"/>
    <property name="Color" type="color" value="#ff720002"/>
    <property name="Frames" type="int" value="21"/>
   </properties>
  </object>
  <object id="1287" gid="16388" x="9496" y="80" width="16" height="16">
   <properties>
    <property name="Channel" value="1"/>
    <property name="Color" type="color" value="#ff000000"/>
    <property name="Frames" type="int" value="32"/>
   </properties>
  </object>
  <object id="1305" gid="16388" x="9941" y="80" width="16" height="16">
   <properties>
    <property name="Channel" value="1"/>
    <property name="Color" type="color" value="#ff000000"/>
    <property name="Frames" type="int" value="21"/>
   </properties>
  </object>
  <object id="1321" gid="16388" x="10161" y="80" width="16" height="16">
   <properties>
    <property name="Channel" value="1"/>
    <property name="Color" type="color" value="#ff000000"/>
    <property name="Frames" type="int" value="21"/>
   </properties>
  </object>
  <object id="1341" gid="16388" x="10401" y="80" width="16" height="16">
   <properties>
    <property name="Channel" value="1"/>
    <property name="Color" type="color" value="#ff000000"/>
    <property name="Frames" type="int" value="10"/>
   </properties>
  </object>
  <object id="1357" gid="16388" x="10594" y="80" width="16" height="16">
   <properties>
    <property name="Channel" value="1"/>
    <property name="Color" type="color" value="#ff000000"/>
    <property name="Frames" type="int" value="10"/>
   </properties>
  </object>
  <object id="1375" gid="16388" x="10786" y="80" width="16" height="16">
   <properties>
    <property name="Channel" value="1"/>
    <property name="Color" type="color" value="#ff000000"/>
    <property name="Frames" type="int" value="10"/>
   </properties>
  </object>
  <object id="1313" gid="16388" x="10045" y="80" width="16" height="16">
   <properties>
    <property name="Channel" value="1"/>
    <property name="Color" type="color" value="#ff000000"/>
    <property name="Frames" type="int" value="21"/>
   </properties>
  </object>
  <object id="1333" gid="16388" x="10283" y="80" width="16" height="16">
   <properties>
    <property name="Channel" value="1"/>
    <property name="Color" type="color" value="#ff000000"/>
    <property name="Frames" type="int" value="18"/>
   </properties>
  </object>
  <object id="1349" gid="16388" x="10498" y="80" width="16" height="16">
   <properties>
    <property name="Channel" value="1"/>
    <property name="Color" type="color" value="#ff000000"/>
    <property name="Frames" type="int" value="18"/>
   </properties>
  </object>
  <object id="1365" gid="16388" x="10690" y="80" width="16" height="16">
   <properties>
    <property name="Channel" value="1"/>
    <property name="Color" type="color" value="#ff000000"/>
    <property name="Frames" type="int" value="18"/>
   </properties>
  </object>
  <object id="1309" gid="16388" x="9986" y="80" width="16" height="16">
   <properties>
    <property name="Channel" value="1"/>
    <property name="Color" type="color" value="#ff000000"/>
    <property name="Frames" type="int" value="18"/>
   </properties>
  </object>
  <object id="1317" gid="16388" x="10109" y="80" width="16" height="16">
   <properties>
    <property name="Channel" value="1"/>
    <property name="Color" type="color" value="#ff000000"/>
    <property name="Frames" type="int" value="18"/>
   </properties>
  </object>
  <object id="1329" gid="16388" x="10220" y="80" width="16" height="16">
   <properties>
    <property name="Channel" value="1"/>
    <property name="Color" type="color" value="#ff000000"/>
    <property name="Frames" type="int" value="21"/>
   </properties>
  </object>
  <object id="1337" gid="16388" x="10340" y="80" width="16" height="16">
   <properties>
    <property name="Channel" value="1"/>
    <property name="Color" type="color" value="#ff000000"/>
    <property name="Frames" type="int" value="21"/>
   </properties>
  </object>
  <object id="1345" gid="16388" x="10450" y="80" width="16" height="16">
   <properties>
    <property name="Channel" value="1"/>
    <property name="Color" type="color" value="#ff000000"/>
    <property name="Frames" type="int" value="4"/>
   </properties>
  </object>
  <object id="1353" gid="16388" x="10546" y="80" width="16" height="16">
   <properties>
    <property name="Channel" value="1"/>
    <property name="Color" type="color" value="#ff000000"/>
    <property name="Frames" type="int" value="4"/>
   </properties>
  </object>
  <object id="1377" gid="16388" x="10738" y="80" width="16" height="16">
   <properties>
    <property name="Channel" value="1"/>
    <property name="Color" type="color" value="#ff000000"/>
    <property name="Frames" type="int" value="4"/>
   </properties>
  </object>
  <object id="1361" gid="16388" x="10642" y="80" width="16" height="16">
   <properties>
    <property name="Channel" value="1"/>
    <property name="Color" type="color" value="#ff000000"/>
    <property name="Frames" type="int" value="4"/>
   </properties>
  </object>
  <object id="1373" gid="16388" x="10834" y="80" width="16" height="16">
   <properties>
    <property name="Channel" value="1"/>
    <property name="Color" type="color" value="#ff000000"/>
    <property name="Frames" type="int" value="4"/>
   </properties>
  </object>
  <object id="1293" gid="16388" x="9608" y="80" width="16" height="16">
   <properties>
    <property name="Channel" value="1"/>
    <property name="Color" type="color" value="#ff000000"/>
    <property name="Frames" type="int" value="28"/>
   </properties>
  </object>
  <object id="1301" gid="16388" x="9832" y="80" width="16" height="16">
   <properties>
    <property name="Channel" value="1"/>
    <property name="Color" type="color" value="#ff000000"/>
    <property name="Frames" type="int" value="29"/>
   </properties>
  </object>
  <object id="1297" gid="16388" x="9720" y="80" width="16" height="16">
   <properties>
    <property name="Channel" value="1"/>
    <property name="Color" type="color" value="#ff000000"/>
    <property name="Frames" type="int" value="28"/>
   </properties>
  </object>
  <object id="1289" gid="16388" x="9496" y="96" width="16" height="16">
   <properties>
    <property name="Channel" value="2"/>
    <property name="Color" type="color" value="#ff000000"/>
    <property name="Color Blending" type="bool" value="true"/>
    <property name="Frames" type="int" value="17"/>
   </properties>
  </object>
  <object id="1303" gid="16388" x="9949" y="96" width="16" height="16">
   <properties>
    <property name="Channel" value="2"/>
    <property name="Color" type="color" value="#ff000000"/>
    <property name="Color Blending" type="bool" value="true"/>
    <property name="Frames" type="int" value="17"/>
   </properties>
  </object>
  <object id="1319" gid="16388" x="10169" y="96" width="16" height="16">
   <properties>
    <property name="Channel" value="2"/>
    <property name="Color" type="color" value="#ff000000"/>
    <property name="Color Blending" type="bool" value="true"/>
    <property name="Frames" type="int" value="17"/>
   </properties>
  </object>
  <object id="1339" gid="16388" x="10409" y="96" width="16" height="16">
   <properties>
    <property name="Channel" value="2"/>
    <property name="Color" type="color" value="#ff000000"/>
    <property name="Color Blending" type="bool" value="true"/>
    <property name="Frames" type="int" value="17"/>
   </properties>
  </object>
  <object id="1355" gid="16388" x="10602" y="96" width="16" height="16">
   <properties>
    <property name="Channel" value="2"/>
    <property name="Color" type="color" value="#ff000000"/>
    <property name="Color Blending" type="bool" value="true"/>
    <property name="Frames" type="int" value="17"/>
   </properties>
  </object>
  <object id="1371" gid="16388" x="10794" y="96" width="16" height="16">
   <properties>
    <property name="Channel" value="2"/>
    <property name="Color" type="color" value="#ff000000"/>
    <property name="Color Blending" type="bool" value="true"/>
    <property name="Frames" type="int" value="17"/>
   </properties>
  </object>
  <object id="1311" gid="16388" x="10053" y="128" width="16" height="16">
   <properties>
    <property name="Channel" value="4"/>
    <property name="Color" type="color" value="#ff000000"/>
    <property name="Color Blending" type="bool" value="true"/>
    <property name="Frames" type="int" value="17"/>
   </properties>
  </object>
  <object id="1331" gid="16388" x="10291" y="128" width="16" height="16">
   <properties>
    <property name="Channel" value="4"/>
    <property name="Color" type="color" value="#ff000000"/>
    <property name="Color Blending" type="bool" value="true"/>
    <property name="Frames" type="int" value="17"/>
   </properties>
  </object>
  <object id="1347" gid="16388" x="10506" y="128" width="16" height="16">
   <properties>
    <property name="Channel" value="4"/>
    <property name="Color" type="color" value="#ff000000"/>
    <property name="Color Blending" type="bool" value="true"/>
    <property name="Frames" type="int" value="17"/>
   </properties>
  </object>
  <object id="1363" gid="16388" x="10698" y="128" width="16" height="16">
   <properties>
    <property name="Channel" value="4"/>
    <property name="Color" type="color" value="#ff000000"/>
    <property name="Color Blending" type="bool" value="true"/>
    <property name="Frames" type="int" value="17"/>
   </properties>
  </object>
  <object id="1307" gid="16388" x="9995" y="112" width="16" height="16">
   <properties>
    <property name="Channel" value="3"/>
    <property name="Color" type="color" value="#ff000000"/>
    <property name="Color Blending" type="bool" value="true"/>
    <property name="Frames" type="int" value="17"/>
   </properties>
  </object>
  <object id="1315" gid="16388" x="10117" y="112" width="16" height="16">
   <properties>
    <property name="Channel" value="3"/>
    <property name="Color" type="color" value="#ff000000"/>
    <property name="Color Blending" type="bool" value="true"/>
    <property name="Frames" type="int" value="17"/>
   </properties>
  </object>
  <object id="1327" gid="16388" x="10228" y="112" width="16" height="16">
   <properties>
    <property name="Channel" value="3"/>
    <property name="Color" type="color" value="#ff000000"/>
    <property name="Color Blending" type="bool" value="true"/>
    <property name="Frames" type="int" value="17"/>
   </properties>
  </object>
  <object id="1335" gid="16388" x="10348" y="112" width="16" height="16">
   <properties>
    <property name="Channel" value="3"/>
    <property name="Color" type="color" value="#ff000000"/>
    <property name="Color Blending" type="bool" value="true"/>
    <property name="Frames" type="int" value="17"/>
   </properties>
  </object>
  <object id="1343" gid="16388" x="10458" y="112" width="16" height="16">
   <properties>
    <property name="Channel" value="3"/>
    <property name="Color" type="color" value="#ff000000"/>
    <property name="Color Blending" type="bool" value="true"/>
    <property name="Frames" type="int" value="17"/>
   </properties>
  </object>
  <object id="1351" gid="16388" x="10554" y="112" width="16" height="16">
   <properties>
    <property name="Channel" value="3"/>
    <property name="Color" type="color" value="#ff000000"/>
    <property name="Color Blending" type="bool" value="true"/>
    <property name="Frames" type="int" value="17"/>
   </properties>
  </object>
  <object id="1369" gid="16388" x="10746" y="112" width="16" height="16">
   <properties>
    <property name="Channel" value="3"/>
    <property name="Color" type="color" value="#ff000000"/>
    <property name="Color Blending" type="bool" value="true"/>
    <property name="Frames" type="int" value="17"/>
   </properties>
  </object>
  <object id="1359" gid="16388" x="10650" y="112" width="16" height="16">
   <properties>
    <property name="Channel" value="3"/>
    <property name="Color" type="color" value="#ff000000"/>
    <property name="Color Blending" type="bool" value="true"/>
    <property name="Frames" type="int" value="17"/>
   </properties>
  </object>
  <object id="1367" gid="16388" x="10842" y="112" width="16" height="16">
   <properties>
    <property name="Channel" value="3"/>
    <property name="Color" type="color" value="#ff000000"/>
    <property name="Color Blending" type="bool" value="true"/>
    <property name="Frames" type="int" value="17"/>
   </properties>
  </object>
  <object id="1291" gid="16388" x="9608" y="112" width="16" height="16">
   <properties>
    <property name="Channel" value="3"/>
    <property name="Color" type="color" value="#ff000000"/>
    <property name="Color Blending" type="bool" value="true"/>
    <property name="Frames" type="int" value="17"/>
   </properties>
  </object>
  <object id="1299" gid="16388" x="9832" y="112" width="16" height="16">
   <properties>
    <property name="Channel" value="3"/>
    <property name="Color" type="color" value="#ff000000"/>
    <property name="Color Blending" type="bool" value="true"/>
    <property name="Frames" type="int" value="17"/>
   </properties>
  </object>
  <object id="1295" gid="16388" x="9720" y="128" width="16" height="16">
   <properties>
    <property name="Channel" value="4"/>
    <property name="Color" type="color" value="#ff000000"/>
    <property name="Color Blending" type="bool" value="true"/>
    <property name="Frames" type="int" value="17"/>
   </properties>
  </object>
  <object id="1259" gid="16388" x="9168" y="80" width="16" height="16">
   <properties>
    <property name="Channel" value="1"/>
    <property name="Color" type="color" value="#ff000000"/>
    <property name="Frames" type="int" value="21"/>
   </properties>
  </object>
  <object id="1203" gid="16388" x="8249" y="80" width="16" height="16">
   <properties>
    <property name="Channel" value="1"/>
    <property name="Color" type="color" value="#ff000000"/>
    <property name="Frames" type="int" value="21"/>
   </properties>
  </object>
  <object id="1178" gid="16388" x="7872" y="80" width="16" height="16">
   <properties>
    <property name="Channel" value="1"/>
    <property name="Color" type="color" value="#ff000000"/>
    <property name="Frames" type="int" value="27"/>
   </properties>
  </object>
  <object id="1193" gid="16388" x="8096" y="80" width="16" height="16">
   <properties>
    <property name="Channel" value="1"/>
    <property name="Color" type="color" value="#ff000000"/>
    <property name="Frames" type="int" value="27"/>
   </properties>
  </object>
  <object id="1207" gid="16388" x="8336" y="80" width="16" height="16">
   <properties>
    <property name="Channel" value="1"/>
    <property name="Color" type="color" value="#ff000000"/>
    <property name="Frames" type="int" value="27"/>
   </properties>
  </object>
  <object id="1236" gid="16388" x="8800" y="80" width="16" height="16">
   <properties>
    <property name="Channel" value="1"/>
    <property name="Color" type="color" value="#ff000000"/>
    <property name="Frames" type="int" value="27"/>
   </properties>
  </object>
  <object id="1252" gid="16388" x="9032" y="80" width="16" height="16">
   <properties>
    <property name="Channel" value="1"/>
    <property name="Color" type="color" value="#ff000000"/>
    <property name="Frames" type="int" value="27"/>
   </properties>
  </object>
  <object id="1273" gid="16388" x="9264" y="80" width="16" height="16">
   <properties>
    <property name="Channel" value="1"/>
    <property name="Color" type="color" value="#ff000000"/>
    <property name="Frames" type="int" value="27"/>
   </properties>
  </object>
  <object id="1222" gid="16388" x="8560" y="80" width="16" height="16">
   <properties>
    <property name="Channel" value="1"/>
    <property name="Color" type="color" value="#ff000000"/>
    <property name="Frames" type="int" value="27"/>
   </properties>
  </object>
  <object id="1099" gid="16388" x="6672" y="80" width="16" height="16">
   <properties>
    <property name="Channel" value="1"/>
    <property name="Color" type="color" value="#ff000000"/>
    <property name="Frames" type="int" value="21"/>
   </properties>
  </object>
  <object id="1023" gid="16388" x="5616" y="80" width="16" height="16">
   <properties>
    <property name="Channel" value="1"/>
    <property name="Color" type="color" value="#ff000000"/>
    <property name="Frames" type="int" value="27"/>
   </properties>
  </object>
  <object id="1029" gid="16388" x="5792" y="80" width="16" height="16">
   <properties>
    <property name="Channel" value="1"/>
    <property name="Color" type="color" value="#ff000000"/>
    <property name="Frames" type="int" value="21"/>
   </properties>
  </object>
  <object id="1081" gid="16388" x="6384" y="80" width="16" height="16">
   <properties>
    <property name="Channel" value="1"/>
    <property name="Color" type="color" value="#ff000000"/>
    <property name="Frames" type="int" value="21"/>
   </properties>
  </object>
  <object id="1035" gid="16388" x="5904" y="80" width="16" height="16">
   <properties>
    <property name="Channel" value="1"/>
    <property name="Color" type="color" value="#ff000000"/>
    <property name="Frames" type="int" value="27"/>
   </properties>
  </object>
  <object id="1124" gid="16388" x="7072" y="80" width="16" height="16">
   <properties>
    <property name="Channel" value="1"/>
    <property name="Color" type="color" value="#ff000000"/>
    <property name="Frames" type="int" value="27"/>
   </properties>
  </object>
  <object id="1133" gid="16388" x="7248" y="80" width="16" height="16">
   <properties>
    <property name="Channel" value="1"/>
    <property name="Color" type="color" value="#ff000000"/>
    <property name="Frames" type="int" value="21"/>
   </properties>
  </object>
  <object id="1159" gid="16388" x="7536" y="80" width="16" height="16">
   <properties>
    <property name="Channel" value="1"/>
    <property name="Color" type="color" value="#ff000000"/>
    <property name="Frames" type="int" value="21"/>
   </properties>
  </object>
  <object id="1077" gid="16388" x="6208" y="80" width="16" height="16">
   <properties>
    <property name="Channel" value="1"/>
    <property name="Color" type="color" value="#ff000000"/>
    <property name="Frames" type="int" value="27"/>
   </properties>
  </object>
  <object id="1090" gid="16388" x="6496" y="80" width="16" height="16">
   <properties>
    <property name="Channel" value="1"/>
    <property name="Color" type="color" value="#ff000000"/>
    <property name="Frames" type="int" value="27"/>
   </properties>
  </object>
  <object id="1149" gid="16388" x="7360" y="80" width="16" height="16">
   <properties>
    <property name="Channel" value="1"/>
    <property name="Color" type="color" value="#ff000000"/>
    <property name="Frames" type="int" value="27"/>
   </properties>
  </object>
  <object id="1164" gid="16388" x="7632" y="80" width="16" height="16">
   <properties>
    <property name="Channel" value="1"/>
    <property name="Color" type="color" value="#ff000000"/>
    <property name="Frames" type="int" value="27"/>
   </properties>
  </object>
  <object id="1103" gid="16388" x="6784" y="80" width="16" height="16">
   <properties>
    <property name="Channel" value="1"/>
    <property name="Color" type="color" value="#ff000000"/>
    <property name="Frames" type="int" value="27"/>
   </properties>
  </object>
  <object id="1012" gid="16388" x="5376" y="96" width="16" height="16">
   <properties>
    <property name="Channel" value="2"/>
    <property name="Color" type="color" value="#ffe30000"/>
   </properties>
  </object>
  <object id="1017" gid="16388" x="5520" y="96" width="16" height="16">
   <properties>
    <property name="Channel" value="2"/>
    <property name="Color" type="color" value="#ffe30000"/>
   </properties>
  </object>
  <object id="1068" gid="16388" x="6096" y="96" width="16" height="16">
   <properties>
    <property name="Channel" value="2"/>
    <property name="Color" type="color" value="#ffe30000"/>
   </properties>
  </object>
  <object id="1110" gid="16388" x="6976" y="96" width="16" height="16">
   <properties>
    <property name="Channel" value="2"/>
    <property name="Color" type="color" value="#ffe30000"/>
   </properties>
  </object>
  <object id="1173" gid="16388" x="7784" y="96" width="16" height="16">
   <properties>
    <property name="Channel" value="2"/>
    <property name="Color" type="color" value="#ffe30000"/>
   </properties>
  </object>
  <object id="1183" gid="16388" x="8024" y="96" width="16" height="16">
   <properties>
    <property name="Channel" value="2"/>
    <property name="Color" type="color" value="#ffe30000"/>
   </properties>
  </object>
  <object id="1213" gid="16388" x="8488" y="96" width="16" height="16">
   <properties>
    <property name="Channel" value="2"/>
    <property name="Color" type="color" value="#ffe30000"/>
   </properties>
  </object>
  <object id="1226" gid="16388" x="8712" y="96" width="16" height="16">
   <properties>
    <property name="Channel" value="2"/>
    <property name="Color" type="color" value="#ffe30000"/>
   </properties>
  </object>
  <object id="1245" gid="16388" x="8952" y="96" width="16" height="16">
   <properties>
    <property name="Channel" value="2"/>
    <property name="Color" type="color" value="#ffe30000"/>
   </properties>
  </object>
  <object id="1280" gid="16388" x="9419" y="96" width="16" height="16">
   <properties>
    <property name="Channel" value="2"/>
    <property name="Color" type="color" value="#ffe30000"/>
   </properties>
  </object>
  <object id="1256" gid="16388" x="9176" y="96" width="16" height="16">
   <properties>
    <property name="Channel" value="2"/>
    <property name="Color" type="color" value="#ffe30000"/>
   </properties>
  </object>
  <object id="1200" gid="16388" x="8265" y="96" width="16" height="16">
   <properties>
    <property name="Channel" value="2"/>
    <property name="Color" type="color" value="#ffe30000"/>
   </properties>
  </object>
  <object id="1177" gid="16388" x="7904" y="96" width="16" height="16">
   <properties>
    <property name="Channel" value="2"/>
    <property name="Color" type="color" value="#ffe30000"/>
   </properties>
  </object>
  <object id="1190" gid="16388" x="8128" y="96" width="16" height="16">
   <properties>
    <property name="Channel" value="2"/>
    <property name="Color" type="color" value="#ffe30000"/>
   </properties>
  </object>
  <object id="1204" gid="16388" x="8368" y="96" width="16" height="16">
   <properties>
    <property name="Channel" value="2"/>
    <property name="Color" type="color" value="#ffe30000"/>
   </properties>
  </object>
  <object id="1235" gid="16388" x="8832" y="96" width="16" height="16">
   <properties>
    <property name="Channel" value="2"/>
    <property name="Color" type="color" value="#ffe30000"/>
   </properties>
  </object>
  <object id="1251" gid="16388" x="9064" y="96" width="16" height="16">
   <properties>
    <property name="Channel" value="2"/>
    <property name="Color" type="color" value="#ffe30000"/>
   </properties>
  </object>
  <object id="1270" gid="16388" x="9296" y="96" width="16" height="16">
   <properties>
    <property name="Channel" value="2"/>
    <property name="Color" type="color" value="#ffe30000"/>
   </properties>
  </object>
  <object id="1221" gid="16388" x="8592" y="96" width="16" height="16">
   <properties>
    <property name="Channel" value="2"/>
    <property name="Color" type="color" value="#ffe30000"/>
   </properties>
  </object>
  <object id="1096" gid="16388" x="6688" y="96" width="16" height="16">
   <properties>
    <property name="Channel" value="2"/>
    <property name="Color" type="color" value="#ffe30000"/>
   </properties>
  </object>
  <object id="1030" gid="16388" x="5808" y="96" width="16" height="16">
   <properties>
    <property name="Channel" value="2"/>
    <property name="Color" type="color" value="#ffe30000"/>
   </properties>
  </object>
  <object id="1080" gid="16388" x="6400" y="96" width="16" height="16">
   <properties>
    <property name="Channel" value="2"/>
    <property name="Color" type="color" value="#ffe30000"/>
   </properties>
  </object>
  <object id="1036" gid="16388" x="5952" y="96" width="16" height="16">
   <properties>
    <property name="Channel" value="2"/>
    <property name="Color" type="color" value="#ffe30000"/>
   </properties>
  </object>
  <object id="1123" gid="16388" x="7120" y="96" width="16" height="16">
   <properties>
    <property name="Channel" value="2"/>
    <property name="Color" type="color" value="#ffe30000"/>
   </properties>
  </object>
  <object id="1130" gid="16388" x="7264" y="96" width="16" height="16">
   <properties>
    <property name="Channel" value="2"/>
    <property name="Color" type="color" value="#ffe30000"/>
   </properties>
  </object>
  <object id="1156" gid="16388" x="7552" y="96" width="16" height="16">
   <properties>
    <property name="Channel" value="2"/>
    <property name="Color" type="color" value="#ffe30000"/>
   </properties>
  </object>
  <object id="1076" gid="16388" x="6256" y="96" width="16" height="16">
   <properties>
    <property name="Channel" value="2"/>
    <property name="Color" type="color" value="#ffe30000"/>
   </properties>
  </object>
  <object id="1087" gid="16388" x="6544" y="96" width="16" height="16">
   <properties>
    <property name="Channel" value="2"/>
    <property name="Color" type="color" value="#ffe30000"/>
   </properties>
  </object>
  <object id="1146" gid="16388" x="7408" y="96" width="16" height="16">
   <properties>
    <property name="Channel" value="2"/>
    <property name="Color" type="color" value="#ffe30000"/>
   </properties>
  </object>
  <object id="1163" gid="16388" x="7664" y="96" width="16" height="16">
   <properties>
    <property name="Channel" value="2"/>
    <property name="Color" type="color" value="#ffe30000"/>
   </properties>
  </object>
  <object id="1100" gid="16388" x="6832" y="96" width="16" height="16">
   <properties>
    <property name="Channel" value="2"/>
    <property name="Color" type="color" value="#ffe30000"/>
   </properties>
  </object>
  <object id="1026" gid="16388" x="5664" y="96" width="16" height="16">
   <properties>
    <property name="Channel" value="2"/>
    <property name="Color" type="color" value="#ffe30000"/>
   </properties>
  </object>
  <object id="1019" gid="16388" x="5504" y="112" width="16" height="16">
   <properties>
    <property name="Channel" value="3"/>
    <property name="Color" type="color" value="#ffd50000"/>
   </properties>
  </object>
  <object id="1066" gid="16388" x="6081" y="112" width="16" height="16">
   <properties>
    <property name="Channel" value="3"/>
    <property name="Color" type="color" value="#ffd50000"/>
   </properties>
  </object>
  <object id="1108" gid="16388" x="7000" y="112" width="16" height="16">
   <properties>
    <property name="Channel" value="3"/>
    <property name="Color" type="color" value="#ffd50000"/>
   </properties>
  </object>
  <object id="1171" gid="16388" x="7806" y="112" width="16" height="16">
   <properties>
    <property name="Channel" value="3"/>
    <property name="Color" type="color" value="#ffd50000"/>
   </properties>
  </object>
  <object id="1189" gid="16388" x="8060" y="112" width="16" height="16">
   <properties>
    <property name="Channel" value="3"/>
    <property name="Color" type="color" value="#ffd50000"/>
   </properties>
  </object>
  <object id="1211" gid="16388" x="8478" y="112" width="16" height="16">
   <properties>
    <property name="Channel" value="3"/>
    <property name="Color" type="color" value="#ffd50000"/>
   </properties>
  </object>
  <object id="1216" gid="16388" x="8430" y="112" width="16" height="16">
   <properties>
    <property name="Channel" value="3"/>
    <property name="Color" type="color" value="#ffd50000"/>
   </properties>
  </object>
  <object id="1198" gid="16388" x="8291" y="112" width="16" height="16">
   <properties>
    <property name="Channel" value="3"/>
    <property name="Color" type="color" value="#ffd50000"/>
   </properties>
  </object>
  <object id="1181" gid="16388" x="7968" y="112" width="16" height="16">
   <properties>
    <property name="Channel" value="3"/>
    <property name="Color" type="color" value="#ffd50000"/>
   </properties>
  </object>
  <object id="1225" gid="16388" x="8552" y="112" width="16" height="16">
   <properties>
    <property name="Channel" value="3"/>
    <property name="Color" type="color" value="#ffd50000"/>
   </properties>
  </object>
  <object id="1230" gid="16388" x="8715" y="112" width="16" height="16">
   <properties>
    <property name="Channel" value="3"/>
    <property name="Color" type="color" value="#ffd50000"/>
   </properties>
  </object>
  <object id="1265" gid="16388" x="8836" y="112" width="16" height="16">
   <properties>
    <property name="Channel" value="3"/>
    <property name="Color" type="color" value="#ffd50000"/>
   </properties>
  </object>
  <object id="1267" gid="16388" x="8884" y="112" width="16" height="16">
   <properties>
    <property name="Channel" value="3"/>
    <property name="Color" type="color" value="#ffd50000"/>
   </properties>
  </object>
  <object id="1249" gid="16388" x="8994" y="112" width="16" height="16">
   <properties>
    <property name="Channel" value="3"/>
    <property name="Color" type="color" value="#ffd50000"/>
   </properties>
  </object>
  <object id="1260" gid="16388" x="9128" y="112" width="16" height="16">
   <properties>
    <property name="Channel" value="3"/>
    <property name="Color" type="color" value="#ffd50000"/>
   </properties>
  </object>
  <object id="1268" gid="16388" x="9233" y="112" width="16" height="16">
   <properties>
    <property name="Channel" value="3"/>
    <property name="Color" type="color" value="#ffd50000"/>
   </properties>
  </object>
  <object id="1284" gid="16388" x="9403" y="112" width="16" height="16">
   <properties>
    <property name="Channel" value="3"/>
    <property name="Color" type="color" value="#ffd50000"/>
   </properties>
  </object>
  <object id="1274" gid="16388" x="9300" y="112" width="16" height="16">
   <properties>
    <property name="Channel" value="3"/>
    <property name="Color" type="color" value="#ffd50000"/>
   </properties>
  </object>
  <object id="1094" gid="16388" x="6747" y="112" width="16" height="16">
   <properties>
    <property name="Channel" value="3"/>
    <property name="Color" type="color" value="#ffd50000"/>
   </properties>
  </object>
  <object id="1024" gid="16388" x="5620" y="112" width="16" height="16">
   <properties>
    <property name="Channel" value="3"/>
    <property name="Color" type="color" value="#ffd50000"/>
   </properties>
  </object>
  <object id="1038" gid="16388" x="5896" y="112" width="16" height="16">
   <properties>
    <property name="Channel" value="3"/>
    <property name="Color" type="color" value="#ffd50000"/>
   </properties>
  </object>
  <object id="1121" gid="16388" x="7108" y="112" width="16" height="16">
   <properties>
    <property name="Channel" value="3"/>
    <property name="Color" type="color" value="#ffd50000"/>
   </properties>
  </object>
  <object id="1128" gid="16388" x="7263" y="112" width="16" height="16">
   <properties>
    <property name="Channel" value="3"/>
    <property name="Color" type="color" value="#ffd50000"/>
   </properties>
  </object>
  <object id="1074" gid="16388" x="6184" y="112" width="16" height="16">
   <properties>
    <property name="Channel" value="3"/>
    <property name="Color" type="color" value="#ffd50000"/>
   </properties>
  </object>
  <object id="1085" gid="16388" x="6608" y="112" width="16" height="16">
   <properties>
    <property name="Channel" value="3"/>
    <property name="Color" type="color" value="#ffd50000"/>
   </properties>
  </object>
  <object id="1144" gid="16388" x="7400" y="112" width="16" height="16">
   <properties>
    <property name="Channel" value="3"/>
    <property name="Color" type="color" value="#ffd50000"/>
   </properties>
  </object>
  <object id="1161" gid="16388" x="7627" y="112" width="16" height="16">
   <properties>
    <property name="Channel" value="3"/>
    <property name="Color" type="color" value="#ffd50000"/>
   </properties>
  </object>
  <object id="1150" gid="16388" x="7473" y="112" width="16" height="16">
   <properties>
    <property name="Channel" value="3"/>
    <property name="Color" type="color" value="#ffd50000"/>
   </properties>
  </object>
  <object id="1021" gid="16388" x="5536" y="128" width="16" height="16">
   <properties>
    <property name="Channel" value="4"/>
    <property name="Color" type="color" value="#ffff0000"/>
   </properties>
  </object>
  <object id="1064" gid="16388" x="6113" y="128" width="16" height="16">
   <properties>
    <property name="Channel" value="4"/>
    <property name="Color" type="color" value="#ffff0000"/>
   </properties>
  </object>
  <object id="1106" gid="16388" x="7037" y="128" width="16" height="16">
   <properties>
    <property name="Channel" value="4"/>
    <property name="Color" type="color" value="#ffff0000"/>
   </properties>
  </object>
  <object id="1169" gid="16388" x="7837" y="128" width="16" height="16">
   <properties>
    <property name="Channel" value="4"/>
    <property name="Color" type="color" value="#ffff0000"/>
   </properties>
  </object>
  <object id="1195" gid="16388" x="8196" y="128" width="16" height="16">
   <properties>
    <property name="Channel" value="4"/>
    <property name="Color" type="color" value="#ffff0000"/>
   </properties>
  </object>
  <object id="1187" gid="16388" x="8043" y="128" width="16" height="16">
   <properties>
    <property name="Channel" value="4"/>
    <property name="Color" type="color" value="#ffff0000"/>
   </properties>
  </object>
  <object id="1233" gid="16388" x="8670" y="128" width="16" height="16">
   <properties>
    <property name="Channel" value="4"/>
    <property name="Color" type="color" value="#ffff0000"/>
   </properties>
  </object>
  <object id="1239" gid="16388" x="8779" y="128" width="16" height="16">
   <properties>
    <property name="Channel" value="4"/>
    <property name="Color" type="color" value="#ffff0000"/>
   </properties>
  </object>
  <object id="1240" gid="16388" x="8861" y="128" width="16" height="16">
   <properties>
    <property name="Channel" value="4"/>
    <property name="Color" type="color" value="#ffff0000"/>
   </properties>
  </object>
  <object id="1242" gid="16388" x="8909" y="128" width="16" height="16">
   <properties>
    <property name="Channel" value="4"/>
    <property name="Color" type="color" value="#ffff0000"/>
   </properties>
  </object>
  <object id="1255" gid="16388" x="9072" y="128" width="16" height="16">
   <properties>
    <property name="Channel" value="4"/>
    <property name="Color" type="color" value="#ffff0000"/>
   </properties>
  </object>
  <object id="1262" gid="16388" x="9179" y="128" width="16" height="16">
   <properties>
    <property name="Channel" value="4"/>
    <property name="Color" type="color" value="#ffff0000"/>
   </properties>
  </object>
  <object id="1276" gid="16388" x="9290" y="128" width="16" height="16">
   <properties>
    <property name="Channel" value="4"/>
    <property name="Color" type="color" value="#ffff0000"/>
   </properties>
  </object>
  <object id="1278" gid="16388" x="9345" y="128" width="16" height="16">
   <properties>
    <property name="Channel" value="4"/>
    <property name="Color" type="color" value="#ffff0000"/>
   </properties>
  </object>
  <object id="1209" gid="16388" x="8454" y="128" width="16" height="16">
   <properties>
    <property name="Channel" value="4"/>
    <property name="Color" type="color" value="#ffff0000"/>
   </properties>
  </object>
  <object id="1218" gid="16388" x="8502" y="128" width="16" height="16">
   <properties>
    <property name="Channel" value="4"/>
    <property name="Color" type="color" value="#ffff0000"/>
   </properties>
  </object>
  <object id="1196" gid="16388" x="8316" y="128" width="16" height="16">
   <properties>
    <property name="Channel" value="4"/>
    <property name="Color" type="color" value="#ffff0000"/>
   </properties>
  </object>
  <object id="1092" gid="16388" x="6674" y="128" width="16" height="16">
   <properties>
    <property name="Channel" value="4"/>
    <property name="Color" type="color" value="#ffff0000"/>
   </properties>
  </object>
  <object id="1071" gid="16388" x="6044" y="128" width="16" height="16">
   <properties>
    <property name="Channel" value="4"/>
    <property name="Color" type="color" value="#ffff0000"/>
   </properties>
  </object>
  <object id="1104" gid="16388" x="6968" y="128" width="16" height="16">
   <properties>
    <property name="Channel" value="4"/>
    <property name="Color" type="color" value="#ffff0000"/>
   </properties>
  </object>
  <object id="1168" gid="16388" x="7773" y="128" width="16" height="16">
   <properties>
    <property name="Channel" value="4"/>
    <property name="Color" type="color" value="#ffff0000"/>
   </properties>
  </object>
  <object id="1032" gid="16388" x="5761" y="128" width="16" height="16">
   <properties>
    <property name="Channel" value="4"/>
    <property name="Color" type="color" value="#ffff0000"/>
   </properties>
  </object>
  <object id="1084" gid="16388" x="6468" y="128" width="16" height="16">
   <properties>
    <property name="Channel" value="4"/>
    <property name="Color" type="color" value="#ffff0000"/>
   </properties>
  </object>
  <object id="1142" gid="16388" x="7336" y="128" width="16" height="16">
   <properties>
    <property name="Channel" value="4"/>
    <property name="Color" type="color" value="#ffff0000"/>
   </properties>
  </object>
  <object id="1152" gid="16388" x="7439" y="128" width="16" height="16">
   <properties>
    <property name="Channel" value="4"/>
    <property name="Color" type="color" value="#ffff0000"/>
   </properties>
  </object>
  <object id="1154" gid="16388" x="7542" y="128" width="16" height="16">
   <properties>
    <property name="Channel" value="4"/>
    <property name="Color" type="color" value="#ffff0000"/>
   </properties>
  </object>
  <object id="1126" gid="16388" x="7192" y="128" width="16" height="16">
   <properties>
    <property name="Channel" value="4"/>
    <property name="Color" type="color" value="#ffff0000"/>
   </properties>
  </object>
  <object id="1013" gid="16388" x="5392" y="96" width="16" height="16">
   <properties>
    <property name="Channel" value="2"/>
    <property name="Color" type="color" value="#ff000000"/>
    <property name="Frames" type="int" value="30"/>
   </properties>
  </object>
  <object id="1016" gid="16388" x="5536" y="96" width="16" height="16">
   <properties>
    <property name="Channel" value="2"/>
    <property name="Color" type="color" value="#ff000000"/>
    <property name="Frames" type="int" value="21"/>
   </properties>
  </object>
  <object id="1067" gid="16388" x="6112" y="96" width="16" height="16">
   <properties>
    <property name="Channel" value="2"/>
    <property name="Color" type="color" value="#ff000000"/>
    <property name="Frames" type="int" value="21"/>
   </properties>
  </object>
  <object id="1111" gid="16388" x="6992" y="96" width="16" height="16">
   <properties>
    <property name="Channel" value="2"/>
    <property name="Color" type="color" value="#ff000000"/>
    <property name="Frames" type="int" value="21"/>
   </properties>
  </object>
  <object id="1172" gid="16388" x="7800" y="96" width="16" height="16">
   <properties>
    <property name="Channel" value="2"/>
    <property name="Color" type="color" value="#ff000000"/>
    <property name="Frames" type="int" value="21"/>
   </properties>
  </object>
  <object id="1182" gid="16388" x="8040" y="96" width="16" height="16">
   <properties>
    <property name="Channel" value="2"/>
    <property name="Color" type="color" value="#ff000000"/>
    <property name="Frames" type="int" value="21"/>
   </properties>
  </object>
  <object id="1212" gid="16388" x="8504" y="96" width="16" height="16">
   <properties>
    <property name="Channel" value="2"/>
    <property name="Color" type="color" value="#ff000000"/>
    <property name="Frames" type="int" value="21"/>
   </properties>
  </object>
  <object id="1227" gid="16388" x="8728" y="96" width="16" height="16">
   <properties>
    <property name="Channel" value="2"/>
    <property name="Color" type="color" value="#ff000000"/>
    <property name="Frames" type="int" value="21"/>
   </properties>
  </object>
  <object id="1244" gid="16388" x="8968" y="96" width="16" height="16">
   <properties>
    <property name="Channel" value="2"/>
    <property name="Color" type="color" value="#ff000000"/>
    <property name="Frames" type="int" value="21"/>
   </properties>
  </object>
  <object id="1281" gid="16388" x="9435" y="96" width="16" height="16">
   <properties>
    <property name="Channel" value="2"/>
    <property name="Color" type="color" value="#ff000000"/>
    <property name="Color Blending" type="bool" value="true"/>
    <property name="Frames" type="int" value="21"/>
   </properties>
  </object>
  <object id="1257" gid="16388" x="9192" y="96" width="16" height="16">
   <properties>
    <property name="Channel" value="2"/>
    <property name="Color" type="color" value="#ff000000"/>
    <property name="Frames" type="int" value="21"/>
   </properties>
  </object>
  <object id="1201" gid="16388" x="8281" y="96" width="16" height="16">
   <properties>
    <property name="Channel" value="2"/>
    <property name="Color" type="color" value="#ff000000"/>
    <property name="Frames" type="int" value="21"/>
   </properties>
  </object>
  <object id="1176" gid="16388" x="7920" y="96" width="16" height="16">
   <properties>
    <property name="Channel" value="2"/>
    <property name="Color" type="color" value="#ff000000"/>
    <property name="Frames" type="int" value="30"/>
   </properties>
  </object>
  <object id="1191" gid="16388" x="8144" y="96" width="16" height="16">
   <properties>
    <property name="Channel" value="2"/>
    <property name="Color" type="color" value="#ff000000"/>
    <property name="Frames" type="int" value="30"/>
   </properties>
  </object>
  <object id="1205" gid="16388" x="8384" y="96" width="16" height="16">
   <properties>
    <property name="Channel" value="2"/>
    <property name="Color" type="color" value="#ff000000"/>
    <property name="Frames" type="int" value="30"/>
   </properties>
  </object>
  <object id="1234" gid="16388" x="8848" y="96" width="16" height="16">
   <properties>
    <property name="Channel" value="2"/>
    <property name="Color" type="color" value="#ff000000"/>
    <property name="Frames" type="int" value="30"/>
   </properties>
  </object>
  <object id="1250" gid="16388" x="9080" y="96" width="16" height="16">
   <properties>
    <property name="Channel" value="2"/>
    <property name="Color" type="color" value="#ff000000"/>
    <property name="Frames" type="int" value="30"/>
   </properties>
  </object>
  <object id="1271" gid="16388" x="9312" y="96" width="16" height="16">
   <properties>
    <property name="Channel" value="2"/>
    <property name="Color" type="color" value="#ff000000"/>
    <property name="Frames" type="int" value="30"/>
   </properties>
  </object>
  <object id="1220" gid="16388" x="8608" y="96" width="16" height="16">
   <properties>
    <property name="Channel" value="2"/>
    <property name="Color" type="color" value="#ff000000"/>
    <property name="Frames" type="int" value="30"/>
   </properties>
  </object>
  <object id="1097" gid="16388" x="6704" y="96" width="16" height="16">
   <properties>
    <property name="Channel" value="2"/>
    <property name="Color" type="color" value="#ff000000"/>
    <property name="Frames" type="int" value="21"/>
   </properties>
  </object>
  <object id="1031" gid="16388" x="5824" y="96" width="16" height="16">
   <properties>
    <property name="Channel" value="2"/>
    <property name="Color" type="color" value="#ff000000"/>
    <property name="Frames" type="int" value="21"/>
   </properties>
  </object>
  <object id="1079" gid="16388" x="6416" y="96" width="16" height="16">
   <properties>
    <property name="Channel" value="2"/>
    <property name="Color" type="color" value="#ff000000"/>
    <property name="Frames" type="int" value="21"/>
   </properties>
  </object>
  <object id="1037" gid="16388" x="5968" y="96" width="16" height="16">
   <properties>
    <property name="Channel" value="2"/>
    <property name="Color" type="color" value="#ff000000"/>
    <property name="Frames" type="int" value="30"/>
   </properties>
  </object>
  <object id="1122" gid="16388" x="7136" y="96" width="16" height="16">
   <properties>
    <property name="Channel" value="2"/>
    <property name="Color" type="color" value="#ff000000"/>
    <property name="Frames" type="int" value="30"/>
   </properties>
  </object>
  <object id="1131" gid="16388" x="7280" y="96" width="16" height="16">
   <properties>
    <property name="Channel" value="2"/>
    <property name="Color" type="color" value="#ff000000"/>
    <property name="Frames" type="int" value="21"/>
   </properties>
  </object>
  <object id="1157" gid="16388" x="7568" y="96" width="16" height="16">
   <properties>
    <property name="Channel" value="2"/>
    <property name="Color" type="color" value="#ff000000"/>
    <property name="Frames" type="int" value="21"/>
   </properties>
  </object>
  <object id="1075" gid="16388" x="6272" y="96" width="16" height="16">
   <properties>
    <property name="Channel" value="2"/>
    <property name="Color" type="color" value="#ff000000"/>
    <property name="Frames" type="int" value="30"/>
   </properties>
  </object>
  <object id="1088" gid="16388" x="6560" y="96" width="16" height="16">
   <properties>
    <property name="Channel" value="2"/>
    <property name="Color" type="color" value="#ff000000"/>
    <property name="Frames" type="int" value="30"/>
   </properties>
  </object>
  <object id="1147" gid="16388" x="7424" y="96" width="16" height="16">
   <properties>
    <property name="Channel" value="2"/>
    <property name="Color" type="color" value="#ff000000"/>
    <property name="Frames" type="int" value="30"/>
   </properties>
  </object>
  <object id="1162" gid="16388" x="7680" y="96" width="16" height="16">
   <properties>
    <property name="Channel" value="2"/>
    <property name="Color" type="color" value="#ff000000"/>
    <property name="Frames" type="int" value="30"/>
   </properties>
  </object>
  <object id="1101" gid="16388" x="6848" y="96" width="16" height="16">
   <properties>
    <property name="Channel" value="2"/>
    <property name="Color" type="color" value="#ff000000"/>
    <property name="Frames" type="int" value="30"/>
   </properties>
  </object>
  <object id="1027" gid="16388" x="5680" y="96" width="16" height="16">
   <properties>
    <property name="Channel" value="2"/>
    <property name="Color" type="color" value="#ff000000"/>
    <property name="Frames" type="int" value="30"/>
   </properties>
  </object>
  <object id="1018" gid="16388" x="5520" y="112" width="16" height="16">
   <properties>
    <property name="Channel" value="3"/>
    <property name="Color" type="color" value="#ff000000"/>
    <property name="Frames" type="int" value="21"/>
   </properties>
  </object>
  <object id="1065" gid="16388" x="6097" y="112" width="16" height="16">
   <properties>
    <property name="Channel" value="3"/>
    <property name="Color" type="color" value="#ff000000"/>
    <property name="Frames" type="int" value="21"/>
   </properties>
  </object>
  <object id="1109" gid="16388" x="7016" y="112" width="16" height="16">
   <properties>
    <property name="Channel" value="3"/>
    <property name="Color" type="color" value="#ff000000"/>
    <property name="Frames" type="int" value="21"/>
   </properties>
  </object>
  <object id="1170" gid="16388" x="7822" y="112" width="16" height="16">
   <properties>
    <property name="Channel" value="3"/>
    <property name="Color" type="color" value="#ff000000"/>
    <property name="Frames" type="int" value="21"/>
   </properties>
  </object>
  <object id="1188" gid="16388" x="8076" y="112" width="16" height="16">
   <properties>
    <property name="Channel" value="3"/>
    <property name="Color" type="color" value="#ff000000"/>
    <property name="Frames" type="int" value="21"/>
   </properties>
  </object>
  <object id="1210" gid="16388" x="8494" y="112" width="16" height="16">
   <properties>
    <property name="Channel" value="3"/>
    <property name="Color" type="color" value="#ff000000"/>
    <property name="Frames" type="int" value="12"/>
   </properties>
  </object>
  <object id="1217" gid="16388" x="8446" y="112" width="16" height="16">
   <properties>
    <property name="Channel" value="3"/>
    <property name="Color" type="color" value="#ff000000"/>
    <property name="Frames" type="int" value="15"/>
   </properties>
  </object>
  <object id="1199" gid="16388" x="8307" y="112" width="16" height="16">
   <properties>
    <property name="Channel" value="3"/>
    <property name="Color" type="color" value="#ff000000"/>
    <property name="Frames" type="int" value="27"/>
   </properties>
  </object>
  <object id="1180" gid="16388" x="7984" y="112" width="16" height="16">
   <properties>
    <property name="Channel" value="3"/>
    <property name="Color" type="color" value="#ff000000"/>
    <property name="Frames" type="int" value="30"/>
   </properties>
  </object>
  <object id="1224" gid="16388" x="8568" y="112" width="16" height="16">
   <properties>
    <property name="Channel" value="3"/>
    <property name="Color" type="color" value="#ff000000"/>
    <property name="Frames" type="int" value="30"/>
   </properties>
  </object>
  <object id="1231" gid="16388" x="8731" y="112" width="16" height="16">
   <properties>
    <property name="Channel" value="3"/>
    <property name="Color" type="color" value="#ff000000"/>
    <property name="Frames" type="int" value="27"/>
   </properties>
  </object>
  <object id="1264" gid="16388" x="8852" y="112" width="16" height="16">
   <properties>
    <property name="Channel" value="3"/>
    <property name="Color" type="color" value="#ff000000"/>
    <property name="Frames" type="int" value="15"/>
   </properties>
  </object>
  <object id="1266" gid="16388" x="8900" y="112" width="16" height="16">
   <properties>
    <property name="Channel" value="3"/>
    <property name="Color" type="color" value="#ff000000"/>
    <property name="Frames" type="int" value="12"/>
   </properties>
  </object>
  <object id="1248" gid="16388" x="9010" y="112" width="16" height="16">
   <properties>
    <property name="Channel" value="3"/>
    <property name="Color" type="color" value="#ff000000"/>
    <property name="Frames" type="int" value="18"/>
   </properties>
  </object>
  <object id="1261" gid="16388" x="9144" y="112" width="16" height="16">
   <properties>
    <property name="Channel" value="3"/>
    <property name="Color" type="color" value="#ff000000"/>
    <property name="Frames" type="int" value="18"/>
   </properties>
  </object>
  <object id="1269" gid="16388" x="9249" y="112" width="16" height="16">
   <properties>
    <property name="Channel" value="3"/>
    <property name="Color" type="color" value="#ff000000"/>
    <property name="Frames" type="int" value="18"/>
   </properties>
  </object>
  <object id="1285" gid="16388" x="9419" y="112" width="16" height="16">
   <properties>
    <property name="Channel" value="3"/>
    <property name="Color" type="color" value="#ff000000"/>
    <property name="Color Blending" type="bool" value="true"/>
    <property name="Frames" type="int" value="18"/>
   </properties>
  </object>
  <object id="1275" gid="16388" x="9316" y="112" width="16" height="16">
   <properties>
    <property name="Channel" value="3"/>
    <property name="Color" type="color" value="#ff000000"/>
    <property name="Frames" type="int" value="13"/>
   </properties>
  </object>
  <object id="1095" gid="16388" x="6763" y="112" width="16" height="16">
   <properties>
    <property name="Channel" value="3"/>
    <property name="Color" type="color" value="#ff000000"/>
    <property name="Frames" type="int" value="21"/>
   </properties>
  </object>
  <object id="1025" gid="16388" x="5636" y="112" width="16" height="16">
   <properties>
    <property name="Channel" value="3"/>
    <property name="Color" type="color" value="#ff000000"/>
    <property name="Frames" type="int" value="30"/>
   </properties>
  </object>
  <object id="1039" gid="16388" x="5912" y="112" width="16" height="16">
   <properties>
    <property name="Channel" value="3"/>
    <property name="Color" type="color" value="#ff000000"/>
    <property name="Frames" type="int" value="30"/>
   </properties>
  </object>
  <object id="1120" gid="16388" x="7124" y="112" width="16" height="16">
   <properties>
    <property name="Channel" value="3"/>
    <property name="Color" type="color" value="#ff000000"/>
    <property name="Frames" type="int" value="30"/>
   </properties>
  </object>
  <object id="1129" gid="16388" x="7279" y="112" width="16" height="16">
   <properties>
    <property name="Channel" value="3"/>
    <property name="Color" type="color" value="#ff000000"/>
    <property name="Frames" type="int" value="30"/>
   </properties>
  </object>
  <object id="1073" gid="16388" x="6200" y="112" width="16" height="16">
   <properties>
    <property name="Channel" value="3"/>
    <property name="Color" type="color" value="#ff000000"/>
    <property name="Frames" type="int" value="30"/>
   </properties>
  </object>
  <object id="1086" gid="16388" x="6624" y="112" width="16" height="16">
   <properties>
    <property name="Channel" value="3"/>
    <property name="Color" type="color" value="#ff000000"/>
    <property name="Frames" type="int" value="21"/>
   </properties>
  </object>
  <object id="1145" gid="16388" x="7416" y="112" width="16" height="16">
   <properties>
    <property name="Channel" value="3"/>
    <property name="Color" type="color" value="#ff000000"/>
    <property name="Frames" type="int" value="21"/>
   </properties>
  </object>
  <object id="1160" gid="16388" x="7643" y="112" width="16" height="16">
   <properties>
    <property name="Channel" value="3"/>
    <property name="Color" type="color" value="#ff000000"/>
    <property name="Frames" type="int" value="27"/>
   </properties>
  </object>
  <object id="1151" gid="16388" x="7489" y="112" width="16" height="16">
   <properties>
    <property name="Channel" value="3"/>
    <property name="Color" type="color" value="#ff000000"/>
    <property name="Frames" type="int" value="21"/>
   </properties>
  </object>
  <object id="1020" gid="16388" x="5552" y="128" width="16" height="16">
   <properties>
    <property name="Channel" value="4"/>
    <property name="Color" type="color" value="#ff000000"/>
    <property name="Frames" type="int" value="18"/>
   </properties>
  </object>
  <object id="1063" gid="16388" x="6129" y="128" width="16" height="16">
   <properties>
    <property name="Channel" value="4"/>
    <property name="Color" type="color" value="#ff000000"/>
    <property name="Frames" type="int" value="18"/>
   </properties>
  </object>
  <object id="1107" gid="16388" x="7053" y="128" width="16" height="16">
   <properties>
    <property name="Channel" value="4"/>
    <property name="Color" type="color" value="#ff000000"/>
    <property name="Frames" type="int" value="18"/>
   </properties>
  </object>
  <object id="1167" gid="16388" x="7853" y="128" width="16" height="16">
   <properties>
    <property name="Channel" value="4"/>
    <property name="Color" type="color" value="#ff000000"/>
    <property name="Frames" type="int" value="27"/>
   </properties>
  </object>
  <object id="1194" gid="16388" x="8212" y="128" width="16" height="16">
   <properties>
    <property name="Channel" value="4"/>
    <property name="Color" type="color" value="#ff000000"/>
    <property name="Frames" type="int" value="27"/>
   </properties>
  </object>
  <object id="1186" gid="16388" x="8059" y="128" width="16" height="16">
   <properties>
    <property name="Channel" value="4"/>
    <property name="Color" type="color" value="#ff000000"/>
    <property name="Frames" type="int" value="18"/>
   </properties>
  </object>
  <object id="1232" gid="16388" x="8686" y="128" width="16" height="16">
   <properties>
    <property name="Channel" value="4"/>
    <property name="Color" type="color" value="#ff000000"/>
    <property name="Frames" type="int" value="18"/>
   </properties>
  </object>
  <object id="1238" gid="16388" x="8795" y="128" width="16" height="16">
   <properties>
    <property name="Channel" value="4"/>
    <property name="Color" type="color" value="#ff000000"/>
    <property name="Frames" type="int" value="18"/>
   </properties>
  </object>
  <object id="1241" gid="16388" x="8877" y="128" width="16" height="16">
   <properties>
    <property name="Channel" value="4"/>
    <property name="Color" type="color" value="#ff000000"/>
    <property name="Frames" type="int" value="12"/>
   </properties>
  </object>
  <object id="1243" gid="16388" x="8925" y="128" width="16" height="16">
   <properties>
    <property name="Channel" value="4"/>
    <property name="Color" type="color" value="#ff000000"/>
    <property name="Frames" type="int" value="21"/>
   </properties>
  </object>
  <object id="1254" gid="16388" x="9088" y="128" width="16" height="16">
   <properties>
    <property name="Channel" value="4"/>
    <property name="Color" type="color" value="#ff000000"/>
    <property name="Frames" type="int" value="18"/>
   </properties>
  </object>
  <object id="1263" gid="16388" x="9195" y="128" width="16" height="16">
   <properties>
    <property name="Channel" value="4"/>
    <property name="Color" type="color" value="#ff000000"/>
    <property name="Frames" type="int" value="18"/>
   </properties>
  </object>
  <object id="1277" gid="16388" x="9306" y="128" width="16" height="16">
   <properties>
    <property name="Channel" value="4"/>
    <property name="Color" type="color" value="#ff000000"/>
    <property name="Frames" type="int" value="11"/>
   </properties>
  </object>
  <object id="1279" gid="16388" x="9361" y="128" width="16" height="16">
   <properties>
    <property name="Channel" value="4"/>
    <property name="Color" type="color" value="#ff000000"/>
    <property name="Color Blending" type="bool" value="true"/>
    <property name="Frames" type="int" value="11"/>
   </properties>
  </object>
  <object id="1208" gid="16388" x="8470" y="128" width="16" height="16">
   <properties>
    <property name="Channel" value="4"/>
    <property name="Color" type="color" value="#ff000000"/>
    <property name="Frames" type="int" value="12"/>
   </properties>
  </object>
  <object id="1219" gid="16388" x="8518" y="128" width="16" height="16">
   <properties>
    <property name="Channel" value="4"/>
    <property name="Color" type="color" value="#ff000000"/>
    <property name="Frames" type="int" value="15"/>
   </properties>
  </object>
  <object id="1197" gid="16388" x="8332" y="128" width="16" height="16">
   <properties>
    <property name="Channel" value="4"/>
    <property name="Color" type="color" value="#ff000000"/>
    <property name="Frames" type="int" value="30"/>
   </properties>
  </object>
  <object id="1093" gid="16388" x="6690" y="128" width="16" height="16">
   <properties>
    <property name="Channel" value="4"/>
    <property name="Color" type="color" value="#ff000000"/>
    <property name="Frames" type="int" value="18"/>
   </properties>
  </object>
  <object id="1072" gid="16388" x="6060" y="128" width="16" height="16">
   <properties>
    <property name="Channel" value="4"/>
    <property name="Color" type="color" value="#ff000000"/>
    <property name="Frames" type="int" value="18"/>
   </properties>
  </object>
  <object id="1105" gid="16388" x="6984" y="128" width="16" height="16">
   <properties>
    <property name="Channel" value="4"/>
    <property name="Color" type="color" value="#ff000000"/>
    <property name="Frames" type="int" value="18"/>
   </properties>
  </object>
  <object id="1166" gid="16388" x="7789" y="128" width="16" height="16">
   <properties>
    <property name="Channel" value="4"/>
    <property name="Color" type="color" value="#ff000000"/>
    <property name="Frames" type="int" value="18"/>
   </properties>
  </object>
  <object id="1033" gid="16388" x="5777" y="128" width="16" height="16">
   <properties>
    <property name="Channel" value="4"/>
    <property name="Color" type="color" value="#ff000000"/>
    <property name="Frames" type="int" value="27"/>
   </properties>
  </object>
  <object id="1083" gid="16388" x="6484" y="128" width="16" height="16">
   <properties>
    <property name="Channel" value="4"/>
    <property name="Color" type="color" value="#ff000000"/>
    <property name="Frames" type="int" value="27"/>
   </properties>
  </object>
  <object id="1143" gid="16388" x="7352" y="128" width="16" height="16">
   <properties>
    <property name="Channel" value="4"/>
    <property name="Color" type="color" value="#ff000000"/>
    <property name="Frames" type="int" value="18"/>
   </properties>
  </object>
  <object id="1153" gid="16388" x="7455" y="128" width="16" height="16">
   <properties>
    <property name="Channel" value="4"/>
    <property name="Color" type="color" value="#ff000000"/>
    <property name="Frames" type="int" value="18"/>
   </properties>
  </object>
  <object id="1155" gid="16388" x="7558" y="128" width="16" height="16">
   <properties>
    <property name="Channel" value="4"/>
    <property name="Color" type="color" value="#ff000000"/>
    <property name="Frames" type="int" value="18"/>
   </properties>
  </object>
  <object id="1127" gid="16388" x="7208" y="128" width="16" height="16">
   <properties>
    <property name="Channel" value="4"/>
    <property name="Color" type="color" value="#ff000000"/>
    <property name="Frames" type="int" value="18"/>
   </properties>
  </object>
  <object id="1040" gid="16535" x="5440" y="352" width="16" height="16">
   <properties>
    <property name="bg layer" value="1"/>
    <property name="color channel" value="3"/>
    <property name="z index" type="int" value="15"/>
   </properties>
  </object>
  <object id="1041" gid="16535" x="5632" y="352" width="16" height="16">
   <properties>
    <property name="bg layer" value="1"/>
    <property name="color channel" value="3"/>
    <property name="z index" type="int" value="15"/>
   </properties>
  </object>
  <object id="1042" gid="16535" x="5824" y="352" width="16" height="16">
   <properties>
    <property name="bg layer" value="1"/>
    <property name="color channel" value="3"/>
    <property name="z index" type="int" value="15"/>
   </properties>
  </object>
  <object id="1043" gid="16535" x="6016" y="352" width="16" height="16">
   <properties>
    <property name="bg layer" value="1"/>
    <property name="color channel" value="3"/>
    <property name="z index" type="int" value="15"/>
   </properties>
  </object>
  <object id="1044" gid="16535" x="6208" y="352" width="16" height="16">
   <properties>
    <property name="bg layer" value="1"/>
    <property name="color channel" value="3"/>
    <property name="z index" type="int" value="15"/>
   </properties>
  </object>
  <object id="1045" gid="16535" x="6400" y="352" width="16" height="16">
   <properties>
    <property name="bg layer" value="1"/>
    <property name="color channel" value="3"/>
    <property name="z index" type="int" value="15"/>
   </properties>
  </object>
  <object id="1046" gid="16535" x="6592" y="352" width="16" height="16">
   <properties>
    <property name="bg layer" value="1"/>
    <property name="color channel" value="3"/>
    <property name="z index" type="int" value="15"/>
   </properties>
  </object>
  <object id="1047" gid="16535" x="6784" y="352" width="16" height="16">
   <properties>
    <property name="bg layer" value="1"/>
    <property name="color channel" value="3"/>
    <property name="z index" type="int" value="15"/>
   </properties>
  </object>
  <object id="1048" gid="16535" x="6976" y="352" width="16" height="16">
   <properties>
    <property name="bg layer" value="1"/>
    <property name="color channel" value="3"/>
    <property name="z index" type="int" value="15"/>
   </properties>
  </object>
  <object id="1049" gid="16535" x="7168" y="352" width="16" height="16">
   <properties>
    <property name="bg layer" value="1"/>
    <property name="color channel" value="3"/>
    <property name="z index" type="int" value="15"/>
   </properties>
  </object>
  <object id="1050" gid="16535" x="7360" y="352" width="16" height="16">
   <properties>
    <property name="bg layer" value="1"/>
    <property name="color channel" value="3"/>
    <property name="z index" type="int" value="15"/>
   </properties>
  </object>
  <object id="1051" gid="16535" x="7552" y="352" width="16" height="16">
   <properties>
    <property name="bg layer" value="1"/>
    <property name="color channel" value="3"/>
    <property name="z index" type="int" value="15"/>
   </properties>
  </object>
  <object id="1052" gid="16535" x="7456" y="208" width="16" height="16">
   <properties>
    <property name="bg layer" value="1"/>
    <property name="color channel" value="4"/>
    <property name="vflip" type="bool" value="true"/>
    <property name="z index" type="int" value="15"/>
   </properties>
  </object>
  <object id="1053" gid="16535" x="7264" y="208" width="16" height="16">
   <properties>
    <property name="bg layer" value="1"/>
    <property name="color channel" value="4"/>
    <property name="vflip" type="bool" value="true"/>
    <property name="z index" type="int" value="15"/>
   </properties>
  </object>
  <object id="1054" gid="16535" x="7072" y="208" width="16" height="16">
   <properties>
    <property name="bg layer" value="1"/>
    <property name="color channel" value="4"/>
    <property name="vflip" type="bool" value="true"/>
    <property name="z index" type="int" value="15"/>
   </properties>
  </object>
  <object id="1055" gid="16535" x="6880" y="208" width="16" height="16">
   <properties>
    <property name="bg layer" value="1"/>
    <property name="color channel" value="4"/>
    <property name="vflip" type="bool" value="true"/>
    <property name="z index" type="int" value="15"/>
   </properties>
  </object>
  <object id="1056" gid="16535" x="6688" y="208" width="16" height="16">
   <properties>
    <property name="bg layer" value="1"/>
    <property name="color channel" value="4"/>
    <property name="vflip" type="bool" value="true"/>
    <property name="z index" type="int" value="15"/>
   </properties>
  </object>
  <object id="1057" gid="16535" x="6496" y="208" width="16" height="16">
   <properties>
    <property name="bg layer" value="1"/>
    <property name="color channel" value="4"/>
    <property name="vflip" type="bool" value="true"/>
    <property name="z index" type="int" value="15"/>
   </properties>
  </object>
  <object id="1058" gid="16535" x="6304" y="208" width="16" height="16">
   <properties>
    <property name="bg layer" value="1"/>
    <property name="color channel" value="4"/>
    <property name="vflip" type="bool" value="true"/>
    <property name="z index" type="int" value="15"/>
   </properties>
  </object>
  <object id="1059" gid="16535" x="6112" y="208" width="16" height="16">
   <properties>
    <property name="bg layer" value="1"/>
    <property name="color channel" value="4"/>
    <property name="vflip" type="bool" value="true"/>
    <property name="z index" type="int" value="15"/>
   </properties>
  </object>
  <object id="1060" gid="16535" x="5920" y="208" width="16" height="16">
   <properties>
    <property name="bg layer" value="1"/>
    <property name="color channel" value="4"/>
    <property name="vflip" type="bool" value="true"/>
    <property name="z index" type="int" value="15"/>
   </properties>
  </object>
  <object id="1061" gid="16535" x="5536" y="208" width="16" height="16">
   <properties>
    <property name="bg layer" value="1"/>
    <property name="color channel" value="4"/>
    <property name="vflip" type="bool" value="true"/>
    <property name="z index" type="int" value="15"/>
   </properties>
  </object>
  <object id="1062" gid="16535" x="5728" y="208" width="16" height="16">
   <properties>
    <property name="bg layer" value="1"/>
    <property name="color channel" value="4"/>
    <property name="vflip" type="bool" value="true"/>
    <property name="z index" type="int" value="15"/>
   </properties>
  </object>
  <object id="1379" gid="16388" x="10848" y="80" width="16" height="16">
   <properties>
    <property name="Channel" value="1"/>
    <property name="Color" type="color" value="#ffff0000"/>
   </properties>
  </object>
  <object id="1412" gid="16388" x="10848" y="96" width="16" height="16">
   <properties>
    <property name="Channel" value="2"/>
    <property name="Color" type="color" value="#ffec0000"/>
   </properties>
  </object>
  <object id="1421" gid="16388" x="10896" y="96" width="16" height="16">
   <properties>
    <property name="Channel" value="2"/>
    <property name="Color" type="color" value="#ffec0000"/>
   </properties>
  </object>
  <object id="1427" gid="16388" x="10944" y="96" width="16" height="16">
   <properties>
    <property name="Channel" value="2"/>
    <property name="Color" type="color" value="#ffec0000"/>
   </properties>
  </object>
  <object id="1433" gid="16388" x="10992" y="96" width="16" height="16">
   <properties>
    <property name="Channel" value="2"/>
    <property name="Color" type="color" value="#ffec0000"/>
   </properties>
  </object>
  <object id="1439" gid="16388" x="11040" y="96" width="16" height="16">
   <properties>
    <property name="Channel" value="2"/>
    <property name="Color" type="color" value="#ffec0000"/>
   </properties>
  </object>
  <object id="1414" gid="16388" x="10864" y="112" width="16" height="16">
   <properties>
    <property name="Channel" value="3"/>
    <property name="Color" type="color" value="#ffff0000"/>
   </properties>
  </object>
  <object id="1419" gid="16388" x="10912" y="112" width="16" height="16">
   <properties>
    <property name="Channel" value="3"/>
    <property name="Color" type="color" value="#ffff0000"/>
   </properties>
  </object>
  <object id="1425" gid="16388" x="10960" y="112" width="16" height="16">
   <properties>
    <property name="Channel" value="3"/>
    <property name="Color" type="color" value="#ffff0000"/>
   </properties>
  </object>
  <object id="1431" gid="16388" x="11008" y="112" width="16" height="16">
   <properties>
    <property name="Channel" value="3"/>
    <property name="Color" type="color" value="#ffff0000"/>
   </properties>
  </object>
  <object id="1437" gid="16388" x="11056" y="112" width="16" height="16">
   <properties>
    <property name="Channel" value="3"/>
    <property name="Color" type="color" value="#ffff0000"/>
   </properties>
  </object>
  <object id="1416" gid="16388" x="10880" y="128" width="16" height="16">
   <properties>
    <property name="Channel" value="3"/>
    <property name="Color" type="color" value="#ffff0000"/>
   </properties>
  </object>
  <object id="1417" gid="16388" x="10928" y="128" width="16" height="16">
   <properties>
    <property name="Channel" value="3"/>
    <property name="Color" type="color" value="#ffff0000"/>
   </properties>
  </object>
  <object id="1423" gid="16388" x="10976" y="128" width="16" height="16">
   <properties>
    <property name="Channel" value="3"/>
    <property name="Color" type="color" value="#ffff0000"/>
   </properties>
  </object>
  <object id="1429" gid="16388" x="11024" y="128" width="16" height="16">
   <properties>
    <property name="Channel" value="3"/>
    <property name="Color" type="color" value="#ffff0000"/>
   </properties>
  </object>
  <object id="1435" gid="16388" x="11072" y="128" width="16" height="16">
   <properties>
    <property name="Channel" value="3"/>
    <property name="Color" type="color" value="#ffff0000"/>
   </properties>
  </object>
  <object id="1394" gid="16388" x="10912" y="80" width="16" height="16">
   <properties>
    <property name="Channel" value="1"/>
    <property name="Color" type="color" value="#ffff0000"/>
   </properties>
  </object>
  <object id="1402" gid="16388" x="10976" y="80" width="16" height="16">
   <properties>
    <property name="Channel" value="1"/>
    <property name="Color" type="color" value="#ffff0000"/>
   </properties>
  </object>
  <object id="1410" gid="16388" x="11040" y="80" width="16" height="16">
   <properties>
    <property name="Channel" value="1"/>
    <property name="Color" type="color" value="#ffff0000"/>
   </properties>
  </object>
  <object id="1441" gid="16388" x="11056" y="80" width="16" height="16">
   <properties>
    <property name="Channel" value="1"/>
    <property name="Color" type="color" value="#ffff0000"/>
   </properties>
  </object>
  <object id="1386" gid="16388" x="10880" y="80" width="16" height="16">
   <properties>
    <property name="Channel" value="1"/>
    <property name="Color" type="color" value="#ffff0000"/>
   </properties>
  </object>
  <object id="1387" gid="16388" x="10944" y="80" width="16" height="16">
   <properties>
    <property name="Channel" value="1"/>
    <property name="Color" type="color" value="#ffff0000"/>
   </properties>
  </object>
  <object id="1395" gid="16388" x="11008" y="80" width="16" height="16">
   <properties>
    <property name="Channel" value="1"/>
    <property name="Color" type="color" value="#ffff0000"/>
   </properties>
  </object>
  <object id="1403" gid="16388" x="11088" y="80" width="16" height="16">
   <properties>
    <property name="Channel" value="1"/>
    <property name="Color" type="color" value="#ff000000"/>
    <property name="Frames" type="int" value="20"/>
   </properties>
  </object>
  <object id="1382" gid="16388" x="10864" y="80" width="16" height="16">
   <properties>
    <property name="Channel" value="1"/>
    <property name="Color" type="color" value="#ffff0000"/>
   </properties>
  </object>
  <object id="1391" gid="16388" x="10928" y="80" width="16" height="16">
   <properties>
    <property name="Channel" value="1"/>
    <property name="Color" type="color" value="#ffff0000"/>
   </properties>
  </object>
  <object id="1399" gid="16388" x="10992" y="80" width="16" height="16">
   <properties>
    <property name="Channel" value="1"/>
    <property name="Color" type="color" value="#ffff0000"/>
   </properties>
  </object>
  <object id="1407" gid="16388" x="11072" y="80" width="16" height="16">
   <properties>
    <property name="Channel" value="1"/>
    <property name="Color" type="color" value="#ffff0000"/>
   </properties>
  </object>
  <object id="1383" gid="16388" x="10896" y="80" width="16" height="16">
   <properties>
    <property name="Channel" value="1"/>
    <property name="Color" type="color" value="#ffff0000"/>
   </properties>
  </object>
  <object id="1388" gid="16388" x="10960" y="80" width="16" height="16">
   <properties>
    <property name="Channel" value="1"/>
    <property name="Color" type="color" value="#ffff0000"/>
   </properties>
  </object>
  <object id="1396" gid="16388" x="11024" y="80" width="16" height="16">
   <properties>
    <property name="Channel" value="1"/>
    <property name="Color" type="color" value="#ffff0000"/>
   </properties>
  </object>
  <object id="1380" gid="16388" x="10856" y="80" width="16" height="16">
   <properties>
    <property name="Channel" value="1"/>
    <property name="Color" type="color" value="#ff000000"/>
   </properties>
  </object>
  <object id="1411" gid="16388" x="10856" y="96" width="16" height="16">
   <properties>
    <property name="Channel" value="2"/>
    <property name="Color" type="color" value="#ff000000"/>
   </properties>
  </object>
  <object id="1422" gid="16388" x="10904" y="96" width="16" height="16">
   <properties>
    <property name="Channel" value="2"/>
    <property name="Color" type="color" value="#ff000000"/>
   </properties>
  </object>
  <object id="1428" gid="16388" x="10952" y="96" width="16" height="16">
   <properties>
    <property name="Channel" value="2"/>
    <property name="Color" type="color" value="#ff000000"/>
   </properties>
  </object>
  <object id="1434" gid="16388" x="11000" y="96" width="16" height="16">
   <properties>
    <property name="Channel" value="2"/>
    <property name="Color" type="color" value="#ff000000"/>
   </properties>
  </object>
  <object id="1440" gid="16388" x="11048" y="96" width="16" height="16">
   <properties>
    <property name="Channel" value="2"/>
    <property name="Color" type="color" value="#ff000000"/>
   </properties>
  </object>
  <object id="1413" gid="16388" x="10872" y="112" width="16" height="16">
   <properties>
    <property name="Channel" value="3"/>
    <property name="Color" type="color" value="#ff000000"/>
   </properties>
  </object>
  <object id="1420" gid="16388" x="10920" y="112" width="16" height="16">
   <properties>
    <property name="Channel" value="3"/>
    <property name="Color" type="color" value="#ff000000"/>
   </properties>
  </object>
  <object id="1426" gid="16388" x="10968" y="112" width="16" height="16">
   <properties>
    <property name="Channel" value="3"/>
    <property name="Color" type="color" value="#ff000000"/>
   </properties>
  </object>
  <object id="1432" gid="16388" x="11016" y="112" width="16" height="16">
   <properties>
    <property name="Channel" value="3"/>
    <property name="Color" type="color" value="#ff000000"/>
   </properties>
  </object>
  <object id="1438" gid="16388" x="11064" y="112" width="16" height="16">
   <properties>
    <property name="Channel" value="3"/>
    <property name="Color" type="color" value="#ff000000"/>
   </properties>
  </object>
  <object id="1415" gid="16388" x="10888" y="128" width="16" height="16">
   <properties>
    <property name="Channel" value="3"/>
    <property name="Color" type="color" value="#ff000000"/>
   </properties>
  </object>
  <object id="1418" gid="16388" x="10936" y="128" width="16" height="16">
   <properties>
    <property name="Channel" value="3"/>
    <property name="Color" type="color" value="#ff000000"/>
   </properties>
  </object>
  <object id="1424" gid="16388" x="10984" y="128" width="16" height="16">
   <properties>
    <property name="Channel" value="3"/>
    <property name="Color" type="color" value="#ff000000"/>
   </properties>
  </object>
  <object id="1430" gid="16388" x="11032" y="128" width="16" height="16">
   <properties>
    <property name="Channel" value="3"/>
    <property name="Color" type="color" value="#ff000000"/>
   </properties>
  </object>
  <object id="1436" gid="16388" x="11080" y="128" width="16" height="16">
   <properties>
    <property name="Channel" value="3"/>
    <property name="Color" type="color" value="#ff000000"/>
   </properties>
  </object>
  <object id="1393" gid="16388" x="10920" y="80" width="16" height="16">
   <properties>
    <property name="Channel" value="1"/>
    <property name="Color" type="color" value="#ff000000"/>
   </properties>
  </object>
  <object id="1401" gid="16388" x="10984" y="80" width="16" height="16">
   <properties>
    <property name="Channel" value="1"/>
    <property name="Color" type="color" value="#ff000000"/>
   </properties>
  </object>
  <object id="1409" gid="16388" x="11064" y="80" width="16" height="16">
   <properties>
    <property name="Channel" value="1"/>
    <property name="Color" type="color" value="#ff000000"/>
   </properties>
  </object>
  <object id="1385" gid="16388" x="10888" y="80" width="16" height="16">
   <properties>
    <property name="Channel" value="1"/>
    <property name="Color" type="color" value="#ff000000"/>
   </properties>
  </object>
  <object id="1389" gid="16388" x="10952" y="80" width="16" height="16">
   <properties>
    <property name="Channel" value="1"/>
    <property name="Color" type="color" value="#ff000000"/>
   </properties>
  </object>
  <object id="1397" gid="16388" x="11016" y="80" width="16" height="16">
   <properties>
    <property name="Channel" value="1"/>
    <property name="Color" type="color" value="#ff000000"/>
   </properties>
  </object>
  <object id="1381" gid="16388" x="10872" y="80" width="16" height="16">
   <properties>
    <property name="Channel" value="1"/>
    <property name="Color" type="color" value="#ff000000"/>
   </properties>
  </object>
  <object id="1392" gid="16388" x="10936" y="80" width="16" height="16">
   <properties>
    <property name="Channel" value="1"/>
    <property name="Color" type="color" value="#ff000000"/>
   </properties>
  </object>
  <object id="1400" gid="16388" x="11000" y="80" width="16" height="16">
   <properties>
    <property name="Channel" value="1"/>
    <property name="Color" type="color" value="#ff000000"/>
   </properties>
  </object>
  <object id="1408" gid="16388" x="11080" y="80" width="16" height="16">
   <properties>
    <property name="Channel" value="1"/>
    <property name="Color" type="color" value="#ff000000"/>
   </properties>
  </object>
  <object id="1384" gid="16388" x="10904" y="80" width="16" height="16">
   <properties>
    <property name="Channel" value="1"/>
    <property name="Color" type="color" value="#ff000000"/>
   </properties>
  </object>
  <object id="1390" gid="16388" x="10968" y="80" width="16" height="16">
   <properties>
    <property name="Channel" value="1"/>
    <property name="Color" type="color" value="#ff000000"/>
   </properties>
  </object>
  <object id="1398" gid="16388" x="11032" y="80" width="16" height="16">
   <properties>
    <property name="Channel" value="1"/>
    <property name="Color" type="color" value="#ff000000"/>
   </properties>
  </object>
  <object id="1442" gid="16388" x="11048" y="80" width="16" height="16">
   <properties>
    <property name="Channel" value="1"/>
    <property name="Color" type="color" value="#ff000000"/>
   </properties>
  </object>
  <object id="1443" gid="16537" x="10408" y="256" width="16" height="16">
   <properties>
    <property name="bg layer" value="2"/>
    <property name="color channel" value="2"/>
    <property name="vflip" type="bool" value="true"/>
    <property name="z index" type="int" value="5"/>
   </properties>
  </object>
  <object id="1655" gid="16537" x="10536" y="256" width="16" height="16">
   <properties>
    <property name="bg layer" value="2"/>
    <property name="color channel" value="2"/>
    <property name="vflip" type="bool" value="true"/>
    <property name="z index" type="int" value="5"/>
   </properties>
  </object>
  <object id="1679" gid="16537" x="10664" y="256" width="16" height="16">
   <properties>
    <property name="bg layer" value="2"/>
    <property name="color channel" value="2"/>
    <property name="vflip" type="bool" value="true"/>
    <property name="z index" type="int" value="5"/>
   </properties>
  </object>
  <object id="1631" gid="16537" x="10472" y="256" width="16" height="16">
   <properties>
    <property name="bg layer" value="2"/>
    <property name="color channel" value="2"/>
    <property name="vflip" type="bool" value="true"/>
    <property name="z index" type="int" value="5"/>
   </properties>
  </object>
  <object id="1644" gid="16537" x="10600" y="256" width="16" height="16">
   <properties>
    <property name="bg layer" value="2"/>
    <property name="color channel" value="2"/>
    <property name="vflip" type="bool" value="true"/>
    <property name="z index" type="int" value="5"/>
   </properties>
  </object>
  <object id="1668" gid="16537" x="10728" y="256" width="16" height="16">
   <properties>
    <property name="bg layer" value="2"/>
    <property name="color channel" value="2"/>
    <property name="vflip" type="bool" value="true"/>
    <property name="z index" type="int" value="5"/>
   </properties>
  </object>
  <object id="1683" gid="16537" x="10792" y="256" width="16" height="16">
   <properties>
    <property name="bg layer" value="2"/>
    <property name="color channel" value="2"/>
    <property name="vflip" type="bool" value="true"/>
    <property name="z index" type="int" value="5"/>
   </properties>
  </object>
  <object id="1619" gid="16537" x="10440" y="256" width="16" height="16">
   <properties>
    <property name="bg layer" value="2"/>
    <property name="color channel" value="2"/>
    <property name="vflip" type="bool" value="true"/>
    <property name="z index" type="int" value="5"/>
   </properties>
  </object>
  <object id="1650" gid="16537" x="10568" y="256" width="16" height="16">
   <properties>
    <property name="bg layer" value="2"/>
    <property name="color channel" value="2"/>
    <property name="vflip" type="bool" value="true"/>
    <property name="z index" type="int" value="5"/>
   </properties>
  </object>
  <object id="1674" gid="16537" x="10696" y="256" width="16" height="16">
   <properties>
    <property name="bg layer" value="2"/>
    <property name="color channel" value="2"/>
    <property name="vflip" type="bool" value="true"/>
    <property name="z index" type="int" value="5"/>
   </properties>
  </object>
  <object id="1626" gid="16537" x="10504" y="256" width="16" height="16">
   <properties>
    <property name="bg layer" value="2"/>
    <property name="color channel" value="2"/>
    <property name="vflip" type="bool" value="true"/>
    <property name="z index" type="int" value="5"/>
   </properties>
  </object>
  <object id="1645" gid="16537" x="10632" y="256" width="16" height="16">
   <properties>
    <property name="bg layer" value="2"/>
    <property name="color channel" value="2"/>
    <property name="vflip" type="bool" value="true"/>
    <property name="z index" type="int" value="5"/>
   </properties>
  </object>
  <object id="1669" gid="16537" x="10760" y="256" width="16" height="16">
   <properties>
    <property name="bg layer" value="2"/>
    <property name="color channel" value="2"/>
    <property name="vflip" type="bool" value="true"/>
    <property name="z index" type="int" value="5"/>
   </properties>
  </object>
  <object id="1684" gid="16537" x="10824" y="256" width="16" height="16">
   <properties>
    <property name="bg layer" value="2"/>
    <property name="color channel" value="2"/>
    <property name="vflip" type="bool" value="true"/>
    <property name="z index" type="int" value="5"/>
   </properties>
  </object>
  <object id="1444" gid="16536" x="10408" y="256" width="16" height="16">
   <properties>
    <property name="bg layer" value="2"/>
    <property name="color channel" value="3"/>
    <property name="vflip" type="bool" value="true"/>
    <property name="z index" type="int" value="10"/>
   </properties>
  </object>
  <object id="1654" gid="16536" x="10536" y="256" width="16" height="16">
   <properties>
    <property name="bg layer" value="2"/>
    <property name="color channel" value="3"/>
    <property name="vflip" type="bool" value="true"/>
    <property name="z index" type="int" value="10"/>
   </properties>
  </object>
  <object id="1678" gid="16536" x="10664" y="256" width="16" height="16">
   <properties>
    <property name="bg layer" value="2"/>
    <property name="color channel" value="3"/>
    <property name="vflip" type="bool" value="true"/>
    <property name="z index" type="int" value="10"/>
   </properties>
  </object>
  <object id="1630" gid="16536" x="10472" y="256" width="16" height="16">
   <properties>
    <property name="bg layer" value="2"/>
    <property name="color channel" value="3"/>
    <property name="vflip" type="bool" value="true"/>
    <property name="z index" type="int" value="10"/>
   </properties>
  </object>
  <object id="1646" gid="16536" x="10600" y="256" width="16" height="16">
   <properties>
    <property name="bg layer" value="2"/>
    <property name="color channel" value="3"/>
    <property name="vflip" type="bool" value="true"/>
    <property name="z index" type="int" value="10"/>
   </properties>
  </object>
  <object id="1670" gid="16536" x="10728" y="256" width="16" height="16">
   <properties>
    <property name="bg layer" value="2"/>
    <property name="color channel" value="3"/>
    <property name="vflip" type="bool" value="true"/>
    <property name="z index" type="int" value="10"/>
   </properties>
  </object>
  <object id="1685" gid="16536" x="10792" y="256" width="16" height="16">
   <properties>
    <property name="bg layer" value="2"/>
    <property name="color channel" value="3"/>
    <property name="vflip" type="bool" value="true"/>
    <property name="z index" type="int" value="10"/>
   </properties>
  </object>
  <object id="1618" gid="16536" x="10440" y="256" width="16" height="16">
   <properties>
    <property name="bg layer" value="2"/>
    <property name="color channel" value="3"/>
    <property name="vflip" type="bool" value="true"/>
    <property name="z index" type="int" value="10"/>
   </properties>
  </object>
  <object id="1651" gid="16536" x="10568" y="256" width="16" height="16">
   <properties>
    <property name="bg layer" value="2"/>
    <property name="color channel" value="3"/>
    <property name="vflip" type="bool" value="true"/>
    <property name="z index" type="int" value="10"/>
   </properties>
  </object>
  <object id="1675" gid="16536" x="10696" y="256" width="16" height="16">
   <properties>
    <property name="bg layer" value="2"/>
    <property name="color channel" value="3"/>
    <property name="vflip" type="bool" value="true"/>
    <property name="z index" type="int" value="10"/>
   </properties>
  </object>
  <object id="1627" gid="16536" x="10504" y="256" width="16" height="16">
   <properties>
    <property name="bg layer" value="2"/>
    <property name="color channel" value="3"/>
    <property name="vflip" type="bool" value="true"/>
    <property name="z index" type="int" value="10"/>
   </properties>
  </object>
  <object id="1647" gid="16536" x="10632" y="256" width="16" height="16">
   <properties>
    <property name="bg layer" value="2"/>
    <property name="color channel" value="3"/>
    <property name="vflip" type="bool" value="true"/>
    <property name="z index" type="int" value="10"/>
   </properties>
  </object>
  <object id="1671" gid="16536" x="10760" y="256" width="16" height="16">
   <properties>
    <property name="bg layer" value="2"/>
    <property name="color channel" value="3"/>
    <property name="vflip" type="bool" value="true"/>
    <property name="z index" type="int" value="10"/>
   </properties>
  </object>
  <object id="1686" gid="16536" x="10824" y="256" width="16" height="16">
   <properties>
    <property name="bg layer" value="2"/>
    <property name="color channel" value="3"/>
    <property name="vflip" type="bool" value="true"/>
    <property name="z index" type="int" value="10"/>
   </properties>
  </object>
  <object id="1445" gid="16535" x="10408" y="256" width="16" height="16">
   <properties>
    <property name="bg layer" value="2"/>
    <property name="color channel" value="4"/>
    <property name="vflip" type="bool" value="true"/>
    <property name="z index" type="int" value="15"/>
   </properties>
  </object>
  <object id="1653" gid="16535" x="10536" y="256" width="16" height="16">
   <properties>
    <property name="bg layer" value="2"/>
    <property name="color channel" value="4"/>
    <property name="vflip" type="bool" value="true"/>
    <property name="z index" type="int" value="15"/>
   </properties>
  </object>
  <object id="1677" gid="16535" x="10664" y="256" width="16" height="16">
   <properties>
    <property name="bg layer" value="2"/>
    <property name="color channel" value="4"/>
    <property name="vflip" type="bool" value="true"/>
    <property name="z index" type="int" value="15"/>
   </properties>
  </object>
  <object id="1629" gid="16535" x="10472" y="256" width="16" height="16">
   <properties>
    <property name="bg layer" value="2"/>
    <property name="color channel" value="4"/>
    <property name="vflip" type="bool" value="true"/>
    <property name="z index" type="int" value="15"/>
   </properties>
  </object>
  <object id="1648" gid="16535" x="10600" y="256" width="16" height="16">
   <properties>
    <property name="bg layer" value="2"/>
    <property name="color channel" value="4"/>
    <property name="vflip" type="bool" value="true"/>
    <property name="z index" type="int" value="15"/>
   </properties>
  </object>
  <object id="1672" gid="16535" x="10728" y="256" width="16" height="16">
   <properties>
    <property name="bg layer" value="2"/>
    <property name="color channel" value="4"/>
    <property name="vflip" type="bool" value="true"/>
    <property name="z index" type="int" value="15"/>
   </properties>
  </object>
  <object id="1687" gid="16535" x="10792" y="256" width="16" height="16">
   <properties>
    <property name="bg layer" value="2"/>
    <property name="color channel" value="4"/>
    <property name="vflip" type="bool" value="true"/>
    <property name="z index" type="int" value="15"/>
   </properties>
  </object>
  <object id="1617" gid="16535" x="10440" y="256" width="16" height="16">
   <properties>
    <property name="bg layer" value="2"/>
    <property name="color channel" value="4"/>
    <property name="vflip" type="bool" value="true"/>
    <property name="z index" type="int" value="15"/>
   </properties>
  </object>
  <object id="1652" gid="16535" x="10568" y="256" width="16" height="16">
   <properties>
    <property name="bg layer" value="2"/>
    <property name="color channel" value="4"/>
    <property name="vflip" type="bool" value="true"/>
    <property name="z index" type="int" value="15"/>
   </properties>
  </object>
  <object id="1676" gid="16535" x="10696" y="256" width="16" height="16">
   <properties>
    <property name="bg layer" value="2"/>
    <property name="color channel" value="4"/>
    <property name="vflip" type="bool" value="true"/>
    <property name="z index" type="int" value="15"/>
   </properties>
  </object>
  <object id="1628" gid="16535" x="10504" y="256" width="16" height="16">
   <properties>
    <property name="bg layer" value="2"/>
    <property name="color channel" value="4"/>
    <property name="vflip" type="bool" value="true"/>
    <property name="z index" type="int" value="15"/>
   </properties>
  </object>
  <object id="1649" gid="16535" x="10632" y="256" width="16" height="16">
   <properties>
    <property name="bg layer" value="2"/>
    <property name="color channel" value="4"/>
    <property name="vflip" type="bool" value="true"/>
    <property name="z index" type="int" value="15"/>
   </properties>
  </object>
  <object id="1673" gid="16535" x="10760" y="256" width="16" height="16">
   <properties>
    <property name="bg layer" value="2"/>
    <property name="color channel" value="4"/>
    <property name="vflip" type="bool" value="true"/>
    <property name="z index" type="int" value="15"/>
   </properties>
  </object>
  <object id="1688" gid="16535" x="10824" y="256" width="16" height="16">
   <properties>
    <property name="bg layer" value="2"/>
    <property name="color channel" value="4"/>
    <property name="vflip" type="bool" value="true"/>
    <property name="z index" type="int" value="15"/>
   </properties>
  </object>
  <object id="1446" gid="16537" x="10424" y="304" width="16" height="16">
   <properties>
    <property name="bg layer" value="2"/>
    <property name="color channel" value="2"/>
    <property name="z index" type="int" value="5"/>
   </properties>
  </object>
  <object id="1643" gid="16537" x="10552" y="304" width="16" height="16">
   <properties>
    <property name="bg layer" value="2"/>
    <property name="color channel" value="2"/>
    <property name="z index" type="int" value="5"/>
   </properties>
  </object>
  <object id="1667" gid="16537" x="10680" y="304" width="16" height="16">
   <properties>
    <property name="bg layer" value="2"/>
    <property name="color channel" value="2"/>
    <property name="z index" type="int" value="5"/>
   </properties>
  </object>
  <object id="1625" gid="16537" x="10488" y="304" width="16" height="16">
   <properties>
    <property name="bg layer" value="2"/>
    <property name="color channel" value="2"/>
    <property name="z index" type="int" value="5"/>
   </properties>
  </object>
  <object id="1632" gid="16537" x="10616" y="304" width="16" height="16">
   <properties>
    <property name="bg layer" value="2"/>
    <property name="color channel" value="2"/>
    <property name="z index" type="int" value="5"/>
   </properties>
  </object>
  <object id="1656" gid="16537" x="10744" y="304" width="16" height="16">
   <properties>
    <property name="bg layer" value="2"/>
    <property name="color channel" value="2"/>
    <property name="z index" type="int" value="5"/>
   </properties>
  </object>
  <object id="1680" gid="16537" x="10808" y="304" width="16" height="16">
   <properties>
    <property name="bg layer" value="2"/>
    <property name="color channel" value="2"/>
    <property name="z index" type="int" value="5"/>
   </properties>
  </object>
  <object id="1616" gid="16537" x="10456" y="304" width="16" height="16">
   <properties>
    <property name="bg layer" value="2"/>
    <property name="color channel" value="2"/>
    <property name="z index" type="int" value="5"/>
   </properties>
  </object>
  <object id="1638" gid="16537" x="10584" y="304" width="16" height="16">
   <properties>
    <property name="bg layer" value="2"/>
    <property name="color channel" value="2"/>
    <property name="z index" type="int" value="5"/>
   </properties>
  </object>
  <object id="1662" gid="16537" x="10712" y="304" width="16" height="16">
   <properties>
    <property name="bg layer" value="2"/>
    <property name="color channel" value="2"/>
    <property name="z index" type="int" value="5"/>
   </properties>
  </object>
  <object id="1620" gid="16537" x="10520" y="304" width="16" height="16">
   <properties>
    <property name="bg layer" value="2"/>
    <property name="color channel" value="2"/>
    <property name="z index" type="int" value="5"/>
   </properties>
  </object>
  <object id="1633" gid="16537" x="10648" y="304" width="16" height="16">
   <properties>
    <property name="bg layer" value="2"/>
    <property name="color channel" value="2"/>
    <property name="z index" type="int" value="5"/>
   </properties>
  </object>
  <object id="1657" gid="16537" x="10776" y="304" width="16" height="16">
   <properties>
    <property name="bg layer" value="2"/>
    <property name="color channel" value="2"/>
    <property name="z index" type="int" value="5"/>
   </properties>
  </object>
  <object id="1447" gid="16536" x="10424" y="304" width="16" height="16">
   <properties>
    <property name="bg layer" value="2"/>
    <property name="color channel" value="3"/>
    <property name="z index" type="int" value="10"/>
   </properties>
  </object>
  <object id="1642" gid="16536" x="10552" y="304" width="16" height="16">
   <properties>
    <property name="bg layer" value="2"/>
    <property name="color channel" value="3"/>
    <property name="z index" type="int" value="10"/>
   </properties>
  </object>
  <object id="1666" gid="16536" x="10680" y="304" width="16" height="16">
   <properties>
    <property name="bg layer" value="2"/>
    <property name="color channel" value="3"/>
    <property name="z index" type="int" value="10"/>
   </properties>
  </object>
  <object id="1624" gid="16536" x="10488" y="304" width="16" height="16">
   <properties>
    <property name="bg layer" value="2"/>
    <property name="color channel" value="3"/>
    <property name="z index" type="int" value="10"/>
   </properties>
  </object>
  <object id="1634" gid="16536" x="10616" y="304" width="16" height="16">
   <properties>
    <property name="bg layer" value="2"/>
    <property name="color channel" value="3"/>
    <property name="z index" type="int" value="10"/>
   </properties>
  </object>
  <object id="1658" gid="16536" x="10744" y="304" width="16" height="16">
   <properties>
    <property name="bg layer" value="2"/>
    <property name="color channel" value="3"/>
    <property name="z index" type="int" value="10"/>
   </properties>
  </object>
  <object id="1681" gid="16536" x="10808" y="304" width="16" height="16">
   <properties>
    <property name="bg layer" value="2"/>
    <property name="color channel" value="3"/>
    <property name="z index" type="int" value="10"/>
   </properties>
  </object>
  <object id="1615" gid="16536" x="10456" y="304" width="16" height="16">
   <properties>
    <property name="bg layer" value="2"/>
    <property name="color channel" value="3"/>
    <property name="z index" type="int" value="10"/>
   </properties>
  </object>
  <object id="1639" gid="16536" x="10584" y="304" width="16" height="16">
   <properties>
    <property name="bg layer" value="2"/>
    <property name="color channel" value="3"/>
    <property name="z index" type="int" value="10"/>
   </properties>
  </object>
  <object id="1663" gid="16536" x="10712" y="304" width="16" height="16">
   <properties>
    <property name="bg layer" value="2"/>
    <property name="color channel" value="3"/>
    <property name="z index" type="int" value="10"/>
   </properties>
  </object>
  <object id="1621" gid="16536" x="10520" y="304" width="16" height="16">
   <properties>
    <property name="bg layer" value="2"/>
    <property name="color channel" value="3"/>
    <property name="z index" type="int" value="10"/>
   </properties>
  </object>
  <object id="1635" gid="16536" x="10648" y="304" width="16" height="16">
   <properties>
    <property name="bg layer" value="2"/>
    <property name="color channel" value="3"/>
    <property name="z index" type="int" value="10"/>
   </properties>
  </object>
  <object id="1659" gid="16536" x="10776" y="304" width="16" height="16">
   <properties>
    <property name="bg layer" value="2"/>
    <property name="color channel" value="3"/>
    <property name="z index" type="int" value="10"/>
   </properties>
  </object>
  <object id="1448" gid="16535" x="10424" y="304" width="16" height="16">
   <properties>
    <property name="bg layer" value="2"/>
    <property name="color channel" value="4"/>
    <property name="z index" type="int" value="15"/>
   </properties>
  </object>
  <object id="1641" gid="16535" x="10552" y="304" width="16" height="16">
   <properties>
    <property name="bg layer" value="2"/>
    <property name="color channel" value="4"/>
    <property name="z index" type="int" value="15"/>
   </properties>
  </object>
  <object id="1665" gid="16535" x="10680" y="304" width="16" height="16">
   <properties>
    <property name="bg layer" value="2"/>
    <property name="color channel" value="4"/>
    <property name="z index" type="int" value="15"/>
   </properties>
  </object>
  <object id="1623" gid="16535" x="10488" y="304" width="16" height="16">
   <properties>
    <property name="bg layer" value="2"/>
    <property name="color channel" value="4"/>
    <property name="z index" type="int" value="15"/>
   </properties>
  </object>
  <object id="1636" gid="16535" x="10616" y="304" width="16" height="16">
   <properties>
    <property name="bg layer" value="2"/>
    <property name="color channel" value="4"/>
    <property name="z index" type="int" value="15"/>
   </properties>
  </object>
  <object id="1660" gid="16535" x="10744" y="304" width="16" height="16">
   <properties>
    <property name="bg layer" value="2"/>
    <property name="color channel" value="4"/>
    <property name="z index" type="int" value="15"/>
   </properties>
  </object>
  <object id="1682" gid="16535" x="10808" y="304" width="16" height="16">
   <properties>
    <property name="bg layer" value="2"/>
    <property name="color channel" value="4"/>
    <property name="z index" type="int" value="15"/>
   </properties>
  </object>
  <object id="1614" gid="16535" x="10456" y="304" width="16" height="16">
   <properties>
    <property name="bg layer" value="2"/>
    <property name="color channel" value="4"/>
    <property name="z index" type="int" value="15"/>
   </properties>
  </object>
  <object id="1640" gid="16535" x="10584" y="304" width="16" height="16">
   <properties>
    <property name="bg layer" value="2"/>
    <property name="color channel" value="4"/>
    <property name="z index" type="int" value="15"/>
   </properties>
  </object>
  <object id="1664" gid="16535" x="10712" y="304" width="16" height="16">
   <properties>
    <property name="bg layer" value="2"/>
    <property name="color channel" value="4"/>
    <property name="z index" type="int" value="15"/>
   </properties>
  </object>
  <object id="1622" gid="16535" x="10520" y="304" width="16" height="16">
   <properties>
    <property name="bg layer" value="2"/>
    <property name="color channel" value="4"/>
    <property name="z index" type="int" value="15"/>
   </properties>
  </object>
  <object id="1637" gid="16535" x="10648" y="304" width="16" height="16">
   <properties>
    <property name="bg layer" value="2"/>
    <property name="color channel" value="4"/>
    <property name="z index" type="int" value="15"/>
   </properties>
  </object>
  <object id="1661" gid="16535" x="10776" y="304" width="16" height="16">
   <properties>
    <property name="bg layer" value="2"/>
    <property name="color channel" value="4"/>
    <property name="z index" type="int" value="15"/>
   </properties>
  </object>
  <object id="1552" gid="16535" x="10872" y="336" width="16" height="16">
   <properties>
    <property name="bg layer" value="2"/>
    <property name="color channel" value="2"/>
    <property name="z index" type="int" value="5"/>
   </properties>
  </object>
  <object id="1567" gid="16535" x="10872" y="224" width="16" height="16">
   <properties>
    <property name="bg layer" value="2"/>
    <property name="color channel" value="2"/>
    <property name="hflip" type="bool" value="false"/>
    <property name="vflip" type="bool" value="true"/>
    <property name="z index" type="int" value="5"/>
   </properties>
  </object>
  <object id="1557" gid="16535" x="10968" y="336" width="16" height="16">
   <properties>
    <property name="bg layer" value="2"/>
    <property name="color channel" value="2"/>
    <property name="z index" type="int" value="5"/>
   </properties>
  </object>
  <object id="1562" gid="16535" x="10968" y="224" width="16" height="16">
   <properties>
    <property name="bg layer" value="2"/>
    <property name="color channel" value="2"/>
    <property name="hflip" type="bool" value="false"/>
    <property name="vflip" type="bool" value="true"/>
    <property name="z index" type="int" value="5"/>
   </properties>
  </object>
  <object id="1558" gid="16535" x="11064" y="336" width="16" height="16">
   <properties>
    <property name="bg layer" value="2"/>
    <property name="color channel" value="2"/>
    <property name="z index" type="int" value="5"/>
   </properties>
  </object>
  <object id="1560" gid="16535" x="11064" y="224" width="16" height="16">
   <properties>
    <property name="bg layer" value="2"/>
    <property name="color channel" value="2"/>
    <property name="hflip" type="bool" value="false"/>
    <property name="vflip" type="bool" value="true"/>
    <property name="z index" type="int" value="5"/>
   </properties>
  </object>
  <object id="1553" gid="16535" x="10904" y="336" width="16" height="16">
   <properties>
    <property name="bg layer" value="2"/>
    <property name="color channel" value="3"/>
    <property name="z index" type="int" value="5"/>
   </properties>
  </object>
  <object id="1566" gid="16535" x="10904" y="224" width="16" height="16">
   <properties>
    <property name="bg layer" value="2"/>
    <property name="color channel" value="3"/>
    <property name="hflip" type="bool" value="false"/>
    <property name="vflip" type="bool" value="true"/>
    <property name="z index" type="int" value="5"/>
   </properties>
  </object>
  <object id="1556" gid="16535" x="11000" y="336" width="16" height="16">
   <properties>
    <property name="bg layer" value="2"/>
    <property name="color channel" value="3"/>
    <property name="z index" type="int" value="5"/>
   </properties>
  </object>
  <object id="1563" gid="16535" x="11000" y="224" width="16" height="16">
   <properties>
    <property name="bg layer" value="2"/>
    <property name="color channel" value="3"/>
    <property name="hflip" type="bool" value="false"/>
    <property name="vflip" type="bool" value="true"/>
    <property name="z index" type="int" value="5"/>
   </properties>
  </object>
  <object id="1554" gid="16535" x="10936" y="336" width="16" height="16">
   <properties>
    <property name="bg layer" value="2"/>
    <property name="color channel" value="4"/>
    <property name="z index" type="int" value="5"/>
   </properties>
  </object>
  <object id="1565" gid="16535" x="10936" y="224" width="16" height="16">
   <properties>
    <property name="bg layer" value="2"/>
    <property name="color channel" value="4"/>
    <property name="hflip" type="bool" value="false"/>
    <property name="vflip" type="bool" value="true"/>
    <property name="z index" type="int" value="5"/>
   </properties>
  </object>
  <object id="1555" gid="16535" x="11032" y="336" width="16" height="16">
   <properties>
    <property name="bg layer" value="2"/>
    <property name="color channel" value="4"/>
    <property name="z index" type="int" value="5"/>
   </properties>
  </object>
  <object id="1564" gid="16535" x="11032" y="224" width="16" height="16">
   <properties>
    <property name="bg layer" value="2"/>
    <property name="color channel" value="4"/>
    <property name="hflip" type="bool" value="false"/>
    <property name="vflip" type="bool" value="true"/>
    <property name="z index" type="int" value="5"/>
   </properties>
  </object>
  <object id="1689" gid="16388" x="11265" y="80" width="16" height="16">
   <properties>
    <property name="Channel" value="1"/>
    <property name="Color" type="color" value="#ffe70000"/>
   </properties>
  </object>
  <object id="1708" gid="16388" x="11505" y="80" width="16" height="16">
   <properties>
    <property name="Channel" value="1"/>
    <property name="Color" type="color" value="#ffe70000"/>
   </properties>
  </object>
  <object id="1732" gid="16388" x="11731" y="80" width="16" height="16">
   <properties>
    <property name="Channel" value="1"/>
    <property name="Color" type="color" value="#ffe70000"/>
   </properties>
  </object>
  <object id="1762" gid="16388" x="12207" y="80" width="16" height="16">
   <properties>
    <property name="Channel" value="1"/>
    <property name="Color" type="color" value="#ffe70000"/>
   </properties>
  </object>
  <object id="1774" gid="16388" x="12435" y="80" width="16" height="16">
   <properties>
    <property name="Channel" value="1"/>
    <property name="Color" type="color" value="#ffe70000"/>
   </properties>
  </object>
  <object id="1786" gid="16388" x="12657" y="80" width="16" height="16">
   <properties>
    <property name="Channel" value="1"/>
    <property name="Color" type="color" value="#ffe70000"/>
   </properties>
  </object>
  <object id="1822" gid="16388" x="13125" y="80" width="16" height="16">
   <properties>
    <property name="Channel" value="1"/>
    <property name="Color" type="color" value="#ffe70000"/>
   </properties>
  </object>
  <object id="1863" gid="16388" x="13352" y="80" width="16" height="16">
   <properties>
    <property name="Channel" value="1"/>
    <property name="Color" type="color" value="#ffe70000"/>
   </properties>
  </object>
  <object id="1892" gid="16388" x="13819" y="80" width="16" height="16">
   <properties>
    <property name="Channel" value="1"/>
    <property name="Color" type="color" value="#ffe70000"/>
   </properties>
  </object>
  <object id="1900" gid="16388" x="13936" y="80" width="16" height="16">
   <properties>
    <property name="Channel" value="1"/>
    <property name="Color" type="color" value="#ffe70000"/>
   </properties>
  </object>
  <object id="1884" gid="16388" x="13662" y="80" width="16" height="16">
   <properties>
    <property name="Channel" value="1"/>
    <property name="Color" type="color" value="#ffe70000"/>
   </properties>
  </object>
  <object id="1958" gid="16388" x="14592" y="80" width="16" height="16">
   <properties>
    <property name="Channel" value="1"/>
    <property name="Color" type="color" value="#ffe70000"/>
   </properties>
  </object>
  <object id="1882" gid="16388" x="13590" y="80" width="16" height="16">
   <properties>
    <property name="Channel" value="1"/>
    <property name="Color" type="color" value="#ffe70000"/>
   </properties>
  </object>
  <object id="1960" gid="16388" x="14520" y="80" width="16" height="16">
   <properties>
    <property name="Channel" value="1"/>
    <property name="Color" type="color" value="#ffe70000"/>
   </properties>
  </object>
  <object id="1848" gid="16388" x="14749" y="80" width="16" height="16">
   <properties>
    <property name="Channel" value="1"/>
    <property name="Color" type="color" value="#ffe70000"/>
   </properties>
  </object>
  <object id="1924" gid="16388" x="14060" y="80" width="16" height="16">
   <properties>
    <property name="Channel" value="1"/>
    <property name="Color" type="color" value="#ffe70000"/>
   </properties>
  </object>
  <object id="1968" gid="16388" x="14284" y="80" width="16" height="16">
   <properties>
    <property name="Channel" value="1"/>
    <property name="Color" type="color" value="#ffe70000"/>
   </properties>
  </object>
  <object id="1798" gid="16388" x="12997" y="80" width="16" height="16">
   <properties>
    <property name="Channel" value="1"/>
    <property name="Color" type="color" value="#ffe70000"/>
   </properties>
  </object>
  <object id="1802" gid="16388" x="12895" y="80" width="16" height="16">
   <properties>
    <property name="Channel" value="1"/>
    <property name="Color" type="color" value="#ffe70000"/>
   </properties>
  </object>
  <object id="1744" gid="16388" x="12083" y="80" width="16" height="16">
   <properties>
    <property name="Channel" value="1"/>
    <property name="Color" type="color" value="#ffe70000"/>
   </properties>
  </object>
  <object id="1748" gid="16388" x="11982" y="80" width="16" height="16">
   <properties>
    <property name="Channel" value="1"/>
    <property name="Color" type="color" value="#ffe70000"/>
   </properties>
  </object>
  <object id="1690" gid="16388" x="11281" y="80" width="16" height="16">
   <properties>
    <property name="Channel" value="1"/>
    <property name="Color" type="color" value="#ff6e0000"/>
    <property name="Frames" type="int" value="19"/>
   </properties>
  </object>
  <object id="1707" gid="16388" x="11521" y="80" width="16" height="16">
   <properties>
    <property name="Channel" value="1"/>
    <property name="Color" type="color" value="#ff6e0000"/>
    <property name="Frames" type="int" value="19"/>
   </properties>
  </object>
  <object id="1733" gid="16388" x="11747" y="80" width="16" height="16">
   <properties>
    <property name="Channel" value="1"/>
    <property name="Color" type="color" value="#ff6e0000"/>
    <property name="Frames" type="int" value="19"/>
   </properties>
  </object>
  <object id="1763" gid="16388" x="12223" y="80" width="16" height="16">
   <properties>
    <property name="Channel" value="1"/>
    <property name="Color" type="color" value="#ff6e0000"/>
    <property name="Frames" type="int" value="19"/>
   </properties>
  </object>
  <object id="1775" gid="16388" x="12451" y="80" width="16" height="16">
   <properties>
    <property name="Channel" value="1"/>
    <property name="Color" type="color" value="#ff6e0000"/>
    <property name="Frames" type="int" value="19"/>
   </properties>
  </object>
  <object id="1787" gid="16388" x="12673" y="80" width="16" height="16">
   <properties>
    <property name="Channel" value="1"/>
    <property name="Color" type="color" value="#ff6e0000"/>
    <property name="Frames" type="int" value="19"/>
   </properties>
  </object>
  <object id="1823" gid="16388" x="13141" y="80" width="16" height="16">
   <properties>
    <property name="Channel" value="1"/>
    <property name="Color" type="color" value="#ff000000"/>
    <property name="Frames" type="int" value="60"/>
   </properties>
  </object>
  <object id="1862" gid="16388" x="13368" y="80" width="16" height="16">
   <properties>
    <property name="Channel" value="1"/>
    <property name="Color" type="color" value="#ff000000"/>
    <property name="Frames" type="int" value="60"/>
   </properties>
  </object>
  <object id="1893" gid="16388" x="13835" y="80" width="16" height="16">
   <properties>
    <property name="Channel" value="1"/>
    <property name="Color" type="color" value="#ff000000"/>
    <property name="Frames" type="int" value="32"/>
   </properties>
  </object>
  <object id="1901" gid="16388" x="13952" y="80" width="16" height="16">
   <properties>
    <property name="Channel" value="1"/>
    <property name="Color" type="color" value="#ff000000"/>
    <property name="Frames" type="int" value="32"/>
   </properties>
  </object>
  <object id="1885" gid="16388" x="13678" y="80" width="16" height="16">
   <properties>
    <property name="Channel" value="1"/>
    <property name="Color" type="color" value="#ff000000"/>
    <property name="Frames" type="int" value="43"/>
   </properties>
  </object>
  <object id="1959" gid="16388" x="14608" y="80" width="16" height="16">
   <properties>
    <property name="Channel" value="1"/>
    <property name="Color" type="color" value="#ff000000"/>
    <property name="Frames" type="int" value="43"/>
   </properties>
  </object>
  <object id="1883" gid="16388" x="13614" y="80" width="16" height="16">
   <properties>
    <property name="Channel" value="1"/>
    <property name="Color" type="color" value="#ff000000"/>
    <property name="Frames" type="int" value="0"/>
   </properties>
  </object>
  <object id="1961" gid="16388" x="14544" y="80" width="16" height="16">
   <properties>
    <property name="Channel" value="1"/>
    <property name="Color" type="color" value="#ff000000"/>
    <property name="Frames" type="int" value="0"/>
   </properties>
  </object>
  <object id="1849" gid="16388" x="14765" y="80" width="16" height="16">
   <properties>
    <property name="Channel" value="1"/>
    <property name="Color" type="color" value="#ff000000"/>
    <property name="Frames" type="int" value="58"/>
   </properties>
  </object>
  <object id="1925" gid="16388" x="14076" y="80" width="16" height="16">
   <properties>
    <property name="Channel" value="1"/>
    <property name="Color" type="color" value="#ff000000"/>
    <property name="Frames" type="int" value="58"/>
   </properties>
  </object>
  <object id="1969" gid="16388" x="14300" y="80" width="16" height="16">
   <properties>
    <property name="Channel" value="1"/>
    <property name="Color" type="color" value="#ff000000"/>
    <property name="Frames" type="int" value="58"/>
   </properties>
  </object>
  <object id="1799" gid="16388" x="13013" y="80" width="16" height="16">
   <properties>
    <property name="Channel" value="1"/>
    <property name="Color" type="color" value="#ff6e0000"/>
    <property name="Frames" type="int" value="19"/>
   </properties>
  </object>
  <object id="1803" gid="16388" x="12911" y="80" width="16" height="16">
   <properties>
    <property name="Channel" value="1"/>
    <property name="Color" type="color" value="#ff6e0000"/>
    <property name="Frames" type="int" value="19"/>
   </properties>
  </object>
  <object id="1745" gid="16388" x="12099" y="80" width="16" height="16">
   <properties>
    <property name="Channel" value="1"/>
    <property name="Color" type="color" value="#ff6e0000"/>
    <property name="Frames" type="int" value="19"/>
   </properties>
  </object>
  <object id="1749" gid="16388" x="11998" y="80" width="16" height="16">
   <properties>
    <property name="Channel" value="1"/>
    <property name="Color" type="color" value="#ff6e0000"/>
    <property name="Frames" type="int" value="19"/>
   </properties>
  </object>
  <object id="1691" gid="16388" x="11265" y="96" width="16" height="16">
   <properties>
    <property name="Channel" value="2"/>
    <property name="Color" type="color" value="#ffa70000"/>
   </properties>
  </object>
  <object id="1706" gid="16388" x="11505" y="96" width="16" height="16">
   <properties>
    <property name="Channel" value="2"/>
    <property name="Color" type="color" value="#ffa70000"/>
   </properties>
  </object>
  <object id="1730" gid="16388" x="11731" y="96" width="16" height="16">
   <properties>
    <property name="Channel" value="2"/>
    <property name="Color" type="color" value="#ffa70000"/>
   </properties>
  </object>
  <object id="1760" gid="16388" x="12207" y="96" width="16" height="16">
   <properties>
    <property name="Channel" value="2"/>
    <property name="Color" type="color" value="#ffa70000"/>
   </properties>
  </object>
  <object id="1772" gid="16388" x="12435" y="96" width="16" height="16">
   <properties>
    <property name="Channel" value="2"/>
    <property name="Color" type="color" value="#ffa70000"/>
   </properties>
  </object>
  <object id="1784" gid="16388" x="12657" y="96" width="16" height="16">
   <properties>
    <property name="Channel" value="2"/>
    <property name="Color" type="color" value="#ffa70000"/>
   </properties>
  </object>
  <object id="1820" gid="16388" x="13125" y="96" width="16" height="16">
   <properties>
    <property name="Channel" value="2"/>
    <property name="Color" type="color" value="#ffa70000"/>
   </properties>
  </object>
  <object id="1861" gid="16388" x="13352" y="96" width="16" height="16">
   <properties>
    <property name="Channel" value="2"/>
    <property name="Color" type="color" value="#ffa70000"/>
   </properties>
  </object>
  <object id="1890" gid="16388" x="13819" y="96" width="16" height="16">
   <properties>
    <property name="Channel" value="2"/>
    <property name="Color" type="color" value="#ffa70000"/>
   </properties>
  </object>
  <object id="1898" gid="16388" x="13936" y="96" width="16" height="16">
   <properties>
    <property name="Channel" value="2"/>
    <property name="Color" type="color" value="#ffa70000"/>
   </properties>
  </object>
  <object id="1880" gid="16388" x="13698" y="96" width="16" height="16">
   <properties>
    <property name="Channel" value="2"/>
    <property name="Color" type="color" value="#ffa70000"/>
   </properties>
  </object>
  <object id="1954" gid="16388" x="14624" y="96" width="16" height="16">
   <properties>
    <property name="Channel" value="2"/>
    <property name="Color" type="color" value="#ffa70000"/>
   </properties>
  </object>
  <object id="1866" gid="16388" x="13469" y="96" width="16" height="16">
   <properties>
    <property name="Channel" value="2"/>
    <property name="Color" type="color" value="#ffa70000"/>
   </properties>
  </object>
  <object id="1956" gid="16388" x="14400" y="96" width="16" height="16">
   <properties>
    <property name="Channel" value="2"/>
    <property name="Color" type="color" value="#ffa70000"/>
   </properties>
  </object>
  <object id="1839" gid="16388" x="14865" y="96" width="16" height="16">
   <properties>
    <property name="Channel" value="2"/>
    <property name="Color" type="color" value="#ffa70000"/>
   </properties>
  </object>
  <object id="1930" gid="16388" x="14177" y="96" width="16" height="16">
   <properties>
    <property name="Channel" value="2"/>
    <property name="Color" type="color" value="#ffa70000"/>
   </properties>
  </object>
  <object id="1854" gid="16388" x="13240" y="96" width="16" height="16">
   <properties>
    <property name="Channel" value="2"/>
    <property name="Color" type="color" value="#ffa70000"/>
   </properties>
  </object>
  <object id="1846" gid="16388" x="14749" y="96" width="16" height="16">
   <properties>
    <property name="Channel" value="2"/>
    <property name="Color" type="color" value="#ffa70000"/>
   </properties>
  </object>
  <object id="1922" gid="16388" x="14060" y="96" width="16" height="16">
   <properties>
    <property name="Channel" value="2"/>
    <property name="Color" type="color" value="#ffa70000"/>
   </properties>
  </object>
  <object id="1966" gid="16388" x="14284" y="96" width="16" height="16">
   <properties>
    <property name="Channel" value="2"/>
    <property name="Color" type="color" value="#ffa70000"/>
   </properties>
  </object>
  <object id="1796" gid="16388" x="12997" y="96" width="16" height="16">
   <properties>
    <property name="Channel" value="2"/>
    <property name="Color" type="color" value="#ffa70000"/>
   </properties>
  </object>
  <object id="1742" gid="16388" x="12083" y="96" width="16" height="16">
   <properties>
    <property name="Channel" value="2"/>
    <property name="Color" type="color" value="#ffa70000"/>
   </properties>
  </object>
  <object id="1692" gid="16388" x="11281" y="96" width="16" height="16">
   <properties>
    <property name="Channel" value="2"/>
    <property name="Color" type="color" value="#ff4f0000"/>
    <property name="Frames" type="int" value="20"/>
   </properties>
  </object>
  <object id="1705" gid="16388" x="11521" y="96" width="16" height="16">
   <properties>
    <property name="Channel" value="2"/>
    <property name="Color" type="color" value="#ff4f0000"/>
    <property name="Frames" type="int" value="20"/>
   </properties>
  </object>
  <object id="1731" gid="16388" x="11747" y="96" width="16" height="16">
   <properties>
    <property name="Channel" value="2"/>
    <property name="Color" type="color" value="#ff4f0000"/>
    <property name="Frames" type="int" value="20"/>
   </properties>
  </object>
  <object id="1761" gid="16388" x="12223" y="96" width="16" height="16">
   <properties>
    <property name="Channel" value="2"/>
    <property name="Color" type="color" value="#ff4f0000"/>
    <property name="Frames" type="int" value="20"/>
   </properties>
  </object>
  <object id="1773" gid="16388" x="12451" y="96" width="16" height="16">
   <properties>
    <property name="Channel" value="2"/>
    <property name="Color" type="color" value="#ff4f0000"/>
    <property name="Frames" type="int" value="20"/>
   </properties>
  </object>
  <object id="1785" gid="16388" x="12673" y="96" width="16" height="16">
   <properties>
    <property name="Channel" value="2"/>
    <property name="Color" type="color" value="#ff4f0000"/>
    <property name="Frames" type="int" value="20"/>
   </properties>
  </object>
  <object id="1821" gid="16388" x="13141" y="96" width="16" height="16">
   <properties>
    <property name="Channel" value="2"/>
    <property name="Color" type="color" value="#ff000000"/>
    <property name="Frames" type="int" value="32"/>
   </properties>
  </object>
  <object id="1860" gid="16388" x="13368" y="96" width="16" height="16">
   <properties>
    <property name="Channel" value="2"/>
    <property name="Color" type="color" value="#ff000000"/>
    <property name="Frames" type="int" value="32"/>
   </properties>
  </object>
  <object id="1891" gid="16388" x="13835" y="96" width="16" height="16">
   <properties>
    <property name="Channel" value="2"/>
    <property name="Color" type="color" value="#ff000000"/>
    <property name="Frames" type="int" value="32"/>
   </properties>
  </object>
  <object id="1899" gid="16388" x="13952" y="96" width="16" height="16">
   <properties>
    <property name="Channel" value="2"/>
    <property name="Color" type="color" value="#ff000000"/>
    <property name="Frames" type="int" value="29"/>
   </properties>
  </object>
  <object id="1881" gid="16388" x="13714" y="96" width="16" height="16">
   <properties>
    <property name="Channel" value="2"/>
    <property name="Color" type="color" value="#ff000000"/>
    <property name="Frames" type="int" value="32"/>
   </properties>
  </object>
  <object id="1955" gid="16388" x="14640" y="96" width="16" height="16">
   <properties>
    <property name="Channel" value="2"/>
    <property name="Color" type="color" value="#ff000000"/>
    <property name="Frames" type="int" value="32"/>
   </properties>
  </object>
  <object id="1867" gid="16388" x="13485" y="96" width="16" height="16">
   <properties>
    <property name="Channel" value="2"/>
    <property name="Color" type="color" value="#ff000000"/>
    <property name="Frames" type="int" value="62"/>
   </properties>
  </object>
  <object id="1957" gid="16388" x="14416" y="96" width="16" height="16">
   <properties>
    <property name="Channel" value="2"/>
    <property name="Color" type="color" value="#ff000000"/>
    <property name="Frames" type="int" value="62"/>
   </properties>
  </object>
  <object id="1838" gid="16388" x="14881" y="96" width="16" height="16">
   <properties>
    <property name="Channel" value="2"/>
    <property name="Color" type="color" value="#ff000000"/>
    <property name="Frames" type="int" value="29"/>
   </properties>
  </object>
  <object id="1931" gid="16388" x="14193" y="96" width="16" height="16">
   <properties>
    <property name="Channel" value="2"/>
    <property name="Color" type="color" value="#ff000000"/>
    <property name="Frames" type="int" value="29"/>
   </properties>
  </object>
  <object id="1855" gid="16388" x="13256" y="96" width="16" height="16">
   <properties>
    <property name="Channel" value="2"/>
    <property name="Color" type="color" value="#ff000000"/>
    <property name="Frames" type="int" value="29"/>
   </properties>
  </object>
  <object id="1847" gid="16388" x="14765" y="96" width="16" height="16">
   <properties>
    <property name="Channel" value="2"/>
    <property name="Color" type="color" value="#ff000000"/>
    <property name="Frames" type="int" value="32"/>
   </properties>
  </object>
  <object id="1923" gid="16388" x="14076" y="96" width="16" height="16">
   <properties>
    <property name="Channel" value="2"/>
    <property name="Color" type="color" value="#ff000000"/>
    <property name="Frames" type="int" value="32"/>
   </properties>
  </object>
  <object id="1967" gid="16388" x="14300" y="96" width="16" height="16">
   <properties>
    <property name="Channel" value="2"/>
    <property name="Color" type="color" value="#ff000000"/>
    <property name="Frames" type="int" value="32"/>
   </properties>
  </object>
  <object id="1797" gid="16388" x="13013" y="96" width="16" height="16">
   <properties>
    <property name="Channel" value="2"/>
    <property name="Color" type="color" value="#ff4f0000"/>
    <property name="Frames" type="int" value="20"/>
   </properties>
  </object>
  <object id="1743" gid="16388" x="12099" y="96" width="16" height="16">
   <properties>
    <property name="Channel" value="2"/>
    <property name="Color" type="color" value="#ff4f0000"/>
    <property name="Frames" type="int" value="20"/>
   </properties>
  </object>
  <object id="1693" gid="16388" x="11265" y="112" width="16" height="16">
   <properties>
    <property name="Channel" value="3"/>
    <property name="Color" type="color" value="#ffff0000"/>
   </properties>
  </object>
  <object id="1704" gid="16388" x="11505" y="112" width="16" height="16">
   <properties>
    <property name="Channel" value="3"/>
    <property name="Color" type="color" value="#ffff0000"/>
   </properties>
  </object>
  <object id="1728" gid="16388" x="11731" y="112" width="16" height="16">
   <properties>
    <property name="Channel" value="3"/>
    <property name="Color" type="color" value="#ffff0000"/>
   </properties>
  </object>
  <object id="1758" gid="16388" x="12207" y="112" width="16" height="16">
   <properties>
    <property name="Channel" value="3"/>
    <property name="Color" type="color" value="#ffff0000"/>
   </properties>
  </object>
  <object id="1770" gid="16388" x="12435" y="112" width="16" height="16">
   <properties>
    <property name="Channel" value="3"/>
    <property name="Color" type="color" value="#ffff0000"/>
   </properties>
  </object>
  <object id="1782" gid="16388" x="12657" y="112" width="16" height="16">
   <properties>
    <property name="Channel" value="3"/>
    <property name="Color" type="color" value="#ffff0000"/>
   </properties>
  </object>
  <object id="1818" gid="16388" x="13125" y="112" width="16" height="16">
   <properties>
    <property name="Channel" value="3"/>
    <property name="Color" type="color" value="#ffff0000"/>
   </properties>
  </object>
  <object id="1859" gid="16388" x="13352" y="112" width="16" height="16">
   <properties>
    <property name="Channel" value="3"/>
    <property name="Color" type="color" value="#ffff0000"/>
   </properties>
  </object>
  <object id="1888" gid="16388" x="13819" y="112" width="16" height="16">
   <properties>
    <property name="Channel" value="3"/>
    <property name="Color" type="color" value="#ffff0000"/>
   </properties>
  </object>
  <object id="1896" gid="16388" x="13936" y="112" width="16" height="16">
   <properties>
    <property name="Channel" value="3"/>
    <property name="Color" type="color" value="#ffff0000"/>
   </properties>
  </object>
  <object id="1878" gid="16388" x="13698" y="112" width="16" height="16">
   <properties>
    <property name="Channel" value="3"/>
    <property name="Color" type="color" value="#ffff0000"/>
   </properties>
  </object>
  <object id="1946" gid="16388" x="14624" y="112" width="16" height="16">
   <properties>
    <property name="Channel" value="3"/>
    <property name="Color" type="color" value="#ffff0000"/>
   </properties>
  </object>
  <object id="1868" gid="16388" x="13519" y="112" width="16" height="16">
   <properties>
    <property name="Channel" value="3"/>
    <property name="Color" type="color" value="#ffff0000"/>
   </properties>
  </object>
  <object id="1952" gid="16388" x="14460" y="112" width="16" height="16">
   <properties>
    <property name="Channel" value="3"/>
    <property name="Color" type="color" value="#ffff0000"/>
   </properties>
  </object>
  <object id="1870" gid="16388" x="13590" y="112" width="16" height="16">
   <properties>
    <property name="Channel" value="3"/>
    <property name="Color" type="color" value="#ffff0000"/>
   </properties>
  </object>
  <object id="1950" gid="16388" x="14520" y="112" width="16" height="16">
   <properties>
    <property name="Channel" value="3"/>
    <property name="Color" type="color" value="#ffff0000"/>
   </properties>
  </object>
  <object id="1872" gid="16388" x="13638" y="112" width="16" height="16">
   <properties>
    <property name="Channel" value="3"/>
    <property name="Color" type="color" value="#ffff0000"/>
   </properties>
  </object>
  <object id="1948" gid="16388" x="14568" y="112" width="16" height="16">
   <properties>
    <property name="Channel" value="3"/>
    <property name="Color" type="color" value="#ffff0000"/>
   </properties>
  </object>
  <object id="1837" gid="16388" x="14865" y="112" width="16" height="16">
   <properties>
    <property name="Channel" value="3"/>
    <property name="Color" type="color" value="#ffff0000"/>
   </properties>
  </object>
  <object id="1928" gid="16388" x="14177" y="112" width="16" height="16">
   <properties>
    <property name="Channel" value="3"/>
    <property name="Color" type="color" value="#ffff0000"/>
   </properties>
  </object>
  <object id="1852" gid="16388" x="13240" y="112" width="16" height="16">
   <properties>
    <property name="Channel" value="3"/>
    <property name="Color" type="color" value="#ffff0000"/>
   </properties>
  </object>
  <object id="1844" gid="16388" x="14749" y="112" width="16" height="16">
   <properties>
    <property name="Channel" value="3"/>
    <property name="Color" type="color" value="#ffff0000"/>
   </properties>
  </object>
  <object id="1920" gid="16388" x="14060" y="112" width="16" height="16">
   <properties>
    <property name="Channel" value="3"/>
    <property name="Color" type="color" value="#ffff0000"/>
   </properties>
  </object>
  <object id="1964" gid="16388" x="14284" y="112" width="16" height="16">
   <properties>
    <property name="Channel" value="3"/>
    <property name="Color" type="color" value="#ffff0000"/>
   </properties>
  </object>
  <object id="1794" gid="16388" x="12997" y="112" width="16" height="16">
   <properties>
    <property name="Channel" value="3"/>
    <property name="Color" type="color" value="#ffff0000"/>
   </properties>
  </object>
  <object id="1790" gid="16388" x="12780" y="112" width="16" height="16">
   <properties>
    <property name="Channel" value="3"/>
    <property name="Color" type="color" value="#ffff0000"/>
   </properties>
  </object>
  <object id="1778" gid="16388" x="12590" y="112" width="16" height="16">
   <properties>
    <property name="Channel" value="3"/>
    <property name="Color" type="color" value="#ffff0000"/>
   </properties>
  </object>
  <object id="1766" gid="16388" x="12310" y="112" width="16" height="16">
   <properties>
    <property name="Channel" value="3"/>
    <property name="Color" type="color" value="#ffff0000"/>
   </properties>
  </object>
  <object id="1740" gid="16388" x="12083" y="112" width="16" height="16">
   <properties>
    <property name="Channel" value="3"/>
    <property name="Color" type="color" value="#ffff0000"/>
   </properties>
  </object>
  <object id="1746" gid="16388" x="11982" y="112" width="16" height="16">
   <properties>
    <property name="Channel" value="3"/>
    <property name="Color" type="color" value="#ffff0000"/>
   </properties>
  </object>
  <object id="1812" gid="16388" x="12895" y="112" width="16" height="16">
   <properties>
    <property name="Channel" value="3"/>
    <property name="Color" type="color" value="#ffff0000"/>
   </properties>
  </object>
  <object id="1750" gid="16388" x="12030" y="112" width="16" height="16">
   <properties>
    <property name="Channel" value="3"/>
    <property name="Color" type="color" value="#ffff0000"/>
   </properties>
  </object>
  <object id="1810" gid="16388" x="12942" y="112" width="16" height="16">
   <properties>
    <property name="Channel" value="3"/>
    <property name="Color" type="color" value="#ffff0000"/>
   </properties>
  </object>
  <object id="1736" gid="16388" x="11845" y="112" width="16" height="16">
   <properties>
    <property name="Channel" value="3"/>
    <property name="Color" type="color" value="#ffff0000"/>
   </properties>
  </object>
  <object id="1700" gid="16388" x="11377" y="112" width="16" height="16">
   <properties>
    <property name="Channel" value="3"/>
    <property name="Color" type="color" value="#ffff0000"/>
   </properties>
  </object>
  <object id="1694" gid="16388" x="11281" y="112" width="16" height="16">
   <properties>
    <property name="Channel" value="3"/>
    <property name="Color" type="color" value="#ff000000"/>
    <property name="Frames" type="int" value="32"/>
   </properties>
  </object>
  <object id="1703" gid="16388" x="11521" y="112" width="16" height="16">
   <properties>
    <property name="Channel" value="3"/>
    <property name="Color" type="color" value="#ff000000"/>
    <property name="Frames" type="int" value="32"/>
   </properties>
  </object>
  <object id="1729" gid="16388" x="11747" y="112" width="16" height="16">
   <properties>
    <property name="Channel" value="3"/>
    <property name="Color" type="color" value="#ff000000"/>
    <property name="Frames" type="int" value="32"/>
   </properties>
  </object>
  <object id="1759" gid="16388" x="12223" y="112" width="16" height="16">
   <properties>
    <property name="Channel" value="3"/>
    <property name="Color" type="color" value="#ff000000"/>
    <property name="Frames" type="int" value="32"/>
   </properties>
  </object>
  <object id="1771" gid="16388" x="12451" y="112" width="16" height="16">
   <properties>
    <property name="Channel" value="3"/>
    <property name="Color" type="color" value="#ff000000"/>
    <property name="Frames" type="int" value="32"/>
   </properties>
  </object>
  <object id="1783" gid="16388" x="12673" y="112" width="16" height="16">
   <properties>
    <property name="Channel" value="3"/>
    <property name="Color" type="color" value="#ff000000"/>
    <property name="Frames" type="int" value="32"/>
   </properties>
  </object>
  <object id="1819" gid="16388" x="13141" y="112" width="16" height="16">
   <properties>
    <property name="Channel" value="3"/>
    <property name="Color" type="color" value="#ff000000"/>
    <property name="Frames" type="int" value="32"/>
   </properties>
  </object>
  <object id="1858" gid="16388" x="13368" y="112" width="16" height="16">
   <properties>
    <property name="Channel" value="3"/>
    <property name="Color" type="color" value="#ff000000"/>
    <property name="Frames" type="int" value="32"/>
   </properties>
  </object>
  <object id="1889" gid="16388" x="13835" y="112" width="16" height="16">
   <properties>
    <property name="Channel" value="3"/>
    <property name="Color" type="color" value="#ff000000"/>
    <property name="Frames" type="int" value="32"/>
   </properties>
  </object>
  <object id="1897" gid="16388" x="13952" y="112" width="16" height="16">
   <properties>
    <property name="Channel" value="3"/>
    <property name="Color" type="color" value="#ff000000"/>
    <property name="Frames" type="int" value="32"/>
   </properties>
  </object>
  <object id="1879" gid="16388" x="13714" y="112" width="16" height="16">
   <properties>
    <property name="Channel" value="3"/>
    <property name="Color" type="color" value="#ff000000"/>
    <property name="Frames" type="int" value="32"/>
   </properties>
  </object>
  <object id="1947" gid="16388" x="14640" y="112" width="16" height="16">
   <properties>
    <property name="Channel" value="3"/>
    <property name="Color" type="color" value="#ff000000"/>
    <property name="Frames" type="int" value="32"/>
   </properties>
  </object>
  <object id="1869" gid="16388" x="13535" y="112" width="16" height="16">
   <properties>
    <property name="Channel" value="3"/>
    <property name="Color" type="color" value="#ff000000"/>
    <property name="Frames" type="int" value="32"/>
   </properties>
  </object>
  <object id="1953" gid="16388" x="14476" y="112" width="16" height="16">
   <properties>
    <property name="Channel" value="3"/>
    <property name="Color" type="color" value="#ff000000"/>
    <property name="Frames" type="int" value="32"/>
   </properties>
  </object>
  <object id="1871" gid="16388" x="13606" y="112" width="16" height="16">
   <properties>
    <property name="Channel" value="3"/>
    <property name="Color" type="color" value="#ff000000"/>
    <property name="Frames" type="int" value="32"/>
   </properties>
  </object>
  <object id="1951" gid="16388" x="14536" y="112" width="16" height="16">
   <properties>
    <property name="Channel" value="3"/>
    <property name="Color" type="color" value="#ff000000"/>
    <property name="Frames" type="int" value="32"/>
   </properties>
  </object>
  <object id="1873" gid="16388" x="13654" y="112" width="16" height="16">
   <properties>
    <property name="Channel" value="3"/>
    <property name="Color" type="color" value="#ff000000"/>
    <property name="Frames" type="int" value="32"/>
   </properties>
  </object>
  <object id="1949" gid="16388" x="14584" y="112" width="16" height="16">
   <properties>
    <property name="Channel" value="3"/>
    <property name="Color" type="color" value="#ff000000"/>
    <property name="Frames" type="int" value="32"/>
   </properties>
  </object>
  <object id="1836" gid="16388" x="14881" y="112" width="16" height="16">
   <properties>
    <property name="Channel" value="3"/>
    <property name="Color" type="color" value="#ff000000"/>
    <property name="Frames" type="int" value="32"/>
   </properties>
  </object>
  <object id="1929" gid="16388" x="14193" y="112" width="16" height="16">
   <properties>
    <property name="Channel" value="3"/>
    <property name="Color" type="color" value="#ff000000"/>
    <property name="Frames" type="int" value="32"/>
   </properties>
  </object>
  <object id="1853" gid="16388" x="13256" y="112" width="16" height="16">
   <properties>
    <property name="Channel" value="3"/>
    <property name="Color" type="color" value="#ff000000"/>
    <property name="Frames" type="int" value="32"/>
   </properties>
  </object>
  <object id="1845" gid="16388" x="14765" y="112" width="16" height="16">
   <properties>
    <property name="Channel" value="3"/>
    <property name="Color" type="color" value="#ff000000"/>
    <property name="Frames" type="int" value="32"/>
   </properties>
  </object>
  <object id="1921" gid="16388" x="14076" y="112" width="16" height="16">
   <properties>
    <property name="Channel" value="3"/>
    <property name="Color" type="color" value="#ff000000"/>
    <property name="Frames" type="int" value="32"/>
   </properties>
  </object>
  <object id="1965" gid="16388" x="14300" y="112" width="16" height="16">
   <properties>
    <property name="Channel" value="3"/>
    <property name="Color" type="color" value="#ff000000"/>
    <property name="Frames" type="int" value="32"/>
   </properties>
  </object>
  <object id="1795" gid="16388" x="13013" y="112" width="16" height="16">
   <properties>
    <property name="Channel" value="3"/>
    <property name="Color" type="color" value="#ff000000"/>
    <property name="Frames" type="int" value="32"/>
   </properties>
  </object>
  <object id="1791" gid="16388" x="12796" y="112" width="16" height="16">
   <properties>
    <property name="Channel" value="3"/>
    <property name="Color" type="color" value="#ff000000"/>
    <property name="Frames" type="int" value="32"/>
   </properties>
  </object>
  <object id="1779" gid="16388" x="12606" y="112" width="16" height="16">
   <properties>
    <property name="Channel" value="3"/>
    <property name="Color" type="color" value="#ff000000"/>
    <property name="Frames" type="int" value="32"/>
   </properties>
  </object>
  <object id="1767" gid="16388" x="12326" y="112" width="16" height="16">
   <properties>
    <property name="Channel" value="3"/>
    <property name="Color" type="color" value="#ff000000"/>
    <property name="Frames" type="int" value="32"/>
   </properties>
  </object>
  <object id="1741" gid="16388" x="12099" y="112" width="16" height="16">
   <properties>
    <property name="Channel" value="3"/>
    <property name="Color" type="color" value="#ff000000"/>
    <property name="Frames" type="int" value="32"/>
   </properties>
  </object>
  <object id="1747" gid="16388" x="11998" y="112" width="16" height="16">
   <properties>
    <property name="Channel" value="3"/>
    <property name="Color" type="color" value="#ff000000"/>
    <property name="Frames" type="int" value="5"/>
   </properties>
  </object>
  <object id="1813" gid="16388" x="12911" y="112" width="16" height="16">
   <properties>
    <property name="Channel" value="3"/>
    <property name="Color" type="color" value="#ff000000"/>
    <property name="Frames" type="int" value="5"/>
   </properties>
  </object>
  <object id="1751" gid="16388" x="12046" y="112" width="16" height="16">
   <properties>
    <property name="Channel" value="3"/>
    <property name="Color" type="color" value="#ff000000"/>
    <property name="Frames" type="int" value="7"/>
   </properties>
  </object>
  <object id="1811" gid="16388" x="12958" y="112" width="16" height="16">
   <properties>
    <property name="Channel" value="3"/>
    <property name="Color" type="color" value="#ff000000"/>
    <property name="Frames" type="int" value="7"/>
   </properties>
  </object>
  <object id="1737" gid="16388" x="11861" y="112" width="16" height="16">
   <properties>
    <property name="Channel" value="3"/>
    <property name="Color" type="color" value="#ff000000"/>
    <property name="Frames" type="int" value="32"/>
   </properties>
  </object>
  <object id="1699" gid="16388" x="11393" y="112" width="16" height="16">
   <properties>
    <property name="Channel" value="3"/>
    <property name="Color" type="color" value="#ff000000"/>
    <property name="Frames" type="int" value="32"/>
   </properties>
  </object>
  <object id="1695" gid="16388" x="11265" y="128" width="16" height="16">
   <properties>
    <property name="Channel" value="4"/>
    <property name="Color" type="color" value="#ffff0000"/>
   </properties>
  </object>
  <object id="1702" gid="16388" x="11505" y="128" width="16" height="16">
   <properties>
    <property name="Channel" value="4"/>
    <property name="Color" type="color" value="#ffff0000"/>
   </properties>
  </object>
  <object id="1726" gid="16388" x="11731" y="128" width="16" height="16">
   <properties>
    <property name="Channel" value="4"/>
    <property name="Color" type="color" value="#ffff0000"/>
   </properties>
  </object>
  <object id="1756" gid="16388" x="12207" y="128" width="16" height="16">
   <properties>
    <property name="Channel" value="4"/>
    <property name="Color" type="color" value="#ffff0000"/>
   </properties>
  </object>
  <object id="1768" gid="16388" x="12435" y="128" width="16" height="16">
   <properties>
    <property name="Channel" value="4"/>
    <property name="Color" type="color" value="#ffff0000"/>
   </properties>
  </object>
  <object id="1780" gid="16388" x="12657" y="128" width="16" height="16">
   <properties>
    <property name="Channel" value="4"/>
    <property name="Color" type="color" value="#ffff0000"/>
   </properties>
  </object>
  <object id="1816" gid="16388" x="13125" y="128" width="16" height="16">
   <properties>
    <property name="Channel" value="4"/>
    <property name="Color" type="color" value="#ffff0000"/>
   </properties>
  </object>
  <object id="1857" gid="16388" x="13352" y="128" width="16" height="16">
   <properties>
    <property name="Channel" value="4"/>
    <property name="Color" type="color" value="#ffff0000"/>
   </properties>
  </object>
  <object id="1886" gid="16388" x="13819" y="128" width="16" height="16">
   <properties>
    <property name="Channel" value="4"/>
    <property name="Color" type="color" value="#ffff0000"/>
   </properties>
  </object>
  <object id="1894" gid="16388" x="13936" y="128" width="16" height="16">
   <properties>
    <property name="Channel" value="4"/>
    <property name="Color" type="color" value="#ffff0000"/>
   </properties>
  </object>
  <object id="1864" gid="16388" x="13469" y="128" width="16" height="16">
   <properties>
    <property name="Channel" value="4"/>
    <property name="Color" type="color" value="#ffff0000"/>
   </properties>
  </object>
  <object id="1944" gid="16388" x="14400" y="128" width="16" height="16">
   <properties>
    <property name="Channel" value="4"/>
    <property name="Color" type="color" value="#ffff0000"/>
   </properties>
  </object>
  <object id="1874" gid="16388" x="13614" y="128" width="16" height="16">
   <properties>
    <property name="Channel" value="4"/>
    <property name="Color" type="color" value="#ffff0000"/>
   </properties>
  </object>
  <object id="1942" gid="16388" x="14544" y="128" width="16" height="16">
   <properties>
    <property name="Channel" value="4"/>
    <property name="Color" type="color" value="#ffff0000"/>
   </properties>
  </object>
  <object id="1876" gid="16388" x="13662" y="128" width="16" height="16">
   <properties>
    <property name="Channel" value="4"/>
    <property name="Color" type="color" value="#ffff0000"/>
   </properties>
  </object>
  <object id="1940" gid="16388" x="14592" y="128" width="16" height="16">
   <properties>
    <property name="Channel" value="4"/>
    <property name="Color" type="color" value="#ffff0000"/>
   </properties>
  </object>
  <object id="1835" gid="16388" x="14865" y="128" width="16" height="16">
   <properties>
    <property name="Channel" value="4"/>
    <property name="Color" type="color" value="#ffff0000"/>
   </properties>
  </object>
  <object id="1926" gid="16388" x="14177" y="128" width="16" height="16">
   <properties>
    <property name="Channel" value="4"/>
    <property name="Color" type="color" value="#ffff0000"/>
   </properties>
  </object>
  <object id="1850" gid="16388" x="13240" y="128" width="16" height="16">
   <properties>
    <property name="Channel" value="4"/>
    <property name="Color" type="color" value="#ffff0000"/>
   </properties>
  </object>
  <object id="1842" gid="16388" x="14749" y="128" width="16" height="16">
   <properties>
    <property name="Channel" value="4"/>
    <property name="Color" type="color" value="#ffff0000"/>
   </properties>
  </object>
  <object id="1918" gid="16388" x="14060" y="128" width="16" height="16">
   <properties>
    <property name="Channel" value="4"/>
    <property name="Color" type="color" value="#ffff0000"/>
   </properties>
  </object>
  <object id="1962" gid="16388" x="14284" y="128" width="16" height="16">
   <properties>
    <property name="Channel" value="4"/>
    <property name="Color" type="color" value="#ffff0000"/>
   </properties>
  </object>
  <object id="1788" gid="16388" x="12780" y="128" width="16" height="16">
   <properties>
    <property name="Channel" value="4"/>
    <property name="Color" type="color" value="#ffff0000"/>
   </properties>
  </object>
  <object id="1814" gid="16388" x="13055" y="128" width="16" height="16">
   <properties>
    <property name="Channel" value="4"/>
    <property name="Color" type="color" value="#ffff0000"/>
   </properties>
  </object>
  <object id="1776" gid="16388" x="12540" y="128" width="16" height="16">
   <properties>
    <property name="Channel" value="4"/>
    <property name="Color" type="color" value="#ffff0000"/>
   </properties>
  </object>
  <object id="1764" gid="16388" x="12310" y="128" width="16" height="16">
   <properties>
    <property name="Channel" value="4"/>
    <property name="Color" type="color" value="#ffff0000"/>
   </properties>
  </object>
  <object id="1738" gid="16388" x="12005" y="128" width="16" height="16">
   <properties>
    <property name="Channel" value="4"/>
    <property name="Color" type="color" value="#ffff0000"/>
   </properties>
  </object>
  <object id="1808" gid="16388" x="12918" y="128" width="16" height="16">
   <properties>
    <property name="Channel" value="4"/>
    <property name="Color" type="color" value="#ffff0000"/>
   </properties>
  </object>
  <object id="1752" gid="16388" x="12052" y="128" width="16" height="16">
   <properties>
    <property name="Channel" value="4"/>
    <property name="Color" type="color" value="#ffff0000"/>
   </properties>
  </object>
  <object id="1806" gid="16388" x="12965" y="128" width="16" height="16">
   <properties>
    <property name="Channel" value="4"/>
    <property name="Color" type="color" value="#ffff0000"/>
   </properties>
  </object>
  <object id="1734" gid="16388" x="11845" y="128" width="16" height="16">
   <properties>
    <property name="Channel" value="4"/>
    <property name="Color" type="color" value="#ffff0000"/>
   </properties>
  </object>
  <object id="1754" gid="16388" x="12136" y="128" width="16" height="16">
   <properties>
    <property name="Channel" value="4"/>
    <property name="Color" type="color" value="#ffff0000"/>
   </properties>
  </object>
  <object id="1724" gid="16388" x="11610" y="128" width="16" height="16">
   <properties>
    <property name="Channel" value="4"/>
    <property name="Color" type="color" value="#ffff0000"/>
   </properties>
  </object>
  <object id="1698" gid="16388" x="11377" y="128" width="16" height="16">
   <properties>
    <property name="Channel" value="4"/>
    <property name="Color" type="color" value="#ffff0000"/>
   </properties>
  </object>
  <object id="1696" gid="16388" x="11281" y="128" width="16" height="16">
   <properties>
    <property name="Channel" value="4"/>
    <property name="Color" type="color" value="#ff000000"/>
    <property name="Frames" type="int" value="30"/>
   </properties>
  </object>
  <object id="1701" gid="16388" x="11521" y="128" width="16" height="16">
   <properties>
    <property name="Channel" value="4"/>
    <property name="Color" type="color" value="#ff000000"/>
    <property name="Frames" type="int" value="30"/>
   </properties>
  </object>
  <object id="1727" gid="16388" x="11747" y="128" width="16" height="16">
   <properties>
    <property name="Channel" value="4"/>
    <property name="Color" type="color" value="#ff000000"/>
    <property name="Frames" type="int" value="30"/>
   </properties>
  </object>
  <object id="1757" gid="16388" x="12223" y="128" width="16" height="16">
   <properties>
    <property name="Channel" value="4"/>
    <property name="Color" type="color" value="#ff000000"/>
    <property name="Frames" type="int" value="30"/>
   </properties>
  </object>
  <object id="1769" gid="16388" x="12451" y="128" width="16" height="16">
   <properties>
    <property name="Channel" value="4"/>
    <property name="Color" type="color" value="#ff000000"/>
    <property name="Frames" type="int" value="30"/>
   </properties>
  </object>
  <object id="1781" gid="16388" x="12673" y="128" width="16" height="16">
   <properties>
    <property name="Channel" value="4"/>
    <property name="Color" type="color" value="#ff000000"/>
    <property name="Frames" type="int" value="30"/>
   </properties>
  </object>
  <object id="1817" gid="16388" x="13141" y="128" width="16" height="16">
   <properties>
    <property name="Channel" value="4"/>
    <property name="Color" type="color" value="#ff000000"/>
    <property name="Frames" type="int" value="30"/>
   </properties>
  </object>
  <object id="1856" gid="16388" x="13368" y="128" width="16" height="16">
   <properties>
    <property name="Channel" value="4"/>
    <property name="Color" type="color" value="#ff000000"/>
    <property name="Frames" type="int" value="30"/>
   </properties>
  </object>
  <object id="1887" gid="16388" x="13835" y="128" width="16" height="16">
   <properties>
    <property name="Channel" value="4"/>
    <property name="Color" type="color" value="#ff000000"/>
    <property name="Frames" type="int" value="30"/>
   </properties>
  </object>
  <object id="1895" gid="16388" x="13952" y="128" width="16" height="16">
   <properties>
    <property name="Channel" value="4"/>
    <property name="Color" type="color" value="#ff000000"/>
    <property name="Frames" type="int" value="30"/>
   </properties>
  </object>
  <object id="1865" gid="16388" x="13485" y="128" width="16" height="16">
   <properties>
    <property name="Channel" value="4"/>
    <property name="Color" type="color" value="#ff000000"/>
    <property name="Frames" type="int" value="30"/>
   </properties>
  </object>
  <object id="1945" gid="16388" x="14416" y="128" width="16" height="16">
   <properties>
    <property name="Channel" value="4"/>
    <property name="Color" type="color" value="#ff000000"/>
    <property name="Frames" type="int" value="30"/>
   </properties>
  </object>
  <object id="1875" gid="16388" x="13630" y="128" width="16" height="16">
   <properties>
    <property name="Channel" value="4"/>
    <property name="Color" type="color" value="#ff000000"/>
    <property name="Frames" type="int" value="30"/>
   </properties>
  </object>
  <object id="1943" gid="16388" x="14560" y="128" width="16" height="16">
   <properties>
    <property name="Channel" value="4"/>
    <property name="Color" type="color" value="#ff000000"/>
    <property name="Frames" type="int" value="30"/>
   </properties>
  </object>
  <object id="1877" gid="16388" x="13678" y="128" width="16" height="16">
   <properties>
    <property name="Channel" value="4"/>
    <property name="Color" type="color" value="#ff000000"/>
    <property name="Frames" type="int" value="30"/>
   </properties>
  </object>
  <object id="1941" gid="16388" x="14608" y="128" width="16" height="16">
   <properties>
    <property name="Channel" value="4"/>
    <property name="Color" type="color" value="#ff000000"/>
    <property name="Frames" type="int" value="30"/>
   </properties>
  </object>
  <object id="1834" gid="16388" x="14881" y="128" width="16" height="16">
   <properties>
    <property name="Channel" value="4"/>
    <property name="Color" type="color" value="#ff000000"/>
    <property name="Frames" type="int" value="30"/>
   </properties>
  </object>
  <object id="1927" gid="16388" x="14193" y="128" width="16" height="16">
   <properties>
    <property name="Channel" value="4"/>
    <property name="Color" type="color" value="#ff000000"/>
    <property name="Frames" type="int" value="30"/>
   </properties>
  </object>
  <object id="1851" gid="16388" x="13256" y="128" width="16" height="16">
   <properties>
    <property name="Channel" value="4"/>
    <property name="Color" type="color" value="#ff000000"/>
    <property name="Frames" type="int" value="30"/>
   </properties>
  </object>
  <object id="1843" gid="16388" x="14765" y="128" width="16" height="16">
   <properties>
    <property name="Channel" value="4"/>
    <property name="Color" type="color" value="#ff000000"/>
    <property name="Frames" type="int" value="30"/>
   </properties>
  </object>
  <object id="1919" gid="16388" x="14076" y="128" width="16" height="16">
   <properties>
    <property name="Channel" value="4"/>
    <property name="Color" type="color" value="#ff000000"/>
    <property name="Frames" type="int" value="30"/>
   </properties>
  </object>
  <object id="1963" gid="16388" x="14300" y="128" width="16" height="16">
   <properties>
    <property name="Channel" value="4"/>
    <property name="Color" type="color" value="#ff000000"/>
    <property name="Frames" type="int" value="30"/>
   </properties>
  </object>
  <object id="1789" gid="16388" x="12796" y="128" width="16" height="16">
   <properties>
    <property name="Channel" value="4"/>
    <property name="Color" type="color" value="#ff000000"/>
    <property name="Frames" type="int" value="30"/>
   </properties>
  </object>
  <object id="1815" gid="16388" x="13071" y="128" width="16" height="16">
   <properties>
    <property name="Channel" value="4"/>
    <property name="Color" type="color" value="#ff000000"/>
    <property name="Frames" type="int" value="30"/>
   </properties>
  </object>
  <object id="1777" gid="16388" x="12556" y="128" width="16" height="16">
   <properties>
    <property name="Channel" value="4"/>
    <property name="Color" type="color" value="#ff000000"/>
    <property name="Frames" type="int" value="30"/>
   </properties>
  </object>
  <object id="1765" gid="16388" x="12326" y="128" width="16" height="16">
   <properties>
    <property name="Channel" value="4"/>
    <property name="Color" type="color" value="#ff000000"/>
    <property name="Frames" type="int" value="30"/>
   </properties>
  </object>
  <object id="1739" gid="16388" x="12021" y="128" width="16" height="16">
   <properties>
    <property name="Channel" value="4"/>
    <property name="Color" type="color" value="#ff000000"/>
    <property name="Frames" type="int" value="4"/>
   </properties>
  </object>
  <object id="1809" gid="16388" x="12934" y="128" width="16" height="16">
   <properties>
    <property name="Channel" value="4"/>
    <property name="Color" type="color" value="#ff000000"/>
    <property name="Frames" type="int" value="4"/>
   </properties>
  </object>
  <object id="1753" gid="16388" x="12068" y="128" width="16" height="16">
   <properties>
    <property name="Channel" value="4"/>
    <property name="Color" type="color" value="#ff000000"/>
    <property name="Frames" type="int" value="4"/>
   </properties>
  </object>
  <object id="1807" gid="16388" x="12981" y="128" width="16" height="16">
   <properties>
    <property name="Channel" value="4"/>
    <property name="Color" type="color" value="#ff000000"/>
    <property name="Frames" type="int" value="4"/>
   </properties>
  </object>
  <object id="1735" gid="16388" x="11861" y="128" width="16" height="16">
   <properties>
    <property name="Channel" value="4"/>
    <property name="Color" type="color" value="#ff000000"/>
    <property name="Frames" type="int" value="30"/>
   </properties>
  </object>
  <object id="1755" gid="16388" x="12152" y="128" width="16" height="16">
   <properties>
    <property name="Channel" value="4"/>
    <property name="Color" type="color" value="#ff000000"/>
    <property name="Frames" type="int" value="30"/>
   </properties>
  </object>
  <object id="1725" gid="16388" x="11626" y="128" width="16" height="16">
   <properties>
    <property name="Channel" value="4"/>
    <property name="Color" type="color" value="#ff000000"/>
    <property name="Frames" type="int" value="30"/>
   </properties>
  </object>
  <object id="1697" gid="16388" x="11393" y="128" width="16" height="16">
   <properties>
    <property name="Channel" value="4"/>
    <property name="Color" type="color" value="#ff000000"/>
    <property name="Frames" type="int" value="30"/>
   </properties>
  </object>
  <object id="1709" gid="737" x="4960" y="248" width="16" height="16">
   <properties>
    <property name="bg layer" value="1"/>
   </properties>
  </object>
  <object id="1710" gid="737" x="4960" y="216" width="16" height="16">
   <properties>
    <property name="bg layer" value="1"/>
    <property name="color channel" value="3"/>
    <property name="vflip" type="bool" value="true"/>
   </properties>
  </object>
  <object id="1711" gid="737" x="5024" y="232" width="16" height="16">
   <properties>
    <property name="bg layer" value="1"/>
    <property name="vflip" type="bool" value="true"/>
   </properties>
  </object>
  <object id="1712" gid="737" x="5072" y="312" width="16" height="16">
   <properties>
    <property name="bg layer" value="1"/>
   </properties>
  </object>
  <object id="1713" gid="737" x="5072" y="344" width="16" height="16">
   <properties>
    <property name="bg layer" value="1"/>
   </properties>
  </object>
  <object id="1714" gid="737" x="5136" y="328" width="16" height="16">
   <properties>
    <property name="bg layer" value="1"/>
   </properties>
  </object>
  <object id="1715" gid="737" x="5168" y="232" width="16" height="16">
   <properties>
    <property name="bg layer" value="1"/>
    <property name="vflip" type="bool" value="true"/>
   </properties>
  </object>
  <object id="1716" gid="737" x="5200" y="312" width="16" height="16">
   <properties>
    <property name="bg layer" value="1"/>
   </properties>
  </object>
  <object id="1717" gid="737" x="5200" y="344" width="16" height="16">
   <properties>
    <property name="bg layer" value="1"/>
   </properties>
  </object>
  <object id="1718" gid="879" x="4960" y="232" width="16" height="16">
   <properties>
    <property name="bg layer" value="1"/>
    <property name="vflip" type="bool" value="true"/>
   </properties>
  </object>
  <object id="1719" gid="879" x="5024" y="216" width="16" height="16">
   <properties>
    <property name="bg layer" value="1"/>
    <property name="color channel" value="3"/>
    <property name="vflip" type="bool" value="true"/>
   </properties>
  </object>
  <object id="1720" gid="879" x="5072" y="328" width="16" height="16">
   <properties>
    <property name="bg layer" value="1"/>
   </properties>
  </object>
  <object id="1721" gid="879" x="5136" y="344" width="16" height="16">
   <properties>
    <property name="bg layer" value="1"/>
   </properties>
  </object>
  <object id="1722" gid="879" x="5200" y="328" width="16" height="16">
   <properties>
    <property name="bg layer" value="1"/>
   </properties>
  </object>
  <object id="1723" gid="879" x="5168" y="216" width="16" height="16">
   <properties>
    <property name="bg layer" value="1"/>
    <property name="color channel" value="3"/>
    <property name="vflip" type="bool" value="true"/>
   </properties>
  </object>
  <object id="1970" gid="16388" x="14976" y="176" width="16" height="16">
   <properties>
    <property name="Channel" value="1"/>
    <property name="Color" type="color" value="#ffb40000"/>
   </properties>
  </object>
  <object id="1992" gid="16388" x="15070" y="176" width="16" height="16">
   <properties>
    <property name="Channel" value="1"/>
    <property name="Color" type="color" value="#ffb40000"/>
   </properties>
  </object>
  <object id="1995" gid="16388" x="15160" y="176" width="16" height="16">
   <properties>
    <property name="Channel" value="1"/>
    <property name="Color" type="color" value="#ffb40000"/>
   </properties>
  </object>
  <object id="1999" gid="16388" x="15278" y="176" width="16" height="16">
   <properties>
    <property name="Channel" value="1"/>
    <property name="Color" type="color" value="#ffb40000"/>
   </properties>
  </object>
  <object id="2003" gid="16388" x="15336" y="176" width="16" height="16">
   <properties>
    <property name="Channel" value="1"/>
    <property name="Color" type="color" value="#ffb40000"/>
   </properties>
  </object>
  <object id="2007" gid="16388" x="15457" y="176" width="16" height="16">
   <properties>
    <property name="Channel" value="1"/>
    <property name="Color" type="color" value="#ffb40000"/>
   </properties>
  </object>
  <object id="2011" gid="16388" x="15539" y="176" width="16" height="16">
   <properties>
    <property name="Channel" value="1"/>
    <property name="Color" type="color" value="#ffb40000"/>
   </properties>
  </object>
  <object id="2015" gid="16388" x="15627" y="176" width="16" height="16">
   <properties>
    <property name="Channel" value="1"/>
    <property name="Color" type="color" value="#ffb40000"/>
   </properties>
  </object>
  <object id="2019" gid="16388" x="15738" y="176" width="16" height="16">
   <properties>
    <property name="Channel" value="1"/>
    <property name="Color" type="color" value="#ffb40000"/>
   </properties>
  </object>
  <object id="2023" gid="16388" x="15795" y="176" width="16" height="16">
   <properties>
    <property name="Channel" value="1"/>
    <property name="Color" type="color" value="#ffb40000"/>
   </properties>
  </object>
  <object id="2027" gid="16388" x="15912" y="176" width="16" height="16">
   <properties>
    <property name="Channel" value="1"/>
    <property name="Color" type="color" value="#ffb40000"/>
   </properties>
  </object>
  <object id="2031" gid="16388" x="15992" y="176" width="16" height="16">
   <properties>
    <property name="Channel" value="1"/>
    <property name="Color" type="color" value="#ffb40000"/>
   </properties>
  </object>
  <object id="2035" gid="16388" x="16088" y="176" width="16" height="16">
   <properties>
    <property name="Channel" value="1"/>
    <property name="Color" type="color" value="#ffb40000"/>
   </properties>
  </object>
  <object id="2039" gid="16388" x="16200" y="176" width="16" height="16">
   <properties>
    <property name="Channel" value="1"/>
    <property name="Color" type="color" value="#ffb40000"/>
   </properties>
  </object>
  <object id="2043" gid="16388" x="16258" y="176" width="16" height="16">
   <properties>
    <property name="Channel" value="1"/>
    <property name="Color" type="color" value="#ffb40000"/>
   </properties>
  </object>
  <object id="2047" gid="16388" x="16378" y="176" width="16" height="16">
   <properties>
    <property name="Channel" value="1"/>
    <property name="Color" type="color" value="#ffb40000"/>
   </properties>
  </object>
  <object id="2051" gid="16388" x="16458" y="176" width="16" height="16">
   <properties>
    <property name="Channel" value="1"/>
    <property name="Color" type="color" value="#ffb40000"/>
   </properties>
  </object>
  <object id="2055" gid="16388" x="16543" y="176" width="16" height="16">
   <properties>
    <property name="Channel" value="1"/>
    <property name="Color" type="color" value="#ffb40000"/>
   </properties>
  </object>
  <object id="2059" gid="16388" x="16656" y="176" width="16" height="16">
   <properties>
    <property name="Channel" value="1"/>
    <property name="Color" type="color" value="#ffb40000"/>
   </properties>
  </object>
  <object id="2063" gid="16388" x="16715" y="176" width="16" height="16">
   <properties>
    <property name="Channel" value="1"/>
    <property name="Color" type="color" value="#ffb40000"/>
   </properties>
  </object>
  <object id="2067" gid="16388" x="16848" y="176" width="16" height="16">
   <properties>
    <property name="Channel" value="1"/>
    <property name="Color" type="color" value="#ffb40000"/>
   </properties>
  </object>
  <object id="2071" gid="16388" x="16926" y="176" width="16" height="16">
   <properties>
    <property name="Channel" value="1"/>
    <property name="Color" type="color" value="#ffb40000"/>
   </properties>
  </object>
  <object id="2075" gid="16388" x="17013" y="176" width="16" height="16">
   <properties>
    <property name="Channel" value="1"/>
    <property name="Color" type="color" value="#ffb40000"/>
   </properties>
  </object>
  <object id="2079" gid="16388" x="17141" y="176" width="16" height="16">
   <properties>
    <property name="Channel" value="1"/>
    <property name="Color" type="color" value="#ffb40000"/>
   </properties>
  </object>
  <object id="2083" gid="16388" x="17204" y="176" width="16" height="16">
   <properties>
    <property name="Channel" value="1"/>
    <property name="Color" type="color" value="#ffb40000"/>
   </properties>
  </object>
  <object id="2087" gid="16388" x="17308" y="176" width="16" height="16">
   <properties>
    <property name="Channel" value="1"/>
    <property name="Color" type="color" value="#ffb40000"/>
   </properties>
  </object>
  <object id="2093" gid="16388" x="17391" y="176" width="16" height="16">
   <properties>
    <property name="Channel" value="1"/>
    <property name="Color" type="color" value="#ffb40000"/>
   </properties>
  </object>
  <object id="2095" gid="16388" x="17477" y="176" width="16" height="16">
   <properties>
    <property name="Channel" value="1"/>
    <property name="Color" type="color" value="#ffb40000"/>
   </properties>
  </object>
  <object id="2099" gid="16388" x="17585" y="176" width="16" height="16">
   <properties>
    <property name="Channel" value="1"/>
    <property name="Color" type="color" value="#ffb40000"/>
   </properties>
  </object>
  <object id="1971" gid="16388" x="14992" y="176" width="16" height="16">
   <properties>
    <property name="Channel" value="1"/>
    <property name="Color" type="color" value="#ff000000"/>
    <property name="Frames" type="int" value="30"/>
   </properties>
  </object>
  <object id="1991" gid="16388" x="15086" y="176" width="16" height="16">
   <properties>
    <property name="Channel" value="1"/>
    <property name="Color" type="color" value="#ff000000"/>
    <property name="Frames" type="int" value="30"/>
   </properties>
  </object>
  <object id="1996" gid="16388" x="15176" y="176" width="16" height="16">
   <properties>
    <property name="Channel" value="1"/>
    <property name="Color" type="color" value="#ff000000"/>
    <property name="Frames" type="int" value="30"/>
   </properties>
  </object>
  <object id="2000" gid="16388" x="15294" y="176" width="16" height="16">
   <properties>
    <property name="Channel" value="1"/>
    <property name="Color" type="color" value="#ff000000"/>
    <property name="Frames" type="int" value="30"/>
   </properties>
  </object>
  <object id="2004" gid="16388" x="15352" y="176" width="16" height="16">
   <properties>
    <property name="Channel" value="1"/>
    <property name="Color" type="color" value="#ff000000"/>
    <property name="Frames" type="int" value="30"/>
   </properties>
  </object>
  <object id="2008" gid="16388" x="15473" y="176" width="16" height="16">
   <properties>
    <property name="Channel" value="1"/>
    <property name="Color" type="color" value="#ff000000"/>
    <property name="Frames" type="int" value="30"/>
   </properties>
  </object>
  <object id="2012" gid="16388" x="15555" y="176" width="16" height="16">
   <properties>
    <property name="Channel" value="1"/>
    <property name="Color" type="color" value="#ff000000"/>
    <property name="Frames" type="int" value="30"/>
   </properties>
  </object>
  <object id="2016" gid="16388" x="15643" y="176" width="16" height="16">
   <properties>
    <property name="Channel" value="1"/>
    <property name="Color" type="color" value="#ff000000"/>
    <property name="Frames" type="int" value="30"/>
   </properties>
  </object>
  <object id="2020" gid="16388" x="15754" y="176" width="16" height="16">
   <properties>
    <property name="Channel" value="1"/>
    <property name="Color" type="color" value="#ff000000"/>
    <property name="Frames" type="int" value="30"/>
   </properties>
  </object>
  <object id="2024" gid="16388" x="15811" y="176" width="16" height="16">
   <properties>
    <property name="Channel" value="1"/>
    <property name="Color" type="color" value="#ff000000"/>
    <property name="Frames" type="int" value="30"/>
   </properties>
  </object>
  <object id="2028" gid="16388" x="15928" y="176" width="16" height="16">
   <properties>
    <property name="Channel" value="1"/>
    <property name="Color" type="color" value="#ff000000"/>
    <property name="Frames" type="int" value="30"/>
   </properties>
  </object>
  <object id="2032" gid="16388" x="16008" y="176" width="16" height="16">
   <properties>
    <property name="Channel" value="1"/>
    <property name="Color" type="color" value="#ff000000"/>
    <property name="Frames" type="int" value="30"/>
   </properties>
  </object>
  <object id="2036" gid="16388" x="16104" y="176" width="16" height="16">
   <properties>
    <property name="Channel" value="1"/>
    <property name="Color" type="color" value="#ff000000"/>
    <property name="Frames" type="int" value="30"/>
   </properties>
  </object>
  <object id="2040" gid="16388" x="16216" y="176" width="16" height="16">
   <properties>
    <property name="Channel" value="1"/>
    <property name="Color" type="color" value="#ff000000"/>
    <property name="Frames" type="int" value="30"/>
   </properties>
  </object>
  <object id="2044" gid="16388" x="16274" y="176" width="16" height="16">
   <properties>
    <property name="Channel" value="1"/>
    <property name="Color" type="color" value="#ff000000"/>
    <property name="Frames" type="int" value="30"/>
   </properties>
  </object>
  <object id="2048" gid="16388" x="16394" y="176" width="16" height="16">
   <properties>
    <property name="Channel" value="1"/>
    <property name="Color" type="color" value="#ff000000"/>
    <property name="Frames" type="int" value="30"/>
   </properties>
  </object>
  <object id="2052" gid="16388" x="16474" y="176" width="16" height="16">
   <properties>
    <property name="Channel" value="1"/>
    <property name="Color" type="color" value="#ff000000"/>
    <property name="Frames" type="int" value="30"/>
   </properties>
  </object>
  <object id="2056" gid="16388" x="16559" y="176" width="16" height="16">
   <properties>
    <property name="Channel" value="1"/>
    <property name="Color" type="color" value="#ff000000"/>
    <property name="Frames" type="int" value="30"/>
   </properties>
  </object>
  <object id="2060" gid="16388" x="16672" y="176" width="16" height="16">
   <properties>
    <property name="Channel" value="1"/>
    <property name="Color" type="color" value="#ff000000"/>
    <property name="Frames" type="int" value="30"/>
   </properties>
  </object>
  <object id="2064" gid="16388" x="16731" y="176" width="16" height="16">
   <properties>
    <property name="Channel" value="1"/>
    <property name="Color" type="color" value="#ff000000"/>
    <property name="Frames" type="int" value="30"/>
   </properties>
  </object>
  <object id="2068" gid="16388" x="16864" y="176" width="16" height="16">
   <properties>
    <property name="Channel" value="1"/>
    <property name="Color" type="color" value="#ff000000"/>
    <property name="Frames" type="int" value="30"/>
   </properties>
  </object>
  <object id="2072" gid="16388" x="16942" y="176" width="16" height="16">
   <properties>
    <property name="Channel" value="1"/>
    <property name="Color" type="color" value="#ff000000"/>
    <property name="Frames" type="int" value="30"/>
   </properties>
  </object>
  <object id="2076" gid="16388" x="17029" y="176" width="16" height="16">
   <properties>
    <property name="Channel" value="1"/>
    <property name="Color" type="color" value="#ff000000"/>
    <property name="Frames" type="int" value="30"/>
   </properties>
  </object>
  <object id="2080" gid="16388" x="17157" y="176" width="16" height="16">
   <properties>
    <property name="Channel" value="1"/>
    <property name="Color" type="color" value="#ff000000"/>
    <property name="Frames" type="int" value="30"/>
   </properties>
  </object>
  <object id="2084" gid="16388" x="17220" y="176" width="16" height="16">
   <properties>
    <property name="Channel" value="1"/>
    <property name="Color" type="color" value="#ff000000"/>
    <property name="Frames" type="int" value="30"/>
   </properties>
  </object>
  <object id="2088" gid="16388" x="17324" y="176" width="16" height="16">
   <properties>
    <property name="Channel" value="1"/>
    <property name="Color" type="color" value="#ff000000"/>
    <property name="Frames" type="int" value="30"/>
   </properties>
  </object>
  <object id="2094" gid="16388" x="17407" y="176" width="16" height="16">
   <properties>
    <property name="Channel" value="1"/>
    <property name="Color" type="color" value="#ff000000"/>
    <property name="Frames" type="int" value="30"/>
   </properties>
  </object>
  <object id="2096" gid="16388" x="17493" y="176" width="16" height="16">
   <properties>
    <property name="Channel" value="1"/>
    <property name="Color" type="color" value="#ff000000"/>
    <property name="Frames" type="int" value="30"/>
   </properties>
  </object>
  <object id="2100" gid="16388" x="17601" y="176" width="16" height="16">
   <properties>
    <property name="Channel" value="1"/>
    <property name="Color" type="color" value="#ff000000"/>
    <property name="Frames" type="int" value="30"/>
   </properties>
  </object>
  <object id="1972" gid="16388" x="15024" y="192" width="16" height="16">
   <properties>
    <property name="Channel" value="2"/>
    <property name="Color" type="color" value="#ffb40000"/>
   </properties>
  </object>
  <object id="1994" gid="16388" x="15100" y="192" width="16" height="16">
   <properties>
    <property name="Channel" value="2"/>
    <property name="Color" type="color" value="#ffb40000"/>
   </properties>
  </object>
  <object id="1997" gid="16388" x="15224" y="192" width="16" height="16">
   <properties>
    <property name="Channel" value="2"/>
    <property name="Color" type="color" value="#ffb40000"/>
   </properties>
  </object>
  <object id="2001" gid="16388" x="15306" y="192" width="16" height="16">
   <properties>
    <property name="Channel" value="2"/>
    <property name="Color" type="color" value="#ffb40000"/>
   </properties>
  </object>
  <object id="2005" gid="16388" x="15398" y="192" width="16" height="16">
   <properties>
    <property name="Channel" value="2"/>
    <property name="Color" type="color" value="#ffb40000"/>
   </properties>
  </object>
  <object id="2009" gid="16388" x="15510" y="192" width="16" height="16">
   <properties>
    <property name="Channel" value="2"/>
    <property name="Color" type="color" value="#ffb40000"/>
   </properties>
  </object>
  <object id="2013" gid="16388" x="15571" y="192" width="16" height="16">
   <properties>
    <property name="Channel" value="2"/>
    <property name="Color" type="color" value="#ffb40000"/>
   </properties>
  </object>
  <object id="2017" gid="16388" x="15685" y="192" width="16" height="16">
   <properties>
    <property name="Channel" value="2"/>
    <property name="Color" type="color" value="#ffb40000"/>
   </properties>
  </object>
  <object id="2021" gid="16388" x="15768" y="192" width="16" height="16">
   <properties>
    <property name="Channel" value="2"/>
    <property name="Color" type="color" value="#ffb40000"/>
   </properties>
  </object>
  <object id="2025" gid="16388" x="15850" y="192" width="16" height="16">
   <properties>
    <property name="Channel" value="2"/>
    <property name="Color" type="color" value="#ffb40000"/>
   </properties>
  </object>
  <object id="2029" gid="16388" x="15967" y="192" width="16" height="16">
   <properties>
    <property name="Channel" value="2"/>
    <property name="Color" type="color" value="#ffb40000"/>
   </properties>
  </object>
  <object id="2033" gid="16388" x="16028" y="192" width="16" height="16">
   <properties>
    <property name="Channel" value="2"/>
    <property name="Color" type="color" value="#ffb40000"/>
   </properties>
  </object>
  <object id="2037" gid="16388" x="16146" y="192" width="16" height="16">
   <properties>
    <property name="Channel" value="2"/>
    <property name="Color" type="color" value="#ffb40000"/>
   </properties>
  </object>
  <object id="2041" gid="16388" x="16228" y="192" width="16" height="16">
   <properties>
    <property name="Channel" value="2"/>
    <property name="Color" type="color" value="#ffb40000"/>
   </properties>
  </object>
  <object id="2045" gid="16388" x="16321" y="192" width="16" height="16">
   <properties>
    <property name="Channel" value="2"/>
    <property name="Color" type="color" value="#ffb40000"/>
   </properties>
  </object>
  <object id="2049" gid="16388" x="16427" y="192" width="16" height="16">
   <properties>
    <property name="Channel" value="2"/>
    <property name="Color" type="color" value="#ffb40000"/>
   </properties>
  </object>
  <object id="2053" gid="16388" x="16485" y="192" width="16" height="16">
   <properties>
    <property name="Channel" value="2"/>
    <property name="Color" type="color" value="#ffb40000"/>
   </properties>
  </object>
  <object id="2057" gid="16388" x="16605" y="192" width="16" height="16">
   <properties>
    <property name="Channel" value="2"/>
    <property name="Color" type="color" value="#ffb40000"/>
   </properties>
  </object>
  <object id="2061" gid="16388" x="16690" y="192" width="16" height="16">
   <properties>
    <property name="Channel" value="2"/>
    <property name="Color" type="color" value="#ffb40000"/>
   </properties>
  </object>
  <object id="2065" gid="16388" x="16784" y="192" width="16" height="16">
   <properties>
    <property name="Channel" value="2"/>
    <property name="Color" type="color" value="#ffb40000"/>
   </properties>
  </object>
  <object id="2069" gid="16388" x="16896" y="192" width="16" height="16">
   <properties>
    <property name="Channel" value="2"/>
    <property name="Color" type="color" value="#ffb40000"/>
   </properties>
  </object>
  <object id="2073" gid="16388" x="16956" y="192" width="16" height="16">
   <properties>
    <property name="Channel" value="2"/>
    <property name="Color" type="color" value="#ffb40000"/>
   </properties>
  </object>
  <object id="2077" gid="16388" x="17088" y="192" width="16" height="16">
   <properties>
    <property name="Channel" value="2"/>
    <property name="Color" type="color" value="#ffb40000"/>
   </properties>
  </object>
  <object id="2081" gid="16388" x="17171" y="192" width="16" height="16">
   <properties>
    <property name="Channel" value="2"/>
    <property name="Color" type="color" value="#ffb40000"/>
   </properties>
  </object>
  <object id="2085" gid="16388" x="17247" y="192" width="16" height="16">
   <properties>
    <property name="Channel" value="2"/>
    <property name="Color" type="color" value="#ffb40000"/>
   </properties>
  </object>
  <object id="2089" gid="16388" x="17355" y="192" width="16" height="16">
   <properties>
    <property name="Channel" value="2"/>
    <property name="Color" type="color" value="#ffb40000"/>
   </properties>
  </object>
  <object id="2091" gid="16388" x="17419" y="192" width="16" height="16">
   <properties>
    <property name="Channel" value="2"/>
    <property name="Color" type="color" value="#ffb40000"/>
   </properties>
  </object>
  <object id="2097" gid="16388" x="17536" y="192" width="16" height="16">
   <properties>
    <property name="Channel" value="2"/>
    <property name="Color" type="color" value="#ffb40000"/>
   </properties>
  </object>
  <object id="2103" gid="16388" x="17647" y="176" width="16" height="16">
   <properties>
    <property name="Channel" value="1"/>
    <property name="Color" type="color" value="#ffb40000"/>
   </properties>
  </object>
  <object id="2107" gid="16388" x="17768" y="176" width="16" height="16">
   <properties>
    <property name="Channel" value="1"/>
    <property name="Color" type="color" value="#ffb40000"/>
   </properties>
  </object>
  <object id="2111" gid="16388" x="17851" y="176" width="16" height="16">
   <properties>
    <property name="Channel" value="1"/>
    <property name="Color" type="color" value="#ffb40000"/>
   </properties>
  </object>
  <object id="2115" gid="16388" x="17939" y="176" width="16" height="16">
   <properties>
    <property name="Channel" value="1"/>
    <property name="Color" type="color" value="#ffb40000"/>
   </properties>
  </object>
  <object id="2119" gid="16388" x="18053" y="176" width="16" height="16">
   <properties>
    <property name="Channel" value="1"/>
    <property name="Color" type="color" value="#ffb40000"/>
   </properties>
  </object>
  <object id="2123" gid="16388" x="18112" y="176" width="16" height="16">
   <properties>
    <property name="Channel" value="1"/>
    <property name="Color" type="color" value="#ffb40000"/>
   </properties>
  </object>
  <object id="2127" gid="16388" x="18237" y="176" width="16" height="16">
   <properties>
    <property name="Channel" value="1"/>
    <property name="Color" type="color" value="#ffb40000"/>
   </properties>
  </object>
  <object id="2131" gid="16388" x="18312" y="176" width="16" height="16">
   <properties>
    <property name="Channel" value="1"/>
    <property name="Color" type="color" value="#ffb40000"/>
   </properties>
  </object>
  <object id="2135" gid="16388" x="18397" y="176" width="16" height="16">
   <properties>
    <property name="Channel" value="1"/>
    <property name="Color" type="color" value="#ffb40000"/>
   </properties>
  </object>
  <object id="2139" gid="16388" x="18511" y="176" width="16" height="16">
   <properties>
    <property name="Channel" value="1"/>
    <property name="Color" type="color" value="#ffb40000"/>
   </properties>
  </object>
  <object id="2143" gid="16388" x="18574" y="176" width="16" height="16">
   <properties>
    <property name="Channel" value="1"/>
    <property name="Color" type="color" value="#ffb40000"/>
   </properties>
  </object>
  <object id="2147" gid="16388" x="18703" y="176" width="16" height="16">
   <properties>
    <property name="Channel" value="1"/>
    <property name="Color" type="color" value="#ffb40000"/>
   </properties>
  </object>
  <object id="2151" gid="16388" x="18936" y="176" width="16" height="16">
   <properties>
    <property name="Channel" value="1"/>
    <property name="Color" type="color" value="#ffb40000"/>
   </properties>
  </object>
  <object id="2155" gid="16388" x="19238" y="176" width="16" height="16">
   <properties>
    <property name="Channel" value="1"/>
    <property name="Color" type="color" value="#ffb40000"/>
   </properties>
  </object>
  <object id="2167" gid="16388" x="19398" y="176" width="16" height="16">
   <properties>
    <property name="Channel" value="1"/>
    <property name="Color" type="color" value="#ffb40000"/>
   </properties>
  </object>
  <object id="2171" gid="16388" x="19634" y="176" width="16" height="16">
   <properties>
    <property name="Channel" value="1"/>
    <property name="Color" type="color" value="#ffb40000"/>
   </properties>
  </object>
  <object id="2175" gid="16388" x="19864" y="176" width="16" height="16">
   <properties>
    <property name="Channel" value="1"/>
    <property name="Color" type="color" value="#ffb40000"/>
   </properties>
  </object>
  <object id="2187" gid="16388" x="20240" y="176" width="16" height="16">
   <properties>
    <property name="Channel" value="1"/>
    <property name="Color" type="color" value="#ffb40000"/>
   </properties>
  </object>
  <object id="2197" gid="16388" x="20436" y="176" width="16" height="16">
   <properties>
    <property name="Channel" value="1"/>
    <property name="Color" type="color" value="#ffb40000"/>
   </properties>
  </object>
  <object id="2201" gid="16388" x="20555" y="176" width="16" height="16">
   <properties>
    <property name="Channel" value="1"/>
    <property name="Color" type="color" value="#ffb40000"/>
   </properties>
  </object>
  <object id="2205" gid="16388" x="20778" y="176" width="16" height="16">
   <properties>
    <property name="Channel" value="1"/>
    <property name="Color" type="color" value="#ffb40000"/>
   </properties>
  </object>
  <object id="2221" gid="16388" x="21227" y="176" width="16" height="16">
   <properties>
    <property name="Channel" value="1"/>
    <property name="Color" type="color" value="#ffb40000"/>
   </properties>
  </object>
  <object id="2225" gid="16388" x="21468" y="176" width="16" height="16">
   <properties>
    <property name="Channel" value="1"/>
    <property name="Color" type="color" value="#ffb40000"/>
   </properties>
  </object>
  <object id="2231" gid="16388" x="21693" y="176" width="16" height="16">
   <properties>
    <property name="Channel" value="1"/>
    <property name="Color" type="color" value="#ffb40000"/>
   </properties>
  </object>
  <object id="2235" gid="16388" x="21916" y="176" width="16" height="16">
   <properties>
    <property name="Channel" value="1"/>
    <property name="Color" type="color" value="#ffb40000"/>
   </properties>
  </object>
  <object id="2239" gid="16388" x="22008" y="176" width="16" height="16">
   <properties>
    <property name="Channel" value="1"/>
    <property name="Color" type="color" value="#ffb40000"/>
   </properties>
  </object>
  <object id="2243" gid="16388" x="22096" y="176" width="16" height="16">
   <properties>
    <property name="Channel" value="1"/>
    <property name="Color" type="color" value="#ffb40000"/>
   </properties>
  </object>
  <object id="2209" gid="16388" x="21090" y="176" width="16" height="16">
   <properties>
    <property name="Channel" value="1"/>
    <property name="Color" type="color" value="#ffb40000"/>
   </properties>
  </object>
  <object id="2213" gid="16388" x="21004" y="176" width="16" height="16">
   <properties>
    <property name="Channel" value="1"/>
    <property name="Color" type="color" value="#ffb40000"/>
   </properties>
  </object>
  <object id="2217" gid="16388" x="21051" y="176" width="16" height="16">
   <properties>
    <property name="Channel" value="1"/>
    <property name="Color" type="color" value="#ffb40000"/>
   </properties>
  </object>
  <object id="2193" gid="16388" x="20372" y="176" width="16" height="16">
   <properties>
    <property name="Channel" value="1"/>
    <property name="Color" type="color" value="#ffb40000"/>
   </properties>
  </object>
  <object id="2179" gid="16388" x="20088" y="176" width="16" height="16">
   <properties>
    <property name="Channel" value="1"/>
    <property name="Color" type="color" value="#ffb40000"/>
   </properties>
  </object>
  <object id="2183" gid="16388" x="20170" y="176" width="16" height="16">
   <properties>
    <property name="Channel" value="1"/>
    <property name="Color" type="color" value="#ffb40000"/>
   </properties>
  </object>
  <object id="2159" gid="16388" x="19152" y="176" width="16" height="16">
   <properties>
    <property name="Channel" value="1"/>
    <property name="Color" type="color" value="#ffb40000"/>
   </properties>
  </object>
  <object id="2161" gid="16388" x="19199" y="176" width="16" height="16">
   <properties>
    <property name="Channel" value="1"/>
    <property name="Color" type="color" value="#ffb40000"/>
   </properties>
  </object>
  <object id="2101" gid="16388" x="17619" y="192" width="16" height="16">
   <properties>
    <property name="Channel" value="2"/>
    <property name="Color" type="color" value="#ffb40000"/>
   </properties>
  </object>
  <object id="2105" gid="16388" x="17707" y="192" width="16" height="16">
   <properties>
    <property name="Channel" value="2"/>
    <property name="Color" type="color" value="#ffb40000"/>
   </properties>
  </object>
  <object id="2109" gid="16388" x="17822" y="192" width="16" height="16">
   <properties>
    <property name="Channel" value="2"/>
    <property name="Color" type="color" value="#ffb40000"/>
   </properties>
  </object>
  <object id="2113" gid="16388" x="17880" y="192" width="16" height="16">
   <properties>
    <property name="Channel" value="2"/>
    <property name="Color" type="color" value="#ffb40000"/>
   </properties>
  </object>
  <object id="2117" gid="16388" x="18004" y="192" width="16" height="16">
   <properties>
    <property name="Channel" value="2"/>
    <property name="Color" type="color" value="#ffb40000"/>
   </properties>
  </object>
  <object id="2121" gid="16388" x="18084" y="192" width="16" height="16">
   <properties>
    <property name="Channel" value="2"/>
    <property name="Color" type="color" value="#ffb40000"/>
   </properties>
  </object>
  <object id="2125" gid="16388" x="18175" y="192" width="16" height="16">
   <properties>
    <property name="Channel" value="2"/>
    <property name="Color" type="color" value="#ffb40000"/>
   </properties>
  </object>
  <object id="2129" gid="16388" x="18280" y="192" width="16" height="16">
   <properties>
    <property name="Channel" value="2"/>
    <property name="Color" type="color" value="#ffb40000"/>
   </properties>
  </object>
  <object id="2133" gid="16388" x="18341" y="192" width="16" height="16">
   <properties>
    <property name="Channel" value="2"/>
    <property name="Color" type="color" value="#ffb40000"/>
   </properties>
  </object>
  <object id="2137" gid="16388" x="18458" y="192" width="16" height="16">
   <properties>
    <property name="Channel" value="2"/>
    <property name="Color" type="color" value="#ffb40000"/>
   </properties>
  </object>
  <object id="2141" gid="16388" x="18544" y="192" width="16" height="16">
   <properties>
    <property name="Channel" value="2"/>
    <property name="Color" type="color" value="#ffb40000"/>
   </properties>
  </object>
  <object id="2145" gid="16388" x="18632" y="192" width="16" height="16">
   <properties>
    <property name="Channel" value="2"/>
    <property name="Color" type="color" value="#ffb40000"/>
   </properties>
  </object>
  <object id="2149" gid="16388" x="18817" y="192" width="16" height="16">
   <properties>
    <property name="Channel" value="2"/>
    <property name="Color" type="color" value="#ffb40000"/>
   </properties>
  </object>
  <object id="2153" gid="16388" x="19050" y="192" width="16" height="16">
   <properties>
    <property name="Channel" value="2"/>
    <property name="Color" type="color" value="#ffb40000"/>
   </properties>
  </object>
  <object id="2157" gid="16388" x="19295" y="192" width="16" height="16">
   <properties>
    <property name="Channel" value="2"/>
    <property name="Color" type="color" value="#ffb40000"/>
   </properties>
  </object>
  <object id="2169" gid="16388" x="19512" y="192" width="16" height="16">
   <properties>
    <property name="Channel" value="2"/>
    <property name="Color" type="color" value="#ffb40000"/>
   </properties>
  </object>
  <object id="2173" gid="16388" x="19744" y="192" width="16" height="16">
   <properties>
    <property name="Channel" value="2"/>
    <property name="Color" type="color" value="#ffb40000"/>
   </properties>
  </object>
  <object id="2177" gid="16388" x="19979" y="192" width="16" height="16">
   <properties>
    <property name="Channel" value="2"/>
    <property name="Color" type="color" value="#ffb40000"/>
   </properties>
  </object>
  <object id="2185" gid="16388" x="20196" y="192" width="16" height="16">
   <properties>
    <property name="Channel" value="2"/>
    <property name="Color" type="color" value="#ffb40000"/>
   </properties>
  </object>
  <object id="2191" gid="16388" x="20316" y="192" width="16" height="16">
   <properties>
    <property name="Channel" value="2"/>
    <property name="Color" type="color" value="#ffb40000"/>
   </properties>
  </object>
  <object id="2195" gid="16388" x="20404" y="192" width="16" height="16">
   <properties>
    <property name="Channel" value="2"/>
    <property name="Color" type="color" value="#ffb40000"/>
   </properties>
  </object>
  <object id="2199" gid="16388" x="20485" y="192" width="16" height="16">
   <properties>
    <property name="Channel" value="2"/>
    <property name="Color" type="color" value="#ffb40000"/>
   </properties>
  </object>
  <object id="2203" gid="16388" x="20658" y="192" width="16" height="16">
   <properties>
    <property name="Channel" value="2"/>
    <property name="Color" type="color" value="#ffb40000"/>
   </properties>
  </object>
  <object id="2207" gid="16388" x="20895" y="192" width="16" height="16">
   <properties>
    <property name="Channel" value="2"/>
    <property name="Color" type="color" value="#ffb40000"/>
   </properties>
  </object>
  <object id="2223" gid="16388" x="21344" y="192" width="16" height="16">
   <properties>
    <property name="Channel" value="2"/>
    <property name="Color" type="color" value="#ffb40000"/>
   </properties>
  </object>
  <object id="2229" gid="16388" x="21587" y="192" width="16" height="16">
   <properties>
    <property name="Channel" value="2"/>
    <property name="Color" type="color" value="#ffb40000"/>
   </properties>
  </object>
  <object id="2233" gid="16388" x="21809" y="192" width="16" height="16">
   <properties>
    <property name="Channel" value="2"/>
    <property name="Color" type="color" value="#ffb40000"/>
   </properties>
  </object>
  <object id="2237" gid="16388" x="21979" y="192" width="16" height="16">
   <properties>
    <property name="Channel" value="2"/>
    <property name="Color" type="color" value="#ffb40000"/>
   </properties>
  </object>
  <object id="2241" gid="16388" x="22045" y="192" width="16" height="16">
   <properties>
    <property name="Channel" value="2"/>
    <property name="Color" type="color" value="#ffb40000"/>
   </properties>
  </object>
  <object id="2245" gid="16388" x="22158" y="192" width="16" height="16">
   <properties>
    <property name="Channel" value="2"/>
    <property name="Color" type="color" value="#ffb40000"/>
   </properties>
  </object>
  <object id="2211" gid="16388" x="21139" y="192" width="16" height="16">
   <properties>
    <property name="Channel" value="2"/>
    <property name="Color" type="color" value="#ffb40000"/>
   </properties>
  </object>
  <object id="2215" gid="16388" x="21043" y="192" width="16" height="16">
   <properties>
    <property name="Channel" value="2"/>
    <property name="Color" type="color" value="#ffb40000"/>
   </properties>
  </object>
  <object id="2219" gid="16388" x="21083" y="192" width="16" height="16">
   <properties>
    <property name="Channel" value="2"/>
    <property name="Color" type="color" value="#ffb40000"/>
   </properties>
  </object>
  <object id="2181" gid="16388" x="20136" y="192" width="16" height="16">
   <properties>
    <property name="Channel" value="2"/>
    <property name="Color" type="color" value="#ffb40000"/>
   </properties>
  </object>
  <object id="2163" gid="16388" x="19176" y="192" width="16" height="16">
   <properties>
    <property name="Channel" value="2"/>
    <property name="Color" type="color" value="#ffb40000"/>
   </properties>
  </object>
  <object id="2165" gid="16388" x="19215" y="192" width="16" height="16">
   <properties>
    <property name="Channel" value="2"/>
    <property name="Color" type="color" value="#ffb40000"/>
   </properties>
  </object>
  <object id="1973" gid="16388" x="15040" y="192" width="16" height="16">
   <properties>
    <property name="Channel" value="2"/>
    <property name="Color" type="color" value="#ff000000"/>
    <property name="Frames" type="int" value="21"/>
   </properties>
  </object>
  <object id="1993" gid="16388" x="15116" y="192" width="16" height="16">
   <properties>
    <property name="Channel" value="2"/>
    <property name="Color" type="color" value="#ff000000"/>
    <property name="Frames" type="int" value="21"/>
   </properties>
  </object>
  <object id="1998" gid="16388" x="15240" y="192" width="16" height="16">
   <properties>
    <property name="Channel" value="2"/>
    <property name="Color" type="color" value="#ff000000"/>
    <property name="Frames" type="int" value="21"/>
   </properties>
  </object>
  <object id="2002" gid="16388" x="15322" y="192" width="16" height="16">
   <properties>
    <property name="Channel" value="2"/>
    <property name="Color" type="color" value="#ff000000"/>
    <property name="Frames" type="int" value="21"/>
   </properties>
  </object>
  <object id="2006" gid="16388" x="15414" y="192" width="16" height="16">
   <properties>
    <property name="Channel" value="2"/>
    <property name="Color" type="color" value="#ff000000"/>
    <property name="Frames" type="int" value="21"/>
   </properties>
  </object>
  <object id="2010" gid="16388" x="15526" y="192" width="16" height="16">
   <properties>
    <property name="Channel" value="2"/>
    <property name="Color" type="color" value="#ff000000"/>
    <property name="Frames" type="int" value="21"/>
   </properties>
  </object>
  <object id="2014" gid="16388" x="15587" y="192" width="16" height="16">
   <properties>
    <property name="Channel" value="2"/>
    <property name="Color" type="color" value="#ff000000"/>
    <property name="Frames" type="int" value="21"/>
   </properties>
  </object>
  <object id="2018" gid="16388" x="15701" y="192" width="16" height="16">
   <properties>
    <property name="Channel" value="2"/>
    <property name="Color" type="color" value="#ff000000"/>
    <property name="Frames" type="int" value="21"/>
   </properties>
  </object>
  <object id="2022" gid="16388" x="15784" y="192" width="16" height="16">
   <properties>
    <property name="Channel" value="2"/>
    <property name="Color" type="color" value="#ff000000"/>
    <property name="Frames" type="int" value="21"/>
   </properties>
  </object>
  <object id="2026" gid="16388" x="15866" y="192" width="16" height="16">
   <properties>
    <property name="Channel" value="2"/>
    <property name="Color" type="color" value="#ff000000"/>
    <property name="Frames" type="int" value="21"/>
   </properties>
  </object>
  <object id="2030" gid="16388" x="15983" y="192" width="16" height="16">
   <properties>
    <property name="Channel" value="2"/>
    <property name="Color" type="color" value="#ff000000"/>
    <property name="Frames" type="int" value="21"/>
   </properties>
  </object>
  <object id="2034" gid="16388" x="16044" y="192" width="16" height="16">
   <properties>
    <property name="Channel" value="2"/>
    <property name="Color" type="color" value="#ff000000"/>
    <property name="Frames" type="int" value="21"/>
   </properties>
  </object>
  <object id="2038" gid="16388" x="16162" y="192" width="16" height="16">
   <properties>
    <property name="Channel" value="2"/>
    <property name="Color" type="color" value="#ff000000"/>
    <property name="Frames" type="int" value="21"/>
   </properties>
  </object>
  <object id="2042" gid="16388" x="16244" y="192" width="16" height="16">
   <properties>
    <property name="Channel" value="2"/>
    <property name="Color" type="color" value="#ff000000"/>
    <property name="Frames" type="int" value="21"/>
   </properties>
  </object>
  <object id="2046" gid="16388" x="16337" y="192" width="16" height="16">
   <properties>
    <property name="Channel" value="2"/>
    <property name="Color" type="color" value="#ff000000"/>
    <property name="Frames" type="int" value="21"/>
   </properties>
  </object>
  <object id="2050" gid="16388" x="16443" y="192" width="16" height="16">
   <properties>
    <property name="Channel" value="2"/>
    <property name="Color" type="color" value="#ff000000"/>
    <property name="Frames" type="int" value="21"/>
   </properties>
  </object>
  <object id="2054" gid="16388" x="16501" y="192" width="16" height="16">
   <properties>
    <property name="Channel" value="2"/>
    <property name="Color" type="color" value="#ff000000"/>
    <property name="Frames" type="int" value="21"/>
   </properties>
  </object>
  <object id="2058" gid="16388" x="16621" y="192" width="16" height="16">
   <properties>
    <property name="Channel" value="2"/>
    <property name="Color" type="color" value="#ff000000"/>
    <property name="Frames" type="int" value="21"/>
   </properties>
  </object>
  <object id="2062" gid="16388" x="16706" y="192" width="16" height="16">
   <properties>
    <property name="Channel" value="2"/>
    <property name="Color" type="color" value="#ff000000"/>
    <property name="Frames" type="int" value="21"/>
   </properties>
  </object>
  <object id="2066" gid="16388" x="16800" y="192" width="16" height="16">
   <properties>
    <property name="Channel" value="2"/>
    <property name="Color" type="color" value="#ff000000"/>
    <property name="Frames" type="int" value="21"/>
   </properties>
  </object>
  <object id="2070" gid="16388" x="16912" y="192" width="16" height="16">
   <properties>
    <property name="Channel" value="2"/>
    <property name="Color" type="color" value="#ff000000"/>
    <property name="Frames" type="int" value="21"/>
   </properties>
  </object>
  <object id="2074" gid="16388" x="16972" y="192" width="16" height="16">
   <properties>
    <property name="Channel" value="2"/>
    <property name="Color" type="color" value="#ff000000"/>
    <property name="Frames" type="int" value="21"/>
   </properties>
  </object>
  <object id="2078" gid="16388" x="17104" y="192" width="16" height="16">
   <properties>
    <property name="Channel" value="2"/>
    <property name="Color" type="color" value="#ff000000"/>
    <property name="Frames" type="int" value="21"/>
   </properties>
  </object>
  <object id="2082" gid="16388" x="17187" y="192" width="16" height="16">
   <properties>
    <property name="Channel" value="2"/>
    <property name="Color" type="color" value="#ff000000"/>
    <property name="Frames" type="int" value="21"/>
   </properties>
  </object>
  <object id="2086" gid="16388" x="17263" y="192" width="16" height="16">
   <properties>
    <property name="Channel" value="2"/>
    <property name="Color" type="color" value="#ff000000"/>
    <property name="Frames" type="int" value="21"/>
   </properties>
  </object>
  <object id="2090" gid="16388" x="17371" y="192" width="16" height="16">
   <properties>
    <property name="Channel" value="2"/>
    <property name="Color" type="color" value="#ff000000"/>
    <property name="Frames" type="int" value="21"/>
   </properties>
  </object>
  <object id="2092" gid="16388" x="17435" y="192" width="16" height="16">
   <properties>
    <property name="Channel" value="2"/>
    <property name="Color" type="color" value="#ff000000"/>
    <property name="Frames" type="int" value="21"/>
   </properties>
  </object>
  <object id="2098" gid="16388" x="17552" y="192" width="16" height="16">
   <properties>
    <property name="Channel" value="2"/>
    <property name="Color" type="color" value="#ff000000"/>
    <property name="Frames" type="int" value="21"/>
   </properties>
  </object>
  <object id="2104" gid="16388" x="17663" y="176" width="16" height="16">
   <properties>
    <property name="Channel" value="1"/>
    <property name="Color" type="color" value="#ff000000"/>
    <property name="Frames" type="int" value="21"/>
   </properties>
  </object>
  <object id="2108" gid="16388" x="17784" y="176" width="16" height="16">
   <properties>
    <property name="Channel" value="1"/>
    <property name="Color" type="color" value="#ff000000"/>
    <property name="Frames" type="int" value="21"/>
   </properties>
  </object>
  <object id="2112" gid="16388" x="17867" y="176" width="16" height="16">
   <properties>
    <property name="Channel" value="1"/>
    <property name="Color" type="color" value="#ff000000"/>
    <property name="Frames" type="int" value="21"/>
   </properties>
  </object>
  <object id="2116" gid="16388" x="17955" y="176" width="16" height="16">
   <properties>
    <property name="Channel" value="1"/>
    <property name="Color" type="color" value="#ff000000"/>
    <property name="Frames" type="int" value="21"/>
   </properties>
  </object>
  <object id="2120" gid="16388" x="18069" y="176" width="16" height="16">
   <properties>
    <property name="Channel" value="1"/>
    <property name="Color" type="color" value="#ff000000"/>
    <property name="Frames" type="int" value="21"/>
   </properties>
  </object>
  <object id="2124" gid="16388" x="18128" y="176" width="16" height="16">
   <properties>
    <property name="Channel" value="1"/>
    <property name="Color" type="color" value="#ff000000"/>
    <property name="Frames" type="int" value="21"/>
   </properties>
  </object>
  <object id="2128" gid="16388" x="18253" y="176" width="16" height="16">
   <properties>
    <property name="Channel" value="1"/>
    <property name="Color" type="color" value="#ff000000"/>
    <property name="Frames" type="int" value="21"/>
   </properties>
  </object>
  <object id="2132" gid="16388" x="18328" y="176" width="16" height="16">
   <properties>
    <property name="Channel" value="1"/>
    <property name="Color" type="color" value="#ff000000"/>
    <property name="Frames" type="int" value="21"/>
   </properties>
  </object>
  <object id="2136" gid="16388" x="18413" y="176" width="16" height="16">
   <properties>
    <property name="Channel" value="1"/>
    <property name="Color" type="color" value="#ff000000"/>
    <property name="Frames" type="int" value="21"/>
   </properties>
  </object>
  <object id="2140" gid="16388" x="18527" y="176" width="16" height="16">
   <properties>
    <property name="Channel" value="1"/>
    <property name="Color" type="color" value="#ff000000"/>
    <property name="Frames" type="int" value="21"/>
   </properties>
  </object>
  <object id="2144" gid="16388" x="18590" y="176" width="16" height="16">
   <properties>
    <property name="Channel" value="1"/>
    <property name="Color" type="color" value="#ff000000"/>
    <property name="Frames" type="int" value="21"/>
   </properties>
  </object>
  <object id="2148" gid="16388" x="18719" y="176" width="16" height="16">
   <properties>
    <property name="Channel" value="1"/>
    <property name="Color" type="color" value="#ff000000"/>
    <property name="Frames" type="int" value="42"/>
   </properties>
  </object>
  <object id="2152" gid="16388" x="18952" y="176" width="16" height="16">
   <properties>
    <property name="Channel" value="1"/>
    <property name="Color" type="color" value="#ff000000"/>
    <property name="Frames" type="int" value="42"/>
   </properties>
  </object>
  <object id="2156" gid="16388" x="19254" y="176" width="16" height="16">
   <properties>
    <property name="Channel" value="1"/>
    <property name="Color" type="color" value="#ff000000"/>
    <property name="Frames" type="int" value="42"/>
   </properties>
  </object>
  <object id="2168" gid="16388" x="19414" y="176" width="16" height="16">
   <properties>
    <property name="Channel" value="1"/>
    <property name="Color" type="color" value="#ff000000"/>
    <property name="Frames" type="int" value="42"/>
   </properties>
  </object>
  <object id="2172" gid="16388" x="19650" y="176" width="16" height="16">
   <properties>
    <property name="Channel" value="1"/>
    <property name="Color" type="color" value="#ff000000"/>
    <property name="Frames" type="int" value="42"/>
   </properties>
  </object>
  <object id="2176" gid="16388" x="19880" y="176" width="16" height="16">
   <properties>
    <property name="Channel" value="1"/>
    <property name="Color" type="color" value="#ff000000"/>
    <property name="Frames" type="int" value="42"/>
   </properties>
  </object>
  <object id="2188" gid="16388" x="20256" y="176" width="16" height="16">
   <properties>
    <property name="Channel" value="1"/>
    <property name="Color" type="color" value="#ff000000"/>
    <property name="Frames" type="int" value="42"/>
   </properties>
  </object>
  <object id="2198" gid="16388" x="20452" y="176" width="16" height="16">
   <properties>
    <property name="Channel" value="1"/>
    <property name="Color" type="color" value="#ff000000"/>
    <property name="Frames" type="int" value="42"/>
   </properties>
  </object>
  <object id="2202" gid="16388" x="20571" y="176" width="16" height="16">
   <properties>
    <property name="Channel" value="1"/>
    <property name="Color" type="color" value="#ff000000"/>
    <property name="Frames" type="int" value="63"/>
   </properties>
  </object>
  <object id="2206" gid="16388" x="20794" y="176" width="16" height="16">
   <properties>
    <property name="Channel" value="1"/>
    <property name="Color" type="color" value="#ff000000"/>
    <property name="Frames" type="int" value="63"/>
   </properties>
  </object>
  <object id="2222" gid="16388" x="21243" y="176" width="16" height="16">
   <properties>
    <property name="Channel" value="1"/>
    <property name="Color" type="color" value="#ff000000"/>
    <property name="Frames" type="int" value="63"/>
   </properties>
  </object>
  <object id="2226" gid="16388" x="21484" y="176" width="16" height="16">
   <properties>
    <property name="Channel" value="1"/>
    <property name="Color" type="color" value="#ff000000"/>
    <property name="Frames" type="int" value="90"/>
   </properties>
  </object>
  <object id="2232" gid="16388" x="21709" y="176" width="16" height="16">
   <properties>
    <property name="Channel" value="1"/>
    <property name="Color" type="color" value="#ff000000"/>
    <property name="Frames" type="int" value="90"/>
   </properties>
  </object>
  <object id="2236" gid="16388" x="21932" y="176" width="16" height="16">
   <properties>
    <property name="Channel" value="1"/>
    <property name="Color" type="color" value="#ff000000"/>
    <property name="Frames" type="int" value="42"/>
   </properties>
  </object>
  <object id="2240" gid="16388" x="22024" y="176" width="16" height="16">
   <properties>
    <property name="Channel" value="1"/>
    <property name="Color" type="color" value="#ff000000"/>
    <property name="Frames" type="int" value="18"/>
   </properties>
  </object>
  <object id="2244" gid="16388" x="22112" y="176" width="16" height="16">
   <properties>
    <property name="Channel" value="1"/>
    <property name="Color" type="color" value="#ff000000"/>
    <property name="Frames" type="int" value="600"/>
   </properties>
  </object>
  <object id="2210" gid="16388" x="21106" y="176" width="16" height="16">
   <properties>
    <property name="Channel" value="1"/>
    <property name="Color" type="color" value="#ff000000"/>
    <property name="Frames" type="int" value="42"/>
   </properties>
  </object>
  <object id="2214" gid="16388" x="21020" y="176" width="16" height="16">
   <properties>
    <property name="Channel" value="1"/>
    <property name="Color" type="color" value="#ff000000"/>
    <property name="Frames" type="int" value="0"/>
   </properties>
  </object>
  <object id="2218" gid="16388" x="21067" y="176" width="16" height="16">
   <properties>
    <property name="Channel" value="1"/>
    <property name="Color" type="color" value="#ff000000"/>
    <property name="Frames" type="int" value="0"/>
   </properties>
  </object>
  <object id="2194" gid="16388" x="20388" y="176" width="16" height="16">
   <properties>
    <property name="Channel" value="1"/>
    <property name="Color" type="color" value="#ff000000"/>
    <property name="Frames" type="int" value="18"/>
   </properties>
  </object>
  <object id="2180" gid="16388" x="20104" y="176" width="16" height="16">
   <properties>
    <property name="Channel" value="1"/>
    <property name="Color" type="color" value="#ff000000"/>
    <property name="Frames" type="int" value="30"/>
   </properties>
  </object>
  <object id="2184" gid="16388" x="20186" y="176" width="16" height="16">
   <properties>
    <property name="Channel" value="1"/>
    <property name="Color" type="color" value="#ff000000"/>
    <property name="Frames" type="int" value="18"/>
   </properties>
  </object>
  <object id="2160" gid="16388" x="19168" y="176" width="16" height="16">
   <properties>
    <property name="Channel" value="1"/>
    <property name="Color" type="color" value="#ff000000"/>
    <property name="Frames" type="int" value="0"/>
   </properties>
  </object>
  <object id="2162" gid="16388" x="19215" y="176" width="16" height="16">
   <properties>
    <property name="Channel" value="1"/>
    <property name="Color" type="color" value="#ff000000"/>
    <property name="Frames" type="int" value="0"/>
   </properties>
  </object>
  <object id="2102" gid="16388" x="17635" y="192" width="16" height="16">
   <properties>
    <property name="Channel" value="2"/>
    <property name="Color" type="color" value="#ff000000"/>
    <property name="Frames" type="int" value="21"/>
   </properties>
  </object>
  <object id="2106" gid="16388" x="17723" y="192" width="16" height="16">
   <properties>
    <property name="Channel" value="2"/>
    <property name="Color" type="color" value="#ff000000"/>
    <property name="Frames" type="int" value="21"/>
   </properties>
  </object>
  <object id="2110" gid="16388" x="17838" y="192" width="16" height="16">
   <properties>
    <property name="Channel" value="2"/>
    <property name="Color" type="color" value="#ff000000"/>
    <property name="Frames" type="int" value="21"/>
   </properties>
  </object>
  <object id="2114" gid="16388" x="17896" y="192" width="16" height="16">
   <properties>
    <property name="Channel" value="2"/>
    <property name="Color" type="color" value="#ff000000"/>
    <property name="Frames" type="int" value="21"/>
   </properties>
  </object>
  <object id="2118" gid="16388" x="18020" y="192" width="16" height="16">
   <properties>
    <property name="Channel" value="2"/>
    <property name="Color" type="color" value="#ff000000"/>
    <property name="Frames" type="int" value="21"/>
   </properties>
  </object>
  <object id="2122" gid="16388" x="18100" y="192" width="16" height="16">
   <properties>
    <property name="Channel" value="2"/>
    <property name="Color" type="color" value="#ff000000"/>
    <property name="Frames" type="int" value="21"/>
   </properties>
  </object>
  <object id="2126" gid="16388" x="18191" y="192" width="16" height="16">
   <properties>
    <property name="Channel" value="2"/>
    <property name="Color" type="color" value="#ff000000"/>
    <property name="Frames" type="int" value="21"/>
   </properties>
  </object>
  <object id="2130" gid="16388" x="18296" y="192" width="16" height="16">
   <properties>
    <property name="Channel" value="2"/>
    <property name="Color" type="color" value="#ff000000"/>
    <property name="Frames" type="int" value="21"/>
   </properties>
  </object>
  <object id="2134" gid="16388" x="18357" y="192" width="16" height="16">
   <properties>
    <property name="Channel" value="2"/>
    <property name="Color" type="color" value="#ff000000"/>
    <property name="Frames" type="int" value="21"/>
   </properties>
  </object>
  <object id="2138" gid="16388" x="18474" y="192" width="16" height="16">
   <properties>
    <property name="Channel" value="2"/>
    <property name="Color" type="color" value="#ff000000"/>
    <property name="Frames" type="int" value="21"/>
   </properties>
  </object>
  <object id="2142" gid="16388" x="18560" y="192" width="16" height="16">
   <properties>
    <property name="Channel" value="2"/>
    <property name="Color" type="color" value="#ff000000"/>
    <property name="Frames" type="int" value="21"/>
   </properties>
  </object>
  <object id="2146" gid="16388" x="18648" y="192" width="16" height="16">
   <properties>
    <property name="Channel" value="2"/>
    <property name="Color" type="color" value="#ff000000"/>
    <property name="Frames" type="int" value="21"/>
   </properties>
  </object>
  <object id="2150" gid="16388" x="18833" y="192" width="16" height="16">
   <properties>
    <property name="Channel" value="2"/>
    <property name="Color" type="color" value="#ff000000"/>
    <property name="Frames" type="int" value="42"/>
   </properties>
  </object>
  <object id="2154" gid="16388" x="19066" y="192" width="16" height="16">
   <properties>
    <property name="Channel" value="2"/>
    <property name="Color" type="color" value="#ff000000"/>
    <property name="Frames" type="int" value="42"/>
   </properties>
  </object>
  <object id="2158" gid="16388" x="19311" y="192" width="16" height="16">
   <properties>
    <property name="Channel" value="2"/>
    <property name="Color" type="color" value="#ff000000"/>
    <property name="Frames" type="int" value="42"/>
   </properties>
  </object>
  <object id="2170" gid="16388" x="19528" y="192" width="16" height="16">
   <properties>
    <property name="Channel" value="2"/>
    <property name="Color" type="color" value="#ff000000"/>
    <property name="Frames" type="int" value="42"/>
   </properties>
  </object>
  <object id="2174" gid="16388" x="19760" y="192" width="16" height="16">
   <properties>
    <property name="Channel" value="2"/>
    <property name="Color" type="color" value="#ff000000"/>
    <property name="Frames" type="int" value="42"/>
   </properties>
  </object>
  <object id="2178" gid="16388" x="19995" y="192" width="16" height="16">
   <properties>
    <property name="Channel" value="2"/>
    <property name="Color" type="color" value="#ff000000"/>
    <property name="Frames" type="int" value="42"/>
   </properties>
  </object>
  <object id="2186" gid="16388" x="20212" y="192" width="16" height="16">
   <properties>
    <property name="Channel" value="2"/>
    <property name="Color" type="color" value="#ff000000"/>
    <property name="Frames" type="int" value="42"/>
   </properties>
  </object>
  <object id="2192" gid="16388" x="20332" y="192" width="16" height="16">
   <properties>
    <property name="Channel" value="2"/>
    <property name="Color" type="color" value="#ff000000"/>
    <property name="Frames" type="int" value="42"/>
   </properties>
  </object>
  <object id="2196" gid="16388" x="20420" y="192" width="16" height="16">
   <properties>
    <property name="Channel" value="2"/>
    <property name="Color" type="color" value="#ff000000"/>
    <property name="Frames" type="int" value="42"/>
   </properties>
  </object>
  <object id="2200" gid="16388" x="20501" y="192" width="16" height="16">
   <properties>
    <property name="Channel" value="2"/>
    <property name="Color" type="color" value="#ff000000"/>
    <property name="Frames" type="int" value="27"/>
   </properties>
  </object>
  <object id="2204" gid="16388" x="20674" y="192" width="16" height="16">
   <properties>
    <property name="Channel" value="2"/>
    <property name="Color" type="color" value="#ff000000"/>
    <property name="Frames" type="int" value="27"/>
   </properties>
  </object>
  <object id="2208" gid="16388" x="20911" y="192" width="16" height="16">
   <properties>
    <property name="Channel" value="2"/>
    <property name="Color" type="color" value="#ff000000"/>
    <property name="Frames" type="int" value="27"/>
   </properties>
  </object>
  <object id="2224" gid="16388" x="21360" y="192" width="16" height="16">
   <properties>
    <property name="Channel" value="2"/>
    <property name="Color" type="color" value="#ff000000"/>
    <property name="Frames" type="int" value="60"/>
   </properties>
  </object>
  <object id="2230" gid="16388" x="21603" y="192" width="16" height="16">
   <properties>
    <property name="Channel" value="2"/>
    <property name="Color" type="color" value="#ff000000"/>
    <property name="Frames" type="int" value="42"/>
   </properties>
  </object>
  <object id="2234" gid="16388" x="21825" y="192" width="16" height="16">
   <properties>
    <property name="Channel" value="2"/>
    <property name="Color" type="color" value="#ff000000"/>
    <property name="Frames" type="int" value="42"/>
   </properties>
  </object>
  <object id="2238" gid="16388" x="21995" y="192" width="16" height="16">
   <properties>
    <property name="Channel" value="2"/>
    <property name="Color" type="color" value="#ff000000"/>
    <property name="Frames" type="int" value="21"/>
   </properties>
  </object>
  <object id="2242" gid="16388" x="22061" y="192" width="16" height="16">
   <properties>
    <property name="Channel" value="2"/>
    <property name="Color" type="color" value="#ff000000"/>
    <property name="Frames" type="int" value="42"/>
   </properties>
  </object>
  <object id="2246" gid="16388" x="22174" y="192" width="16" height="16">
   <properties>
    <property name="Channel" value="2"/>
    <property name="Color" type="color" value="#ff000000"/>
    <property name="Frames" type="int" value="600"/>
   </properties>
  </object>
  <object id="2212" gid="16388" x="21155" y="192" width="16" height="16">
   <properties>
    <property name="Channel" value="2"/>
    <property name="Color" type="color" value="#ff000000"/>
    <property name="Frames" type="int" value="27"/>
   </properties>
  </object>
  <object id="2216" gid="16388" x="21059" y="192" width="16" height="16">
   <properties>
    <property name="Channel" value="2"/>
    <property name="Color" type="color" value="#ff000000"/>
    <property name="Frames" type="int" value="0"/>
   </properties>
  </object>
  <object id="2220" gid="16388" x="21099" y="192" width="16" height="16">
   <properties>
    <property name="Channel" value="2"/>
    <property name="Color" type="color" value="#ff000000"/>
    <property name="Frames" type="int" value="0"/>
   </properties>
  </object>
  <object id="2182" gid="16388" x="20152" y="192" width="16" height="16">
   <properties>
    <property name="Channel" value="2"/>
    <property name="Color" type="color" value="#ff000000"/>
    <property name="Frames" type="int" value="21"/>
   </properties>
  </object>
  <object id="2164" gid="16388" x="19192" y="192" width="16" height="16">
   <properties>
    <property name="Channel" value="2"/>
    <property name="Color" type="color" value="#ff000000"/>
    <property name="Frames" type="int" value="0"/>
   </properties>
  </object>
  <object id="2166" gid="16388" x="19231" y="192" width="16" height="16">
   <properties>
    <property name="Channel" value="2"/>
    <property name="Color" type="color" value="#ff000000"/>
    <property name="Frames" type="int" value="0"/>
   </properties>
  </object>
  <object id="1974" gid="3489" x="21664" y="320" width="16" height="16">
   <properties>
    <property name="bg layer" value="0"/>
   </properties>
  </object>
  <object id="1975" gid="711" x="21808" y="328" width="16" height="16">
   <properties>
    <property name="bg layer" value="2"/>
   </properties>
  </object>
  <object id="1976" gid="16407" x="21600" y="336" width="16" height="16">
   <properties>
    <property name="color channel" value="3"/>
   </properties>
  </object>
  <object id="1977" gid="16407" x="21632" y="400" width="16" height="16">
   <properties>
    <property name="color channel" value="3"/>
   </properties>
  </object>
  <object id="1978" gid="16407" x="21696" y="256" width="16" height="16">
   <properties>
    <property name="color channel" value="3"/>
   </properties>
  </object>
  <object id="1979" gid="16407" x="21744" y="288" width="16" height="16">
   <properties>
    <property name="color channel" value="3"/>
   </properties>
  </object>
  <object id="1980" gid="16407" x="21760" y="376" width="16" height="16">
   <properties>
    <property name="color channel" value="3"/>
   </properties>
  </object>
  <object id="1981" gid="16407" x="21856" y="256" width="16" height="16">
   <properties>
    <property name="color channel" value="3"/>
   </properties>
  </object>
  <object id="1982" gid="16407" x="21920" y="272" width="16" height="16">
   <properties>
    <property name="color channel" value="3"/>
   </properties>
  </object>
  <object id="1983" gid="16407" x="21872" y="392" width="16" height="16">
   <properties>
    <property name="color channel" value="3"/>
   </properties>
  </object>
  <object id="1984" gid="16407" x="22016" y="416" width="16" height="16">
   <properties>
    <property name="color channel" value="3"/>
   </properties>
  </object>
  <object id="1985" gid="16407" x="22080" y="384" width="16" height="16">
   <properties>
    <property name="color channel" value="3"/>
   </properties>
  </object>
  <object id="1986" gid="16407" x="22192" y="416" width="16" height="16">
   <properties>
    <property name="color channel" value="3"/>
   </properties>
  </object>
  <object id="1987" gid="16407" x="22208" y="336" width="16" height="16">
   <properties>
    <property name="color channel" value="3"/>
   </properties>
  </object>
  <object id="1988" gid="16407" x="22016" y="256" width="16" height="16">
   <properties>
    <property name="color channel" value="3"/>
   </properties>
  </object>
  <object id="1989" gid="16407" x="22048" y="288" width="16" height="16">
   <properties>
    <property name="color channel" value="3"/>
   </properties>
  </object>
  <object id="1990" gid="16407" x="22176" y="272" width="16" height="16">
   <properties>
    <property name="color channel" value="3"/>
   </properties>
  </object>
  <object id="2227" gid="16388" x="21468" y="208" width="16" height="16">
   <properties>
    <property name="Channel" value="3"/>
    <property name="Color" type="color" value="#ffc20000"/>
    <property name="Frames" type="int" value="30"/>
   </properties>
  </object>
  <object id="2228" gid="16388" x="21468" y="224" width="16" height="16">
   <properties>
    <property name="Channel" value="4"/>
    <property name="Color" type="color" value="#ff4e0000"/>
    <property name="Frames" type="int" value="30"/>
   </properties>
  </object>
  <object id="2247" gid="16388" x="22174" y="208" width="16" height="16">
   <properties>
    <property name="Channel" value="3"/>
    <property name="Color" type="color" value="#ff000000"/>
    <property name="Frames" type="int" value="600"/>
   </properties>
  </object>
  <object id="2248" gid="16388" x="22174" y="224" width="16" height="16">
   <properties>
    <property name="Channel" value="4"/>
    <property name="Color" type="color" value="#ff000000"/>
    <property name="Frames" type="int" value="600"/>
   </properties>
  </object>
  <object id="2249" gid="16388" x="22174" y="160" width="16" height="16">
   <properties>
    <property name="Channel" value="LINE"/>
    <property name="Color" type="color" value="#ff000000"/>
    <property name="Color Blending" type="bool" value="true"/>
   </properties>
  </object>
  <object id="2379" gid="16389" x="1624" y="432" width="16" height="16">
   <properties>
    <property name="bg layer" value="1"/>
    <property name="color channel" value="3"/>
   </properties>
  </object>
  <object id="2400" gid="16389" x="2272" y="432" width="16" height="16">
   <properties>
    <property name="bg layer" value="1"/>
    <property name="color channel" value="3"/>
   </properties>
  </object>
  <object id="2406" gid="16389" x="2480" y="432" width="16" height="16">
   <properties>
    <property name="bg layer" value="1"/>
    <property name="color channel" value="3"/>
   </properties>
  </object>
  <object id="2390" gid="16389" x="2000" y="432" width="16" height="16">
   <properties>
    <property name="bg layer" value="1"/>
    <property name="color channel" value="3"/>
   </properties>
  </object>
  <object id="2380" gid="16536" x="1680" y="432" width="16" height="16">
   <properties>
    <property name="bg layer" value="1"/>
    <property name="color channel" value="4"/>
   </properties>
  </object>
  <object id="2393" gid="16536" x="2024" y="432" width="16" height="16">
   <properties>
    <property name="bg layer" value="1"/>
    <property name="color channel" value="4"/>
   </properties>
  </object>
  <object id="2399" gid="16536" x="2248" y="432" width="16" height="16">
   <properties>
    <property name="bg layer" value="1"/>
    <property name="color channel" value="4"/>
   </properties>
  </object>
  <object id="2409" gid="16536" x="2514" y="432" width="16" height="16">
   <properties>
    <property name="bg layer" value="1"/>
    <property name="color channel" value="4"/>
   </properties>
  </object>
  <object id="2425" gid="16536" x="3024" y="432" width="16" height="16">
   <properties>
    <property name="bg layer" value="1"/>
    <property name="color channel" value="4"/>
   </properties>
  </object>
  <object id="2427" gid="16536" x="3133" y="432" width="16" height="16">
   <properties>
    <property name="bg layer" value="1"/>
    <property name="color channel" value="4"/>
   </properties>
  </object>
  <object id="2432" gid="16536" x="3331" y="432" width="16" height="16">
   <properties>
    <property name="bg layer" value="1"/>
    <property name="color channel" value="3"/>
   </properties>
  </object>
  <object id="2429" gid="16536" x="3229" y="432" width="16" height="16">
   <properties>
    <property name="bg layer" value="1"/>
    <property name="color channel" value="4"/>
   </properties>
  </object>
  <object id="2438" gid="16536" x="3436" y="432" width="16" height="16">
   <properties>
    <property name="bg layer" value="1"/>
    <property name="color channel" value="4"/>
   </properties>
  </object>
  <object id="2418" gid="16536" x="2840" y="432" width="16" height="16">
   <properties>
    <property name="bg layer" value="1"/>
    <property name="color channel" value="4"/>
   </properties>
  </object>
  <object id="2408" gid="16536" x="2480" y="432" width="16" height="16">
   <properties>
    <property name="bg layer" value="1"/>
    <property name="color channel" value="4"/>
   </properties>
  </object>
  <object id="2405" gid="16536" x="2376" y="432" width="16" height="16">
   <properties>
    <property name="bg layer" value="1"/>
    <property name="color channel" value="4"/>
   </properties>
  </object>
  <object id="2414" gid="16536" x="2648" y="432" width="16" height="16">
   <properties>
    <property name="bg layer" value="1"/>
    <property name="color channel" value="4"/>
   </properties>
  </object>
  <object id="2394" gid="16536" x="2072" y="432" width="16" height="16">
   <properties>
    <property name="bg layer" value="1"/>
    <property name="color channel" value="4"/>
   </properties>
  </object>
  <object id="2389" gid="16536" x="1904" y="432" width="16" height="16">
   <properties>
    <property name="bg layer" value="1"/>
    <property name="color channel" value="4"/>
   </properties>
  </object>
  <object id="2381" gid="16390" x="1712" y="432" width="16" height="16">
   <properties>
    <property name="bg layer" value="1"/>
    <property name="color channel" value="3"/>
   </properties>
  </object>
  <object id="2395" gid="16390" x="2080" y="432" width="16" height="16">
   <properties>
    <property name="bg layer" value="1"/>
    <property name="color channel" value="3"/>
    <property name="hflip" type="bool" value="true"/>
   </properties>
  </object>
  <object id="2402" gid="16390" x="2320" y="432" width="16" height="16">
   <properties>
    <property name="bg layer" value="1"/>
    <property name="color channel" value="3"/>
    <property name="hflip" type="bool" value="false"/>
   </properties>
  </object>
  <object id="2404" gid="16390" x="2384" y="432" width="16" height="16">
   <properties>
    <property name="bg layer" value="1"/>
    <property name="color channel" value="3"/>
    <property name="hflip" type="bool" value="true"/>
   </properties>
  </object>
  <object id="2422" gid="16390" x="3016" y="432" width="16" height="16">
   <properties>
    <property name="bg layer" value="1"/>
    <property name="color channel" value="3"/>
    <property name="hflip" type="bool" value="true"/>
   </properties>
  </object>
  <object id="2397" gid="16390" x="2192" y="432" width="16" height="16">
   <properties>
    <property name="bg layer" value="1"/>
    <property name="color channel" value="3"/>
    <property name="hflip" type="bool" value="false"/>
   </properties>
  </object>
  <object id="2383" gid="16390" x="1792" y="432" width="16" height="16">
   <properties>
    <property name="bg layer" value="1"/>
    <property name="color channel" value="3"/>
    <property name="hflip" type="bool" value="true"/>
   </properties>
  </object>
  <object id="2382" gid="16535" x="1736" y="432" width="16" height="16">
   <properties>
    <property name="bg layer" value="1"/>
    <property name="color channel" value="4"/>
   </properties>
  </object>
  <object id="2391" gid="16535" x="2000" y="432" width="16" height="16">
   <properties>
    <property name="bg layer" value="1"/>
    <property name="color channel" value="4"/>
   </properties>
  </object>
  <object id="2384" gid="16535" x="1792" y="432" width="16" height="16">
   <properties>
    <property name="bg layer" value="1"/>
    <property name="color channel" value="4"/>
   </properties>
  </object>
  <object id="2385" gid="16391" x="1851" y="432" width="16" height="16">
   <properties>
    <property name="bg layer" value="1"/>
    <property name="color channel" value="3"/>
   </properties>
  </object>
  <object id="2401" gid="16391" x="2133" y="432" width="16" height="16">
   <properties>
    <property name="bg layer" value="1"/>
    <property name="color channel" value="3"/>
   </properties>
  </object>
  <object id="2411" gid="16391" x="3280" y="432" width="16" height="16">
   <properties>
    <property name="bg layer" value="1"/>
    <property name="color channel" value="3"/>
   </properties>
  </object>
  <object id="2419" gid="16391" x="2840" y="432" width="16" height="16">
   <properties>
    <property name="bg layer" value="1"/>
    <property name="color channel" value="3"/>
   </properties>
  </object>
  <object id="2412" gid="16391" x="2648" y="432" width="16" height="16">
   <properties>
    <property name="bg layer" value="1"/>
    <property name="color channel" value="3"/>
   </properties>
  </object>
  <object id="2388" gid="16391" x="1904" y="432" width="16" height="16">
   <properties>
    <property name="bg layer" value="1"/>
    <property name="color channel" value="3"/>
   </properties>
  </object>
  <object id="2386" gid="16537" x="1840" y="432" width="16" height="16">
   <properties>
    <property name="bg layer" value="1"/>
    <property name="color channel" value="4"/>
   </properties>
  </object>
  <object id="2392" gid="16537" x="1980" y="432" width="16" height="16">
   <properties>
    <property name="bg layer" value="1"/>
    <property name="color channel" value="4"/>
   </properties>
  </object>
  <object id="2410" gid="16537" x="2497" y="432" width="16" height="16">
   <properties>
    <property name="bg layer" value="1"/>
    <property name="color channel" value="4"/>
   </properties>
  </object>
  <object id="2420" gid="16537" x="2888" y="432" width="16" height="16">
   <properties>
    <property name="bg layer" value="1"/>
    <property name="color channel" value="4"/>
   </properties>
  </object>
  <object id="2426" gid="16537" x="3072" y="432" width="16" height="16">
   <properties>
    <property name="bg layer" value="1"/>
    <property name="color channel" value="4"/>
   </properties>
  </object>
  <object id="2430" gid="16537" x="3168" y="432" width="16" height="16">
   <properties>
    <property name="bg layer" value="1"/>
    <property name="color channel" value="4"/>
   </properties>
  </object>
  <object id="2439" gid="16537" x="3504" y="432" width="16" height="16">
   <properties>
    <property name="bg layer" value="1"/>
    <property name="color channel" value="4"/>
   </properties>
  </object>
  <object id="2413" gid="16537" x="2600" y="432" width="16" height="16">
   <properties>
    <property name="bg layer" value="1"/>
    <property name="color channel" value="4"/>
   </properties>
  </object>
  <object id="2428" gid="16537" x="2600" y="432" width="16" height="16">
   <properties>
    <property name="bg layer" value="1"/>
    <property name="color channel" value="4"/>
   </properties>
  </object>
  <object id="2396" gid="16537" x="2140" y="432" width="16" height="16">
   <properties>
    <property name="bg layer" value="1"/>
    <property name="color channel" value="4"/>
   </properties>
  </object>
  <object id="2398" gid="16535" x="2192" y="432" width="16" height="16">
   <properties>
    <property name="bg layer" value="1"/>
    <property name="color channel" value="4"/>
   </properties>
  </object>
  <object id="2403" gid="16535" x="2328" y="432" width="16" height="16">
   <properties>
    <property name="bg layer" value="1"/>
    <property name="color channel" value="4"/>
   </properties>
  </object>
  <object id="2407" gid="16535" x="2456" y="432" width="16" height="16">
   <properties>
    <property name="bg layer" value="1"/>
    <property name="color channel" value="4"/>
   </properties>
  </object>
  <object id="2416" gid="16535" x="2768" y="432" width="16" height="16">
   <properties>
    <property name="bg layer" value="1"/>
    <property name="color channel" value="4"/>
   </properties>
  </object>
  <object id="2423" gid="16535" x="2768" y="432" width="16" height="16">
   <properties>
    <property name="bg layer" value="1"/>
    <property name="color channel" value="4"/>
   </properties>
  </object>
  <object id="2424" gid="16535" x="3000" y="432" width="16" height="16">
   <properties>
    <property name="bg layer" value="1"/>
    <property name="color channel" value="4"/>
   </properties>
  </object>
  <object id="2437" gid="16535" x="3412" y="432" width="16" height="16">
   <properties>
    <property name="bg layer" value="1"/>
    <property name="color channel" value="4"/>
   </properties>
  </object>
  <object id="2431" gid="16535" x="3280" y="432" width="16" height="16">
   <properties>
    <property name="bg layer" value="1"/>
    <property name="color channel" value="4"/>
   </properties>
  </object>
  <object id="2417" gid="16537" x="2788" y="432" width="16" height="16">
   <properties>
    <property name="bg layer" value="1"/>
    <property name="color channel" value="4"/>
   </properties>
  </object>
  <object id="2434" gid="16391" x="3337" y="432" width="16" height="16">
   <properties>
    <property name="bg layer" value="1"/>
    <property name="color channel" value="3"/>
   </properties>
  </object>
  <object id="2435" gid="16389" x="3408" y="432" width="16" height="16">
   <properties>
    <property name="bg layer" value="1"/>
    <property name="color channel" value="3"/>
   </properties>
  </object>
  <object id="2436" gid="16390" x="3488" y="432" width="16" height="16">
   <properties>
    <property name="bg layer" value="1"/>
    <property name="color channel" value="3"/>
   </properties>
  </object>
  <object id="2461" gid="16535" x="3536" y="336" width="16" height="16">
   <properties>
    <property name="bg layer" value="1"/>
    <property name="color channel" value="3"/>
   </properties>
  </object>
  <object id="2466" gid="16535" x="3712" y="336" width="16" height="16">
   <properties>
    <property name="bg layer" value="1"/>
    <property name="color channel" value="3"/>
   </properties>
  </object>
  <object id="2645" gid="16535" x="3856" y="336" width="16" height="16">
   <properties>
    <property name="bg layer" value="1"/>
    <property name="color channel" value="3"/>
   </properties>
  </object>
  <object id="2649" gid="16535" x="3984" y="336" width="16" height="16">
   <properties>
    <property name="bg layer" value="1"/>
    <property name="color channel" value="3"/>
   </properties>
  </object>
  <object id="2653" gid="16535" x="4128" y="336" width="16" height="16">
   <properties>
    <property name="bg layer" value="1"/>
    <property name="color channel" value="3"/>
   </properties>
  </object>
  <object id="2657" gid="16535" x="4256" y="336" width="16" height="16">
   <properties>
    <property name="bg layer" value="1"/>
    <property name="color channel" value="3"/>
   </properties>
  </object>
  <object id="2658" gid="16535" x="4336" y="336" width="16" height="16">
   <properties>
    <property name="bg layer" value="1"/>
    <property name="color channel" value="3"/>
   </properties>
  </object>
  <object id="2662" gid="16535" x="4464" y="336" width="16" height="16">
   <properties>
    <property name="bg layer" value="1"/>
    <property name="color channel" value="3"/>
   </properties>
  </object>
  <object id="2462" gid="16391" x="3532" y="336" width="16" height="16">
   <properties>
    <property name="bg layer" value="1"/>
    <property name="color channel" value="3"/>
   </properties>
  </object>
  <object id="2482" gid="16391" x="3712" y="224" width="16" height="16">
   <properties>
    <property name="bg layer" value="1"/>
    <property name="color channel" value="3"/>
    <property name="vflip" type="bool" value="true"/>
   </properties>
  </object>
  <object id="2468" gid="16391" x="3716" y="336" width="16" height="16">
   <properties>
    <property name="bg layer" value="1"/>
    <property name="color channel" value="3"/>
   </properties>
  </object>
  <object id="2463" gid="16389" x="3573" y="336" width="16" height="16">
   <properties>
    <property name="bg layer" value="1"/>
    <property name="color channel" value="3"/>
   </properties>
  </object>
  <object id="2481" gid="16389" x="3648" y="224" width="16" height="16">
   <properties>
    <property name="bg layer" value="1"/>
    <property name="color channel" value="3"/>
    <property name="vflip" type="bool" value="true"/>
   </properties>
  </object>
  <object id="2467" gid="16389" x="3664" y="336" width="16" height="16">
   <properties>
    <property name="bg layer" value="1"/>
    <property name="color channel" value="3"/>
   </properties>
  </object>
  <object id="2464" gid="16536" x="3584" y="336" width="16" height="16">
   <properties>
    <property name="bg layer" value="1"/>
    <property name="color channel" value="3"/>
   </properties>
  </object>
  <object id="2644" gid="16536" x="3827" y="336" width="16" height="16">
   <properties>
    <property name="bg layer" value="1"/>
    <property name="color channel" value="3"/>
   </properties>
  </object>
  <object id="2646" gid="16536" x="3888" y="336" width="16" height="16">
   <properties>
    <property name="bg layer" value="1"/>
    <property name="color channel" value="3"/>
   </properties>
  </object>
  <object id="2648" gid="16536" x="3952" y="336" width="16" height="16">
   <properties>
    <property name="bg layer" value="1"/>
    <property name="color channel" value="3"/>
   </properties>
  </object>
  <object id="2650" gid="16536" x="4016" y="336" width="16" height="16">
   <properties>
    <property name="bg layer" value="1"/>
    <property name="color channel" value="3"/>
   </properties>
  </object>
  <object id="2652" gid="16536" x="4096" y="336" width="16" height="16">
   <properties>
    <property name="bg layer" value="1"/>
    <property name="color channel" value="3"/>
   </properties>
  </object>
  <object id="2654" gid="16536" x="4160" y="336" width="16" height="16">
   <properties>
    <property name="bg layer" value="1"/>
    <property name="color channel" value="3"/>
   </properties>
  </object>
  <object id="2656" gid="16536" x="4224" y="336" width="16" height="16">
   <properties>
    <property name="bg layer" value="1"/>
    <property name="color channel" value="3"/>
   </properties>
  </object>
  <object id="2659" gid="16536" x="4368" y="336" width="16" height="16">
   <properties>
    <property name="bg layer" value="1"/>
    <property name="color channel" value="3"/>
   </properties>
  </object>
  <object id="2661" gid="16536" x="4432" y="336" width="16" height="16">
   <properties>
    <property name="bg layer" value="1"/>
    <property name="color channel" value="3"/>
   </properties>
  </object>
  <object id="2664" gid="16536" x="4528" y="336" width="16" height="16">
   <properties>
    <property name="bg layer" value="1"/>
    <property name="color channel" value="3"/>
   </properties>
  </object>
  <object id="2470" gid="16536" x="3621" y="224" width="16" height="16">
   <properties>
    <property name="bg layer" value="1"/>
    <property name="color channel" value="3"/>
    <property name="vflip" type="bool" value="true"/>
   </properties>
  </object>
  <object id="2477" gid="16536" x="3741" y="224" width="16" height="16">
   <properties>
    <property name="bg layer" value="1"/>
    <property name="color channel" value="3"/>
    <property name="vflip" type="bool" value="true"/>
   </properties>
  </object>
  <object id="2480" gid="16536" x="3819" y="224" width="16" height="16">
   <properties>
    <property name="bg layer" value="1"/>
    <property name="color channel" value="3"/>
    <property name="vflip" type="bool" value="true"/>
   </properties>
  </object>
  <object id="2465" gid="16536" x="3664" y="336" width="16" height="16">
   <properties>
    <property name="bg layer" value="1"/>
    <property name="color channel" value="3"/>
   </properties>
  </object>
  <object id="2469" gid="16537" x="3640" y="336" width="16" height="16">
   <properties>
    <property name="bg layer" value="1"/>
    <property name="color channel" value="3"/>
   </properties>
  </object>
  <object id="2647" gid="16537" x="3920" y="336" width="16" height="16">
   <properties>
    <property name="bg layer" value="1"/>
    <property name="color channel" value="3"/>
   </properties>
  </object>
  <object id="2651" gid="16537" x="4040" y="336" width="16" height="16">
   <properties>
    <property name="bg layer" value="1"/>
    <property name="color channel" value="3"/>
   </properties>
  </object>
  <object id="2655" gid="16537" x="4192" y="336" width="16" height="16">
   <properties>
    <property name="bg layer" value="1"/>
    <property name="color channel" value="3"/>
   </properties>
  </object>
  <object id="2660" gid="16537" x="4400" y="336" width="16" height="16">
   <properties>
    <property name="bg layer" value="1"/>
    <property name="color channel" value="3"/>
   </properties>
  </object>
  <object id="2663" gid="16537" x="4496" y="336" width="16" height="16">
   <properties>
    <property name="bg layer" value="1"/>
    <property name="color channel" value="3"/>
   </properties>
  </object>
  <object id="2665" gid="16537" x="4560" y="336" width="16" height="16">
   <properties>
    <property name="bg layer" value="1"/>
    <property name="color channel" value="3"/>
   </properties>
  </object>
  <object id="2473" gid="16537" x="3674" y="224" width="16" height="16">
   <properties>
    <property name="bg layer" value="1"/>
    <property name="color channel" value="3"/>
    <property name="vflip" type="bool" value="true"/>
   </properties>
  </object>
  <object id="2476" gid="16537" x="3720" y="224" width="16" height="16">
   <properties>
    <property name="bg layer" value="1"/>
    <property name="color channel" value="3"/>
    <property name="vflip" type="bool" value="true"/>
   </properties>
  </object>
  <object id="2478" gid="16537" x="3760" y="224" width="16" height="16">
   <properties>
    <property name="bg layer" value="1"/>
    <property name="color channel" value="3"/>
    <property name="vflip" type="bool" value="true"/>
   </properties>
  </object>
  <object id="2471" gid="16535" x="3648" y="224" width="16" height="16">
   <properties>
    <property name="bg layer" value="1"/>
    <property name="color channel" value="3"/>
    <property name="vflip" type="bool" value="true"/>
   </properties>
  </object>
  <object id="2472" gid="16535" x="3696" y="224" width="16" height="16">
   <properties>
    <property name="bg layer" value="1"/>
    <property name="color channel" value="3"/>
    <property name="vflip" type="bool" value="true"/>
   </properties>
  </object>
  <object id="2479" gid="16535" x="3792" y="224" width="16" height="16">
   <properties>
    <property name="bg layer" value="1"/>
    <property name="color channel" value="3"/>
    <property name="vflip" type="bool" value="true"/>
   </properties>
  </object>
  <object id="2475" gid="3470" x="4560" y="280" width="16" height="16">
   <properties>
    <property name="bg layer" value="2"/>
   </properties>
  </object>
  <object id="2483" gid="16390" x="3760" y="224" width="16" height="16">
   <properties>
    <property name="bg layer" value="1"/>
    <property name="color channel" value="3"/>
    <property name="vflip" type="bool" value="true"/>
   </properties>
  </object>
  <object id="2484" gid="16391" x="3808" y="224" width="16" height="16">
   <properties>
    <property name="bg layer" value="1"/>
    <property name="color channel" value="3"/>
    <property name="vflip" type="bool" value="true"/>
   </properties>
  </object>
  <object id="2485" gid="16505" x="13216" y="397" width="16" height="16">
   <properties>
    <property name="bg layer" value="1"/>
    <property name="color channel" value="4"/>
    <property name="z index" type="int" value="15"/>
   </properties>
  </object>
  <object id="2617" gid="16505" x="13376" y="368" width="16" height="16">
   <properties>
    <property name="bg layer" value="1"/>
    <property name="color channel" value="2"/>
    <property name="z index" type="int" value="15"/>
   </properties>
  </object>
  <object id="2622" gid="16505" x="13808" y="320" width="16" height="16">
   <properties>
    <property name="bg layer" value="1"/>
    <property name="color channel" value="2"/>
    <property name="z index" type="int" value="15"/>
   </properties>
  </object>
  <object id="2624" gid="16505" x="13920" y="315" width="16" height="16">
   <properties>
    <property name="bg layer" value="1"/>
    <property name="color channel" value="2"/>
    <property name="z index" type="int" value="15"/>
   </properties>
  </object>
  <object id="2626" gid="16505" x="13968" y="373" width="16" height="16">
   <properties>
    <property name="bg layer" value="1"/>
    <property name="color channel" value="2"/>
    <property name="z index" type="int" value="15"/>
   </properties>
  </object>
  <object id="2630" gid="16505" x="14272" y="373" width="16" height="16">
   <properties>
    <property name="bg layer" value="1"/>
    <property name="color channel" value="2"/>
    <property name="z index" type="int" value="15"/>
   </properties>
  </object>
  <object id="2632" gid="16505" x="14320" y="320" width="16" height="16">
   <properties>
    <property name="bg layer" value="1"/>
    <property name="color channel" value="2"/>
    <property name="z index" type="int" value="15"/>
   </properties>
  </object>
  <object id="2638" gid="16505" x="14592" y="373" width="16" height="16">
   <properties>
    <property name="bg layer" value="1"/>
    <property name="color channel" value="2"/>
    <property name="z index" type="int" value="15"/>
   </properties>
  </object>
  <object id="2559" gid="16505" x="13312" y="291" width="16" height="16">
   <properties>
    <property name="bg layer" value="1"/>
    <property name="color channel" value="3"/>
    <property name="z index" type="int" value="15"/>
   </properties>
  </object>
  <object id="2566" gid="16505" x="13472" y="291" width="16" height="16">
   <properties>
    <property name="bg layer" value="1"/>
    <property name="color channel" value="3"/>
    <property name="z index" type="int" value="15"/>
   </properties>
  </object>
  <object id="2570" gid="16505" x="13632" y="291" width="16" height="16">
   <properties>
    <property name="bg layer" value="1"/>
    <property name="color channel" value="3"/>
    <property name="z index" type="int" value="15"/>
   </properties>
  </object>
  <object id="2578" gid="16505" x="13840" y="291" width="16" height="16">
   <properties>
    <property name="bg layer" value="1"/>
    <property name="color channel" value="3"/>
    <property name="z index" type="int" value="15"/>
   </properties>
  </object>
  <object id="2580" gid="16505" x="13888" y="291" width="16" height="16">
   <properties>
    <property name="bg layer" value="1"/>
    <property name="color channel" value="3"/>
    <property name="z index" type="int" value="15"/>
   </properties>
  </object>
  <object id="2584" gid="16505" x="14016" y="291" width="16" height="16">
   <properties>
    <property name="bg layer" value="1"/>
    <property name="color channel" value="3"/>
    <property name="z index" type="int" value="15"/>
   </properties>
  </object>
  <object id="2588" gid="16505" x="14144" y="291" width="16" height="16">
   <properties>
    <property name="bg layer" value="1"/>
    <property name="color channel" value="3"/>
    <property name="z index" type="int" value="15"/>
   </properties>
  </object>
  <object id="2598" gid="16505" x="14416" y="291" width="16" height="16">
   <properties>
    <property name="bg layer" value="1"/>
    <property name="color channel" value="3"/>
    <property name="z index" type="int" value="15"/>
   </properties>
  </object>
  <object id="2600" gid="16505" x="14464" y="291" width="16" height="16">
   <properties>
    <property name="bg layer" value="1"/>
    <property name="color channel" value="3"/>
    <property name="z index" type="int" value="15"/>
   </properties>
  </object>
  <object id="2604" gid="16505" x="14608" y="291" width="16" height="16">
   <properties>
    <property name="bg layer" value="1"/>
    <property name="color channel" value="3"/>
    <property name="z index" type="int" value="15"/>
   </properties>
  </object>
  <object id="2606" gid="16505" x="14656" y="291" width="16" height="16">
   <properties>
    <property name="bg layer" value="1"/>
    <property name="color channel" value="3"/>
    <property name="z index" type="int" value="15"/>
   </properties>
  </object>
  <object id="2610" gid="16505" x="14768" y="291" width="16" height="16">
   <properties>
    <property name="bg layer" value="1"/>
    <property name="color channel" value="3"/>
    <property name="z index" type="int" value="15"/>
   </properties>
  </object>
  <object id="2614" gid="16505" x="14912" y="291" width="16" height="16">
   <properties>
    <property name="bg layer" value="1"/>
    <property name="color channel" value="3"/>
    <property name="z index" type="int" value="15"/>
   </properties>
  </object>
  <object id="2490" gid="16505" x="13344" y="397" width="16" height="16">
   <properties>
    <property name="bg layer" value="1"/>
    <property name="color channel" value="4"/>
    <property name="z index" type="int" value="15"/>
   </properties>
  </object>
  <object id="2493" gid="16505" x="13472" y="397" width="16" height="16">
   <properties>
    <property name="bg layer" value="1"/>
    <property name="color channel" value="4"/>
    <property name="z index" type="int" value="15"/>
   </properties>
  </object>
  <object id="2509" gid="16505" x="13472" y="397" width="16" height="16">
   <properties>
    <property name="bg layer" value="1"/>
    <property name="color channel" value="4"/>
    <property name="z index" type="int" value="15"/>
   </properties>
  </object>
  <object id="2495" gid="16505" x="13520" y="397" width="16" height="16">
   <properties>
    <property name="bg layer" value="1"/>
    <property name="color channel" value="4"/>
    <property name="z index" type="int" value="15"/>
   </properties>
  </object>
  <object id="2503" gid="16505" x="13744" y="397" width="16" height="16">
   <properties>
    <property name="bg layer" value="1"/>
    <property name="color channel" value="4"/>
    <property name="z index" type="int" value="15"/>
   </properties>
  </object>
  <object id="2517" gid="16505" x="13920" y="397" width="16" height="16">
   <properties>
    <property name="bg layer" value="1"/>
    <property name="color channel" value="4"/>
    <property name="z index" type="int" value="15"/>
   </properties>
  </object>
  <object id="2519" gid="16505" x="14000" y="397" width="16" height="16">
   <properties>
    <property name="bg layer" value="1"/>
    <property name="color channel" value="4"/>
    <property name="z index" type="int" value="15"/>
   </properties>
  </object>
  <object id="2526" gid="16505" x="14128" y="397" width="16" height="16">
   <properties>
    <property name="bg layer" value="1"/>
    <property name="color channel" value="4"/>
    <property name="z index" type="int" value="15"/>
   </properties>
  </object>
  <object id="2528" gid="16505" x="14192" y="397" width="16" height="16">
   <properties>
    <property name="bg layer" value="1"/>
    <property name="color channel" value="4"/>
    <property name="z index" type="int" value="15"/>
   </properties>
  </object>
  <object id="2534" gid="16505" x="14320" y="397" width="16" height="16">
   <properties>
    <property name="bg layer" value="1"/>
    <property name="color channel" value="4"/>
    <property name="z index" type="int" value="15"/>
   </properties>
  </object>
  <object id="2540" gid="16505" x="14320" y="397" width="16" height="16">
   <properties>
    <property name="bg layer" value="1"/>
    <property name="color channel" value="4"/>
    <property name="z index" type="int" value="15"/>
   </properties>
  </object>
  <object id="2538" gid="16505" x="14432" y="397" width="16" height="16">
   <properties>
    <property name="bg layer" value="1"/>
    <property name="color channel" value="4"/>
    <property name="z index" type="int" value="15"/>
   </properties>
  </object>
  <object id="2544" gid="16505" x="14544" y="397" width="16" height="16">
   <properties>
    <property name="bg layer" value="1"/>
    <property name="color channel" value="4"/>
    <property name="z index" type="int" value="15"/>
   </properties>
  </object>
  <object id="2550" gid="16505" x="14752" y="397" width="16" height="16">
   <properties>
    <property name="bg layer" value="1"/>
    <property name="color channel" value="4"/>
    <property name="z index" type="int" value="15"/>
   </properties>
  </object>
  <object id="2552" gid="16505" x="14832" y="397" width="16" height="16">
   <properties>
    <property name="bg layer" value="1"/>
    <property name="color channel" value="4"/>
    <property name="z index" type="int" value="15"/>
   </properties>
  </object>
  <object id="2486" gid="16427" x="13216" y="397" width="16" height="16">
   <properties>
    <property name="bg layer" value="1"/>
   </properties>
  </object>
  <object id="2616" gid="16427" x="13376" y="368" width="16" height="16">
   <properties>
    <property name="bg layer" value="1"/>
   </properties>
  </object>
  <object id="2623" gid="16427" x="13808" y="320" width="16" height="16">
   <properties>
    <property name="bg layer" value="1"/>
   </properties>
  </object>
  <object id="2625" gid="16427" x="13920" y="315" width="16" height="16">
   <properties>
    <property name="bg layer" value="1"/>
   </properties>
  </object>
  <object id="2627" gid="16427" x="13968" y="373" width="16" height="16">
   <properties>
    <property name="bg layer" value="1"/>
   </properties>
  </object>
  <object id="2631" gid="16427" x="14272" y="373" width="16" height="16">
   <properties>
    <property name="bg layer" value="1"/>
   </properties>
  </object>
  <object id="2633" gid="16427" x="14320" y="320" width="16" height="16">
   <properties>
    <property name="bg layer" value="1"/>
   </properties>
  </object>
  <object id="2639" gid="16427" x="14592" y="373" width="16" height="16">
   <properties>
    <property name="bg layer" value="1"/>
   </properties>
  </object>
  <object id="2558" gid="16427" x="13312" y="291" width="16" height="16">
   <properties>
    <property name="bg layer" value="1"/>
   </properties>
  </object>
  <object id="2567" gid="16427" x="13472" y="291" width="16" height="16">
   <properties>
    <property name="bg layer" value="1"/>
   </properties>
  </object>
  <object id="2571" gid="16427" x="13632" y="291" width="16" height="16">
   <properties>
    <property name="bg layer" value="1"/>
   </properties>
  </object>
  <object id="2579" gid="16427" x="13840" y="291" width="16" height="16">
   <properties>
    <property name="bg layer" value="1"/>
   </properties>
  </object>
  <object id="2581" gid="16427" x="13888" y="291" width="16" height="16">
   <properties>
    <property name="bg layer" value="1"/>
   </properties>
  </object>
  <object id="2585" gid="16427" x="14016" y="291" width="16" height="16">
   <properties>
    <property name="bg layer" value="1"/>
   </properties>
  </object>
  <object id="2589" gid="16427" x="14144" y="291" width="16" height="16">
   <properties>
    <property name="bg layer" value="1"/>
   </properties>
  </object>
  <object id="2599" gid="16427" x="14416" y="291" width="16" height="16">
   <properties>
    <property name="bg layer" value="1"/>
   </properties>
  </object>
  <object id="2601" gid="16427" x="14464" y="291" width="16" height="16">
   <properties>
    <property name="bg layer" value="1"/>
   </properties>
  </object>
  <object id="2605" gid="16427" x="14608" y="291" width="16" height="16">
   <properties>
    <property name="bg layer" value="1"/>
   </properties>
  </object>
  <object id="2607" gid="16427" x="14656" y="291" width="16" height="16">
   <properties>
    <property name="bg layer" value="1"/>
   </properties>
  </object>
  <object id="2611" gid="16427" x="14768" y="291" width="16" height="16">
   <properties>
    <property name="bg layer" value="1"/>
   </properties>
  </object>
  <object id="2615" gid="16427" x="14912" y="291" width="16" height="16">
   <properties>
    <property name="bg layer" value="1"/>
   </properties>
  </object>
  <object id="2489" gid="16427" x="13344" y="397" width="16" height="16">
   <properties>
    <property name="bg layer" value="1"/>
   </properties>
  </object>
  <object id="2494" gid="16427" x="13472" y="397" width="16" height="16">
   <properties>
    <property name="bg layer" value="1"/>
   </properties>
  </object>
  <object id="2510" gid="16427" x="13472" y="397" width="16" height="16">
   <properties>
    <property name="bg layer" value="1"/>
   </properties>
  </object>
  <object id="2496" gid="16427" x="13520" y="397" width="16" height="16">
   <properties>
    <property name="bg layer" value="1"/>
   </properties>
  </object>
  <object id="2504" gid="16427" x="13744" y="397" width="16" height="16">
   <properties>
    <property name="bg layer" value="1"/>
   </properties>
  </object>
  <object id="2518" gid="16427" x="13920" y="397" width="16" height="16">
   <properties>
    <property name="bg layer" value="1"/>
   </properties>
  </object>
  <object id="2520" gid="16427" x="14000" y="397" width="16" height="16">
   <properties>
    <property name="bg layer" value="1"/>
   </properties>
  </object>
  <object id="2527" gid="16427" x="14128" y="397" width="16" height="16">
   <properties>
    <property name="bg layer" value="1"/>
   </properties>
  </object>
  <object id="2529" gid="16427" x="14192" y="397" width="16" height="16">
   <properties>
    <property name="bg layer" value="1"/>
   </properties>
  </object>
  <object id="2535" gid="16427" x="14320" y="397" width="16" height="16">
   <properties>
    <property name="bg layer" value="1"/>
   </properties>
  </object>
  <object id="2541" gid="16427" x="14320" y="397" width="16" height="16">
   <properties>
    <property name="bg layer" value="1"/>
   </properties>
  </object>
  <object id="2539" gid="16427" x="14432" y="397" width="16" height="16">
   <properties>
    <property name="bg layer" value="1"/>
   </properties>
  </object>
  <object id="2545" gid="16427" x="14544" y="397" width="16" height="16">
   <properties>
    <property name="bg layer" value="1"/>
   </properties>
  </object>
  <object id="2551" gid="16427" x="14752" y="397" width="16" height="16">
   <properties>
    <property name="bg layer" value="1"/>
   </properties>
  </object>
  <object id="2553" gid="16427" x="14832" y="397" width="16" height="16">
   <properties>
    <property name="bg layer" value="1"/>
   </properties>
  </object>
  <object id="2487" gid="16504" x="13296" y="397" width="16" height="16">
   <properties>
    <property name="bg layer" value="1"/>
    <property name="color channel" value="4"/>
    <property name="z index" type="int" value="15"/>
   </properties>
  </object>
  <object id="2619" gid="16504" x="13536" y="320" width="16" height="16">
   <properties>
    <property name="bg layer" value="1"/>
    <property name="color channel" value="2"/>
    <property name="z index" type="int" value="15"/>
   </properties>
  </object>
  <object id="2620" gid="16504" x="13648" y="368" width="16" height="16">
   <properties>
    <property name="bg layer" value="1"/>
    <property name="color channel" value="2"/>
    <property name="z index" type="int" value="15"/>
   </properties>
  </object>
  <object id="2628" gid="16504" x="14176" y="320" width="16" height="16">
   <properties>
    <property name="bg layer" value="1"/>
    <property name="color channel" value="2"/>
    <property name="z index" type="int" value="15"/>
   </properties>
  </object>
  <object id="2634" gid="16504" x="14448" y="368" width="16" height="16">
   <properties>
    <property name="bg layer" value="1"/>
    <property name="color channel" value="2"/>
    <property name="z index" type="int" value="15"/>
   </properties>
  </object>
  <object id="2636" gid="16504" x="14560" y="320" width="16" height="16">
   <properties>
    <property name="bg layer" value="1"/>
    <property name="color channel" value="2"/>
    <property name="z index" type="int" value="15"/>
   </properties>
  </object>
  <object id="2640" gid="16504" x="14736" y="368" width="16" height="16">
   <properties>
    <property name="bg layer" value="1"/>
    <property name="color channel" value="2"/>
    <property name="z index" type="int" value="15"/>
   </properties>
  </object>
  <object id="2642" gid="16504" x="14864" y="320" width="16" height="16">
   <properties>
    <property name="bg layer" value="1"/>
    <property name="color channel" value="2"/>
    <property name="z index" type="int" value="15"/>
   </properties>
  </object>
  <object id="2557" gid="16504" x="13264" y="291" width="16" height="16">
   <properties>
    <property name="bg layer" value="1"/>
    <property name="color channel" value="3"/>
    <property name="z index" type="int" value="15"/>
   </properties>
  </object>
  <object id="2562" gid="16504" x="13376" y="291" width="16" height="16">
   <properties>
    <property name="bg layer" value="1"/>
    <property name="color channel" value="3"/>
    <property name="z index" type="int" value="15"/>
   </properties>
  </object>
  <object id="2564" gid="16504" x="13424" y="291" width="16" height="16">
   <properties>
    <property name="bg layer" value="1"/>
    <property name="color channel" value="3"/>
    <property name="z index" type="int" value="15"/>
   </properties>
  </object>
  <object id="2568" gid="16504" x="13568" y="291" width="16" height="16">
   <properties>
    <property name="bg layer" value="1"/>
    <property name="color channel" value="3"/>
    <property name="z index" type="int" value="15"/>
   </properties>
  </object>
  <object id="2574" gid="16504" x="13696" y="291" width="16" height="16">
   <properties>
    <property name="bg layer" value="1"/>
    <property name="color channel" value="3"/>
    <property name="z index" type="int" value="15"/>
   </properties>
  </object>
  <object id="2576" gid="16504" x="13760" y="291" width="16" height="16">
   <properties>
    <property name="bg layer" value="1"/>
    <property name="color channel" value="3"/>
    <property name="z index" type="int" value="15"/>
   </properties>
  </object>
  <object id="2582" gid="16504" x="13968" y="291" width="16" height="16">
   <properties>
    <property name="bg layer" value="1"/>
    <property name="color channel" value="3"/>
    <property name="z index" type="int" value="15"/>
   </properties>
  </object>
  <object id="2586" gid="16504" x="14064" y="291" width="16" height="16">
   <properties>
    <property name="bg layer" value="1"/>
    <property name="color channel" value="3"/>
    <property name="z index" type="int" value="15"/>
   </properties>
  </object>
  <object id="2592" gid="16504" x="14224" y="291" width="16" height="16">
   <properties>
    <property name="bg layer" value="1"/>
    <property name="color channel" value="3"/>
    <property name="z index" type="int" value="15"/>
   </properties>
  </object>
  <object id="2594" gid="16504" x="14288" y="291" width="16" height="16">
   <properties>
    <property name="bg layer" value="1"/>
    <property name="color channel" value="3"/>
    <property name="z index" type="int" value="15"/>
   </properties>
  </object>
  <object id="2602" gid="16504" x="14512" y="291" width="16" height="16">
   <properties>
    <property name="bg layer" value="1"/>
    <property name="color channel" value="3"/>
    <property name="z index" type="int" value="15"/>
   </properties>
  </object>
  <object id="2608" gid="16504" x="14720" y="291" width="16" height="16">
   <properties>
    <property name="bg layer" value="1"/>
    <property name="color channel" value="3"/>
    <property name="z index" type="int" value="15"/>
   </properties>
  </object>
  <object id="2612" gid="16504" x="14832" y="291" width="16" height="16">
   <properties>
    <property name="bg layer" value="1"/>
    <property name="color channel" value="3"/>
    <property name="z index" type="int" value="15"/>
   </properties>
  </object>
  <object id="2596" gid="16504" x="14368" y="291" width="16" height="16">
   <properties>
    <property name="bg layer" value="1"/>
    <property name="color channel" value="3"/>
    <property name="z index" type="int" value="15"/>
   </properties>
  </object>
  <object id="2492" gid="16504" x="13408" y="397" width="16" height="16">
   <properties>
    <property name="bg layer" value="1"/>
    <property name="color channel" value="4"/>
    <property name="z index" type="int" value="15"/>
   </properties>
  </object>
  <object id="2511" gid="16504" x="13584" y="397" width="16" height="16">
   <properties>
    <property name="bg layer" value="1"/>
    <property name="color channel" value="4"/>
    <property name="z index" type="int" value="15"/>
   </properties>
  </object>
  <object id="2513" gid="16504" x="13696" y="397" width="16" height="16">
   <properties>
    <property name="bg layer" value="1"/>
    <property name="color channel" value="4"/>
    <property name="z index" type="int" value="15"/>
   </properties>
  </object>
  <object id="2515" gid="16504" x="13808" y="397" width="16" height="16">
   <properties>
    <property name="bg layer" value="1"/>
    <property name="color channel" value="4"/>
    <property name="z index" type="int" value="15"/>
   </properties>
  </object>
  <object id="2523" gid="16504" x="13872" y="397" width="16" height="16">
   <properties>
    <property name="bg layer" value="1"/>
    <property name="color channel" value="4"/>
    <property name="z index" type="int" value="15"/>
   </properties>
  </object>
  <object id="2521" gid="16504" x="14064" y="397" width="16" height="16">
   <properties>
    <property name="bg layer" value="1"/>
    <property name="color channel" value="4"/>
    <property name="z index" type="int" value="15"/>
   </properties>
  </object>
  <object id="2532" gid="16504" x="14240" y="397" width="16" height="16">
   <properties>
    <property name="bg layer" value="1"/>
    <property name="color channel" value="4"/>
    <property name="z index" type="int" value="15"/>
   </properties>
  </object>
  <object id="2536" gid="16504" x="14384" y="397" width="16" height="16">
   <properties>
    <property name="bg layer" value="1"/>
    <property name="color channel" value="4"/>
    <property name="z index" type="int" value="15"/>
   </properties>
  </object>
  <object id="2542" gid="16504" x="14496" y="397" width="16" height="16">
   <properties>
    <property name="bg layer" value="1"/>
    <property name="color channel" value="4"/>
    <property name="z index" type="int" value="15"/>
   </properties>
  </object>
  <object id="2546" gid="16504" x="14624" y="397" width="16" height="16">
   <properties>
    <property name="bg layer" value="1"/>
    <property name="color channel" value="4"/>
    <property name="z index" type="int" value="15"/>
   </properties>
  </object>
  <object id="2548" gid="16504" x="14704" y="397" width="16" height="16">
   <properties>
    <property name="bg layer" value="1"/>
    <property name="color channel" value="4"/>
    <property name="z index" type="int" value="15"/>
   </properties>
  </object>
  <object id="2554" gid="16504" x="14896" y="397" width="16" height="16">
   <properties>
    <property name="bg layer" value="1"/>
    <property name="color channel" value="4"/>
    <property name="z index" type="int" value="15"/>
   </properties>
  </object>
  <object id="2488" gid="16426" x="13296" y="397" width="16" height="16">
   <properties>
    <property name="bg layer" value="1"/>
   </properties>
  </object>
  <object id="2618" gid="16426" x="13536" y="320" width="16" height="16">
   <properties>
    <property name="bg layer" value="1"/>
   </properties>
  </object>
  <object id="2621" gid="16426" x="13648" y="368" width="16" height="16">
   <properties>
    <property name="bg layer" value="1"/>
   </properties>
  </object>
  <object id="2629" gid="16426" x="14176" y="320" width="16" height="16">
   <properties>
    <property name="bg layer" value="1"/>
   </properties>
  </object>
  <object id="2635" gid="16426" x="14448" y="368" width="16" height="16">
   <properties>
    <property name="bg layer" value="1"/>
   </properties>
  </object>
  <object id="2637" gid="16426" x="14560" y="320" width="16" height="16">
   <properties>
    <property name="bg layer" value="1"/>
   </properties>
  </object>
  <object id="2641" gid="16426" x="14736" y="368" width="16" height="16">
   <properties>
    <property name="bg layer" value="1"/>
   </properties>
  </object>
  <object id="2643" gid="16426" x="14864" y="320" width="16" height="16">
   <properties>
    <property name="bg layer" value="1"/>
   </properties>
  </object>
  <object id="2556" gid="16426" x="13264" y="291" width="16" height="16">
   <properties>
    <property name="bg layer" value="1"/>
   </properties>
  </object>
  <object id="2563" gid="16426" x="13376" y="291" width="16" height="16">
   <properties>
    <property name="bg layer" value="1"/>
   </properties>
  </object>
  <object id="2565" gid="16426" x="13424" y="291" width="16" height="16">
   <properties>
    <property name="bg layer" value="1"/>
   </properties>
  </object>
  <object id="2569" gid="16426" x="13568" y="291" width="16" height="16">
   <properties>
    <property name="bg layer" value="1"/>
   </properties>
  </object>
  <object id="2575" gid="16426" x="13696" y="291" width="16" height="16">
   <properties>
    <property name="bg layer" value="1"/>
   </properties>
  </object>
  <object id="2577" gid="16426" x="13760" y="291" width="16" height="16">
   <properties>
    <property name="bg layer" value="1"/>
   </properties>
  </object>
  <object id="2583" gid="16426" x="13968" y="291" width="16" height="16">
   <properties>
    <property name="bg layer" value="1"/>
   </properties>
  </object>
  <object id="2587" gid="16426" x="14064" y="291" width="16" height="16">
   <properties>
    <property name="bg layer" value="1"/>
   </properties>
  </object>
  <object id="2593" gid="16426" x="14224" y="291" width="16" height="16">
   <properties>
    <property name="bg layer" value="1"/>
   </properties>
  </object>
  <object id="2595" gid="16426" x="14288" y="291" width="16" height="16">
   <properties>
    <property name="bg layer" value="1"/>
   </properties>
  </object>
  <object id="2603" gid="16426" x="14512" y="291" width="16" height="16">
   <properties>
    <property name="bg layer" value="1"/>
   </properties>
  </object>
  <object id="2609" gid="16426" x="14720" y="291" width="16" height="16">
   <properties>
    <property name="bg layer" value="1"/>
   </properties>
  </object>
  <object id="2613" gid="16426" x="14832" y="291" width="16" height="16">
   <properties>
    <property name="bg layer" value="1"/>
   </properties>
  </object>
  <object id="2597" gid="16426" x="14368" y="291" width="16" height="16">
   <properties>
    <property name="bg layer" value="1"/>
   </properties>
  </object>
  <object id="2491" gid="16426" x="13408" y="397" width="16" height="16">
   <properties>
    <property name="bg layer" value="1"/>
   </properties>
  </object>
  <object id="2512" gid="16426" x="13584" y="397" width="16" height="16">
   <properties>
    <property name="bg layer" value="1"/>
   </properties>
  </object>
  <object id="2514" gid="16426" x="13696" y="397" width="16" height="16">
   <properties>
    <property name="bg layer" value="1"/>
   </properties>
  </object>
  <object id="2516" gid="16426" x="13808" y="397" width="16" height="16">
   <properties>
    <property name="bg layer" value="1"/>
   </properties>
  </object>
  <object id="2524" gid="16426" x="13872" y="397" width="16" height="16">
   <properties>
    <property name="bg layer" value="1"/>
   </properties>
  </object>
  <object id="2522" gid="16426" x="14064" y="397" width="16" height="16">
   <properties>
    <property name="bg layer" value="1"/>
   </properties>
  </object>
  <object id="2533" gid="16426" x="14240" y="397" width="16" height="16">
   <properties>
    <property name="bg layer" value="1"/>
   </properties>
  </object>
  <object id="2537" gid="16426" x="14384" y="397" width="16" height="16">
   <properties>
    <property name="bg layer" value="1"/>
   </properties>
  </object>
  <object id="2543" gid="16426" x="14496" y="397" width="16" height="16">
   <properties>
    <property name="bg layer" value="1"/>
   </properties>
  </object>
  <object id="2547" gid="16426" x="14624" y="397" width="16" height="16">
   <properties>
    <property name="bg layer" value="1"/>
   </properties>
  </object>
  <object id="2549" gid="16426" x="14704" y="397" width="16" height="16">
   <properties>
    <property name="bg layer" value="1"/>
   </properties>
  </object>
  <object id="2555" gid="16426" x="14896" y="397" width="16" height="16">
   <properties>
    <property name="bg layer" value="1"/>
   </properties>
  </object>
  <object id="2525" gid="16413" x="14064" y="344" width="16" height="16"/>
  <object id="2666" gid="16536" x="4592" y="336" width="16" height="16">
   <properties>
    <property name="bg layer" value="1"/>
    <property name="color channel" value="3"/>
   </properties>
  </object>
  <object id="2667" gid="16536" x="4656" y="336" width="16" height="16">
   <properties>
    <property name="bg layer" value="1"/>
    <property name="color channel" value="3"/>
   </properties>
  </object>
  <object id="2668" gid="16536" x="4720" y="336" width="16" height="16">
   <properties>
    <property name="bg layer" value="1"/>
    <property name="color channel" value="3"/>
   </properties>
  </object>
  <object id="2674" gid="16536" x="4892" y="336" width="16" height="16">
   <properties>
    <property name="bg layer" value="1"/>
    <property name="color channel" value="3"/>
   </properties>
  </object>
  <object id="2669" gid="16535" x="4688" y="336" width="16" height="16">
   <properties>
    <property name="bg layer" value="1"/>
    <property name="color channel" value="3"/>
   </properties>
  </object>
  <object id="2672" gid="16535" x="4800" y="336" width="16" height="16">
   <properties>
    <property name="bg layer" value="1"/>
    <property name="color channel" value="3"/>
   </properties>
  </object>
  <object id="2673" gid="16535" x="4864" y="336" width="16" height="16">
   <properties>
    <property name="bg layer" value="1"/>
    <property name="color channel" value="3"/>
   </properties>
  </object>
  <object id="2670" gid="16537" x="4624" y="336" width="16" height="16">
   <properties>
    <property name="bg layer" value="1"/>
    <property name="color channel" value="3"/>
   </properties>
  </object>
  <object id="2671" gid="16537" x="4744" y="336" width="16" height="16">
   <properties>
    <property name="bg layer" value="1"/>
    <property name="color channel" value="3"/>
   </properties>
  </object>
  <object id="2675" gid="16537" x="4920" y="336" width="16" height="16">
   <properties>
    <property name="bg layer" value="1"/>
    <property name="color channel" value="3"/>
   </properties>
  </object>
  <object id="2676" gid="16536" x="4944" y="336" width="16" height="16">
   <properties>
    <property name="bg layer" value="1"/>
    <property name="color channel" value="3"/>
   </properties>
  </object>
  <object id="2677" gid="16536" x="5008" y="336" width="16" height="16">
   <properties>
    <property name="bg layer" value="1"/>
    <property name="color channel" value="3"/>
   </properties>
  </object>
  <object id="2680" gid="16536" x="5104" y="336" width="16" height="16">
   <properties>
    <property name="bg layer" value="1"/>
    <property name="color channel" value="3"/>
   </properties>
  </object>
  <object id="2682" gid="16536" x="5232" y="336" width="16" height="16">
   <properties>
    <property name="bg layer" value="1"/>
    <property name="color channel" value="3"/>
   </properties>
  </object>
  <object id="2683" gid="16536" x="5296" y="336" width="16" height="16">
   <properties>
    <property name="bg layer" value="1"/>
    <property name="color channel" value="3"/>
   </properties>
  </object>
  <object id="2678" gid="16535" x="4976" y="336" width="16" height="16">
   <properties>
    <property name="bg layer" value="1"/>
    <property name="color channel" value="3"/>
   </properties>
  </object>
  <object id="2679" gid="16535" x="5040" y="336" width="16" height="16">
   <properties>
    <property name="bg layer" value="1"/>
    <property name="color channel" value="3"/>
   </properties>
  </object>
  <object id="2681" gid="16535" x="5168" y="336" width="16" height="16">
   <properties>
    <property name="bg layer" value="1"/>
    <property name="color channel" value="3"/>
   </properties>
  </object>
  <object id="2684" gid="16535" x="5264" y="336" width="16" height="16">
   <properties>
    <property name="bg layer" value="1"/>
    <property name="color channel" value="3"/>
   </properties>
  </object>
  <object id="2685" gid="16536" x="3952" y="224" width="16" height="16">
   <properties>
    <property name="bg layer" value="1"/>
    <property name="color channel" value="3"/>
    <property name="vflip" type="bool" value="true"/>
   </properties>
  </object>
  <object id="2686" gid="16535" x="3984" y="224" width="16" height="16">
   <properties>
    <property name="bg layer" value="1"/>
    <property name="color channel" value="3"/>
    <property name="vflip" type="bool" value="true"/>
   </properties>
  </object>
  <object id="2687" gid="16537" x="4009" y="224" width="16" height="16">
   <properties>
    <property name="bg layer" value="1"/>
    <property name="color channel" value="3"/>
    <property name="vflip" type="bool" value="true"/>
   </properties>
  </object>
  <object id="2688" gid="16535" x="4064" y="224" width="16" height="16">
   <properties>
    <property name="bg layer" value="1"/>
    <property name="color channel" value="3"/>
    <property name="vflip" type="bool" value="true"/>
   </properties>
  </object>
  <object id="2689" gid="16535" x="4128" y="224" width="16" height="16">
   <properties>
    <property name="bg layer" value="1"/>
    <property name="color channel" value="3"/>
    <property name="vflip" type="bool" value="true"/>
   </properties>
  </object>
  <object id="2690" gid="16535" x="4192" y="224" width="16" height="16">
   <properties>
    <property name="bg layer" value="1"/>
    <property name="color channel" value="3"/>
    <property name="vflip" type="bool" value="true"/>
   </properties>
  </object>
  <object id="2691" gid="16536" x="4160" y="224" width="16" height="16">
   <properties>
    <property name="bg layer" value="1"/>
    <property name="color channel" value="3"/>
    <property name="vflip" type="bool" value="true"/>
   </properties>
  </object>
  <object id="2692" gid="16536" x="4272" y="224" width="16" height="16">
   <properties>
    <property name="bg layer" value="1"/>
    <property name="color channel" value="3"/>
    <property name="vflip" type="bool" value="true"/>
   </properties>
  </object>
  <object id="2693" gid="16537" x="4294" y="224" width="16" height="16">
   <properties>
    <property name="bg layer" value="1"/>
    <property name="color channel" value="3"/>
    <property name="vflip" type="bool" value="true"/>
   </properties>
  </object>
  <object id="2694" gid="16535" x="4320" y="224" width="16" height="16">
   <properties>
    <property name="bg layer" value="1"/>
    <property name="color channel" value="3"/>
    <property name="vflip" type="bool" value="true"/>
   </properties>
  </object>
  <object id="2695" gid="16536" x="4400" y="224" width="16" height="16">
   <properties>
    <property name="bg layer" value="1"/>
    <property name="color channel" value="3"/>
    <property name="vflip" type="bool" value="true"/>
   </properties>
  </object>
  <object id="2696" gid="16537" x="4432" y="224" width="16" height="16">
   <properties>
    <property name="bg layer" value="1"/>
    <property name="color channel" value="3"/>
    <property name="vflip" type="bool" value="true"/>
   </properties>
  </object>
  <object id="2697" gid="16537" x="4496" y="224" width="16" height="16">
   <properties>
    <property name="bg layer" value="1"/>
    <property name="color channel" value="3"/>
    <property name="vflip" type="bool" value="true"/>
   </properties>
  </object>
  <object id="2698" gid="16535" x="4464" y="224" width="16" height="16">
   <properties>
    <property name="bg layer" value="1"/>
    <property name="color channel" value="3"/>
    <property name="vflip" type="bool" value="true"/>
   </properties>
  </object>
  <object id="2699" gid="16535" x="4560" y="224" width="16" height="16">
   <properties>
    <property name="bg layer" value="1"/>
    <property name="color channel" value="3"/>
    <property name="vflip" type="bool" value="true"/>
   </properties>
  </object>
  <object id="2700" gid="16536" x="4528" y="224" width="16" height="16">
   <properties>
    <property name="bg layer" value="1"/>
    <property name="color channel" value="3"/>
    <property name="vflip" type="bool" value="true"/>
   </properties>
  </object>
  <object id="2701" gid="16536" x="4592" y="224" width="16" height="16">
   <properties>
    <property name="bg layer" value="1"/>
    <property name="color channel" value="3"/>
    <property name="vflip" type="bool" value="true"/>
   </properties>
  </object>
  <object id="2702" gid="16536" x="4656" y="224" width="16" height="16">
   <properties>
    <property name="bg layer" value="1"/>
    <property name="color channel" value="3"/>
    <property name="vflip" type="bool" value="true"/>
   </properties>
  </object>
  <object id="2703" gid="16536" x="4720" y="224" width="16" height="16">
   <properties>
    <property name="bg layer" value="1"/>
    <property name="color channel" value="3"/>
    <property name="vflip" type="bool" value="true"/>
   </properties>
  </object>
  <object id="2704" gid="16537" x="4624" y="224" width="16" height="16">
   <properties>
    <property name="bg layer" value="1"/>
    <property name="color channel" value="3"/>
    <property name="vflip" type="bool" value="true"/>
   </properties>
  </object>
  <object id="2705" gid="16535" x="4688" y="224" width="16" height="16">
   <properties>
    <property name="bg layer" value="1"/>
    <property name="color channel" value="3"/>
    <property name="vflip" type="bool" value="true"/>
   </properties>
  </object>
  <object id="2706" gid="16535" x="4752" y="224" width="16" height="16">
   <properties>
    <property name="bg layer" value="1"/>
    <property name="color channel" value="3"/>
    <property name="vflip" type="bool" value="true"/>
   </properties>
  </object>
  <object id="2707" gid="16537" x="4776" y="224" width="16" height="16">
   <properties>
    <property name="bg layer" value="1"/>
    <property name="color channel" value="3"/>
    <property name="vflip" type="bool" value="true"/>
   </properties>
  </object>
  <object id="2708" gid="16536" x="4832" y="224" width="16" height="16">
   <properties>
    <property name="bg layer" value="1"/>
    <property name="color channel" value="3"/>
    <property name="vflip" type="bool" value="true"/>
   </properties>
  </object>
  <object id="2709" gid="16536" x="4896" y="224" width="16" height="16">
   <properties>
    <property name="bg layer" value="1"/>
    <property name="color channel" value="3"/>
    <property name="vflip" type="bool" value="true"/>
   </properties>
  </object>
  <object id="2710" gid="16536" x="4992" y="224" width="16" height="16">
   <properties>
    <property name="bg layer" value="1"/>
    <property name="color channel" value="3"/>
    <property name="vflip" type="bool" value="true"/>
   </properties>
  </object>
  <object id="2711" gid="16536" x="5056" y="224" width="16" height="16">
   <properties>
    <property name="bg layer" value="1"/>
    <property name="color channel" value="3"/>
    <property name="vflip" type="bool" value="true"/>
   </properties>
  </object>
  <object id="2712" gid="16536" x="5120" y="224" width="16" height="16">
   <properties>
    <property name="bg layer" value="1"/>
    <property name="color channel" value="3"/>
    <property name="vflip" type="bool" value="true"/>
   </properties>
  </object>
  <object id="2713" gid="16535" x="4864" y="224" width="16" height="16">
   <properties>
    <property name="bg layer" value="1"/>
    <property name="color channel" value="3"/>
    <property name="vflip" type="bool" value="true"/>
   </properties>
  </object>
  <object id="2714" gid="16535" x="4928" y="224" width="16" height="16">
   <properties>
    <property name="bg layer" value="1"/>
    <property name="color channel" value="3"/>
    <property name="vflip" type="bool" value="true"/>
   </properties>
  </object>
  <object id="2715" gid="16535" x="5088" y="224" width="16" height="16">
   <properties>
    <property name="bg layer" value="1"/>
    <property name="color channel" value="3"/>
    <property name="vflip" type="bool" value="true"/>
   </properties>
  </object>
  <object id="2716" gid="16537" x="5144" y="224" width="16" height="16">
   <properties>
    <property name="bg layer" value="1"/>
    <property name="color channel" value="3"/>
    <property name="vflip" type="bool" value="true"/>
   </properties>
  </object>
  <object id="2717" gid="16536" x="5200" y="224" width="16" height="16">
   <properties>
    <property name="bg layer" value="1"/>
    <property name="color channel" value="3"/>
    <property name="vflip" type="bool" value="true"/>
   </properties>
  </object>
  <object id="2719" gid="16536" x="5248" y="224" width="16" height="16">
   <properties>
    <property name="bg layer" value="1"/>
    <property name="color channel" value="3"/>
    <property name="vflip" type="bool" value="true"/>
   </properties>
  </object>
  <object id="2720" gid="16537" x="5224" y="224" width="16" height="16">
   <properties>
    <property name="bg layer" value="1"/>
    <property name="color channel" value="3"/>
    <property name="vflip" type="bool" value="true"/>
   </properties>
  </object>
  <object id="2721" gid="16537" x="5274" y="224" width="16" height="16">
   <properties>
    <property name="bg layer" value="1"/>
    <property name="color channel" value="3"/>
    <property name="vflip" type="bool" value="true"/>
   </properties>
  </object>
  <object id="2722" gid="16389" x="3856" y="336" width="16" height="16">
   <properties>
    <property name="bg layer" value="1"/>
    <property name="color channel" value="3"/>
   </properties>
  </object>
  <object id="2723" gid="16390" x="3936" y="336" width="16" height="16">
   <properties>
    <property name="bg layer" value="1"/>
    <property name="color channel" value="3"/>
   </properties>
  </object>
  <object id="2724" gid="16389" x="3984" y="336" width="16" height="16">
   <properties>
    <property name="bg layer" value="1"/>
    <property name="color channel" value="3"/>
   </properties>
  </object>
  <object id="2725" gid="16391" x="4035" y="336" width="16" height="16">
   <properties>
    <property name="bg layer" value="1"/>
    <property name="color channel" value="3"/>
   </properties>
  </object>
  <object id="2726" gid="16389" x="4112" y="336" width="16" height="16">
   <properties>
    <property name="bg layer" value="1"/>
    <property name="color channel" value="3"/>
   </properties>
  </object>
  <object id="2727" gid="16390" x="4176" y="336" width="16" height="16">
   <properties>
    <property name="bg layer" value="1"/>
    <property name="color channel" value="3"/>
   </properties>
  </object>
  <object id="2728" gid="16389" x="4240" y="336" width="16" height="16">
   <properties>
    <property name="bg layer" value="1"/>
    <property name="color channel" value="3"/>
   </properties>
  </object>
  <object id="2729" gid="16390" x="4352" y="336" width="16" height="16">
   <properties>
    <property name="bg layer" value="1"/>
    <property name="color channel" value="3"/>
   </properties>
  </object>
  <object id="2730" gid="16389" x="4416" y="336" width="16" height="16">
   <properties>
    <property name="bg layer" value="1"/>
    <property name="color channel" value="3"/>
   </properties>
  </object>
  <object id="2731" gid="16391" x="4472" y="336" width="16" height="16">
   <properties>
    <property name="bg layer" value="1"/>
    <property name="color channel" value="3"/>
   </properties>
  </object>
  <object id="2732" gid="16389" x="4528" y="336" width="16" height="16">
   <properties>
    <property name="bg layer" value="1"/>
    <property name="color channel" value="3"/>
   </properties>
  </object>
  <object id="2733" gid="16390" x="4592" y="336" width="16" height="16">
   <properties>
    <property name="bg layer" value="1"/>
    <property name="color channel" value="3"/>
   </properties>
  </object>
  <object id="2734" gid="16389" x="4656" y="336" width="16" height="16">
   <properties>
    <property name="bg layer" value="1"/>
    <property name="color channel" value="3"/>
   </properties>
  </object>
  <object id="2735" gid="16390" x="4725" y="336" width="16" height="16">
   <properties>
    <property name="bg layer" value="1"/>
    <property name="color channel" value="3"/>
   </properties>
  </object>
  <object id="2736" gid="16390" x="4800" y="336" width="16" height="16">
   <properties>
    <property name="bg layer" value="1"/>
    <property name="color channel" value="3"/>
   </properties>
  </object>
  <object id="2737" gid="16391" x="4861" y="336" width="16" height="16">
   <properties>
    <property name="bg layer" value="1"/>
    <property name="color channel" value="3"/>
   </properties>
  </object>
  <object id="2738" gid="16389" x="4928" y="336" width="16" height="16">
   <properties>
    <property name="bg layer" value="1"/>
    <property name="color channel" value="3"/>
   </properties>
  </object>
  <object id="2739" gid="16390" x="4992" y="336" width="16" height="16">
   <properties>
    <property name="bg layer" value="1"/>
    <property name="color channel" value="3"/>
   </properties>
  </object>
  <object id="2740" gid="16391" x="5040" y="336" width="16" height="16">
   <properties>
    <property name="bg layer" value="1"/>
    <property name="color channel" value="3"/>
   </properties>
  </object>
  <object id="2741" gid="16390" x="5104" y="336" width="16" height="16">
   <properties>
    <property name="bg layer" value="1"/>
    <property name="color channel" value="3"/>
    <property name="hflip" type="bool" value="true"/>
   </properties>
  </object>
  <object id="2742" gid="16390" x="5168" y="336" width="16" height="16">
   <properties>
    <property name="bg layer" value="1"/>
    <property name="color channel" value="3"/>
   </properties>
  </object>
  <object id="2743" gid="16391" x="5229" y="336" width="16" height="16">
   <properties>
    <property name="bg layer" value="1"/>
    <property name="color channel" value="3"/>
   </properties>
  </object>
  <object id="2744" gid="16389" x="5300" y="336" width="16" height="16">
   <properties>
    <property name="bg layer" value="1"/>
    <property name="color channel" value="3"/>
   </properties>
  </object>
  <object id="2745" gid="16390" x="5344" y="348" width="16" height="16">
   <properties>
    <property name="bg layer" value="2"/>
    <property name="color channel" value="3"/>
    <property name="enable rotation" type="bool" value="true"/>
    <property name="rotation angle" type="int" value="26"/>
   </properties>
  </object>
  <object id="2746" gid="16391" x="3947" y="224" width="16" height="16">
   <properties>
    <property name="bg layer" value="1"/>
    <property name="color channel" value="3"/>
    <property name="vflip" type="bool" value="true"/>
   </properties>
  </object>
  <object id="2748" gid="16389" x="3989" y="224" width="16" height="16">
   <properties>
    <property name="bg layer" value="1"/>
    <property name="color channel" value="3"/>
    <property name="vflip" type="bool" value="true"/>
   </properties>
  </object>
  <object id="2749" gid="16390" x="4064" y="224" width="16" height="16">
   <properties>
    <property name="bg layer" value="1"/>
    <property name="color channel" value="3"/>
    <property name="vflip" type="bool" value="true"/>
   </properties>
  </object>
  <object id="2750" gid="16391" x="4125" y="224" width="16" height="16">
   <properties>
    <property name="bg layer" value="1"/>
    <property name="color channel" value="3"/>
    <property name="vflip" type="bool" value="true"/>
   </properties>
  </object>
  <object id="2751" gid="16389" x="4180" y="224" width="16" height="16">
   <properties>
    <property name="bg layer" value="1"/>
    <property name="color channel" value="3"/>
    <property name="vflip" type="bool" value="true"/>
   </properties>
  </object>
  <object id="2752" gid="16391" x="4268" y="224" width="16" height="16">
   <properties>
    <property name="bg layer" value="1"/>
    <property name="color channel" value="3"/>
    <property name="vflip" type="bool" value="true"/>
   </properties>
  </object>
  <object id="2753" gid="16390" x="4315" y="224" width="16" height="16">
   <properties>
    <property name="bg layer" value="1"/>
    <property name="color channel" value="3"/>
    <property name="vflip" type="bool" value="true"/>
   </properties>
  </object>
  <object id="2754" gid="16389" x="4416" y="224" width="16" height="16">
   <properties>
    <property name="bg layer" value="1"/>
    <property name="color channel" value="3"/>
    <property name="vflip" type="bool" value="true"/>
   </properties>
  </object>
  <object id="2755" gid="16390" x="4480" y="224" width="16" height="16">
   <properties>
    <property name="bg layer" value="1"/>
    <property name="color channel" value="3"/>
    <property name="vflip" type="bool" value="true"/>
   </properties>
  </object>
  <object id="2756" gid="16389" x="4544" y="224" width="16" height="16">
   <properties>
    <property name="bg layer" value="1"/>
    <property name="color channel" value="3"/>
    <property name="vflip" type="bool" value="true"/>
   </properties>
  </object>
  <object id="2757" gid="16390" x="4608" y="224" width="16" height="16">
   <properties>
    <property name="bg layer" value="1"/>
    <property name="color channel" value="3"/>
    <property name="vflip" type="bool" value="true"/>
   </properties>
  </object>
  <object id="2758" gid="16390" x="4660" y="224" width="16" height="16">
   <properties>
    <property name="bg layer" value="1"/>
    <property name="color channel" value="3"/>
    <property name="vflip" type="bool" value="true"/>
   </properties>
  </object>
  <object id="2759" gid="16389" x="4720" y="224" width="16" height="16">
   <properties>
    <property name="bg layer" value="1"/>
    <property name="color channel" value="3"/>
    <property name="vflip" type="bool" value="true"/>
   </properties>
  </object>
  <object id="2760" gid="16391" x="4771" y="224" width="16" height="16">
   <properties>
    <property name="bg layer" value="1"/>
    <property name="color channel" value="3"/>
    <property name="vflip" type="bool" value="true"/>
   </properties>
  </object>
  <object id="2761" gid="16389" x="4848" y="224" width="16" height="16">
   <properties>
    <property name="bg layer" value="1"/>
    <property name="color channel" value="3"/>
    <property name="vflip" type="bool" value="true"/>
   </properties>
  </object>
  <object id="2762" gid="16389" x="4916" y="224" width="16" height="16">
   <properties>
    <property name="bg layer" value="1"/>
    <property name="color channel" value="3"/>
    <property name="vflip" type="bool" value="true"/>
   </properties>
  </object>
  <object id="2763" gid="16391" x="4992" y="224" width="16" height="16">
   <properties>
    <property name="bg layer" value="1"/>
    <property name="color channel" value="3"/>
    <property name="vflip" type="bool" value="true"/>
   </properties>
  </object>
  <object id="2764" gid="16389" x="5067" y="224" width="16" height="16">
   <properties>
    <property name="bg layer" value="1"/>
    <property name="color channel" value="3"/>
    <property name="vflip" type="bool" value="true"/>
   </properties>
  </object>
  <object id="2765" gid="16391" x="5112" y="224" width="16" height="16">
   <properties>
    <property name="bg layer" value="1"/>
    <property name="color channel" value="3"/>
    <property name="vflip" type="bool" value="true"/>
   </properties>
  </object>
  <object id="2766" gid="16391" x="5139" y="224" width="16" height="16">
   <properties>
    <property name="bg layer" value="1"/>
    <property name="color channel" value="3"/>
    <property name="vflip" type="bool" value="true"/>
   </properties>
  </object>
  <object id="2767" gid="16389" x="5216" y="224" width="16" height="16">
   <properties>
    <property name="bg layer" value="1"/>
    <property name="color channel" value="3"/>
    <property name="vflip" type="bool" value="true"/>
   </properties>
  </object>
  <object id="2768" gid="16391" x="5269" y="224" width="16" height="16">
   <properties>
    <property name="bg layer" value="1"/>
    <property name="color channel" value="3"/>
    <property name="vflip" type="bool" value="true"/>
   </properties>
  </object>
  <object id="2769" gid="16389" x="5318" y="211" width="16" height="16">
   <properties>
    <property name="bg layer" value="2"/>
    <property name="color channel" value="3"/>
    <property name="enable rotation" type="bool" value="true"/>
    <property name="hflip" type="bool" value="true"/>
    <property name="rotation angle" type="int" value="-26"/>
    <property name="vflip" type="bool" value="true"/>
   </properties>
  </object>
  <object id="2785" gid="16391" x="5376" y="352" width="16" height="16">
   <properties>
    <property name="bg layer" value="2"/>
    <property name="color channel" value="2"/>
   </properties>
  </object>
  <object id="2786" gid="16391" x="5504" y="352" width="16" height="16">
   <properties>
    <property name="bg layer" value="2"/>
    <property name="color channel" value="2"/>
   </properties>
  </object>
  <object id="2787" gid="16391" x="5696" y="352" width="16" height="16">
   <properties>
    <property name="bg layer" value="2"/>
    <property name="color channel" value="2"/>
   </properties>
  </object>
  <object id="2788" gid="16391" x="5760" y="352" width="16" height="16">
   <properties>
    <property name="bg layer" value="2"/>
    <property name="color channel" value="2"/>
    <property name="hflip" type="bool" value="true"/>
   </properties>
  </object>
  <object id="2789" gid="16391" x="5824" y="352" width="16" height="16">
   <properties>
    <property name="bg layer" value="2"/>
    <property name="color channel" value="2"/>
   </properties>
  </object>
  <object id="2790" gid="16391" x="5952" y="352" width="16" height="16">
   <properties>
    <property name="bg layer" value="2"/>
    <property name="color channel" value="2"/>
   </properties>
  </object>
  <object id="2791" gid="16391" x="6080" y="352" width="16" height="16">
   <properties>
    <property name="bg layer" value="2"/>
    <property name="color channel" value="2"/>
   </properties>
  </object>
  <object id="2792" gid="16391" x="6272" y="352" width="16" height="16">
   <properties>
    <property name="bg layer" value="2"/>
    <property name="color channel" value="2"/>
   </properties>
  </object>
  <object id="2793" gid="16391" x="6336" y="352" width="16" height="16">
   <properties>
    <property name="bg layer" value="2"/>
    <property name="color channel" value="2"/>
    <property name="hflip" type="bool" value="true"/>
   </properties>
  </object>
  <object id="2794" gid="16391" x="6400" y="352" width="16" height="16">
   <properties>
    <property name="bg layer" value="2"/>
    <property name="color channel" value="2"/>
   </properties>
  </object>
  <object id="2795" gid="16391" x="6528" y="352" width="16" height="16">
   <properties>
    <property name="bg layer" value="2"/>
    <property name="color channel" value="2"/>
   </properties>
  </object>
  <object id="2796" gid="16391" x="6656" y="352" width="16" height="16">
   <properties>
    <property name="bg layer" value="2"/>
    <property name="color channel" value="2"/>
   </properties>
  </object>
  <object id="2797" gid="16391" x="6848" y="352" width="16" height="16">
   <properties>
    <property name="bg layer" value="2"/>
    <property name="color channel" value="2"/>
   </properties>
  </object>
  <object id="2798" gid="16391" x="6912" y="352" width="16" height="16">
   <properties>
    <property name="bg layer" value="2"/>
    <property name="color channel" value="2"/>
    <property name="hflip" type="bool" value="true"/>
   </properties>
  </object>
  <object id="2799" gid="16391" x="6976" y="352" width="16" height="16">
   <properties>
    <property name="bg layer" value="2"/>
    <property name="color channel" value="2"/>
   </properties>
  </object>
  <object id="2800" gid="16391" x="7104" y="352" width="16" height="16">
   <properties>
    <property name="bg layer" value="2"/>
    <property name="color channel" value="2"/>
   </properties>
  </object>
  <object id="2801" gid="16391" x="7232" y="352" width="16" height="16">
   <properties>
    <property name="bg layer" value="2"/>
    <property name="color channel" value="2"/>
   </properties>
  </object>
  <object id="2802" gid="16391" x="7424" y="352" width="16" height="16">
   <properties>
    <property name="bg layer" value="2"/>
    <property name="color channel" value="2"/>
   </properties>
  </object>
  <object id="2803" gid="16391" x="7552" y="352" width="16" height="16">
   <properties>
    <property name="bg layer" value="2"/>
    <property name="color channel" value="2"/>
   </properties>
  </object>
  <object id="2804" gid="16391" x="7488" y="352" width="16" height="16">
   <properties>
    <property name="bg layer" value="2"/>
    <property name="color channel" value="2"/>
    <property name="hflip" type="bool" value="true"/>
   </properties>
  </object>
  <object id="2805" gid="16390" x="5440" y="352" width="16" height="16">
   <properties>
    <property name="bg layer" value="2"/>
    <property name="color channel" value="2"/>
   </properties>
  </object>
  <object id="2806" gid="16390" x="5568" y="352" width="16" height="16">
   <properties>
    <property name="bg layer" value="2"/>
    <property name="color channel" value="2"/>
   </properties>
  </object>
  <object id="2807" gid="16390" x="5632" y="352" width="16" height="16">
   <properties>
    <property name="bg layer" value="2"/>
    <property name="color channel" value="2"/>
    <property name="hflip" type="bool" value="true"/>
   </properties>
  </object>
  <object id="2808" gid="16390" x="5888" y="352" width="16" height="16">
   <properties>
    <property name="bg layer" value="2"/>
    <property name="color channel" value="2"/>
   </properties>
  </object>
  <object id="2809" gid="16390" x="6016" y="352" width="16" height="16">
   <properties>
    <property name="bg layer" value="2"/>
    <property name="color channel" value="2"/>
   </properties>
  </object>
  <object id="2810" gid="16390" x="6144" y="352" width="16" height="16">
   <properties>
    <property name="bg layer" value="2"/>
    <property name="color channel" value="2"/>
   </properties>
  </object>
  <object id="2811" gid="16390" x="6208" y="352" width="16" height="16">
   <properties>
    <property name="bg layer" value="2"/>
    <property name="color channel" value="2"/>
    <property name="hflip" type="bool" value="true"/>
   </properties>
  </object>
  <object id="2812" gid="16390" x="6464" y="352.5" width="16" height="16">
   <properties>
    <property name="bg layer" value="2"/>
    <property name="color channel" value="2"/>
   </properties>
  </object>
  <object id="2813" gid="16390" x="6592" y="352" width="16" height="16">
   <properties>
    <property name="bg layer" value="2"/>
    <property name="color channel" value="2"/>
   </properties>
  </object>
  <object id="2814" gid="16390" x="6720" y="352" width="16" height="16">
   <properties>
    <property name="bg layer" value="2"/>
    <property name="color channel" value="2"/>
   </properties>
  </object>
  <object id="2815" gid="16390" x="6784" y="352" width="16" height="16">
   <properties>
    <property name="bg layer" value="2"/>
    <property name="color channel" value="2"/>
    <property name="hflip" type="bool" value="true"/>
   </properties>
  </object>
  <object id="2816" gid="16390" x="7040" y="352" width="16" height="16">
   <properties>
    <property name="bg layer" value="2"/>
    <property name="color channel" value="2"/>
   </properties>
  </object>
  <object id="2817" gid="16390" x="7168" y="352" width="16" height="16">
   <properties>
    <property name="bg layer" value="2"/>
    <property name="color channel" value="2"/>
   </properties>
  </object>
  <object id="2818" gid="16390" x="7296" y="352" width="16" height="16">
   <properties>
    <property name="bg layer" value="2"/>
    <property name="color channel" value="2"/>
   </properties>
  </object>
  <object id="2819" gid="16390" x="7360" y="352" width="16" height="16">
   <properties>
    <property name="bg layer" value="2"/>
    <property name="color channel" value="2"/>
    <property name="hflip" type="bool" value="true"/>
   </properties>
  </object>
  <object id="2820" gid="16391" x="5344" y="208" width="16" height="16">
   <properties>
    <property name="bg layer" value="2"/>
    <property name="color channel" value="1"/>
    <property name="vflip" type="bool" value="true"/>
   </properties>
  </object>
  <object id="2821" gid="16391" x="5472" y="208" width="16" height="16">
   <properties>
    <property name="bg layer" value="2"/>
    <property name="color channel" value="1"/>
    <property name="vflip" type="bool" value="true"/>
   </properties>
  </object>
  <object id="2822" gid="16391" x="5664" y="208" width="16" height="16">
   <properties>
    <property name="bg layer" value="2"/>
    <property name="color channel" value="1"/>
    <property name="hflip" type="bool" value="true"/>
    <property name="vflip" type="bool" value="true"/>
   </properties>
  </object>
  <object id="2823" gid="16391" x="5856" y="208" width="16" height="16">
   <properties>
    <property name="bg layer" value="2"/>
    <property name="color channel" value="1"/>
    <property name="vflip" type="bool" value="true"/>
   </properties>
  </object>
  <object id="2824" gid="16391" x="6048" y="208" width="16" height="16">
   <properties>
    <property name="bg layer" value="2"/>
    <property name="color channel" value="1"/>
    <property name="vflip" type="bool" value="true"/>
   </properties>
  </object>
  <object id="2825" gid="16391" x="6240" y="208" width="16" height="16">
   <properties>
    <property name="bg layer" value="2"/>
    <property name="color channel" value="1"/>
    <property name="vflip" type="bool" value="true"/>
   </properties>
  </object>
  <object id="2826" gid="16391" x="6432" y="208" width="16" height="16">
   <properties>
    <property name="bg layer" value="2"/>
    <property name="color channel" value="1"/>
    <property name="vflip" type="bool" value="true"/>
   </properties>
  </object>
  <object id="2827" gid="16391" x="6624" y="208" width="16" height="16">
   <properties>
    <property name="bg layer" value="2"/>
    <property name="color channel" value="1"/>
    <property name="vflip" type="bool" value="true"/>
   </properties>
  </object>
  <object id="2828" gid="16391" x="6816" y="208" width="16" height="16">
   <properties>
    <property name="bg layer" value="2"/>
    <property name="color channel" value="1"/>
    <property name="hflip" type="bool" value="true"/>
    <property name="vflip" type="bool" value="true"/>
   </properties>
  </object>
  <object id="2829" gid="16391" x="7008" y="208" width="16" height="16">
   <properties>
    <property name="bg layer" value="2"/>
    <property name="color channel" value="1"/>
    <property name="vflip" type="bool" value="true"/>
   </properties>
  </object>
  <object id="2830" gid="16391" x="7200" y="208" width="16" height="16">
   <properties>
    <property name="bg layer" value="2"/>
    <property name="color channel" value="1"/>
    <property name="vflip" type="bool" value="true"/>
   </properties>
  </object>
  <object id="2831" gid="16391" x="7392" y="208" width="16" height="16">
   <properties>
    <property name="bg layer" value="2"/>
    <property name="color channel" value="1"/>
    <property name="hflip" type="bool" value="true"/>
    <property name="vflip" type="bool" value="true"/>
   </properties>
  </object>
  <object id="2832" gid="16390" x="5408" y="208" width="16" height="16">
   <properties>
    <property name="bg layer" value="2"/>
    <property name="color channel" value="1"/>
    <property name="vflip" type="bool" value="true"/>
   </properties>
  </object>
  <object id="2833" gid="16390" x="5536" y="208" width="16" height="16">
   <properties>
    <property name="bg layer" value="2"/>
    <property name="color channel" value="1"/>
    <property name="vflip" type="bool" value="true"/>
   </properties>
  </object>
  <object id="2834" gid="16390" x="5600" y="208" width="16" height="16">
   <properties>
    <property name="bg layer" value="2"/>
    <property name="color channel" value="1"/>
    <property name="vflip" type="bool" value="true"/>
   </properties>
  </object>
  <object id="2835" gid="16390" x="5728" y="208" width="16" height="16">
   <properties>
    <property name="bg layer" value="2"/>
    <property name="color channel" value="1"/>
    <property name="hflip" type="bool" value="true"/>
    <property name="vflip" type="bool" value="true"/>
   </properties>
  </object>
  <object id="2836" gid="16390" x="5792" y="208" width="16" height="16">
   <properties>
    <property name="bg layer" value="2"/>
    <property name="color channel" value="1"/>
    <property name="vflip" type="bool" value="true"/>
   </properties>
  </object>
  <object id="2837" gid="16390" x="5920" y="208" width="16" height="16">
   <properties>
    <property name="bg layer" value="2"/>
    <property name="color channel" value="1"/>
    <property name="hflip" type="bool" value="true"/>
    <property name="vflip" type="bool" value="true"/>
   </properties>
  </object>
  <object id="2838" gid="16390" x="5984" y="208" width="16" height="16">
   <properties>
    <property name="bg layer" value="2"/>
    <property name="color channel" value="1"/>
    <property name="vflip" type="bool" value="true"/>
   </properties>
  </object>
  <object id="2839" gid="16390" x="6112" y="208" width="16" height="16">
   <properties>
    <property name="bg layer" value="2"/>
    <property name="color channel" value="1"/>
    <property name="vflip" type="bool" value="true"/>
   </properties>
  </object>
  <object id="2840" gid="16390" x="6176" y="208" width="16" height="16">
   <properties>
    <property name="bg layer" value="2"/>
    <property name="color channel" value="1"/>
    <property name="vflip" type="bool" value="true"/>
   </properties>
  </object>
  <object id="2841" gid="16390" x="6304" y="208" width="16" height="16">
   <properties>
    <property name="bg layer" value="2"/>
    <property name="color channel" value="1"/>
    <property name="hflip" type="bool" value="true"/>
    <property name="vflip" type="bool" value="true"/>
   </properties>
  </object>
  <object id="2842" gid="16390" x="6368" y="208" width="16" height="16">
   <properties>
    <property name="bg layer" value="2"/>
    <property name="color channel" value="1"/>
    <property name="vflip" type="bool" value="true"/>
   </properties>
  </object>
  <object id="2843" gid="16390" x="6496" y="208" width="16" height="16">
   <properties>
    <property name="bg layer" value="2"/>
    <property name="color channel" value="1"/>
    <property name="hflip" type="bool" value="true"/>
    <property name="vflip" type="bool" value="true"/>
   </properties>
  </object>
  <object id="2844" gid="16390" x="6560" y="208" width="16" height="16">
   <properties>
    <property name="bg layer" value="2"/>
    <property name="color channel" value="1"/>
    <property name="vflip" type="bool" value="true"/>
   </properties>
  </object>
  <object id="2845" gid="16390" x="6688" y="208" width="16" height="16">
   <properties>
    <property name="bg layer" value="2"/>
    <property name="color channel" value="1"/>
    <property name="hflip" type="bool" value="true"/>
    <property name="vflip" type="bool" value="true"/>
   </properties>
  </object>
  <object id="2846" gid="16390" x="6752" y="208" width="16" height="16">
   <properties>
    <property name="bg layer" value="2"/>
    <property name="color channel" value="1"/>
    <property name="vflip" type="bool" value="true"/>
   </properties>
  </object>
  <object id="2847" gid="16390" x="6880" y="208" width="16" height="16">
   <properties>
    <property name="bg layer" value="2"/>
    <property name="color channel" value="1"/>
    <property name="vflip" type="bool" value="true"/>
   </properties>
  </object>
  <object id="2848" gid="16390" x="6944" y="208" width="16" height="16">
   <properties>
    <property name="bg layer" value="2"/>
    <property name="color channel" value="1"/>
    <property name="vflip" type="bool" value="true"/>
   </properties>
  </object>
  <object id="2849" gid="16390" x="7072" y="208" width="16" height="16">
   <properties>
    <property name="bg layer" value="2"/>
    <property name="color channel" value="1"/>
    <property name="hflip" type="bool" value="true"/>
    <property name="vflip" type="bool" value="true"/>
   </properties>
  </object>
  <object id="2850" gid="16390" x="7136" y="208" width="16" height="16">
   <properties>
    <property name="bg layer" value="2"/>
    <property name="color channel" value="1"/>
    <property name="vflip" type="bool" value="true"/>
   </properties>
  </object>
  <object id="2851" gid="16390" x="7264" y="208" width="16" height="16">
   <properties>
    <property name="bg layer" value="2"/>
    <property name="color channel" value="1"/>
    <property name="hflip" type="bool" value="true"/>
    <property name="vflip" type="bool" value="true"/>
   </properties>
  </object>
  <object id="2852" gid="16390" x="7328" y="208" width="16" height="16">
   <properties>
    <property name="bg layer" value="2"/>
    <property name="color channel" value="1"/>
    <property name="vflip" type="bool" value="true"/>
   </properties>
  </object>
  <object id="2854" gid="16390" x="7456" y="208" width="16" height="16">
   <properties>
    <property name="bg layer" value="2"/>
    <property name="color channel" value="1"/>
    <property name="hflip" type="bool" value="true"/>
    <property name="vflip" type="bool" value="true"/>
   </properties>
  </object>
  <object id="2855" gid="16390" x="7520" y="208" width="16" height="16">
   <properties>
    <property name="bg layer" value="2"/>
    <property name="color channel" value="1"/>
    <property name="vflip" type="bool" value="true"/>
   </properties>
  </object>
  <object id="2856" gid="16390" x="7680" y="352" width="16" height="16">
   <properties>
    <property name="bg layer" value="2"/>
    <property name="color channel" value="2"/>
   </properties>
  </object>
  <object id="2857" gid="16389" x="7872" y="352" width="16" height="16">
   <properties>
    <property name="bg layer" value="2"/>
    <property name="color channel" value="2"/>
   </properties>
  </object>
  <object id="2858" gid="16390" x="7923" y="352" width="16" height="16">
   <properties>
    <property name="bg layer" value="2"/>
    <property name="color channel" value="2"/>
   </properties>
  </object>
  <object id="2859" gid="16389" x="8096" y="352" width="16" height="16">
   <properties>
    <property name="bg layer" value="2"/>
    <property name="color channel" value="2"/>
   </properties>
  </object>
  <object id="2860" gid="16389" x="8312" y="350" width="16" height="16">
   <properties>
    <property name="bg layer" value="2"/>
    <property name="color channel" value="2"/>
   </properties>
  </object>
  <object id="2861" gid="16390" x="8432" y="304" width="16" height="16">
   <properties>
    <property name="bg layer" value="1"/>
    <property name="color channel" value="2"/>
   </properties>
  </object>
  <object id="2862" gid="16389" x="8488" y="304" width="16" height="16">
   <properties>
    <property name="bg layer" value="1"/>
    <property name="color channel" value="2"/>
   </properties>
  </object>
  <object id="2863" gid="16390" x="8592" y="352" width="16" height="16">
   <properties>
    <property name="bg layer" value="2"/>
    <property name="color channel" value="2"/>
   </properties>
  </object>
  <object id="2864" gid="16390" x="8714" y="352" width="16" height="16">
   <properties>
    <property name="bg layer" value="2"/>
    <property name="color channel" value="2"/>
   </properties>
  </object>
  <object id="2865" gid="16389" x="8944" y="352" width="16" height="16">
   <properties>
    <property name="bg layer" value="2"/>
    <property name="color channel" value="2"/>
   </properties>
  </object>
  <object id="2866" gid="16390" x="9277" y="352" width="16" height="16">
   <properties>
    <property name="bg layer" value="2"/>
    <property name="color channel" value="2"/>
   </properties>
  </object>
  <object id="2867" gid="16391" x="9376" y="352" width="16" height="16">
   <properties>
    <property name="bg layer" value="2"/>
    <property name="color channel" value="2"/>
   </properties>
  </object>
  <object id="2868" gid="16390" x="7712" y="208" width="16" height="16">
   <properties>
    <property name="bg layer" value="2"/>
    <property name="color channel" value="1"/>
    <property name="hflip" type="bool" value="true"/>
    <property name="vflip" type="bool" value="true"/>
   </properties>
  </object>
  <object id="2869" gid="16391" x="7760" y="208" width="16" height="16">
   <properties>
    <property name="bg layer" value="2"/>
    <property name="color channel" value="1"/>
    <property name="vflip" type="bool" value="true"/>
   </properties>
  </object>
  <object id="2870" gid="16390" x="7968" y="208" width="16" height="16">
   <properties>
    <property name="bg layer" value="2"/>
    <property name="color channel" value="1"/>
    <property name="vflip" type="bool" value="true"/>
   </properties>
  </object>
  <object id="2871" gid="16389" x="8027" y="208" width="16" height="16">
   <properties>
    <property name="bg layer" value="2"/>
    <property name="color channel" value="1"/>
    <property name="vflip" type="bool" value="true"/>
   </properties>
  </object>
  <object id="2872" gid="16391" x="8168" y="208" width="16" height="16">
   <properties>
    <property name="bg layer" value="2"/>
    <property name="color channel" value="1"/>
    <property name="vflip" type="bool" value="true"/>
   </properties>
  </object>
  <object id="2873" gid="16390" x="8336" y="208" width="16" height="16">
   <properties>
    <property name="bg layer" value="2"/>
    <property name="color channel" value="1"/>
    <property name="hflip" type="bool" value="true"/>
    <property name="vflip" type="bool" value="true"/>
   </properties>
  </object>
  <object id="2874" gid="16390" x="8432" y="256" width="16" height="16">
   <properties>
    <property name="bg layer" value="1"/>
    <property name="color channel" value="1"/>
    <property name="vflip" type="bool" value="true"/>
   </properties>
  </object>
  <object id="2875" gid="16389" x="8485" y="256" width="16" height="16">
   <properties>
    <property name="bg layer" value="1"/>
    <property name="color channel" value="1"/>
    <property name="vflip" type="bool" value="true"/>
   </properties>
  </object>
  <object id="2876" gid="16389" x="8608" y="208" width="16" height="16">
   <properties>
    <property name="bg layer" value="2"/>
    <property name="color channel" value="1"/>
    <property name="vflip" type="bool" value="true"/>
   </properties>
  </object>
  <object id="2877" gid="16390" x="8744" y="208" width="16" height="16">
   <properties>
    <property name="bg layer" value="2"/>
    <property name="color channel" value="1"/>
    <property name="vflip" type="bool" value="true"/>
   </properties>
  </object>
  <object id="2878" gid="16389" x="8808" y="208" width="16" height="16">
   <properties>
    <property name="bg layer" value="2"/>
    <property name="color channel" value="1"/>
    <property name="vflip" type="bool" value="true"/>
   </properties>
  </object>
  <object id="2879" gid="16391" x="9028" y="208" width="16" height="16">
   <properties>
    <property name="bg layer" value="2"/>
    <property name="color channel" value="1"/>
    <property name="vflip" type="bool" value="true"/>
   </properties>
  </object>
  <object id="2881" gid="16391" x="9416" y="208" width="16" height="16">
   <properties>
    <property name="bg layer" value="2"/>
    <property name="color channel" value="1"/>
    <property name="vflip" type="bool" value="true"/>
   </properties>
  </object>
  <object id="2880" gid="16392" x="9322" y="208" width="16" height="16">
   <properties>
    <property name="bg layer" value="2"/>
    <property name="color channel" value="1"/>
    <property name="vflip" type="bool" value="true"/>
   </properties>
  </object>
  <object id="2882" gid="16390" x="7652" y="336" width="16" height="16">
   <properties>
    <property name="bg layer" value="2"/>
    <property name="color channel" value="2"/>
    <property name="enable rotation" type="bool" value="true"/>
    <property name="rotation angle" type="int" value="63"/>
   </properties>
  </object>
  <object id="2942" gid="16390" x="8046" y="348" width="16" height="16">
   <properties>
    <property name="bg layer" value="2"/>
    <property name="color channel" value="2"/>
    <property name="enable rotation" type="bool" value="true"/>
    <property name="rotation angle" type="int" value="63"/>
   </properties>
  </object>
  <object id="2937" gid="16390" x="7797" y="312" width="16" height="16">
   <properties>
    <property name="bg layer" value="2"/>
    <property name="color channel" value="2"/>
    <property name="enable rotation" type="bool" value="true"/>
    <property name="rotation angle" type="int" value="45"/>
   </properties>
  </object>
  <object id="2948" gid="16390" x="8552" y="328" width="16" height="16">
   <properties>
    <property name="bg layer" value="2"/>
    <property name="color channel" value="2"/>
    <property name="enable rotation" type="bool" value="true"/>
    <property name="rotation angle" type="int" value="45"/>
   </properties>
  </object>
  <object id="2945" gid="16389" x="8234" y="315" width="16" height="16">
   <properties>
    <property name="bg layer" value="2"/>
    <property name="color channel" value="2"/>
    <property name="enable rotation" type="bool" value="true"/>
    <property name="rotation angle" type="int" value="45"/>
   </properties>
  </object>
  <object id="2958" gid="16389" x="9083" y="318" width="16" height="16">
   <properties>
    <property name="bg layer" value="2"/>
    <property name="color channel" value="2"/>
    <property name="enable rotation" type="bool" value="true"/>
    <property name="rotation angle" type="int" value="45"/>
   </properties>
  </object>
  <object id="2961" gid="16389" x="9210" y="316" width="16" height="16">
   <properties>
    <property name="bg layer" value="2"/>
    <property name="color channel" value="2"/>
    <property name="enable rotation" type="bool" value="true"/>
    <property name="rotation angle" type="int" value="45"/>
   </properties>
  </object>
  <object id="2938" gid="16391" x="7827" y="342" width="16" height="16">
   <properties>
    <property name="bg layer" value="2"/>
    <property name="color channel" value="2"/>
    <property name="enable rotation" type="bool" value="true"/>
    <property name="rotation angle" type="int" value="45"/>
   </properties>
  </object>
  <object id="2946" gid="16391" x="8269" y="352" width="16" height="16">
   <properties>
    <property name="bg layer" value="2"/>
    <property name="color channel" value="2"/>
    <property name="enable rotation" type="bool" value="true"/>
    <property name="rotation angle" type="int" value="45"/>
   </properties>
  </object>
  <object id="2940" gid="16391" x="7976" y="277" width="16" height="16">
   <properties>
    <property name="bg layer" value="2"/>
    <property name="color channel" value="2"/>
    <property name="enable rotation" type="bool" value="true"/>
    <property name="rotation angle" type="int" value="-45"/>
   </properties>
  </object>
  <object id="2883" gid="16389" x="7672" y="229" width="16" height="16">
   <properties>
    <property name="bg layer" value="2"/>
    <property name="color channel" value="1"/>
    <property name="enable rotation" type="bool" value="true"/>
    <property name="hflip" type="bool" value="true"/>
    <property name="rotation angle" type="int" value="-45"/>
    <property name="vflip" type="bool" value="true"/>
   </properties>
  </object>
  <object id="2887" gid="16389" x="7917" y="225" width="16" height="16">
   <properties>
    <property name="bg layer" value="2"/>
    <property name="color channel" value="1"/>
    <property name="enable rotation" type="bool" value="true"/>
    <property name="hflip" type="bool" value="true"/>
    <property name="rotation angle" type="int" value="-45"/>
    <property name="vflip" type="bool" value="true"/>
   </properties>
  </object>
  <object id="2917" gid="16389" x="8298" y="242" width="16" height="16">
   <properties>
    <property name="bg layer" value="2"/>
    <property name="color channel" value="1"/>
    <property name="enable rotation" type="bool" value="true"/>
    <property name="hflip" type="bool" value="true"/>
    <property name="rotation angle" type="int" value="-45"/>
    <property name="vflip" type="bool" value="true"/>
   </properties>
  </object>
  <object id="2919" gid="16389" x="8550" y="233" width="16" height="16">
   <properties>
    <property name="bg layer" value="2"/>
    <property name="color channel" value="1"/>
    <property name="enable rotation" type="bool" value="true"/>
    <property name="hflip" type="bool" value="true"/>
    <property name="rotation angle" type="int" value="-45"/>
    <property name="vflip" type="bool" value="true"/>
   </properties>
  </object>
  <object id="2924" gid="16389" x="8968" y="248" width="16" height="16">
   <properties>
    <property name="bg layer" value="2"/>
    <property name="color channel" value="1"/>
    <property name="enable rotation" type="bool" value="true"/>
    <property name="hflip" type="bool" value="true"/>
    <property name="rotation angle" type="int" value="-45"/>
    <property name="vflip" type="bool" value="true"/>
   </properties>
  </object>
  <object id="2955" gid="16390" x="8908" y="353" width="16" height="16">
   <properties>
    <property name="bg layer" value="2"/>
    <property name="color channel" value="2"/>
    <property name="enable rotation" type="bool" value="true"/>
    <property name="hflip" type="bool" value="true"/>
    <property name="rotation angle" type="int" value="-45"/>
    <property name="vflip" type="bool" value="true"/>
   </properties>
  </object>
  <object id="2929" gid="16389" x="9149" y="241" width="16" height="16">
   <properties>
    <property name="bg layer" value="2"/>
    <property name="color channel" value="1"/>
    <property name="enable rotation" type="bool" value="true"/>
    <property name="hflip" type="bool" value="true"/>
    <property name="rotation angle" type="int" value="-45"/>
    <property name="vflip" type="bool" value="true"/>
   </properties>
  </object>
  <object id="2934" gid="16389" x="9392" y="236" width="16" height="16">
   <properties>
    <property name="bg layer" value="2"/>
    <property name="color channel" value="1"/>
    <property name="enable rotation" type="bool" value="true"/>
    <property name="hflip" type="bool" value="true"/>
    <property name="rotation angle" type="int" value="-63"/>
    <property name="vflip" type="bool" value="true"/>
   </properties>
  </object>
  <object id="2930" gid="16389" x="9200" y="236" width="16" height="16">
   <properties>
    <property name="bg layer" value="2"/>
    <property name="color channel" value="1"/>
    <property name="enable rotation" type="bool" value="true"/>
    <property name="hflip" type="bool" value="true"/>
    <property name="rotation angle" type="int" value="45"/>
    <property name="vflip" type="bool" value="true"/>
   </properties>
  </object>
  <object id="2935" gid="16389" x="9456" y="236" width="16" height="16">
   <properties>
    <property name="bg layer" value="2"/>
    <property name="color channel" value="1"/>
    <property name="enable rotation" type="bool" value="true"/>
    <property name="hflip" type="bool" value="true"/>
    <property name="rotation angle" type="int" value="45"/>
    <property name="vflip" type="bool" value="true"/>
   </properties>
  </object>
  <object id="2884" gid="16389" x="7792" y="236" width="16" height="16">
   <properties>
    <property name="bg layer" value="2"/>
    <property name="color channel" value="1"/>
    <property name="enable rotation" type="bool" value="true"/>
    <property name="hflip" type="bool" value="true"/>
    <property name="rotation angle" type="int" value="45"/>
    <property name="vflip" type="bool" value="true"/>
   </properties>
  </object>
  <object id="2918" gid="16389" x="8384" y="236" width="16" height="16">
   <properties>
    <property name="bg layer" value="2"/>
    <property name="color channel" value="1"/>
    <property name="enable rotation" type="bool" value="true"/>
    <property name="hflip" type="bool" value="true"/>
    <property name="rotation angle" type="int" value="45"/>
    <property name="vflip" type="bool" value="true"/>
   </properties>
  </object>
  <object id="2915" gid="16389" x="8207" y="221" width="16" height="16">
   <properties>
    <property name="bg layer" value="2"/>
    <property name="color channel" value="1"/>
    <property name="enable rotation" type="bool" value="true"/>
    <property name="hflip" type="bool" value="true"/>
    <property name="rotation angle" type="int" value="45"/>
    <property name="vflip" type="bool" value="true"/>
   </properties>
  </object>
  <object id="2885" gid="16391" x="7830" y="273" width="16" height="16">
   <properties>
    <property name="bg layer" value="2"/>
    <property name="color channel" value="1"/>
    <property name="enable rotation" type="bool" value="true"/>
    <property name="hflip" type="bool" value="true"/>
    <property name="rotation angle" type="int" value="45"/>
    <property name="vflip" type="bool" value="true"/>
   </properties>
  </object>
  <object id="2916" gid="16391" x="8245" y="257" width="16" height="16">
   <properties>
    <property name="bg layer" value="2"/>
    <property name="color channel" value="1"/>
    <property name="enable rotation" type="bool" value="true"/>
    <property name="hflip" type="bool" value="true"/>
    <property name="rotation angle" type="int" value="45"/>
    <property name="vflip" type="bool" value="true"/>
   </properties>
  </object>
  <object id="2928" gid="16391" x="9093" y="257" width="16" height="16">
   <properties>
    <property name="bg layer" value="2"/>
    <property name="color channel" value="1"/>
    <property name="enable rotation" type="bool" value="true"/>
    <property name="hflip" type="bool" value="true"/>
    <property name="rotation angle" type="int" value="45"/>
    <property name="vflip" type="bool" value="true"/>
   </properties>
  </object>
  <object id="2932" gid="16391" x="9299" y="218" width="16" height="16">
   <properties>
    <property name="bg layer" value="2"/>
    <property name="color channel" value="1"/>
    <property name="enable rotation" type="bool" value="true"/>
    <property name="hflip" type="bool" value="true"/>
    <property name="rotation angle" type="int" value="-45"/>
    <property name="vflip" type="bool" value="true"/>
   </properties>
  </object>
  <object id="2886" gid="16390" x="7872" y="268" width="16" height="16">
   <properties>
    <property name="bg layer" value="2"/>
    <property name="color channel" value="1"/>
    <property name="enable rotation" type="bool" value="true"/>
    <property name="hflip" type="bool" value="true"/>
    <property name="rotation angle" type="int" value="-45"/>
    <property name="vflip" type="bool" value="true"/>
   </properties>
  </object>
  <object id="2888" gid="16536" x="8428" y="304" width="16" height="16">
   <properties>
    <property name="bg layer" value="2"/>
    <property name="color channel" value="3"/>
    <property name="z index" type="int" value="15"/>
   </properties>
  </object>
  <object id="2889" gid="16536" x="8476" y="304" width="16" height="16">
   <properties>
    <property name="bg layer" value="2"/>
    <property name="color channel" value="3"/>
    <property name="z index" type="int" value="15"/>
   </properties>
  </object>
  <object id="2895" gid="7959" x="8428" y="288" width="16" height="16">
   <properties>
    <property name="bg layer" value="2"/>
   </properties>
  </object>
  <object id="2896" gid="7959" x="8428" y="272" width="16" height="16">
   <properties>
    <property name="bg layer" value="2"/>
   </properties>
  </object>
  <object id="2897" gid="7959" x="8428" y="256" width="16" height="16">
   <properties>
    <property name="bg layer" value="2"/>
    <property name="z index" type="int" value="15"/>
   </properties>
  </object>
  <object id="2898" gid="7959" x="8476" y="288" width="16" height="16">
   <properties>
    <property name="bg layer" value="2"/>
   </properties>
  </object>
  <object id="2899" gid="7959" x="8476" y="272" width="16" height="16">
   <properties>
    <property name="bg layer" value="2"/>
   </properties>
  </object>
  <object id="2900" gid="7959" x="8476" y="256" width="16" height="16">
   <properties>
    <property name="bg layer" value="2"/>
    <property name="z index" type="int" value="15"/>
   </properties>
  </object>
  <object id="2901" gid="16536" x="8451" y="256" width="16" height="16">
   <properties>
    <property name="bg layer" value="2"/>
    <property name="color channel" value="4"/>
    <property name="z index" type="int" value="15"/>
   </properties>
  </object>
  <object id="2902" gid="16536" x="8499" y="256" width="16" height="16">
   <properties>
    <property name="bg layer" value="2"/>
    <property name="color channel" value="4"/>
    <property name="z index" type="int" value="15"/>
   </properties>
  </object>
  <object id="2903" gid="7961" x="8451" y="272" width="16" height="16">
   <properties>
    <property name="bg layer" value="2"/>
    <property name="z index" type="int" value="15"/>
   </properties>
  </object>
  <object id="2904" gid="7961" x="8451" y="288" width="16" height="16">
   <properties>
    <property name="bg layer" value="2"/>
    <property name="z index" type="int" value="15"/>
   </properties>
  </object>
  <object id="2905" gid="7961" x="8451" y="304" width="16" height="16">
   <properties>
    <property name="bg layer" value="2"/>
    <property name="z index" type="int" value="15"/>
   </properties>
  </object>
  <object id="2906" gid="7961" x="8499" y="272" width="16" height="16">
   <properties>
    <property name="bg layer" value="2"/>
    <property name="z index" type="int" value="15"/>
   </properties>
  </object>
  <object id="2907" gid="7961" x="8499" y="288" width="16" height="16">
   <properties>
    <property name="bg layer" value="2"/>
    <property name="z index" type="int" value="15"/>
   </properties>
  </object>
  <object id="2908" gid="7961" x="8499" y="304" width="16" height="16">
   <properties>
    <property name="bg layer" value="2"/>
    <property name="z index" type="int" value="15"/>
   </properties>
  </object>
  <object id="2909" gid="16535" x="8344" y="208" width="16" height="16">
   <properties>
    <property name="bg layer" value="2"/>
    <property name="color channel" value="4"/>
    <property name="vflip" type="bool" value="true"/>
    <property name="z index" type="int" value="15"/>
   </properties>
  </object>
  <object id="2910" gid="16535" x="8584" y="352" width="16" height="16">
   <properties>
    <property name="bg layer" value="2"/>
    <property name="color channel" value="3"/>
    <property name="z index" type="int" value="15"/>
   </properties>
  </object>
  <object id="3228" gid="16535" x="8727" y="358" width="16" height="16">
   <properties>
    <property name="bg layer" value="2"/>
    <property name="color channel" value="3"/>
    <property name="enable rotation" type="bool" value="true"/>
    <property name="rotation angle" type="int" value="18"/>
    <property name="z index" type="int" value="15"/>
   </properties>
  </object>
  <object id="3262" gid="16535" x="8967" y="357" width="16" height="16">
   <properties>
    <property name="bg layer" value="2"/>
    <property name="color channel" value="3"/>
    <property name="enable rotation" type="bool" value="true"/>
    <property name="rotation angle" type="int" value="18"/>
    <property name="z index" type="int" value="15"/>
   </properties>
  </object>
  <object id="2911" gid="16390" x="8064" y="236" width="16" height="16">
   <properties>
    <property name="bg layer" value="2"/>
    <property name="color channel" value="1"/>
    <property name="enable rotation" type="bool" value="true"/>
    <property name="hflip" type="bool" value="true"/>
    <property name="rotation angle" type="int" value="63"/>
    <property name="vflip" type="bool" value="true"/>
   </properties>
  </object>
  <object id="2920" gid="16390" x="8656" y="236" width="16" height="16">
   <properties>
    <property name="bg layer" value="2"/>
    <property name="color channel" value="1"/>
    <property name="enable rotation" type="bool" value="true"/>
    <property name="hflip" type="bool" value="true"/>
    <property name="rotation angle" type="int" value="63"/>
    <property name="vflip" type="bool" value="true"/>
   </properties>
  </object>
  <object id="2912" gid="16391" x="8088" y="280" width="16" height="16">
   <properties>
    <property name="bg layer" value="2"/>
    <property name="color channel" value="1"/>
    <property name="enable rotation" type="bool" value="true"/>
    <property name="hflip" type="bool" value="true"/>
    <property name="rotation angle" type="int" value="63"/>
    <property name="vflip" type="bool" value="true"/>
   </properties>
  </object>
  <object id="2913" gid="16391" x="8118" y="283" width="16" height="16">
   <properties>
    <property name="bg layer" value="2"/>
    <property name="color channel" value="1"/>
    <property name="enable rotation" type="bool" value="true"/>
    <property name="hflip" type="bool" value="true"/>
    <property name="rotation angle" type="int" value="-63"/>
    <property name="vflip" type="bool" value="true"/>
   </properties>
  </object>
  <object id="2914" gid="16389" x="8144" y="236" width="16" height="16">
   <properties>
    <property name="bg layer" value="2"/>
    <property name="color channel" value="1"/>
    <property name="enable rotation" type="bool" value="true"/>
    <property name="hflip" type="bool" value="false"/>
    <property name="rotation angle" type="int" value="63"/>
    <property name="vflip" type="bool" value="true"/>
   </properties>
  </object>
  <object id="2921" gid="16389" x="8704" y="236" width="16" height="16">
   <properties>
    <property name="bg layer" value="2"/>
    <property name="color channel" value="1"/>
    <property name="enable rotation" type="bool" value="true"/>
    <property name="hflip" type="bool" value="false"/>
    <property name="rotation angle" type="int" value="63"/>
    <property name="vflip" type="bool" value="true"/>
   </properties>
  </object>
  <object id="2922" gid="16391" x="8855" y="234" width="16" height="16">
   <properties>
    <property name="bg layer" value="2"/>
    <property name="color channel" value="1"/>
    <property name="enable rotation" type="bool" value="true"/>
    <property name="hflip" type="bool" value="true"/>
    <property name="rotation angle" type="int" value="26"/>
    <property name="vflip" type="bool" value="true"/>
   </properties>
  </object>
  <object id="2923" gid="16389" x="8900" y="257" width="16" height="16">
   <properties>
    <property name="bg layer" value="2"/>
    <property name="color channel" value="1"/>
    <property name="enable rotation" type="bool" value="true"/>
    <property name="rotation angle" type="int" value="-26"/>
    <property name="vflip" type="bool" value="true"/>
   </properties>
  </object>
  <object id="2926" gid="16391" x="9000" y="210" width="16" height="16">
   <properties>
    <property name="bg layer" value="2"/>
    <property name="color channel" value="1"/>
    <property name="enable rotation" type="bool" value="true"/>
    <property name="hflip" type="bool" value="true"/>
    <property name="rotation angle" type="int" value="-45"/>
    <property name="vflip" type="bool" value="true"/>
   </properties>
  </object>
  <object id="2927" gid="16390" x="9062" y="227" width="16" height="16">
   <properties>
    <property name="bg layer" value="2"/>
    <property name="color channel" value="1"/>
    <property name="enable rotation" type="bool" value="true"/>
    <property name="hflip" type="bool" value="true"/>
    <property name="rotation angle" type="int" value="45"/>
    <property name="vflip" type="bool" value="true"/>
   </properties>
  </object>
  <object id="2933" gid="16390" x="9344" y="237" width="16" height="16">
   <properties>
    <property name="bg layer" value="2"/>
    <property name="color channel" value="1"/>
    <property name="enable rotation" type="bool" value="true"/>
    <property name="hflip" type="bool" value="true"/>
    <property name="rotation angle" type="int" value="63"/>
    <property name="vflip" type="bool" value="true"/>
   </properties>
  </object>
  <object id="2931" gid="16390" x="9267" y="249" width="16" height="16">
   <properties>
    <property name="bg layer" value="2"/>
    <property name="color channel" value="1"/>
    <property name="enable rotation" type="bool" value="true"/>
    <property name="hflip" type="bool" value="true"/>
    <property name="rotation angle" type="int" value="-45"/>
    <property name="vflip" type="bool" value="true"/>
   </properties>
  </object>
  <object id="2936" gid="16389" x="7728" y="320" width="16" height="16">
   <properties>
    <property name="bg layer" value="2"/>
    <property name="color channel" value="2"/>
    <property name="enable rotation" type="bool" value="true"/>
    <property name="rotation angle" type="int" value="-45"/>
   </properties>
  </object>
  <object id="2947" gid="16389" x="8368" y="336" width="16" height="16">
   <properties>
    <property name="bg layer" value="2"/>
    <property name="color channel" value="2"/>
    <property name="enable rotation" type="bool" value="true"/>
    <property name="rotation angle" type="int" value="-45"/>
   </properties>
  </object>
  <object id="2951" gid="16389" x="8763" y="328" width="16" height="16">
   <properties>
    <property name="bg layer" value="2"/>
    <property name="color channel" value="2"/>
    <property name="enable rotation" type="bool" value="true"/>
    <property name="rotation angle" type="int" value="-45"/>
   </properties>
  </object>
  <object id="2965" gid="16389" x="9408" y="320" width="16" height="16">
   <properties>
    <property name="bg layer" value="2"/>
    <property name="color channel" value="2"/>
    <property name="enable rotation" type="bool" value="true"/>
    <property name="rotation angle" type="int" value="-45"/>
   </properties>
  </object>
  <object id="2956" gid="16391" x="8990" y="344" width="16" height="16">
   <properties>
    <property name="bg layer" value="2"/>
    <property name="color channel" value="2"/>
    <property name="enable rotation" type="bool" value="true"/>
    <property name="rotation angle" type="int" value="-45"/>
   </properties>
  </object>
  <object id="2960" gid="16391" x="9156" y="303" width="16" height="16">
   <properties>
    <property name="bg layer" value="2"/>
    <property name="color channel" value="2"/>
    <property name="enable rotation" type="bool" value="true"/>
    <property name="rotation angle" type="int" value="-45"/>
   </properties>
  </object>
  <object id="2953" gid="16389" x="8861" y="287" width="16" height="16">
   <properties>
    <property name="bg layer" value="2"/>
    <property name="color channel" value="2"/>
    <property name="enable rotation" type="bool" value="true"/>
    <property name="rotation angle" type="int" value="26"/>
   </properties>
  </object>
  <object id="2954" gid="16391" x="8907" y="310" width="16" height="16">
   <properties>
    <property name="bg layer" value="2"/>
    <property name="color channel" value="2"/>
    <property name="enable rotation" type="bool" value="true"/>
    <property name="rotation angle" type="int" value="26"/>
   </properties>
  </object>
  <object id="2952" gid="16391" x="8804" y="286" width="16" height="16">
   <properties>
    <property name="bg layer" value="2"/>
    <property name="color channel" value="2"/>
    <property name="enable rotation" type="bool" value="true"/>
    <property name="rotation angle" type="int" value="-45"/>
   </properties>
  </object>
  <object id="2943" gid="16390" x="8144" y="336" width="16" height="16">
   <properties>
    <property name="bg layer" value="2"/>
    <property name="color channel" value="2"/>
    <property name="enable rotation" type="bool" value="true"/>
    <property name="rotation angle" type="int" value="-45"/>
   </properties>
  </object>
  <object id="2959" gid="16390" x="9123" y="336" width="16" height="16">
   <properties>
    <property name="bg layer" value="2"/>
    <property name="color channel" value="2"/>
    <property name="enable rotation" type="bool" value="true"/>
    <property name="rotation angle" type="int" value="-45"/>
   </properties>
  </object>
  <object id="2963" gid="16390" x="9360" y="320" width="16" height="16">
   <properties>
    <property name="bg layer" value="2"/>
    <property name="color channel" value="2"/>
    <property name="enable rotation" type="bool" value="true"/>
    <property name="hflip" type="bool" value="true"/>
    <property name="rotation angle" type="int" value="-63"/>
   </properties>
  </object>
  <object id="2957" gid="16390" x="9020" y="310" width="16" height="16">
   <properties>
    <property name="bg layer" value="2"/>
    <property name="color channel" value="2"/>
    <property name="enable rotation" type="bool" value="true"/>
    <property name="rotation angle" type="int" value="-45"/>
   </properties>
  </object>
  <object id="2944" gid="16391" x="8179" y="304" width="16" height="16">
   <properties>
    <property name="bg layer" value="2"/>
    <property name="color channel" value="2"/>
    <property name="enable rotation" type="bool" value="true"/>
    <property name="rotation angle" type="int" value="-45"/>
   </properties>
  </object>
  <object id="2939" gid="16389" x="7952" y="320" width="16" height="16">
   <properties>
    <property name="bg layer" value="2"/>
    <property name="color channel" value="2"/>
    <property name="enable rotation" type="bool" value="true"/>
    <property name="rotation angle" type="int" value="-63"/>
   </properties>
  </object>
  <object id="2962" gid="16389" x="9310" y="324" width="16" height="16">
   <properties>
    <property name="bg layer" value="2"/>
    <property name="color channel" value="2"/>
    <property name="enable rotation" type="bool" value="true"/>
    <property name="rotation angle" type="int" value="-63"/>
   </properties>
  </object>
  <object id="2941" gid="16389" x="8018" y="293" width="16" height="16">
   <properties>
    <property name="bg layer" value="2"/>
    <property name="color channel" value="2"/>
    <property name="enable rotation" type="bool" value="true"/>
    <property name="rotation angle" type="int" value="63"/>
   </properties>
  </object>
  <object id="2949" gid="16390" x="8624" y="320" width="16" height="16">
   <properties>
    <property name="bg layer" value="2"/>
    <property name="color channel" value="2"/>
    <property name="enable rotation" type="bool" value="true"/>
    <property name="rotation angle" type="int" value="-63"/>
   </properties>
  </object>
  <object id="2950" gid="16389" x="8675" y="325" width="16" height="16">
   <properties>
    <property name="bg layer" value="2"/>
    <property name="color channel" value="2"/>
    <property name="enable rotation" type="bool" value="true"/>
    <property name="rotation angle" type="int" value="63"/>
   </properties>
  </object>
  <object id="2966" gid="16535" x="7676" y="357" width="16" height="16">
   <properties>
    <property name="bg layer" value="2"/>
    <property name="color channel" value="3"/>
    <property name="enable rotation" type="bool" value="true"/>
    <property name="rotation angle" type="int" value="12"/>
    <property name="z index" type="int" value="15"/>
   </properties>
  </object>
  <object id="2967" gid="3470" x="7682" y="326" width="16" height="16">
   <properties>
    <property name="bg layer" value="2"/>
    <property name="enable rotation" type="bool" value="true"/>
    <property name="rotation angle" type="int" value="12"/>
   </properties>
  </object>
  <object id="2968" gid="3470" x="7685" y="310" width="16" height="16">
   <properties>
    <property name="bg layer" value="2"/>
    <property name="enable rotation" type="bool" value="true"/>
    <property name="rotation angle" type="int" value="12"/>
   </properties>
  </object>
  <object id="2969" gid="3470" x="7688" y="294" width="16" height="16">
   <properties>
    <property name="bg layer" value="2"/>
    <property name="enable rotation" type="bool" value="true"/>
    <property name="rotation angle" type="int" value="12"/>
   </properties>
  </object>
  <object id="2970" gid="3470" x="7691" y="278" width="16" height="16">
   <properties>
    <property name="bg layer" value="2"/>
    <property name="enable rotation" type="bool" value="true"/>
    <property name="rotation angle" type="int" value="12"/>
   </properties>
  </object>
  <object id="2971" gid="3470" x="7694" y="262" width="16" height="16">
   <properties>
    <property name="bg layer" value="2"/>
    <property name="enable rotation" type="bool" value="true"/>
    <property name="rotation angle" type="int" value="12"/>
   </properties>
  </object>
  <object id="2972" gid="3470" x="7697" y="246" width="16" height="16">
   <properties>
    <property name="bg layer" value="2"/>
    <property name="enable rotation" type="bool" value="true"/>
    <property name="rotation angle" type="int" value="12"/>
   </properties>
  </object>
  <object id="2973" gid="3470" x="7700" y="230" width="16" height="16">
   <properties>
    <property name="bg layer" value="2"/>
    <property name="enable rotation" type="bool" value="true"/>
    <property name="rotation angle" type="int" value="12"/>
    <property name="z index" type="int" value="15"/>
   </properties>
  </object>
  <object id="2974" gid="3470" x="7703" y="214" width="16" height="16">
   <properties>
    <property name="bg layer" value="2"/>
    <property name="enable rotation" type="bool" value="true"/>
    <property name="rotation angle" type="int" value="12"/>
    <property name="z index" type="int" value="15"/>
   </properties>
  </object>
  <object id="2975" gid="3470" x="7706" y="198" width="16" height="16">
   <properties>
    <property name="bg layer" value="2"/>
    <property name="enable rotation" type="bool" value="true"/>
    <property name="rotation angle" type="int" value="12"/>
    <property name="z index" type="int" value="15"/>
   </properties>
  </object>
  <object id="2976" gid="16535" x="7716" y="188" width="16" height="16">
   <properties>
    <property name="bg layer" value="2"/>
    <property name="color channel" value="4"/>
    <property name="enable rotation" type="bool" value="true"/>
    <property name="rotation angle" type="int" value="-45"/>
    <property name="vflip" type="bool" value="true"/>
    <property name="z index" type="int" value="15"/>
   </properties>
  </object>
  <object id="2977" gid="3471" x="7733" y="213" width="16" height="16">
   <properties>
    <property name="bg layer" value="2"/>
    <property name="enable rotation" type="bool" value="true"/>
    <property name="rotation angle" type="int" value="45"/>
   </properties>
  </object>
  <object id="2978" gid="3471" x="7744" y="224" width="16" height="16">
   <properties>
    <property name="bg layer" value="2"/>
    <property name="enable rotation" type="bool" value="true"/>
    <property name="rotation angle" type="int" value="45"/>
   </properties>
  </object>
  <object id="2979" gid="3471" x="7755" y="235" width="16" height="16">
   <properties>
    <property name="bg layer" value="2"/>
    <property name="enable rotation" type="bool" value="true"/>
    <property name="rotation angle" type="int" value="45"/>
   </properties>
  </object>
  <object id="2980" gid="3471" x="7766" y="246" width="16" height="16">
   <properties>
    <property name="bg layer" value="2"/>
    <property name="enable rotation" type="bool" value="true"/>
    <property name="rotation angle" type="int" value="45"/>
   </properties>
  </object>
  <object id="2981" gid="3471" x="7777" y="257" width="16" height="16">
   <properties>
    <property name="bg layer" value="2"/>
    <property name="enable rotation" type="bool" value="true"/>
    <property name="rotation angle" type="int" value="45"/>
   </properties>
  </object>
  <object id="2982" gid="3471" x="7788" y="268" width="16" height="16">
   <properties>
    <property name="bg layer" value="2"/>
    <property name="enable rotation" type="bool" value="true"/>
    <property name="rotation angle" type="int" value="45"/>
   </properties>
  </object>
  <object id="2983" gid="3471" x="7799" y="279" width="16" height="16">
   <properties>
    <property name="bg layer" value="2"/>
    <property name="enable rotation" type="bool" value="true"/>
    <property name="rotation angle" type="int" value="45"/>
   </properties>
  </object>
  <object id="2984" gid="3471" x="7810" y="290" width="16" height="16">
   <properties>
    <property name="bg layer" value="2"/>
    <property name="enable rotation" type="bool" value="true"/>
    <property name="rotation angle" type="int" value="45"/>
   </properties>
  </object>
  <object id="2985" gid="3471" x="7821" y="301" width="16" height="16">
   <properties>
    <property name="bg layer" value="2"/>
    <property name="enable rotation" type="bool" value="true"/>
    <property name="rotation angle" type="int" value="45"/>
   </properties>
  </object>
  <object id="2986" gid="3471" x="7832" y="312" width="16" height="16">
   <properties>
    <property name="bg layer" value="2"/>
    <property name="enable rotation" type="bool" value="true"/>
    <property name="rotation angle" type="int" value="45"/>
   </properties>
  </object>
  <object id="2987" gid="3471" x="7843" y="323" width="16" height="16">
   <properties>
    <property name="bg layer" value="2"/>
    <property name="enable rotation" type="bool" value="true"/>
    <property name="rotation angle" type="int" value="45"/>
   </properties>
  </object>
  <object id="2988" gid="3471" x="7854" y="334" width="16" height="16">
   <properties>
    <property name="bg layer" value="2"/>
    <property name="enable rotation" type="bool" value="true"/>
    <property name="rotation angle" type="int" value="45"/>
    <property name="z index" type="int" value="15"/>
   </properties>
  </object>
  <object id="2989" gid="3471" x="7865" y="345" width="16" height="16">
   <properties>
    <property name="bg layer" value="2"/>
    <property name="enable rotation" type="bool" value="true"/>
    <property name="rotation angle" type="int" value="45"/>
    <property name="z index" type="int" value="15"/>
   </properties>
  </object>
  <object id="2990" gid="3471" x="7876" y="356" width="16" height="16">
   <properties>
    <property name="bg layer" value="2"/>
    <property name="enable rotation" type="bool" value="true"/>
    <property name="rotation angle" type="int" value="45"/>
   </properties>
  </object>
  <object id="2991" gid="16537" x="9471" y="306" width="16" height="16">
   <properties>
    <property name="bg layer" value="2"/>
    <property name="color channel" value="2"/>
    <property name="enable rotation" type="bool" value="true"/>
    <property name="rotation angle" type="int" value="45"/>
    <property name="z index" type="int" value="5"/>
   </properties>
  </object>
  <object id="3043" gid="16537" x="9503" y="338" width="16" height="16">
   <properties>
    <property name="bg layer" value="2"/>
    <property name="color channel" value="2"/>
    <property name="enable rotation" type="bool" value="true"/>
    <property name="rotation angle" type="int" value="45"/>
    <property name="z index" type="int" value="5"/>
   </properties>
  </object>
  <object id="3137" gid="16537" x="9569" y="337" width="16" height="16">
   <properties>
    <property name="bg layer" value="2"/>
    <property name="color channel" value="2"/>
    <property name="enable rotation" type="bool" value="true"/>
    <property name="rotation angle" type="int" value="-45"/>
    <property name="z index" type="int" value="5"/>
   </properties>
  </object>
  <object id="3176" gid="16537" x="9536" y="352" width="16" height="16">
   <properties>
    <property name="bg layer" value="2"/>
    <property name="color channel" value="2"/>
    <property name="enable rotation" type="bool" value="false"/>
    <property name="rotation angle" type="int" value="0"/>
    <property name="z index" type="int" value="5"/>
   </properties>
  </object>
  <object id="3179" gid="16537" x="9768" y="352" width="16" height="16">
   <properties>
    <property name="bg layer" value="2"/>
    <property name="color channel" value="2"/>
    <property name="enable rotation" type="bool" value="false"/>
    <property name="rotation angle" type="int" value="0"/>
    <property name="z index" type="int" value="5"/>
   </properties>
  </object>
  <object id="3197" gid="16537" x="9656" y="208" width="16" height="16">
   <properties>
    <property name="bg layer" value="2"/>
    <property name="color channel" value="2"/>
    <property name="enable rotation" type="bool" value="false"/>
    <property name="rotation angle" type="int" value="0"/>
    <property name="vflip" type="bool" value="true"/>
    <property name="z index" type="int" value="5"/>
   </properties>
  </object>
  <object id="3200" gid="16537" x="9880" y="208" width="16" height="16">
   <properties>
    <property name="bg layer" value="2"/>
    <property name="color channel" value="2"/>
    <property name="enable rotation" type="bool" value="false"/>
    <property name="rotation angle" type="int" value="0"/>
    <property name="vflip" type="bool" value="true"/>
    <property name="z index" type="int" value="5"/>
   </properties>
  </object>
  <object id="3203" gid="16537" x="10000" y="224" width="16" height="16">
   <properties>
    <property name="bg layer" value="2"/>
    <property name="color channel" value="2"/>
    <property name="enable rotation" type="bool" value="false"/>
    <property name="rotation angle" type="int" value="0"/>
    <property name="vflip" type="bool" value="true"/>
    <property name="z index" type="int" value="5"/>
   </properties>
  </object>
  <object id="3206" gid="16537" x="10088" y="208" width="16" height="16">
   <properties>
    <property name="bg layer" value="2"/>
    <property name="color channel" value="2"/>
    <property name="enable rotation" type="bool" value="false"/>
    <property name="rotation angle" type="int" value="0"/>
    <property name="vflip" type="bool" value="true"/>
    <property name="z index" type="int" value="5"/>
   </properties>
  </object>
  <object id="3209" gid="16537" x="10184" y="208" width="16" height="16">
   <properties>
    <property name="bg layer" value="2"/>
    <property name="color channel" value="2"/>
    <property name="enable rotation" type="bool" value="false"/>
    <property name="rotation angle" type="int" value="0"/>
    <property name="vflip" type="bool" value="true"/>
    <property name="z index" type="int" value="5"/>
   </properties>
  </object>
  <object id="3185" gid="16537" x="9960" y="336" width="16" height="16">
   <properties>
    <property name="bg layer" value="2"/>
    <property name="color channel" value="2"/>
    <property name="enable rotation" type="bool" value="false"/>
    <property name="rotation angle" type="int" value="0"/>
    <property name="z index" type="int" value="5"/>
   </properties>
  </object>
  <object id="3188" gid="16537" x="10040" y="320" width="16" height="16">
   <properties>
    <property name="bg layer" value="2"/>
    <property name="color channel" value="2"/>
    <property name="enable rotation" type="bool" value="false"/>
    <property name="rotation angle" type="int" value="0"/>
    <property name="z index" type="int" value="5"/>
   </properties>
  </object>
  <object id="3191" gid="16537" x="10136" y="320" width="16" height="16">
   <properties>
    <property name="bg layer" value="2"/>
    <property name="color channel" value="2"/>
    <property name="enable rotation" type="bool" value="false"/>
    <property name="rotation angle" type="int" value="0"/>
    <property name="z index" type="int" value="5"/>
   </properties>
  </object>
  <object id="3194" gid="16537" x="10264" y="352" width="16" height="16">
   <properties>
    <property name="bg layer" value="2"/>
    <property name="color channel" value="2"/>
    <property name="enable rotation" type="bool" value="false"/>
    <property name="rotation angle" type="int" value="0"/>
    <property name="z index" type="int" value="5"/>
   </properties>
  </object>
  <object id="3140" gid="16537" x="9601" y="305" width="16" height="16">
   <properties>
    <property name="bg layer" value="2"/>
    <property name="color channel" value="2"/>
    <property name="enable rotation" type="bool" value="true"/>
    <property name="rotation angle" type="int" value="-45"/>
    <property name="z index" type="int" value="5"/>
   </properties>
  </object>
  <object id="3143" gid="16537" x="9633" y="273" width="16" height="16">
   <properties>
    <property name="bg layer" value="2"/>
    <property name="color channel" value="2"/>
    <property name="enable rotation" type="bool" value="true"/>
    <property name="rotation angle" type="int" value="-45"/>
    <property name="z index" type="int" value="5"/>
   </properties>
  </object>
  <object id="3146" gid="16537" x="9793" y="337" width="16" height="16">
   <properties>
    <property name="bg layer" value="2"/>
    <property name="color channel" value="2"/>
    <property name="enable rotation" type="bool" value="true"/>
    <property name="rotation angle" type="int" value="-45"/>
    <property name="z index" type="int" value="5"/>
   </properties>
  </object>
  <object id="3149" gid="16537" x="9825" y="305" width="16" height="16">
   <properties>
    <property name="bg layer" value="2"/>
    <property name="color channel" value="2"/>
    <property name="enable rotation" type="bool" value="true"/>
    <property name="rotation angle" type="int" value="-45"/>
    <property name="z index" type="int" value="5"/>
   </properties>
  </object>
  <object id="3152" gid="16537" x="9857" y="273" width="16" height="16">
   <properties>
    <property name="bg layer" value="2"/>
    <property name="color channel" value="2"/>
    <property name="enable rotation" type="bool" value="true"/>
    <property name="rotation angle" type="int" value="-45"/>
    <property name="z index" type="int" value="5"/>
   </properties>
  </object>
  <object id="3155" gid="16537" x="9985" y="305" width="16" height="16">
   <properties>
    <property name="bg layer" value="2"/>
    <property name="color channel" value="2"/>
    <property name="enable rotation" type="bool" value="true"/>
    <property name="rotation angle" type="int" value="-45"/>
    <property name="z index" type="int" value="5"/>
   </properties>
  </object>
  <object id="3158" gid="16537" x="10065" y="289" width="16" height="16">
   <properties>
    <property name="bg layer" value="2"/>
    <property name="color channel" value="2"/>
    <property name="enable rotation" type="bool" value="true"/>
    <property name="rotation angle" type="int" value="-45"/>
    <property name="z index" type="int" value="5"/>
   </properties>
  </object>
  <object id="3164" gid="16537" x="10161" y="289" width="16" height="16">
   <properties>
    <property name="bg layer" value="2"/>
    <property name="color channel" value="2"/>
    <property name="enable rotation" type="bool" value="true"/>
    <property name="rotation angle" type="int" value="-45"/>
    <property name="z index" type="int" value="5"/>
   </properties>
  </object>
  <object id="3167" gid="16537" x="10289" y="321" width="16" height="16">
   <properties>
    <property name="bg layer" value="2"/>
    <property name="color channel" value="2"/>
    <property name="enable rotation" type="bool" value="true"/>
    <property name="rotation angle" type="int" value="-45"/>
    <property name="z index" type="int" value="5"/>
   </properties>
  </object>
  <object id="3170" gid="16537" x="10308" y="304" width="16" height="16">
   <properties>
    <property name="bg layer" value="2"/>
    <property name="color channel" value="2"/>
    <property name="enable rotation" type="bool" value="true"/>
    <property name="rotation angle" type="int" value="-45"/>
    <property name="z index" type="int" value="5"/>
   </properties>
  </object>
  <object id="3173" gid="16537" x="10385" y="321" width="16" height="16">
   <properties>
    <property name="bg layer" value="2"/>
    <property name="color channel" value="2"/>
    <property name="enable rotation" type="bool" value="true"/>
    <property name="rotation angle" type="int" value="-45"/>
    <property name="z index" type="int" value="5"/>
   </properties>
  </object>
  <object id="3046" gid="16537" x="9679" y="274" width="16" height="16">
   <properties>
    <property name="bg layer" value="2"/>
    <property name="color channel" value="2"/>
    <property name="enable rotation" type="bool" value="true"/>
    <property name="rotation angle" type="int" value="45"/>
    <property name="z index" type="int" value="5"/>
   </properties>
  </object>
  <object id="3056" gid="16537" x="9903" y="274" width="16" height="16">
   <properties>
    <property name="bg layer" value="2"/>
    <property name="color channel" value="2"/>
    <property name="enable rotation" type="bool" value="true"/>
    <property name="rotation angle" type="int" value="45"/>
    <property name="z index" type="int" value="5"/>
   </properties>
  </object>
  <object id="3059" gid="16537" x="9935" y="306" width="16" height="16">
   <properties>
    <property name="bg layer" value="2"/>
    <property name="color channel" value="2"/>
    <property name="enable rotation" type="bool" value="true"/>
    <property name="rotation angle" type="int" value="45"/>
    <property name="z index" type="int" value="5"/>
   </properties>
  </object>
  <object id="3062" gid="16537" x="10111" y="290" width="16" height="16">
   <properties>
    <property name="bg layer" value="2"/>
    <property name="color channel" value="2"/>
    <property name="enable rotation" type="bool" value="true"/>
    <property name="rotation angle" type="int" value="45"/>
    <property name="z index" type="int" value="5"/>
   </properties>
  </object>
  <object id="3065" gid="16537" x="10207" y="290" width="16" height="16">
   <properties>
    <property name="bg layer" value="2"/>
    <property name="color channel" value="2"/>
    <property name="enable rotation" type="bool" value="true"/>
    <property name="rotation angle" type="int" value="45"/>
    <property name="z index" type="int" value="5"/>
   </properties>
  </object>
  <object id="3068" gid="16537" x="10239" y="322" width="16" height="16">
   <properties>
    <property name="bg layer" value="2"/>
    <property name="color channel" value="2"/>
    <property name="enable rotation" type="bool" value="true"/>
    <property name="rotation angle" type="int" value="45"/>
    <property name="z index" type="int" value="5"/>
   </properties>
  </object>
  <object id="3071" gid="16537" x="10351" y="306" width="16" height="16">
   <properties>
    <property name="bg layer" value="2"/>
    <property name="color channel" value="2"/>
    <property name="enable rotation" type="bool" value="true"/>
    <property name="rotation angle" type="int" value="45"/>
    <property name="z index" type="int" value="5"/>
   </properties>
  </object>
  <object id="3049" gid="16537" x="9711" y="306" width="16" height="16">
   <properties>
    <property name="bg layer" value="2"/>
    <property name="color channel" value="2"/>
    <property name="enable rotation" type="bool" value="true"/>
    <property name="rotation angle" type="int" value="45"/>
    <property name="z index" type="int" value="5"/>
   </properties>
  </object>
  <object id="3053" gid="16537" x="9743" y="338" width="16" height="16">
   <properties>
    <property name="bg layer" value="2"/>
    <property name="color channel" value="2"/>
    <property name="enable rotation" type="bool" value="true"/>
    <property name="rotation angle" type="int" value="45"/>
    <property name="z index" type="int" value="5"/>
   </properties>
  </object>
  <object id="2992" gid="16536" x="9471" y="306" width="16" height="16">
   <properties>
    <property name="bg layer" value="2"/>
    <property name="color channel" value="3"/>
    <property name="enable rotation" type="bool" value="true"/>
    <property name="rotation angle" type="int" value="45"/>
    <property name="z index" type="int" value="10"/>
   </properties>
  </object>
  <object id="3042" gid="16536" x="9503" y="338" width="16" height="16">
   <properties>
    <property name="bg layer" value="2"/>
    <property name="color channel" value="3"/>
    <property name="enable rotation" type="bool" value="true"/>
    <property name="rotation angle" type="int" value="45"/>
    <property name="z index" type="int" value="10"/>
   </properties>
  </object>
  <object id="3138" gid="16536" x="9569" y="337" width="16" height="16">
   <properties>
    <property name="bg layer" value="2"/>
    <property name="color channel" value="3"/>
    <property name="enable rotation" type="bool" value="true"/>
    <property name="rotation angle" type="int" value="-45"/>
    <property name="z index" type="int" value="10"/>
   </properties>
  </object>
  <object id="3177" gid="16536" x="9536" y="352" width="16" height="16">
   <properties>
    <property name="bg layer" value="2"/>
    <property name="color channel" value="3"/>
    <property name="enable rotation" type="bool" value="false"/>
    <property name="rotation angle" type="int" value="0"/>
    <property name="z index" type="int" value="10"/>
   </properties>
  </object>
  <object id="3180" gid="16536" x="9768" y="352" width="16" height="16">
   <properties>
    <property name="bg layer" value="2"/>
    <property name="color channel" value="3"/>
    <property name="enable rotation" type="bool" value="false"/>
    <property name="rotation angle" type="int" value="0"/>
    <property name="z index" type="int" value="10"/>
   </properties>
  </object>
  <object id="3198" gid="16536" x="9656" y="208" width="16" height="16">
   <properties>
    <property name="bg layer" value="2"/>
    <property name="color channel" value="3"/>
    <property name="enable rotation" type="bool" value="false"/>
    <property name="rotation angle" type="int" value="0"/>
    <property name="vflip" type="bool" value="true"/>
    <property name="z index" type="int" value="10"/>
   </properties>
  </object>
  <object id="3201" gid="16536" x="9880" y="208" width="16" height="16">
   <properties>
    <property name="bg layer" value="2"/>
    <property name="color channel" value="3"/>
    <property name="enable rotation" type="bool" value="false"/>
    <property name="rotation angle" type="int" value="0"/>
    <property name="vflip" type="bool" value="true"/>
    <property name="z index" type="int" value="10"/>
   </properties>
  </object>
  <object id="3204" gid="16536" x="10000" y="224" width="16" height="16">
   <properties>
    <property name="bg layer" value="2"/>
    <property name="color channel" value="3"/>
    <property name="enable rotation" type="bool" value="false"/>
    <property name="rotation angle" type="int" value="0"/>
    <property name="vflip" type="bool" value="true"/>
    <property name="z index" type="int" value="10"/>
   </properties>
  </object>
  <object id="3207" gid="16536" x="10088" y="208" width="16" height="16">
   <properties>
    <property name="bg layer" value="2"/>
    <property name="color channel" value="3"/>
    <property name="enable rotation" type="bool" value="false"/>
    <property name="rotation angle" type="int" value="0"/>
    <property name="vflip" type="bool" value="true"/>
    <property name="z index" type="int" value="10"/>
   </properties>
  </object>
  <object id="3210" gid="16536" x="10184" y="208" width="16" height="16">
   <properties>
    <property name="bg layer" value="2"/>
    <property name="color channel" value="3"/>
    <property name="enable rotation" type="bool" value="false"/>
    <property name="rotation angle" type="int" value="0"/>
    <property name="vflip" type="bool" value="true"/>
    <property name="z index" type="int" value="10"/>
   </properties>
  </object>
  <object id="3186" gid="16536" x="9960" y="336" width="16" height="16">
   <properties>
    <property name="bg layer" value="2"/>
    <property name="color channel" value="3"/>
    <property name="enable rotation" type="bool" value="false"/>
    <property name="rotation angle" type="int" value="0"/>
    <property name="z index" type="int" value="10"/>
   </properties>
  </object>
  <object id="3189" gid="16536" x="10040" y="320" width="16" height="16">
   <properties>
    <property name="bg layer" value="2"/>
    <property name="color channel" value="3"/>
    <property name="enable rotation" type="bool" value="false"/>
    <property name="rotation angle" type="int" value="0"/>
    <property name="z index" type="int" value="10"/>
   </properties>
  </object>
  <object id="3192" gid="16536" x="10136" y="320" width="16" height="16">
   <properties>
    <property name="bg layer" value="2"/>
    <property name="color channel" value="3"/>
    <property name="enable rotation" type="bool" value="false"/>
    <property name="rotation angle" type="int" value="0"/>
    <property name="z index" type="int" value="10"/>
   </properties>
  </object>
  <object id="3195" gid="16536" x="10264" y="352" width="16" height="16">
   <properties>
    <property name="bg layer" value="2"/>
    <property name="color channel" value="3"/>
    <property name="enable rotation" type="bool" value="false"/>
    <property name="rotation angle" type="int" value="0"/>
    <property name="z index" type="int" value="10"/>
   </properties>
  </object>
  <object id="3141" gid="16536" x="9601" y="305" width="16" height="16">
   <properties>
    <property name="bg layer" value="2"/>
    <property name="color channel" value="3"/>
    <property name="enable rotation" type="bool" value="true"/>
    <property name="rotation angle" type="int" value="-45"/>
    <property name="z index" type="int" value="10"/>
   </properties>
  </object>
  <object id="3144" gid="16536" x="9633" y="273" width="16" height="16">
   <properties>
    <property name="bg layer" value="2"/>
    <property name="color channel" value="3"/>
    <property name="enable rotation" type="bool" value="true"/>
    <property name="rotation angle" type="int" value="-45"/>
    <property name="z index" type="int" value="10"/>
   </properties>
  </object>
  <object id="3147" gid="16536" x="9793" y="337" width="16" height="16">
   <properties>
    <property name="bg layer" value="2"/>
    <property name="color channel" value="3"/>
    <property name="enable rotation" type="bool" value="true"/>
    <property name="rotation angle" type="int" value="-45"/>
    <property name="z index" type="int" value="10"/>
   </properties>
  </object>
  <object id="3150" gid="16536" x="9825" y="305" width="16" height="16">
   <properties>
    <property name="bg layer" value="2"/>
    <property name="color channel" value="3"/>
    <property name="enable rotation" type="bool" value="true"/>
    <property name="rotation angle" type="int" value="-45"/>
    <property name="z index" type="int" value="10"/>
   </properties>
  </object>
  <object id="3153" gid="16536" x="9857" y="273" width="16" height="16">
   <properties>
    <property name="bg layer" value="2"/>
    <property name="color channel" value="3"/>
    <property name="enable rotation" type="bool" value="true"/>
    <property name="rotation angle" type="int" value="-45"/>
    <property name="z index" type="int" value="10"/>
   </properties>
  </object>
  <object id="3156" gid="16536" x="9985" y="305" width="16" height="16">
   <properties>
    <property name="bg layer" value="2"/>
    <property name="color channel" value="3"/>
    <property name="enable rotation" type="bool" value="true"/>
    <property name="rotation angle" type="int" value="-45"/>
    <property name="z index" type="int" value="10"/>
   </properties>
  </object>
  <object id="3159" gid="16536" x="10065" y="289" width="16" height="16">
   <properties>
    <property name="bg layer" value="2"/>
    <property name="color channel" value="3"/>
    <property name="enable rotation" type="bool" value="true"/>
    <property name="rotation angle" type="int" value="-45"/>
    <property name="z index" type="int" value="10"/>
   </properties>
  </object>
  <object id="3165" gid="16536" x="10161" y="289" width="16" height="16">
   <properties>
    <property name="bg layer" value="2"/>
    <property name="color channel" value="3"/>
    <property name="enable rotation" type="bool" value="true"/>
    <property name="rotation angle" type="int" value="-45"/>
    <property name="z index" type="int" value="10"/>
   </properties>
  </object>
  <object id="3168" gid="16536" x="10289" y="321" width="16" height="16">
   <properties>
    <property name="bg layer" value="2"/>
    <property name="color channel" value="3"/>
    <property name="enable rotation" type="bool" value="true"/>
    <property name="rotation angle" type="int" value="-45"/>
    <property name="z index" type="int" value="10"/>
   </properties>
  </object>
  <object id="3171" gid="16536" x="10308" y="304" width="16" height="16">
   <properties>
    <property name="bg layer" value="2"/>
    <property name="color channel" value="3"/>
    <property name="enable rotation" type="bool" value="true"/>
    <property name="rotation angle" type="int" value="-45"/>
    <property name="z index" type="int" value="10"/>
   </properties>
  </object>
  <object id="3174" gid="16536" x="10385" y="321" width="16" height="16">
   <properties>
    <property name="bg layer" value="2"/>
    <property name="color channel" value="3"/>
    <property name="enable rotation" type="bool" value="true"/>
    <property name="rotation angle" type="int" value="-45"/>
    <property name="z index" type="int" value="10"/>
   </properties>
  </object>
  <object id="3045" gid="16536" x="9679" y="274" width="16" height="16">
   <properties>
    <property name="bg layer" value="2"/>
    <property name="color channel" value="3"/>
    <property name="enable rotation" type="bool" value="true"/>
    <property name="rotation angle" type="int" value="45"/>
    <property name="z index" type="int" value="10"/>
   </properties>
  </object>
  <object id="3057" gid="16536" x="9903" y="274" width="16" height="16">
   <properties>
    <property name="bg layer" value="2"/>
    <property name="color channel" value="3"/>
    <property name="enable rotation" type="bool" value="true"/>
    <property name="rotation angle" type="int" value="45"/>
    <property name="z index" type="int" value="10"/>
   </properties>
  </object>
  <object id="3060" gid="16536" x="9935" y="306" width="16" height="16">
   <properties>
    <property name="bg layer" value="2"/>
    <property name="color channel" value="3"/>
    <property name="enable rotation" type="bool" value="true"/>
    <property name="rotation angle" type="int" value="45"/>
    <property name="z index" type="int" value="10"/>
   </properties>
  </object>
  <object id="3063" gid="16536" x="10111" y="290" width="16" height="16">
   <properties>
    <property name="bg layer" value="2"/>
    <property name="color channel" value="3"/>
    <property name="enable rotation" type="bool" value="true"/>
    <property name="rotation angle" type="int" value="45"/>
    <property name="z index" type="int" value="10"/>
   </properties>
  </object>
  <object id="3066" gid="16536" x="10207" y="290" width="16" height="16">
   <properties>
    <property name="bg layer" value="2"/>
    <property name="color channel" value="3"/>
    <property name="enable rotation" type="bool" value="true"/>
    <property name="rotation angle" type="int" value="45"/>
    <property name="z index" type="int" value="10"/>
   </properties>
  </object>
  <object id="3069" gid="16536" x="10239" y="322" width="16" height="16">
   <properties>
    <property name="bg layer" value="2"/>
    <property name="color channel" value="3"/>
    <property name="enable rotation" type="bool" value="true"/>
    <property name="rotation angle" type="int" value="45"/>
    <property name="z index" type="int" value="10"/>
   </properties>
  </object>
  <object id="3072" gid="16536" x="10351" y="306" width="16" height="16">
   <properties>
    <property name="bg layer" value="2"/>
    <property name="color channel" value="3"/>
    <property name="enable rotation" type="bool" value="true"/>
    <property name="rotation angle" type="int" value="45"/>
    <property name="z index" type="int" value="10"/>
   </properties>
  </object>
  <object id="3048" gid="16536" x="9711" y="306" width="16" height="16">
   <properties>
    <property name="bg layer" value="2"/>
    <property name="color channel" value="3"/>
    <property name="enable rotation" type="bool" value="true"/>
    <property name="rotation angle" type="int" value="45"/>
    <property name="z index" type="int" value="10"/>
   </properties>
  </object>
  <object id="3054" gid="16536" x="9743" y="338" width="16" height="16">
   <properties>
    <property name="bg layer" value="2"/>
    <property name="color channel" value="3"/>
    <property name="enable rotation" type="bool" value="true"/>
    <property name="rotation angle" type="int" value="45"/>
    <property name="z index" type="int" value="10"/>
   </properties>
  </object>
  <object id="2993" gid="16535" x="9471" y="306" width="16" height="16">
   <properties>
    <property name="bg layer" value="2"/>
    <property name="color channel" value="4"/>
    <property name="enable rotation" type="bool" value="true"/>
    <property name="rotation angle" type="int" value="45"/>
    <property name="z index" type="int" value="15"/>
   </properties>
  </object>
  <object id="3041" gid="16535" x="9503" y="338" width="16" height="16">
   <properties>
    <property name="bg layer" value="2"/>
    <property name="color channel" value="4"/>
    <property name="enable rotation" type="bool" value="true"/>
    <property name="rotation angle" type="int" value="45"/>
    <property name="z index" type="int" value="15"/>
   </properties>
  </object>
  <object id="3139" gid="16535" x="9569" y="337" width="16" height="16">
   <properties>
    <property name="bg layer" value="2"/>
    <property name="color channel" value="4"/>
    <property name="enable rotation" type="bool" value="true"/>
    <property name="rotation angle" type="int" value="-45"/>
    <property name="z index" type="int" value="15"/>
   </properties>
  </object>
  <object id="3178" gid="16535" x="9536" y="352" width="16" height="16">
   <properties>
    <property name="bg layer" value="2"/>
    <property name="color channel" value="4"/>
    <property name="enable rotation" type="bool" value="false"/>
    <property name="rotation angle" type="int" value="0"/>
    <property name="z index" type="int" value="15"/>
   </properties>
  </object>
  <object id="3181" gid="16535" x="9768" y="352" width="16" height="16">
   <properties>
    <property name="bg layer" value="2"/>
    <property name="color channel" value="4"/>
    <property name="enable rotation" type="bool" value="false"/>
    <property name="rotation angle" type="int" value="0"/>
    <property name="z index" type="int" value="15"/>
   </properties>
  </object>
  <object id="3199" gid="16535" x="9656" y="208" width="16" height="16">
   <properties>
    <property name="bg layer" value="2"/>
    <property name="color channel" value="4"/>
    <property name="enable rotation" type="bool" value="false"/>
    <property name="rotation angle" type="int" value="0"/>
    <property name="vflip" type="bool" value="true"/>
    <property name="z index" type="int" value="15"/>
   </properties>
  </object>
  <object id="3202" gid="16535" x="9880" y="208" width="16" height="16">
   <properties>
    <property name="bg layer" value="2"/>
    <property name="color channel" value="4"/>
    <property name="enable rotation" type="bool" value="false"/>
    <property name="rotation angle" type="int" value="0"/>
    <property name="vflip" type="bool" value="true"/>
    <property name="z index" type="int" value="15"/>
   </properties>
  </object>
  <object id="3205" gid="16535" x="10000" y="224" width="16" height="16">
   <properties>
    <property name="bg layer" value="2"/>
    <property name="color channel" value="4"/>
    <property name="enable rotation" type="bool" value="false"/>
    <property name="rotation angle" type="int" value="0"/>
    <property name="vflip" type="bool" value="true"/>
    <property name="z index" type="int" value="15"/>
   </properties>
  </object>
  <object id="3208" gid="16535" x="10088" y="208" width="16" height="16">
   <properties>
    <property name="bg layer" value="2"/>
    <property name="color channel" value="4"/>
    <property name="enable rotation" type="bool" value="false"/>
    <property name="rotation angle" type="int" value="0"/>
    <property name="vflip" type="bool" value="true"/>
    <property name="z index" type="int" value="15"/>
   </properties>
  </object>
  <object id="3211" gid="16535" x="10184" y="208" width="16" height="16">
   <properties>
    <property name="bg layer" value="2"/>
    <property name="color channel" value="4"/>
    <property name="enable rotation" type="bool" value="false"/>
    <property name="rotation angle" type="int" value="0"/>
    <property name="vflip" type="bool" value="true"/>
    <property name="z index" type="int" value="15"/>
   </properties>
  </object>
  <object id="3187" gid="16535" x="9960" y="336" width="16" height="16">
   <properties>
    <property name="bg layer" value="2"/>
    <property name="color channel" value="4"/>
    <property name="enable rotation" type="bool" value="false"/>
    <property name="rotation angle" type="int" value="0"/>
    <property name="z index" type="int" value="15"/>
   </properties>
  </object>
  <object id="3190" gid="16535" x="10040" y="320" width="16" height="16">
   <properties>
    <property name="bg layer" value="2"/>
    <property name="color channel" value="4"/>
    <property name="enable rotation" type="bool" value="false"/>
    <property name="rotation angle" type="int" value="0"/>
    <property name="z index" type="int" value="15"/>
   </properties>
  </object>
  <object id="3193" gid="16535" x="10136" y="320" width="16" height="16">
   <properties>
    <property name="bg layer" value="2"/>
    <property name="color channel" value="4"/>
    <property name="enable rotation" type="bool" value="false"/>
    <property name="rotation angle" type="int" value="0"/>
    <property name="z index" type="int" value="15"/>
   </properties>
  </object>
  <object id="3196" gid="16535" x="10264" y="352" width="16" height="16">
   <properties>
    <property name="bg layer" value="2"/>
    <property name="color channel" value="4"/>
    <property name="enable rotation" type="bool" value="false"/>
    <property name="rotation angle" type="int" value="0"/>
    <property name="z index" type="int" value="15"/>
   </properties>
  </object>
  <object id="3142" gid="16535" x="9601" y="305" width="16" height="16">
   <properties>
    <property name="bg layer" value="2"/>
    <property name="color channel" value="4"/>
    <property name="enable rotation" type="bool" value="true"/>
    <property name="rotation angle" type="int" value="-45"/>
    <property name="z index" type="int" value="15"/>
   </properties>
  </object>
  <object id="3145" gid="16535" x="9633" y="273" width="16" height="16">
   <properties>
    <property name="bg layer" value="2"/>
    <property name="color channel" value="4"/>
    <property name="enable rotation" type="bool" value="true"/>
    <property name="rotation angle" type="int" value="-45"/>
    <property name="z index" type="int" value="15"/>
   </properties>
  </object>
  <object id="3148" gid="16535" x="9793" y="337" width="16" height="16">
   <properties>
    <property name="bg layer" value="2"/>
    <property name="color channel" value="4"/>
    <property name="enable rotation" type="bool" value="true"/>
    <property name="rotation angle" type="int" value="-45"/>
    <property name="z index" type="int" value="15"/>
   </properties>
  </object>
  <object id="3151" gid="16535" x="9825" y="305" width="16" height="16">
   <properties>
    <property name="bg layer" value="2"/>
    <property name="color channel" value="4"/>
    <property name="enable rotation" type="bool" value="true"/>
    <property name="rotation angle" type="int" value="-45"/>
    <property name="z index" type="int" value="15"/>
   </properties>
  </object>
  <object id="3154" gid="16535" x="9857" y="273" width="16" height="16">
   <properties>
    <property name="bg layer" value="2"/>
    <property name="color channel" value="4"/>
    <property name="enable rotation" type="bool" value="true"/>
    <property name="rotation angle" type="int" value="-45"/>
    <property name="z index" type="int" value="15"/>
   </properties>
  </object>
  <object id="3157" gid="16535" x="9985" y="305" width="16" height="16">
   <properties>
    <property name="bg layer" value="2"/>
    <property name="color channel" value="4"/>
    <property name="enable rotation" type="bool" value="true"/>
    <property name="rotation angle" type="int" value="-45"/>
    <property name="z index" type="int" value="15"/>
   </properties>
  </object>
  <object id="3160" gid="16535" x="10065" y="289" width="16" height="16">
   <properties>
    <property name="bg layer" value="2"/>
    <property name="color channel" value="4"/>
    <property name="enable rotation" type="bool" value="true"/>
    <property name="rotation angle" type="int" value="-45"/>
    <property name="z index" type="int" value="15"/>
   </properties>
  </object>
  <object id="3166" gid="16535" x="10161" y="289" width="16" height="16">
   <properties>
    <property name="bg layer" value="2"/>
    <property name="color channel" value="4"/>
    <property name="enable rotation" type="bool" value="true"/>
    <property name="rotation angle" type="int" value="-45"/>
    <property name="z index" type="int" value="15"/>
   </properties>
  </object>
  <object id="3169" gid="16535" x="10289" y="321" width="16" height="16">
   <properties>
    <property name="bg layer" value="2"/>
    <property name="color channel" value="4"/>
    <property name="enable rotation" type="bool" value="true"/>
    <property name="rotation angle" type="int" value="-45"/>
    <property name="z index" type="int" value="15"/>
   </properties>
  </object>
  <object id="3172" gid="16535" x="10308" y="304" width="16" height="16">
   <properties>
    <property name="bg layer" value="2"/>
    <property name="color channel" value="4"/>
    <property name="enable rotation" type="bool" value="true"/>
    <property name="rotation angle" type="int" value="-45"/>
    <property name="z index" type="int" value="15"/>
   </properties>
  </object>
  <object id="3175" gid="16535" x="10385" y="321" width="16" height="16">
   <properties>
    <property name="bg layer" value="2"/>
    <property name="color channel" value="4"/>
    <property name="enable rotation" type="bool" value="true"/>
    <property name="rotation angle" type="int" value="-45"/>
    <property name="z index" type="int" value="15"/>
   </properties>
  </object>
  <object id="3044" gid="16535" x="9679" y="274" width="16" height="16">
   <properties>
    <property name="bg layer" value="2"/>
    <property name="color channel" value="4"/>
    <property name="enable rotation" type="bool" value="true"/>
    <property name="rotation angle" type="int" value="45"/>
    <property name="z index" type="int" value="15"/>
   </properties>
  </object>
  <object id="3058" gid="16535" x="9903" y="274" width="16" height="16">
   <properties>
    <property name="bg layer" value="2"/>
    <property name="color channel" value="4"/>
    <property name="enable rotation" type="bool" value="true"/>
    <property name="rotation angle" type="int" value="45"/>
    <property name="z index" type="int" value="15"/>
   </properties>
  </object>
  <object id="3061" gid="16535" x="9935" y="306" width="16" height="16">
   <properties>
    <property name="bg layer" value="2"/>
    <property name="color channel" value="4"/>
    <property name="enable rotation" type="bool" value="true"/>
    <property name="rotation angle" type="int" value="45"/>
    <property name="z index" type="int" value="15"/>
   </properties>
  </object>
  <object id="3064" gid="16535" x="10111" y="290" width="16" height="16">
   <properties>
    <property name="bg layer" value="2"/>
    <property name="color channel" value="4"/>
    <property name="enable rotation" type="bool" value="true"/>
    <property name="rotation angle" type="int" value="45"/>
    <property name="z index" type="int" value="15"/>
   </properties>
  </object>
  <object id="3067" gid="16535" x="10207" y="290" width="16" height="16">
   <properties>
    <property name="bg layer" value="2"/>
    <property name="color channel" value="4"/>
    <property name="enable rotation" type="bool" value="true"/>
    <property name="rotation angle" type="int" value="45"/>
    <property name="z index" type="int" value="15"/>
   </properties>
  </object>
  <object id="3070" gid="16535" x="10239" y="322" width="16" height="16">
   <properties>
    <property name="bg layer" value="2"/>
    <property name="color channel" value="4"/>
    <property name="enable rotation" type="bool" value="true"/>
    <property name="rotation angle" type="int" value="45"/>
    <property name="z index" type="int" value="15"/>
   </properties>
  </object>
  <object id="3073" gid="16535" x="10351" y="306" width="16" height="16">
   <properties>
    <property name="bg layer" value="2"/>
    <property name="color channel" value="4"/>
    <property name="enable rotation" type="bool" value="true"/>
    <property name="rotation angle" type="int" value="45"/>
    <property name="z index" type="int" value="15"/>
   </properties>
  </object>
  <object id="3047" gid="16535" x="9711" y="306" width="16" height="16">
   <properties>
    <property name="bg layer" value="2"/>
    <property name="color channel" value="4"/>
    <property name="enable rotation" type="bool" value="true"/>
    <property name="rotation angle" type="int" value="45"/>
    <property name="z index" type="int" value="15"/>
   </properties>
  </object>
  <object id="3055" gid="16535" x="9743" y="338" width="16" height="16">
   <properties>
    <property name="bg layer" value="2"/>
    <property name="color channel" value="4"/>
    <property name="enable rotation" type="bool" value="true"/>
    <property name="rotation angle" type="int" value="45"/>
    <property name="z index" type="int" value="15"/>
   </properties>
  </object>
  <object id="2994" gid="16537" x="9566" y="286" width="16" height="16">
   <properties>
    <property name="bg layer" value="2"/>
    <property name="color channel" value="2"/>
    <property name="enable rotation" type="bool" value="true"/>
    <property name="rotation angle" type="int" value="135"/>
    <property name="z index" type="int" value="5"/>
   </properties>
  </object>
  <object id="3106" gid="16537" x="9506" y="286" width="16" height="16">
   <properties>
    <property name="bg layer" value="2"/>
    <property name="color channel" value="2"/>
    <property name="enable rotation" type="bool" value="true"/>
    <property name="rotation angle" type="int" value="225"/>
    <property name="z index" type="int" value="5"/>
   </properties>
  </object>
  <object id="3107" gid="16537" x="9682" y="222" width="16" height="16">
   <properties>
    <property name="bg layer" value="2"/>
    <property name="color channel" value="2"/>
    <property name="enable rotation" type="bool" value="true"/>
    <property name="rotation angle" type="int" value="225"/>
    <property name="z index" type="int" value="5"/>
   </properties>
  </object>
  <object id="3110" gid="16537" x="9714" y="254" width="16" height="16">
   <properties>
    <property name="bg layer" value="2"/>
    <property name="color channel" value="2"/>
    <property name="enable rotation" type="bool" value="true"/>
    <property name="rotation angle" type="int" value="225"/>
    <property name="z index" type="int" value="5"/>
   </properties>
  </object>
  <object id="3116" gid="16537" x="9746" y="286" width="16" height="16">
   <properties>
    <property name="bg layer" value="2"/>
    <property name="color channel" value="2"/>
    <property name="enable rotation" type="bool" value="true"/>
    <property name="rotation angle" type="int" value="225"/>
    <property name="z index" type="int" value="5"/>
   </properties>
  </object>
  <object id="3119" gid="16537" x="9906" y="222" width="16" height="16">
   <properties>
    <property name="bg layer" value="2"/>
    <property name="color channel" value="2"/>
    <property name="enable rotation" type="bool" value="true"/>
    <property name="rotation angle" type="int" value="225"/>
    <property name="z index" type="int" value="5"/>
   </properties>
  </object>
  <object id="3122" gid="16537" x="9937" y="256" width="16" height="16">
   <properties>
    <property name="bg layer" value="2"/>
    <property name="color channel" value="2"/>
    <property name="enable rotation" type="bool" value="true"/>
    <property name="rotation angle" type="int" value="225"/>
    <property name="z index" type="int" value="5"/>
   </properties>
  </object>
  <object id="3125" gid="16537" x="10114" y="238" width="16" height="16">
   <properties>
    <property name="bg layer" value="2"/>
    <property name="color channel" value="2"/>
    <property name="enable rotation" type="bool" value="true"/>
    <property name="rotation angle" type="int" value="225"/>
    <property name="z index" type="int" value="5"/>
   </properties>
  </object>
  <object id="3128" gid="16537" x="10210" y="239" width="16" height="16">
   <properties>
    <property name="bg layer" value="2"/>
    <property name="color channel" value="2"/>
    <property name="enable rotation" type="bool" value="true"/>
    <property name="rotation angle" type="int" value="225"/>
    <property name="z index" type="int" value="5"/>
   </properties>
  </object>
  <object id="3131" gid="16537" x="10242" y="271" width="16" height="16">
   <properties>
    <property name="bg layer" value="2"/>
    <property name="color channel" value="2"/>
    <property name="enable rotation" type="bool" value="true"/>
    <property name="rotation angle" type="int" value="225"/>
    <property name="z index" type="int" value="5"/>
   </properties>
  </object>
  <object id="3134" gid="16537" x="10354" y="255" width="16" height="16">
   <properties>
    <property name="bg layer" value="2"/>
    <property name="color channel" value="2"/>
    <property name="enable rotation" type="bool" value="true"/>
    <property name="rotation angle" type="int" value="225"/>
    <property name="z index" type="int" value="5"/>
   </properties>
  </object>
  <object id="3082" gid="16537" x="9790" y="286" width="16" height="16">
   <properties>
    <property name="bg layer" value="2"/>
    <property name="color channel" value="2"/>
    <property name="enable rotation" type="bool" value="true"/>
    <property name="rotation angle" type="int" value="135"/>
    <property name="z index" type="int" value="5"/>
   </properties>
  </object>
  <object id="3076" gid="16537" x="9598" y="254" width="16" height="16">
   <properties>
    <property name="bg layer" value="2"/>
    <property name="color channel" value="2"/>
    <property name="enable rotation" type="bool" value="true"/>
    <property name="rotation angle" type="int" value="135"/>
    <property name="z index" type="int" value="5"/>
   </properties>
  </object>
  <object id="3083" gid="16537" x="9822" y="254" width="16" height="16">
   <properties>
    <property name="bg layer" value="2"/>
    <property name="color channel" value="2"/>
    <property name="enable rotation" type="bool" value="true"/>
    <property name="rotation angle" type="int" value="135"/>
    <property name="z index" type="int" value="5"/>
   </properties>
  </object>
  <object id="3079" gid="16537" x="9630" y="222" width="16" height="16">
   <properties>
    <property name="bg layer" value="2"/>
    <property name="color channel" value="2"/>
    <property name="enable rotation" type="bool" value="true"/>
    <property name="rotation angle" type="int" value="135"/>
    <property name="z index" type="int" value="5"/>
   </properties>
  </object>
  <object id="3086" gid="16537" x="9854" y="222" width="16" height="16">
   <properties>
    <property name="bg layer" value="2"/>
    <property name="color channel" value="2"/>
    <property name="enable rotation" type="bool" value="true"/>
    <property name="rotation angle" type="int" value="135"/>
    <property name="z index" type="int" value="5"/>
   </properties>
  </object>
  <object id="3089" gid="16537" x="9982" y="254" width="16" height="16">
   <properties>
    <property name="bg layer" value="2"/>
    <property name="color channel" value="2"/>
    <property name="enable rotation" type="bool" value="true"/>
    <property name="rotation angle" type="int" value="135"/>
    <property name="z index" type="int" value="5"/>
   </properties>
  </object>
  <object id="3092" gid="16537" x="10062" y="238" width="16" height="16">
   <properties>
    <property name="bg layer" value="2"/>
    <property name="color channel" value="2"/>
    <property name="enable rotation" type="bool" value="true"/>
    <property name="rotation angle" type="int" value="135"/>
    <property name="z index" type="int" value="5"/>
   </properties>
  </object>
  <object id="3095" gid="16537" x="10158" y="238" width="16" height="16">
   <properties>
    <property name="bg layer" value="2"/>
    <property name="color channel" value="2"/>
    <property name="enable rotation" type="bool" value="true"/>
    <property name="rotation angle" type="int" value="135"/>
    <property name="z index" type="int" value="5"/>
   </properties>
  </object>
  <object id="3098" gid="16537" x="10302" y="254" width="16" height="16">
   <properties>
    <property name="bg layer" value="2"/>
    <property name="color channel" value="2"/>
    <property name="enable rotation" type="bool" value="true"/>
    <property name="rotation angle" type="int" value="135"/>
    <property name="z index" type="int" value="5"/>
   </properties>
  </object>
  <object id="3101" gid="16537" x="10326" y="230" width="16" height="16">
   <properties>
    <property name="bg layer" value="2"/>
    <property name="color channel" value="2"/>
    <property name="enable rotation" type="bool" value="true"/>
    <property name="rotation angle" type="int" value="135"/>
    <property name="z index" type="int" value="5"/>
   </properties>
  </object>
  <object id="2995" gid="16536" x="9566" y="286" width="16" height="16">
   <properties>
    <property name="bg layer" value="2"/>
    <property name="color channel" value="3"/>
    <property name="enable rotation" type="bool" value="true"/>
    <property name="rotation angle" type="int" value="135"/>
    <property name="z index" type="int" value="10"/>
   </properties>
  </object>
  <object id="3105" gid="16536" x="9506" y="286" width="16" height="16">
   <properties>
    <property name="bg layer" value="2"/>
    <property name="color channel" value="3"/>
    <property name="enable rotation" type="bool" value="true"/>
    <property name="rotation angle" type="int" value="225"/>
    <property name="z index" type="int" value="10"/>
   </properties>
  </object>
  <object id="3108" gid="16536" x="9682" y="222" width="16" height="16">
   <properties>
    <property name="bg layer" value="2"/>
    <property name="color channel" value="3"/>
    <property name="enable rotation" type="bool" value="true"/>
    <property name="rotation angle" type="int" value="225"/>
    <property name="z index" type="int" value="10"/>
   </properties>
  </object>
  <object id="3111" gid="16536" x="9714" y="254" width="16" height="16">
   <properties>
    <property name="bg layer" value="2"/>
    <property name="color channel" value="3"/>
    <property name="enable rotation" type="bool" value="true"/>
    <property name="rotation angle" type="int" value="225"/>
    <property name="z index" type="int" value="10"/>
   </properties>
  </object>
  <object id="3117" gid="16536" x="9746" y="286" width="16" height="16">
   <properties>
    <property name="bg layer" value="2"/>
    <property name="color channel" value="3"/>
    <property name="enable rotation" type="bool" value="true"/>
    <property name="rotation angle" type="int" value="225"/>
    <property name="z index" type="int" value="10"/>
   </properties>
  </object>
  <object id="3120" gid="16536" x="9906" y="222" width="16" height="16">
   <properties>
    <property name="bg layer" value="2"/>
    <property name="color channel" value="3"/>
    <property name="enable rotation" type="bool" value="true"/>
    <property name="rotation angle" type="int" value="225"/>
    <property name="z index" type="int" value="10"/>
   </properties>
  </object>
  <object id="3123" gid="16536" x="9937" y="256" width="16" height="16">
   <properties>
    <property name="bg layer" value="2"/>
    <property name="color channel" value="3"/>
    <property name="enable rotation" type="bool" value="true"/>
    <property name="rotation angle" type="int" value="225"/>
    <property name="z index" type="int" value="10"/>
   </properties>
  </object>
  <object id="3126" gid="16536" x="10114" y="238" width="16" height="16">
   <properties>
    <property name="bg layer" value="2"/>
    <property name="color channel" value="3"/>
    <property name="enable rotation" type="bool" value="true"/>
    <property name="rotation angle" type="int" value="225"/>
    <property name="z index" type="int" value="10"/>
   </properties>
  </object>
  <object id="3129" gid="16536" x="10210" y="239" width="16" height="16">
   <properties>
    <property name="bg layer" value="2"/>
    <property name="color channel" value="3"/>
    <property name="enable rotation" type="bool" value="true"/>
    <property name="rotation angle" type="int" value="225"/>
    <property name="z index" type="int" value="10"/>
   </properties>
  </object>
  <object id="3132" gid="16536" x="10242" y="271" width="16" height="16">
   <properties>
    <property name="bg layer" value="2"/>
    <property name="color channel" value="3"/>
    <property name="enable rotation" type="bool" value="true"/>
    <property name="rotation angle" type="int" value="225"/>
    <property name="z index" type="int" value="10"/>
   </properties>
  </object>
  <object id="3135" gid="16536" x="10354" y="255" width="16" height="16">
   <properties>
    <property name="bg layer" value="2"/>
    <property name="color channel" value="3"/>
    <property name="enable rotation" type="bool" value="true"/>
    <property name="rotation angle" type="int" value="225"/>
    <property name="z index" type="int" value="10"/>
   </properties>
  </object>
  <object id="3081" gid="16536" x="9790" y="286" width="16" height="16">
   <properties>
    <property name="bg layer" value="2"/>
    <property name="color channel" value="3"/>
    <property name="enable rotation" type="bool" value="true"/>
    <property name="rotation angle" type="int" value="135"/>
    <property name="z index" type="int" value="10"/>
   </properties>
  </object>
  <object id="3075" gid="16536" x="9598" y="254" width="16" height="16">
   <properties>
    <property name="bg layer" value="2"/>
    <property name="color channel" value="3"/>
    <property name="enable rotation" type="bool" value="true"/>
    <property name="rotation angle" type="int" value="135"/>
    <property name="z index" type="int" value="10"/>
   </properties>
  </object>
  <object id="3084" gid="16536" x="9822" y="254" width="16" height="16">
   <properties>
    <property name="bg layer" value="2"/>
    <property name="color channel" value="3"/>
    <property name="enable rotation" type="bool" value="true"/>
    <property name="rotation angle" type="int" value="135"/>
    <property name="z index" type="int" value="10"/>
   </properties>
  </object>
  <object id="3078" gid="16536" x="9630" y="222" width="16" height="16">
   <properties>
    <property name="bg layer" value="2"/>
    <property name="color channel" value="3"/>
    <property name="enable rotation" type="bool" value="true"/>
    <property name="rotation angle" type="int" value="135"/>
    <property name="z index" type="int" value="10"/>
   </properties>
  </object>
  <object id="3087" gid="16536" x="9854" y="222" width="16" height="16">
   <properties>
    <property name="bg layer" value="2"/>
    <property name="color channel" value="3"/>
    <property name="enable rotation" type="bool" value="true"/>
    <property name="rotation angle" type="int" value="135"/>
    <property name="z index" type="int" value="10"/>
   </properties>
  </object>
  <object id="3090" gid="16536" x="9982" y="254" width="16" height="16">
   <properties>
    <property name="bg layer" value="2"/>
    <property name="color channel" value="3"/>
    <property name="enable rotation" type="bool" value="true"/>
    <property name="rotation angle" type="int" value="135"/>
    <property name="z index" type="int" value="10"/>
   </properties>
  </object>
  <object id="3093" gid="16536" x="10062" y="238" width="16" height="16">
   <properties>
    <property name="bg layer" value="2"/>
    <property name="color channel" value="3"/>
    <property name="enable rotation" type="bool" value="true"/>
    <property name="rotation angle" type="int" value="135"/>
    <property name="z index" type="int" value="10"/>
   </properties>
  </object>
  <object id="3096" gid="16536" x="10158" y="238" width="16" height="16">
   <properties>
    <property name="bg layer" value="2"/>
    <property name="color channel" value="3"/>
    <property name="enable rotation" type="bool" value="true"/>
    <property name="rotation angle" type="int" value="135"/>
    <property name="z index" type="int" value="10"/>
   </properties>
  </object>
  <object id="3099" gid="16536" x="10302" y="254" width="16" height="16">
   <properties>
    <property name="bg layer" value="2"/>
    <property name="color channel" value="3"/>
    <property name="enable rotation" type="bool" value="true"/>
    <property name="rotation angle" type="int" value="135"/>
    <property name="z index" type="int" value="10"/>
   </properties>
  </object>
  <object id="3102" gid="16536" x="10326" y="230" width="16" height="16">
   <properties>
    <property name="bg layer" value="2"/>
    <property name="color channel" value="3"/>
    <property name="enable rotation" type="bool" value="true"/>
    <property name="rotation angle" type="int" value="135"/>
    <property name="z index" type="int" value="10"/>
   </properties>
  </object>
  <object id="2996" gid="16535" x="9566" y="286" width="16" height="16">
   <properties>
    <property name="bg layer" value="2"/>
    <property name="color channel" value="4"/>
    <property name="enable rotation" type="bool" value="true"/>
    <property name="rotation angle" type="int" value="135"/>
    <property name="z index" type="int" value="15"/>
   </properties>
  </object>
  <object id="3104" gid="16535" x="9506" y="286" width="16" height="16">
   <properties>
    <property name="bg layer" value="2"/>
    <property name="color channel" value="4"/>
    <property name="enable rotation" type="bool" value="true"/>
    <property name="rotation angle" type="int" value="225"/>
    <property name="z index" type="int" value="15"/>
   </properties>
  </object>
  <object id="3109" gid="16535" x="9682" y="222" width="16" height="16">
   <properties>
    <property name="bg layer" value="2"/>
    <property name="color channel" value="4"/>
    <property name="enable rotation" type="bool" value="true"/>
    <property name="rotation angle" type="int" value="225"/>
    <property name="z index" type="int" value="15"/>
   </properties>
  </object>
  <object id="3112" gid="16535" x="9714" y="254" width="16" height="16">
   <properties>
    <property name="bg layer" value="2"/>
    <property name="color channel" value="4"/>
    <property name="enable rotation" type="bool" value="true"/>
    <property name="rotation angle" type="int" value="225"/>
    <property name="z index" type="int" value="15"/>
   </properties>
  </object>
  <object id="3118" gid="16535" x="9746" y="286" width="16" height="16">
   <properties>
    <property name="bg layer" value="2"/>
    <property name="color channel" value="4"/>
    <property name="enable rotation" type="bool" value="true"/>
    <property name="rotation angle" type="int" value="225"/>
    <property name="z index" type="int" value="15"/>
   </properties>
  </object>
  <object id="3121" gid="16535" x="9906" y="222" width="16" height="16">
   <properties>
    <property name="bg layer" value="2"/>
    <property name="color channel" value="4"/>
    <property name="enable rotation" type="bool" value="true"/>
    <property name="rotation angle" type="int" value="225"/>
    <property name="z index" type="int" value="15"/>
   </properties>
  </object>
  <object id="3124" gid="16535" x="9937" y="256" width="16" height="16">
   <properties>
    <property name="bg layer" value="2"/>
    <property name="color channel" value="4"/>
    <property name="enable rotation" type="bool" value="true"/>
    <property name="rotation angle" type="int" value="225"/>
    <property name="z index" type="int" value="15"/>
   </properties>
  </object>
  <object id="3127" gid="16535" x="10114" y="238" width="16" height="16">
   <properties>
    <property name="bg layer" value="2"/>
    <property name="color channel" value="4"/>
    <property name="enable rotation" type="bool" value="true"/>
    <property name="rotation angle" type="int" value="225"/>
    <property name="z index" type="int" value="15"/>
   </properties>
  </object>
  <object id="3130" gid="16535" x="10210" y="239" width="16" height="16">
   <properties>
    <property name="bg layer" value="2"/>
    <property name="color channel" value="4"/>
    <property name="enable rotation" type="bool" value="true"/>
    <property name="rotation angle" type="int" value="225"/>
    <property name="z index" type="int" value="15"/>
   </properties>
  </object>
  <object id="3133" gid="16535" x="10242" y="271" width="16" height="16">
   <properties>
    <property name="bg layer" value="2"/>
    <property name="color channel" value="4"/>
    <property name="enable rotation" type="bool" value="true"/>
    <property name="rotation angle" type="int" value="225"/>
    <property name="z index" type="int" value="15"/>
   </properties>
  </object>
  <object id="3136" gid="16535" x="10354" y="255" width="16" height="16">
   <properties>
    <property name="bg layer" value="2"/>
    <property name="color channel" value="4"/>
    <property name="enable rotation" type="bool" value="true"/>
    <property name="rotation angle" type="int" value="225"/>
    <property name="z index" type="int" value="15"/>
   </properties>
  </object>
  <object id="3080" gid="16535" x="9790" y="286" width="16" height="16">
   <properties>
    <property name="bg layer" value="2"/>
    <property name="color channel" value="4"/>
    <property name="enable rotation" type="bool" value="true"/>
    <property name="rotation angle" type="int" value="135"/>
    <property name="z index" type="int" value="15"/>
   </properties>
  </object>
  <object id="3074" gid="16535" x="9598" y="254" width="16" height="16">
   <properties>
    <property name="bg layer" value="2"/>
    <property name="color channel" value="4"/>
    <property name="enable rotation" type="bool" value="true"/>
    <property name="rotation angle" type="int" value="135"/>
    <property name="z index" type="int" value="15"/>
   </properties>
  </object>
  <object id="3085" gid="16535" x="9822" y="254" width="16" height="16">
   <properties>
    <property name="bg layer" value="2"/>
    <property name="color channel" value="4"/>
    <property name="enable rotation" type="bool" value="true"/>
    <property name="rotation angle" type="int" value="135"/>
    <property name="z index" type="int" value="15"/>
   </properties>
  </object>
  <object id="3077" gid="16535" x="9630" y="222" width="16" height="16">
   <properties>
    <property name="bg layer" value="2"/>
    <property name="color channel" value="4"/>
    <property name="enable rotation" type="bool" value="true"/>
    <property name="rotation angle" type="int" value="135"/>
    <property name="z index" type="int" value="15"/>
   </properties>
  </object>
  <object id="3088" gid="16535" x="9854" y="222" width="16" height="16">
   <properties>
    <property name="bg layer" value="2"/>
    <property name="color channel" value="4"/>
    <property name="enable rotation" type="bool" value="true"/>
    <property name="rotation angle" type="int" value="135"/>
    <property name="z index" type="int" value="15"/>
   </properties>
  </object>
  <object id="3091" gid="16535" x="9982" y="254" width="16" height="16">
   <properties>
    <property name="bg layer" value="2"/>
    <property name="color channel" value="4"/>
    <property name="enable rotation" type="bool" value="true"/>
    <property name="rotation angle" type="int" value="135"/>
    <property name="z index" type="int" value="15"/>
   </properties>
  </object>
  <object id="3094" gid="16535" x="10062" y="238" width="16" height="16">
   <properties>
    <property name="bg layer" value="2"/>
    <property name="color channel" value="4"/>
    <property name="enable rotation" type="bool" value="true"/>
    <property name="rotation angle" type="int" value="135"/>
    <property name="z index" type="int" value="15"/>
   </properties>
  </object>
  <object id="3097" gid="16535" x="10158" y="238" width="16" height="16">
   <properties>
    <property name="bg layer" value="2"/>
    <property name="color channel" value="4"/>
    <property name="enable rotation" type="bool" value="true"/>
    <property name="rotation angle" type="int" value="135"/>
    <property name="z index" type="int" value="15"/>
   </properties>
  </object>
  <object id="3100" gid="16535" x="10302" y="254" width="16" height="16">
   <properties>
    <property name="bg layer" value="2"/>
    <property name="color channel" value="4"/>
    <property name="enable rotation" type="bool" value="true"/>
    <property name="rotation angle" type="int" value="135"/>
    <property name="z index" type="int" value="15"/>
   </properties>
  </object>
  <object id="3103" gid="16535" x="10326" y="230" width="16" height="16">
   <properties>
    <property name="bg layer" value="2"/>
    <property name="color channel" value="4"/>
    <property name="enable rotation" type="bool" value="true"/>
    <property name="rotation angle" type="int" value="135"/>
    <property name="z index" type="int" value="15"/>
   </properties>
  </object>
  <object id="2997" gid="16535" x="7898" y="358" width="16" height="16">
   <properties>
    <property name="bg layer" value="2"/>
    <property name="color channel" value="3"/>
    <property name="enable rotation" type="bool" value="true"/>
    <property name="rotation angle" type="int" value="27"/>
    <property name="z index" type="int" value="15"/>
   </properties>
  </object>
  <object id="3038" gid="16535" x="9368" y="352" width="16" height="16">
   <properties>
    <property name="bg layer" value="2"/>
    <property name="color channel" value="3"/>
    <property name="enable rotation" type="bool" value="true"/>
    <property name="rotation angle" type="int" value="27"/>
   </properties>
  </object>
  <object id="2998" gid="3470" x="7912" y="330" width="16" height="16">
   <properties>
    <property name="bg layer" value="2"/>
    <property name="enable rotation" type="bool" value="true"/>
    <property name="rotation angle" type="int" value="27"/>
   </properties>
  </object>
  <object id="3213" gid="3470" x="8286" y="331" width="16" height="16">
   <properties>
    <property name="bg layer" value="2"/>
    <property name="enable rotation" type="bool" value="true"/>
    <property name="rotation angle" type="int" value="-45"/>
   </properties>
  </object>
  <object id="3230" gid="3470" x="8736" y="328" width="16" height="16">
   <properties>
    <property name="bg layer" value="2"/>
    <property name="enable rotation" type="bool" value="true"/>
    <property name="rotation angle" type="int" value="18"/>
   </properties>
  </object>
  <object id="3257" gid="3470" x="8976" y="328" width="16" height="16">
   <properties>
    <property name="bg layer" value="2"/>
    <property name="enable rotation" type="bool" value="true"/>
    <property name="rotation angle" type="int" value="18"/>
   </properties>
  </object>
  <object id="3231" gid="3470" x="8740" y="314" width="16" height="16">
   <properties>
    <property name="bg layer" value="2"/>
    <property name="enable rotation" type="bool" value="true"/>
    <property name="rotation angle" type="int" value="18"/>
   </properties>
  </object>
  <object id="3258" gid="3470" x="8980" y="314" width="16" height="16">
   <properties>
    <property name="bg layer" value="2"/>
    <property name="enable rotation" type="bool" value="true"/>
    <property name="rotation angle" type="int" value="18"/>
   </properties>
  </object>
  <object id="3232" gid="3470" x="8744" y="300" width="16" height="16">
   <properties>
    <property name="bg layer" value="2"/>
    <property name="enable rotation" type="bool" value="true"/>
    <property name="rotation angle" type="int" value="18"/>
   </properties>
  </object>
  <object id="3259" gid="3470" x="8984" y="300" width="16" height="16">
   <properties>
    <property name="bg layer" value="2"/>
    <property name="enable rotation" type="bool" value="true"/>
    <property name="rotation angle" type="int" value="18"/>
   </properties>
  </object>
  <object id="3233" gid="3470" x="8748" y="286" width="16" height="16">
   <properties>
    <property name="bg layer" value="2"/>
    <property name="enable rotation" type="bool" value="true"/>
    <property name="rotation angle" type="int" value="18"/>
   </properties>
  </object>
  <object id="3260" gid="3470" x="8988" y="286" width="16" height="16">
   <properties>
    <property name="bg layer" value="2"/>
    <property name="enable rotation" type="bool" value="true"/>
    <property name="rotation angle" type="int" value="18"/>
   </properties>
  </object>
  <object id="3234" gid="3470" x="8752" y="272" width="16" height="16">
   <properties>
    <property name="bg layer" value="2"/>
    <property name="enable rotation" type="bool" value="true"/>
    <property name="rotation angle" type="int" value="18"/>
   </properties>
  </object>
  <object id="3261" gid="3470" x="8992" y="272" width="16" height="16">
   <properties>
    <property name="bg layer" value="2"/>
    <property name="enable rotation" type="bool" value="true"/>
    <property name="rotation angle" type="int" value="18"/>
   </properties>
  </object>
  <object id="3235" gid="3470" x="8756" y="258" width="16" height="16">
   <properties>
    <property name="bg layer" value="2"/>
    <property name="enable rotation" type="bool" value="true"/>
    <property name="rotation angle" type="int" value="18"/>
   </properties>
  </object>
  <object id="3251" gid="3470" x="8996" y="258" width="16" height="16">
   <properties>
    <property name="bg layer" value="2"/>
    <property name="enable rotation" type="bool" value="true"/>
    <property name="rotation angle" type="int" value="18"/>
   </properties>
  </object>
  <object id="3236" gid="3470" x="8760" y="244" width="16" height="16">
   <properties>
    <property name="bg layer" value="2"/>
    <property name="enable rotation" type="bool" value="true"/>
    <property name="rotation angle" type="int" value="18"/>
   </properties>
  </object>
  <object id="3252" gid="3470" x="9000" y="244" width="16" height="16">
   <properties>
    <property name="bg layer" value="2"/>
    <property name="enable rotation" type="bool" value="true"/>
    <property name="rotation angle" type="int" value="18"/>
   </properties>
  </object>
  <object id="3237" gid="3470" x="8764" y="230" width="16" height="16">
   <properties>
    <property name="bg layer" value="2"/>
    <property name="enable rotation" type="bool" value="true"/>
    <property name="rotation angle" type="int" value="18"/>
    <property name="z index" type="int" value="15"/>
   </properties>
  </object>
  <object id="3253" gid="3470" x="9004" y="230" width="16" height="16">
   <properties>
    <property name="bg layer" value="2"/>
    <property name="enable rotation" type="bool" value="true"/>
    <property name="rotation angle" type="int" value="18"/>
    <property name="z index" type="int" value="15"/>
   </properties>
  </object>
  <object id="3238" gid="3470" x="8768" y="216" width="16" height="16">
   <properties>
    <property name="bg layer" value="2"/>
    <property name="enable rotation" type="bool" value="true"/>
    <property name="rotation angle" type="int" value="18"/>
    <property name="z index" type="int" value="15"/>
   </properties>
  </object>
  <object id="3254" gid="3470" x="9008" y="216" width="16" height="16">
   <properties>
    <property name="bg layer" value="2"/>
    <property name="enable rotation" type="bool" value="true"/>
    <property name="rotation angle" type="int" value="18"/>
    <property name="z index" type="int" value="15"/>
   </properties>
  </object>
  <object id="3239" gid="3470" x="8772" y="202" width="16" height="16">
   <properties>
    <property name="bg layer" value="2"/>
    <property name="enable rotation" type="bool" value="true"/>
    <property name="rotation angle" type="int" value="18"/>
    <property name="z index" type="int" value="15"/>
   </properties>
  </object>
  <object id="3255" gid="3470" x="9012" y="202" width="16" height="16">
   <properties>
    <property name="bg layer" value="2"/>
    <property name="enable rotation" type="bool" value="true"/>
    <property name="rotation angle" type="int" value="18"/>
    <property name="z index" type="int" value="15"/>
   </properties>
  </object>
  <object id="3214" gid="3470" x="8275" y="320" width="16" height="16">
   <properties>
    <property name="bg layer" value="2"/>
    <property name="enable rotation" type="bool" value="true"/>
    <property name="rotation angle" type="int" value="-45"/>
   </properties>
  </object>
  <object id="3215" gid="3470" x="8264" y="309" width="16" height="16">
   <properties>
    <property name="bg layer" value="2"/>
    <property name="enable rotation" type="bool" value="true"/>
    <property name="rotation angle" type="int" value="-45"/>
   </properties>
  </object>
  <object id="3216" gid="3470" x="8253" y="298" width="16" height="16">
   <properties>
    <property name="bg layer" value="2"/>
    <property name="enable rotation" type="bool" value="true"/>
    <property name="rotation angle" type="int" value="-45"/>
   </properties>
  </object>
  <object id="3217" gid="3470" x="8242" y="287" width="16" height="16">
   <properties>
    <property name="bg layer" value="2"/>
    <property name="enable rotation" type="bool" value="true"/>
    <property name="rotation angle" type="int" value="-45"/>
   </properties>
  </object>
  <object id="3219" gid="3470" x="8231" y="276" width="16" height="16">
   <properties>
    <property name="bg layer" value="2"/>
    <property name="enable rotation" type="bool" value="true"/>
    <property name="rotation angle" type="int" value="-45"/>
   </properties>
  </object>
  <object id="3221" gid="3470" x="8220" y="265" width="16" height="16">
   <properties>
    <property name="bg layer" value="2"/>
    <property name="enable rotation" type="bool" value="true"/>
    <property name="rotation angle" type="int" value="-45"/>
   </properties>
  </object>
  <object id="3222" gid="3470" x="8209" y="254" width="16" height="16">
   <properties>
    <property name="bg layer" value="2"/>
    <property name="enable rotation" type="bool" value="true"/>
    <property name="rotation angle" type="int" value="-45"/>
   </properties>
  </object>
  <object id="3223" gid="3470" x="8198" y="243" width="16" height="16">
   <properties>
    <property name="bg layer" value="2"/>
    <property name="enable rotation" type="bool" value="true"/>
    <property name="rotation angle" type="int" value="-45"/>
   </properties>
  </object>
  <object id="3224" gid="3470" x="8187" y="232" width="16" height="16">
   <properties>
    <property name="bg layer" value="2"/>
    <property name="enable rotation" type="bool" value="true"/>
    <property name="rotation angle" type="int" value="-45"/>
    <property name="z index" type="int" value="15"/>
   </properties>
  </object>
  <object id="3225" gid="3470" x="8176" y="221" width="16" height="16">
   <properties>
    <property name="bg layer" value="2"/>
    <property name="enable rotation" type="bool" value="true"/>
    <property name="rotation angle" type="int" value="-45"/>
    <property name="z index" type="int" value="15"/>
   </properties>
  </object>
  <object id="3226" gid="3470" x="8165" y="210" width="16" height="16">
   <properties>
    <property name="bg layer" value="2"/>
    <property name="enable rotation" type="bool" value="true"/>
    <property name="rotation angle" type="int" value="-45"/>
    <property name="z index" type="int" value="15"/>
   </properties>
  </object>
  <object id="3227" gid="3470" x="8154" y="199" width="16" height="16">
   <properties>
    <property name="bg layer" value="2"/>
    <property name="enable rotation" type="bool" value="true"/>
    <property name="rotation angle" type="int" value="-45"/>
    <property name="z index" type="int" value="15"/>
   </properties>
  </object>
  <object id="3039" gid="3470" x="9382" y="324" width="16" height="16">
   <properties>
    <property name="bg layer" value="2"/>
    <property name="enable rotation" type="bool" value="true"/>
    <property name="rotation angle" type="int" value="27"/>
   </properties>
  </object>
  <object id="3291" gid="3470" x="9115" y="308" width="16" height="16">
   <properties>
    <property name="bg layer" value="2"/>
    <property name="enable rotation" type="bool" value="true"/>
    <property name="rotation angle" type="int" value="45"/>
   </properties>
  </object>
  <object id="3294" gid="3470" x="9126" y="297" width="16" height="16">
   <properties>
    <property name="bg layer" value="2"/>
    <property name="enable rotation" type="bool" value="true"/>
    <property name="rotation angle" type="int" value="45"/>
   </properties>
  </object>
  <object id="3295" gid="3470" x="9137" y="286" width="16" height="16">
   <properties>
    <property name="bg layer" value="2"/>
    <property name="enable rotation" type="bool" value="true"/>
    <property name="rotation angle" type="int" value="45"/>
   </properties>
  </object>
  <object id="3296" gid="3470" x="9148" y="275" width="16" height="16">
   <properties>
    <property name="bg layer" value="2"/>
    <property name="enable rotation" type="bool" value="true"/>
    <property name="rotation angle" type="int" value="45"/>
   </properties>
  </object>
  <object id="3297" gid="3470" x="9159" y="264" width="16" height="16">
   <properties>
    <property name="bg layer" value="2"/>
    <property name="enable rotation" type="bool" value="true"/>
    <property name="rotation angle" type="int" value="45"/>
   </properties>
  </object>
  <object id="3298" gid="3470" x="9170" y="253" width="16" height="16">
   <properties>
    <property name="bg layer" value="2"/>
    <property name="enable rotation" type="bool" value="true"/>
    <property name="rotation angle" type="int" value="45"/>
   </properties>
  </object>
  <object id="3299" gid="3470" x="9181" y="242" width="16" height="16">
   <properties>
    <property name="bg layer" value="2"/>
    <property name="enable rotation" type="bool" value="true"/>
    <property name="rotation angle" type="int" value="45"/>
   </properties>
  </object>
  <object id="3300" gid="3470" x="9192" y="231" width="16" height="16">
   <properties>
    <property name="bg layer" value="2"/>
    <property name="enable rotation" type="bool" value="true"/>
    <property name="rotation angle" type="int" value="45"/>
   </properties>
  </object>
  <object id="3301" gid="3470" x="9203" y="220" width="16" height="16">
   <properties>
    <property name="bg layer" value="2"/>
    <property name="enable rotation" type="bool" value="true"/>
    <property name="rotation angle" type="int" value="45"/>
   </properties>
  </object>
  <object id="3279" gid="3472" x="9270" y="324" width="16" height="16">
   <properties>
    <property name="bg layer" value="2"/>
    <property name="enable rotation" type="bool" value="true"/>
    <property name="rotation angle" type="int" value="27"/>
    <property name="z index" type="int" value="15"/>
   </properties>
  </object>
  <object id="3287" gid="3472" x="9263" y="338" width="16" height="16">
   <properties>
    <property name="bg layer" value="2"/>
    <property name="enable rotation" type="bool" value="true"/>
    <property name="rotation angle" type="int" value="27"/>
    <property name="z index" type="int" value="15"/>
   </properties>
  </object>
  <object id="3288" gid="3472" x="9256" y="352" width="16" height="16">
   <properties>
    <property name="bg layer" value="2"/>
    <property name="enable rotation" type="bool" value="true"/>
    <property name="rotation angle" type="int" value="27"/>
    <property name="z index" type="int" value="15"/>
   </properties>
  </object>
  <object id="2999" gid="3470" x="7918" y="316" width="16" height="16">
   <properties>
    <property name="bg layer" value="2"/>
    <property name="enable rotation" type="bool" value="true"/>
    <property name="rotation angle" type="int" value="27"/>
   </properties>
  </object>
  <object id="3040" gid="3470" x="9389" y="310" width="16" height="16">
   <properties>
    <property name="bg layer" value="2"/>
    <property name="enable rotation" type="bool" value="true"/>
    <property name="rotation angle" type="int" value="27"/>
   </properties>
  </object>
  <object id="3280" gid="3472" x="9277" y="310" width="16" height="16">
   <properties>
    <property name="bg layer" value="2"/>
    <property name="enable rotation" type="bool" value="true"/>
    <property name="rotation angle" type="int" value="27"/>
   </properties>
  </object>
  <object id="3000" gid="3470" x="7924" y="302" width="16" height="16">
   <properties>
    <property name="bg layer" value="2"/>
    <property name="enable rotation" type="bool" value="true"/>
    <property name="rotation angle" type="int" value="27"/>
   </properties>
  </object>
  <object id="3034" gid="3470" x="9396" y="296" width="16" height="16">
   <properties>
    <property name="bg layer" value="2"/>
    <property name="enable rotation" type="bool" value="true"/>
    <property name="rotation angle" type="int" value="27"/>
   </properties>
  </object>
  <object id="3281" gid="3472" x="9284" y="296" width="16" height="16">
   <properties>
    <property name="bg layer" value="2"/>
    <property name="enable rotation" type="bool" value="true"/>
    <property name="rotation angle" type="int" value="27"/>
   </properties>
  </object>
  <object id="3001" gid="3470" x="7930" y="288" width="16" height="16">
   <properties>
    <property name="bg layer" value="2"/>
    <property name="enable rotation" type="bool" value="true"/>
    <property name="rotation angle" type="int" value="27"/>
   </properties>
  </object>
  <object id="3035" gid="3470" x="9403" y="282" width="16" height="16">
   <properties>
    <property name="bg layer" value="2"/>
    <property name="enable rotation" type="bool" value="true"/>
    <property name="rotation angle" type="int" value="27"/>
   </properties>
  </object>
  <object id="3282" gid="3472" x="9291" y="282" width="16" height="16">
   <properties>
    <property name="bg layer" value="2"/>
    <property name="enable rotation" type="bool" value="true"/>
    <property name="rotation angle" type="int" value="27"/>
   </properties>
  </object>
  <object id="3002" gid="3470" x="7936" y="274" width="16" height="16">
   <properties>
    <property name="bg layer" value="2"/>
    <property name="enable rotation" type="bool" value="true"/>
    <property name="rotation angle" type="int" value="27"/>
   </properties>
  </object>
  <object id="3036" gid="3470" x="9410" y="268" width="16" height="16">
   <properties>
    <property name="bg layer" value="2"/>
    <property name="enable rotation" type="bool" value="true"/>
    <property name="rotation angle" type="int" value="27"/>
   </properties>
  </object>
  <object id="3283" gid="3472" x="9298" y="268" width="16" height="16">
   <properties>
    <property name="bg layer" value="2"/>
    <property name="enable rotation" type="bool" value="true"/>
    <property name="rotation angle" type="int" value="27"/>
   </properties>
  </object>
  <object id="3003" gid="3470" x="7942" y="260" width="16" height="16">
   <properties>
    <property name="bg layer" value="2"/>
    <property name="enable rotation" type="bool" value="true"/>
    <property name="rotation angle" type="int" value="27"/>
   </properties>
  </object>
  <object id="3037" gid="3470" x="9417" y="254" width="16" height="16">
   <properties>
    <property name="bg layer" value="2"/>
    <property name="enable rotation" type="bool" value="true"/>
    <property name="rotation angle" type="int" value="27"/>
   </properties>
  </object>
  <object id="3284" gid="3472" x="9305" y="254" width="16" height="16">
   <properties>
    <property name="bg layer" value="2"/>
    <property name="enable rotation" type="bool" value="true"/>
    <property name="rotation angle" type="int" value="27"/>
   </properties>
  </object>
  <object id="3004" gid="3470" x="7948" y="246" width="16" height="16">
   <properties>
    <property name="bg layer" value="2"/>
    <property name="enable rotation" type="bool" value="true"/>
    <property name="rotation angle" type="int" value="27"/>
   </properties>
  </object>
  <object id="3030" gid="3470" x="9424" y="240" width="16" height="16">
   <properties>
    <property name="bg layer" value="2"/>
    <property name="enable rotation" type="bool" value="true"/>
    <property name="rotation angle" type="int" value="27"/>
   </properties>
  </object>
  <object id="3285" gid="3472" x="9312" y="240" width="16" height="16">
   <properties>
    <property name="bg layer" value="2"/>
    <property name="enable rotation" type="bool" value="true"/>
    <property name="rotation angle" type="int" value="27"/>
   </properties>
  </object>
  <object id="3308" gid="3472" x="9319" y="226" width="16" height="16">
   <properties>
    <property name="bg layer" value="2"/>
    <property name="enable rotation" type="bool" value="true"/>
    <property name="rotation angle" type="int" value="27"/>
   </properties>
  </object>
  <object id="3005" gid="3470" x="7954" y="232" width="16" height="16">
   <properties>
    <property name="bg layer" value="2"/>
    <property name="enable rotation" type="bool" value="true"/>
    <property name="rotation angle" type="int" value="27"/>
    <property name="z index" type="int" value="15"/>
   </properties>
  </object>
  <object id="3031" gid="3470" x="9431" y="226" width="16" height="16">
   <properties>
    <property name="bg layer" value="2"/>
    <property name="enable rotation" type="bool" value="true"/>
    <property name="rotation angle" type="int" value="27"/>
    <property name="z index" type="int" value="15"/>
   </properties>
  </object>
  <object id="3006" gid="3470" x="7960" y="218" width="16" height="16">
   <properties>
    <property name="bg layer" value="2"/>
    <property name="enable rotation" type="bool" value="true"/>
    <property name="rotation angle" type="int" value="27"/>
    <property name="z index" type="int" value="15"/>
   </properties>
  </object>
  <object id="3032" gid="3470" x="9438" y="212" width="16" height="16">
   <properties>
    <property name="bg layer" value="2"/>
    <property name="enable rotation" type="bool" value="true"/>
    <property name="rotation angle" type="int" value="27"/>
    <property name="z index" type="int" value="15"/>
   </properties>
  </object>
  <object id="3007" gid="3470" x="7966" y="204" width="16" height="16">
   <properties>
    <property name="bg layer" value="2"/>
    <property name="enable rotation" type="bool" value="true"/>
    <property name="rotation angle" type="int" value="27"/>
    <property name="z index" type="int" value="15"/>
   </properties>
  </object>
  <object id="3033" gid="3470" x="9445" y="198" width="16" height="16">
   <properties>
    <property name="bg layer" value="2"/>
    <property name="enable rotation" type="bool" value="true"/>
    <property name="rotation angle" type="int" value="27"/>
    <property name="z index" type="int" value="15"/>
   </properties>
  </object>
  <object id="3008" gid="16535" x="8005" y="205" width="16" height="16">
   <properties>
    <property name="bg layer" value="2"/>
    <property name="color channel" value="4"/>
    <property name="enable rotation" type="bool" value="true"/>
    <property name="rotation angle" type="int" value="153"/>
    <property name="z index" type="int" value="15"/>
   </properties>
  </object>
  <object id="3029" gid="16535" x="8623" y="205" width="16" height="16">
   <properties>
    <property name="bg layer" value="2"/>
    <property name="color channel" value="4"/>
    <property name="enable rotation" type="bool" value="true"/>
    <property name="rotation angle" type="int" value="153"/>
   </properties>
  </object>
  <object id="3009" gid="3472" x="8018" y="232" width="16" height="16">
   <properties>
    <property name="bg layer" value="2"/>
    <property name="enable rotation" type="bool" value="true"/>
    <property name="rotation angle" type="int" value="-27"/>
   </properties>
  </object>
  <object id="3028" gid="3472" x="8636" y="232" width="16" height="16">
   <properties>
    <property name="bg layer" value="2"/>
    <property name="enable rotation" type="bool" value="true"/>
    <property name="rotation angle" type="int" value="-27"/>
   </properties>
  </object>
  <object id="3010" gid="3472" x="8025" y="246" width="16" height="16">
   <properties>
    <property name="bg layer" value="2"/>
    <property name="enable rotation" type="bool" value="true"/>
    <property name="rotation angle" type="int" value="-27"/>
   </properties>
  </object>
  <object id="3027" gid="3472" x="8643" y="246" width="16" height="16">
   <properties>
    <property name="bg layer" value="2"/>
    <property name="enable rotation" type="bool" value="true"/>
    <property name="rotation angle" type="int" value="-27"/>
   </properties>
  </object>
  <object id="3011" gid="3472" x="8032" y="260" width="16" height="16">
   <properties>
    <property name="bg layer" value="2"/>
    <property name="enable rotation" type="bool" value="true"/>
    <property name="rotation angle" type="int" value="-27"/>
   </properties>
  </object>
  <object id="3026" gid="3472" x="8650" y="260" width="16" height="16">
   <properties>
    <property name="bg layer" value="2"/>
    <property name="enable rotation" type="bool" value="true"/>
    <property name="rotation angle" type="int" value="-27"/>
   </properties>
  </object>
  <object id="3268" gid="3472" x="9019" y="224" width="16" height="16">
   <properties>
    <property name="bg layer" value="2"/>
    <property name="enable rotation" type="bool" value="true"/>
    <property name="rotation angle" type="int" value="-45"/>
   </properties>
  </object>
  <object id="3269" gid="3472" x="9030" y="235" width="16" height="16">
   <properties>
    <property name="bg layer" value="2"/>
    <property name="enable rotation" type="bool" value="true"/>
    <property name="rotation angle" type="int" value="-45"/>
   </properties>
  </object>
  <object id="3270" gid="3472" x="9041" y="246" width="16" height="16">
   <properties>
    <property name="bg layer" value="2"/>
    <property name="enable rotation" type="bool" value="true"/>
    <property name="rotation angle" type="int" value="-45"/>
   </properties>
  </object>
  <object id="3271" gid="3472" x="9052" y="257" width="16" height="16">
   <properties>
    <property name="bg layer" value="2"/>
    <property name="enable rotation" type="bool" value="true"/>
    <property name="rotation angle" type="int" value="-45"/>
   </properties>
  </object>
  <object id="3272" gid="3472" x="9063" y="268" width="16" height="16">
   <properties>
    <property name="bg layer" value="2"/>
    <property name="enable rotation" type="bool" value="true"/>
    <property name="rotation angle" type="int" value="-45"/>
   </properties>
  </object>
  <object id="3273" gid="3472" x="9074" y="279" width="16" height="16">
   <properties>
    <property name="bg layer" value="2"/>
    <property name="enable rotation" type="bool" value="true"/>
    <property name="rotation angle" type="int" value="-45"/>
   </properties>
  </object>
  <object id="3274" gid="3472" x="9085" y="290" width="16" height="16">
   <properties>
    <property name="bg layer" value="2"/>
    <property name="enable rotation" type="bool" value="true"/>
    <property name="rotation angle" type="int" value="-45"/>
   </properties>
  </object>
  <object id="3275" gid="3472" x="9096" y="301" width="16" height="16">
   <properties>
    <property name="bg layer" value="2"/>
    <property name="enable rotation" type="bool" value="true"/>
    <property name="rotation angle" type="int" value="-45"/>
   </properties>
  </object>
  <object id="3276" gid="3472" x="9107" y="312" width="16" height="16">
   <properties>
    <property name="bg layer" value="2"/>
    <property name="enable rotation" type="bool" value="true"/>
    <property name="rotation angle" type="int" value="-45"/>
    <property name="z index" type="int" value="15"/>
   </properties>
  </object>
  <object id="3277" gid="3472" x="9118" y="323" width="16" height="16">
   <properties>
    <property name="bg layer" value="2"/>
    <property name="enable rotation" type="bool" value="true"/>
    <property name="rotation angle" type="int" value="-45"/>
    <property name="z index" type="int" value="15"/>
   </properties>
  </object>
  <object id="3278" gid="3472" x="9129" y="334" width="16" height="16">
   <properties>
    <property name="bg layer" value="2"/>
    <property name="enable rotation" type="bool" value="true"/>
    <property name="rotation angle" type="int" value="-45"/>
    <property name="z index" type="int" value="15"/>
   </properties>
  </object>
  <object id="3012" gid="3472" x="8039" y="274" width="16" height="16">
   <properties>
    <property name="bg layer" value="2"/>
    <property name="enable rotation" type="bool" value="true"/>
    <property name="rotation angle" type="int" value="-27"/>
   </properties>
  </object>
  <object id="3025" gid="3472" x="8657" y="274" width="16" height="16">
   <properties>
    <property name="bg layer" value="2"/>
    <property name="enable rotation" type="bool" value="true"/>
    <property name="rotation angle" type="int" value="-27"/>
   </properties>
  </object>
  <object id="3240" gid="7961" x="8853" y="251" width="16" height="16">
   <properties>
    <property name="bg layer" value="2"/>
    <property name="enable rotation" type="bool" value="true"/>
    <property name="rotation angle" type="int" value="26"/>
   </properties>
  </object>
  <object id="3243" gid="7961" x="8915" y="280" width="16" height="16">
   <properties>
    <property name="bg layer" value="2"/>
    <property name="enable rotation" type="bool" value="true"/>
    <property name="rotation angle" type="int" value="26"/>
   </properties>
  </object>
  <object id="3244" gid="7961" x="8909" y="293" width="16" height="16">
   <properties>
    <property name="bg layer" value="2"/>
    <property name="enable rotation" type="bool" value="true"/>
    <property name="rotation angle" type="int" value="26"/>
   </properties>
  </object>
  <object id="3245" gid="7961" x="8903" y="306" width="16" height="16">
   <properties>
    <property name="bg layer" value="2"/>
    <property name="enable rotation" type="bool" value="true"/>
    <property name="rotation angle" type="int" value="26"/>
   </properties>
  </object>
  <object id="3246" gid="7961" x="8897" y="320" width="16" height="16">
   <properties>
    <property name="bg layer" value="2"/>
    <property name="enable rotation" type="bool" value="true"/>
    <property name="rotation angle" type="int" value="26"/>
   </properties>
  </object>
  <object id="3241" gid="7961" x="8847" y="265" width="16" height="16">
   <properties>
    <property name="bg layer" value="2"/>
    <property name="enable rotation" type="bool" value="true"/>
    <property name="rotation angle" type="int" value="26"/>
   </properties>
  </object>
  <object id="3263" gid="7959" x="8877" y="279" width="16" height="16">
   <properties>
    <property name="bg layer" value="2"/>
    <property name="enable rotation" type="bool" value="true"/>
    <property name="rotation angle" type="int" value="26"/>
   </properties>
  </object>
  <object id="3264" gid="7959" x="8884" y="265" width="16" height="16">
   <properties>
    <property name="bg layer" value="2"/>
    <property name="enable rotation" type="bool" value="true"/>
    <property name="rotation angle" type="int" value="26"/>
   </properties>
  </object>
  <object id="3265" gid="7959" x="8891" y="251" width="16" height="16">
   <properties>
    <property name="bg layer" value="2"/>
    <property name="enable rotation" type="bool" value="true"/>
    <property name="rotation angle" type="int" value="26"/>
   </properties>
  </object>
  <object id="3266" gid="7959" x="8898" y="237" width="16" height="16">
   <properties>
    <property name="bg layer" value="2"/>
    <property name="enable rotation" type="bool" value="true"/>
    <property name="rotation angle" type="int" value="26"/>
   </properties>
  </object>
  <object id="3242" gid="7961" x="8841" y="279" width="16" height="16">
   <properties>
    <property name="bg layer" value="2"/>
    <property name="enable rotation" type="bool" value="true"/>
    <property name="rotation angle" type="int" value="26"/>
   </properties>
  </object>
  <object id="3247" gid="7961" x="8835" y="293" width="16" height="16">
   <properties>
    <property name="bg layer" value="2"/>
    <property name="enable rotation" type="bool" value="true"/>
    <property name="rotation angle" type="int" value="26"/>
   </properties>
  </object>
  <object id="3013" gid="3472" x="8046" y="288" width="16" height="16">
   <properties>
    <property name="bg layer" value="2"/>
    <property name="enable rotation" type="bool" value="true"/>
    <property name="rotation angle" type="int" value="-27"/>
   </properties>
  </object>
  <object id="3024" gid="3472" x="8664" y="288" width="16" height="16">
   <properties>
    <property name="bg layer" value="2"/>
    <property name="enable rotation" type="bool" value="true"/>
    <property name="rotation angle" type="int" value="-27"/>
   </properties>
  </object>
  <object id="3014" gid="3472" x="8053" y="302" width="16" height="16">
   <properties>
    <property name="bg layer" value="2"/>
    <property name="enable rotation" type="bool" value="true"/>
    <property name="rotation angle" type="int" value="-27"/>
   </properties>
  </object>
  <object id="3023" gid="3472" x="8671" y="302" width="16" height="16">
   <properties>
    <property name="bg layer" value="2"/>
    <property name="enable rotation" type="bool" value="true"/>
    <property name="rotation angle" type="int" value="-27"/>
   </properties>
  </object>
  <object id="3015" gid="3472" x="8060" y="316" width="16" height="16">
   <properties>
    <property name="bg layer" value="2"/>
    <property name="enable rotation" type="bool" value="true"/>
    <property name="rotation angle" type="int" value="-27"/>
   </properties>
  </object>
  <object id="3022" gid="3472" x="8678" y="316" width="16" height="16">
   <properties>
    <property name="bg layer" value="2"/>
    <property name="enable rotation" type="bool" value="true"/>
    <property name="rotation angle" type="int" value="-27"/>
   </properties>
  </object>
  <object id="3016" gid="3472" x="8067" y="330" width="16" height="16">
   <properties>
    <property name="bg layer" value="2"/>
    <property name="enable rotation" type="bool" value="true"/>
    <property name="rotation angle" type="int" value="-27"/>
    <property name="z index" type="int" value="15"/>
   </properties>
  </object>
  <object id="3021" gid="3472" x="8685" y="330" width="16" height="16">
   <properties>
    <property name="bg layer" value="2"/>
    <property name="enable rotation" type="bool" value="true"/>
    <property name="rotation angle" type="int" value="-27"/>
    <property name="z index" type="int" value="15"/>
   </properties>
  </object>
  <object id="3017" gid="3472" x="8074" y="344" width="16" height="16">
   <properties>
    <property name="bg layer" value="2"/>
    <property name="enable rotation" type="bool" value="true"/>
    <property name="rotation angle" type="int" value="-27"/>
    <property name="z index" type="int" value="15"/>
   </properties>
  </object>
  <object id="3020" gid="3472" x="8692" y="344" width="16" height="16">
   <properties>
    <property name="bg layer" value="2"/>
    <property name="enable rotation" type="bool" value="true"/>
    <property name="rotation angle" type="int" value="-27"/>
    <property name="z index" type="int" value="15"/>
   </properties>
  </object>
  <object id="3018" gid="3472" x="8081" y="358" width="16" height="16">
   <properties>
    <property name="bg layer" value="2"/>
    <property name="enable rotation" type="bool" value="true"/>
    <property name="rotation angle" type="int" value="-27"/>
    <property name="z index" type="int" value="15"/>
   </properties>
  </object>
  <object id="3019" gid="3472" x="8699" y="358" width="16" height="16">
   <properties>
    <property name="bg layer" value="2"/>
    <property name="enable rotation" type="bool" value="true"/>
    <property name="rotation angle" type="int" value="-27"/>
    <property name="z index" type="int" value="15"/>
   </properties>
  </object>
  <object id="3212" gid="16535" x="8302" y="357" width="16" height="16">
   <properties>
    <property name="bg layer" value="2"/>
    <property name="color channel" value="3"/>
    <property name="enable rotation" type="bool" value="true"/>
    <property name="rotation angle" type="int" value="-45"/>
    <property name="z index" type="int" value="15"/>
   </properties>
  </object>
  <object id="3248" gid="16536" x="8860" y="241" width="16" height="16">
   <properties>
    <property name="bg layer" value="2"/>
    <property name="color channel" value="4"/>
    <property name="enable rotation" type="bool" value="true"/>
    <property name="rotation angle" type="int" value="206"/>
    <property name="z index" type="int" value="15"/>
   </properties>
  </object>
  <object id="3249" gid="16536" x="8919" y="271" width="16" height="16">
   <properties>
    <property name="bg layer" value="2"/>
    <property name="color channel" value="4"/>
    <property name="enable rotation" type="bool" value="true"/>
    <property name="rotation angle" type="int" value="206"/>
    <property name="z index" type="int" value="15"/>
   </properties>
  </object>
  <object id="3250" gid="16536" x="8872" y="294" width="16" height="16">
   <properties>
    <property name="bg layer" value="2"/>
    <property name="color channel" value="3"/>
    <property name="enable rotation" type="bool" value="true"/>
    <property name="rotation angle" type="int" value="26"/>
    <property name="z index" type="int" value="15"/>
   </properties>
  </object>
  <object id="3267" gid="16535" x="9002" y="206" width="16" height="16">
   <properties>
    <property name="bg layer" value="2"/>
    <property name="color channel" value="4"/>
    <property name="enable rotation" type="bool" value="true"/>
    <property name="rotation angle" type="int" value="135"/>
    <property name="z index" type="int" value="10"/>
   </properties>
  </object>
  <object id="3289" gid="16535" x="9333" y="199" width="16" height="16">
   <properties>
    <property name="bg layer" value="2"/>
    <property name="color channel" value="4"/>
    <property name="enable rotation" type="bool" value="true"/>
    <property name="rotation angle" type="int" value="207"/>
    <property name="z index" type="int" value="15"/>
   </properties>
  </object>
  <object id="3290" gid="16535" x="9094" y="330" width="16" height="16">
   <properties>
    <property name="bg layer" value="2"/>
    <property name="color channel" value="3"/>
    <property name="enable rotation" type="bool" value="true"/>
    <property name="rotation angle" type="int" value="45"/>
    <property name="z index" type="int" value="15"/>
   </properties>
  </object>
  <object id="3339" gid="16447" x="12464" y="336" width="16" height="16">
   <properties>
    <property name="color channel" value="3"/>
   </properties>
  </object>
  <object id="3340" gid="16446" x="12496" y="336" width="16" height="16">
   <properties>
    <property name="color channel" value="4"/>
    <property name="enable rotation" type="bool" value="true"/>
    <property name="rotation angle" type="int" value="63"/>
   </properties>
  </object>
  <object id="3341" gid="16504" x="11328" y="336" width="16" height="16">
   <properties>
    <property name="bg layer" value="1"/>
    <property name="color channel" value="4"/>
    <property name="z index" type="int" value="15"/>
   </properties>
  </object>
  <object id="3374" gid="16504" x="11296" y="192" width="16" height="16">
   <properties>
    <property name="bg layer" value="1"/>
    <property name="color channel" value="4"/>
    <property name="z index" type="int" value="15"/>
   </properties>
  </object>
  <object id="3376" gid="16504" x="11360" y="176" width="16" height="16">
   <properties>
    <property name="bg layer" value="1"/>
    <property name="color channel" value="4"/>
    <property name="z index" type="int" value="15"/>
   </properties>
  </object>
  <object id="3378" gid="16504" x="11424" y="208" width="16" height="16">
   <properties>
    <property name="bg layer" value="1"/>
    <property name="color channel" value="4"/>
    <property name="z index" type="int" value="15"/>
   </properties>
  </object>
  <object id="3381" gid="16504" x="11488" y="192" width="16" height="16">
   <properties>
    <property name="bg layer" value="1"/>
    <property name="color channel" value="4"/>
    <property name="z index" type="int" value="15"/>
   </properties>
  </object>
  <object id="3383" gid="16504" x="11552" y="160" width="16" height="16">
   <properties>
    <property name="bg layer" value="1"/>
    <property name="color channel" value="4"/>
    <property name="z index" type="int" value="15"/>
   </properties>
  </object>
  <object id="3385" gid="16504" x="11616" y="192" width="16" height="16">
   <properties>
    <property name="bg layer" value="1"/>
    <property name="color channel" value="4"/>
    <property name="z index" type="int" value="15"/>
   </properties>
  </object>
  <object id="3387" gid="16504" x="11712" y="208" width="16" height="16">
   <properties>
    <property name="bg layer" value="1"/>
    <property name="color channel" value="4"/>
    <property name="z index" type="int" value="15"/>
   </properties>
  </object>
  <object id="3389" gid="16504" x="11792" y="176" width="16" height="16">
   <properties>
    <property name="bg layer" value="1"/>
    <property name="color channel" value="4"/>
    <property name="z index" type="int" value="15"/>
   </properties>
  </object>
  <object id="3391" gid="16504" x="11872" y="224" width="16" height="16">
   <properties>
    <property name="bg layer" value="1"/>
    <property name="color channel" value="4"/>
    <property name="z index" type="int" value="15"/>
   </properties>
  </object>
  <object id="3393" gid="16504" x="11952" y="256" width="16" height="16">
   <properties>
    <property name="bg layer" value="1"/>
    <property name="color channel" value="4"/>
    <property name="z index" type="int" value="15"/>
   </properties>
  </object>
  <object id="3395" gid="16504" x="12000" y="160" width="16" height="16">
   <properties>
    <property name="bg layer" value="1"/>
    <property name="color channel" value="4"/>
    <property name="z index" type="int" value="15"/>
   </properties>
  </object>
  <object id="3397" gid="16504" x="12064" y="176" width="16" height="16">
   <properties>
    <property name="bg layer" value="1"/>
    <property name="color channel" value="4"/>
    <property name="z index" type="int" value="15"/>
   </properties>
  </object>
  <object id="3399" gid="16504" x="12144" y="160" width="16" height="16">
   <properties>
    <property name="bg layer" value="1"/>
    <property name="color channel" value="4"/>
    <property name="z index" type="int" value="15"/>
   </properties>
  </object>
  <object id="3403" gid="16504" x="12192" y="192" width="16" height="16">
   <properties>
    <property name="bg layer" value="1"/>
    <property name="color channel" value="4"/>
    <property name="z index" type="int" value="15"/>
   </properties>
  </object>
  <object id="3405" gid="16504" x="12256" y="144" width="16" height="16">
   <properties>
    <property name="bg layer" value="1"/>
    <property name="color channel" value="4"/>
    <property name="z index" type="int" value="15"/>
   </properties>
  </object>
  <object id="3407" gid="16504" x="12352" y="208" width="16" height="16">
   <properties>
    <property name="bg layer" value="1"/>
    <property name="color channel" value="4"/>
    <property name="z index" type="int" value="15"/>
   </properties>
  </object>
  <object id="3409" gid="16504" x="12432" y="272" width="16" height="16">
   <properties>
    <property name="bg layer" value="1"/>
    <property name="color channel" value="4"/>
    <property name="z index" type="int" value="15"/>
   </properties>
  </object>
  <object id="3425" gid="16504" x="12512" y="304" width="16" height="16">
   <properties>
    <property name="bg layer" value="1"/>
    <property name="color channel" value="4"/>
    <property name="z index" type="int" value="15"/>
   </properties>
  </object>
  <object id="3427" gid="16504" x="12576" y="320" width="16" height="16">
   <properties>
    <property name="bg layer" value="1"/>
    <property name="color channel" value="4"/>
    <property name="z index" type="int" value="15"/>
   </properties>
  </object>
  <object id="3429" gid="16504" x="12640" y="272" width="16" height="16">
   <properties>
    <property name="bg layer" value="1"/>
    <property name="color channel" value="4"/>
    <property name="z index" type="int" value="15"/>
   </properties>
  </object>
  <object id="3431" gid="16504" x="12704" y="240" width="16" height="16">
   <properties>
    <property name="bg layer" value="1"/>
    <property name="color channel" value="4"/>
    <property name="z index" type="int" value="15"/>
   </properties>
  </object>
  <object id="3433" gid="16504" x="12768" y="256" width="16" height="16">
   <properties>
    <property name="bg layer" value="1"/>
    <property name="color channel" value="4"/>
    <property name="z index" type="int" value="15"/>
   </properties>
  </object>
  <object id="3435" gid="16504" x="12848" y="240" width="16" height="16">
   <properties>
    <property name="bg layer" value="1"/>
    <property name="color channel" value="4"/>
    <property name="z index" type="int" value="15"/>
   </properties>
  </object>
  <object id="3437" gid="16504" x="12896" y="176" width="16" height="16">
   <properties>
    <property name="bg layer" value="1"/>
    <property name="color channel" value="4"/>
    <property name="z index" type="int" value="15"/>
   </properties>
  </object>
  <object id="3439" gid="16504" x="12976" y="160" width="16" height="16">
   <properties>
    <property name="bg layer" value="1"/>
    <property name="color channel" value="4"/>
    <property name="z index" type="int" value="15"/>
   </properties>
  </object>
  <object id="3441" gid="16504" x="13048" y="168" width="16" height="16">
   <properties>
    <property name="bg layer" value="1"/>
    <property name="color channel" value="4"/>
    <property name="z index" type="int" value="15"/>
   </properties>
  </object>
  <object id="3443" gid="16504" x="13096" y="208" width="16" height="16">
   <properties>
    <property name="bg layer" value="1"/>
    <property name="color channel" value="4"/>
    <property name="z index" type="int" value="15"/>
   </properties>
  </object>
  <object id="3445" gid="16504" x="13144" y="256" width="16" height="16">
   <properties>
    <property name="bg layer" value="1"/>
    <property name="color channel" value="4"/>
    <property name="z index" type="int" value="15"/>
   </properties>
  </object>
  <object id="3344" gid="16504" x="11424" y="352" width="16" height="16">
   <properties>
    <property name="bg layer" value="1"/>
    <property name="color channel" value="4"/>
    <property name="z index" type="int" value="15"/>
   </properties>
  </object>
  <object id="3346" gid="16504" x="11552" y="272" width="16" height="16">
   <properties>
    <property name="bg layer" value="1"/>
    <property name="color channel" value="4"/>
    <property name="z index" type="int" value="15"/>
   </properties>
  </object>
  <object id="3348" gid="16504" x="11680" y="304" width="16" height="16">
   <properties>
    <property name="bg layer" value="1"/>
    <property name="color channel" value="4"/>
    <property name="z index" type="int" value="15"/>
   </properties>
  </object>
  <object id="3350" gid="16504" x="11776" y="336" width="16" height="16">
   <properties>
    <property name="bg layer" value="1"/>
    <property name="color channel" value="4"/>
    <property name="z index" type="int" value="15"/>
   </properties>
  </object>
  <object id="3352" gid="16504" x="11888" y="352" width="16" height="16">
   <properties>
    <property name="bg layer" value="1"/>
    <property name="color channel" value="4"/>
    <property name="z index" type="int" value="15"/>
   </properties>
  </object>
  <object id="3354" gid="16504" x="12032" y="288" width="16" height="16">
   <properties>
    <property name="bg layer" value="1"/>
    <property name="color channel" value="4"/>
    <property name="z index" type="int" value="15"/>
   </properties>
  </object>
  <object id="3356" gid="16504" x="12128" y="320" width="16" height="16">
   <properties>
    <property name="bg layer" value="1"/>
    <property name="color channel" value="4"/>
    <property name="z index" type="int" value="15"/>
   </properties>
  </object>
  <object id="3358" gid="16504" x="12256" y="240" width="16" height="16">
   <properties>
    <property name="bg layer" value="1"/>
    <property name="color channel" value="4"/>
    <property name="z index" type="int" value="15"/>
   </properties>
  </object>
  <object id="3360" gid="16504" x="12368" y="336" width="16" height="16">
   <properties>
    <property name="bg layer" value="1"/>
    <property name="color channel" value="4"/>
    <property name="z index" type="int" value="15"/>
   </properties>
  </object>
  <object id="3362" gid="16504" x="12480" y="384" width="16" height="16">
   <properties>
    <property name="bg layer" value="1"/>
    <property name="color channel" value="4"/>
    <property name="z index" type="int" value="15"/>
   </properties>
  </object>
  <object id="3364" gid="16504" x="12704" y="384" width="16" height="16">
   <properties>
    <property name="bg layer" value="1"/>
    <property name="color channel" value="4"/>
    <property name="z index" type="int" value="15"/>
   </properties>
  </object>
  <object id="3366" gid="16504" x="12816" y="368" width="16" height="16">
   <properties>
    <property name="bg layer" value="1"/>
    <property name="color channel" value="4"/>
    <property name="z index" type="int" value="15"/>
   </properties>
  </object>
  <object id="3368" gid="16504" x="12944" y="272" width="16" height="16">
   <properties>
    <property name="bg layer" value="1"/>
    <property name="color channel" value="4"/>
    <property name="z index" type="int" value="15"/>
   </properties>
  </object>
  <object id="3370" gid="16504" x="13040" y="336" width="16" height="16">
   <properties>
    <property name="bg layer" value="1"/>
    <property name="color channel" value="4"/>
    <property name="z index" type="int" value="15"/>
   </properties>
  </object>
  <object id="3372" gid="16504" x="13072" y="384" width="16" height="16">
   <properties>
    <property name="bg layer" value="1"/>
    <property name="color channel" value="4"/>
    <property name="z index" type="int" value="15"/>
   </properties>
  </object>
  <object id="3342" gid="16426" x="11328" y="336" width="16" height="16">
   <properties>
    <property name="bg layer" value="1"/>
   </properties>
  </object>
  <object id="3373" gid="16426" x="11296" y="192" width="16" height="16">
   <properties>
    <property name="bg layer" value="1"/>
   </properties>
  </object>
  <object id="3375" gid="16426" x="11360" y="176" width="16" height="16">
   <properties>
    <property name="bg layer" value="1"/>
   </properties>
  </object>
  <object id="3377" gid="16426" x="11424" y="208" width="16" height="16">
   <properties>
    <property name="bg layer" value="1"/>
   </properties>
  </object>
  <object id="3382" gid="16426" x="11488" y="192" width="16" height="16">
   <properties>
    <property name="bg layer" value="1"/>
   </properties>
  </object>
  <object id="3384" gid="16426" x="11552" y="160" width="16" height="16">
   <properties>
    <property name="bg layer" value="1"/>
   </properties>
  </object>
  <object id="3386" gid="16426" x="11616" y="192" width="16" height="16">
   <properties>
    <property name="bg layer" value="1"/>
   </properties>
  </object>
  <object id="3388" gid="16426" x="11712" y="208" width="16" height="16">
   <properties>
    <property name="bg layer" value="1"/>
   </properties>
  </object>
  <object id="3390" gid="16426" x="11792" y="176" width="16" height="16">
   <properties>
    <property name="bg layer" value="1"/>
   </properties>
  </object>
  <object id="3392" gid="16426" x="11872" y="224" width="16" height="16">
   <properties>
    <property name="bg layer" value="1"/>
   </properties>
  </object>
  <object id="3394" gid="16426" x="11952" y="256" width="16" height="16">
   <properties>
    <property name="bg layer" value="1"/>
   </properties>
  </object>
  <object id="3396" gid="16426" x="12000" y="160" width="16" height="16">
   <properties>
    <property name="bg layer" value="1"/>
   </properties>
  </object>
  <object id="3398" gid="16426" x="12064" y="176" width="16" height="16">
   <properties>
    <property name="bg layer" value="1"/>
   </properties>
  </object>
  <object id="3400" gid="16426" x="12144" y="160" width="16" height="16">
   <properties>
    <property name="bg layer" value="1"/>
   </properties>
  </object>
  <object id="3404" gid="16426" x="12192" y="192" width="16" height="16">
   <properties>
    <property name="bg layer" value="1"/>
   </properties>
  </object>
  <object id="3406" gid="16426" x="12256" y="144" width="16" height="16">
   <properties>
    <property name="bg layer" value="1"/>
   </properties>
  </object>
  <object id="3408" gid="16426" x="12352" y="208" width="16" height="16">
   <properties>
    <property name="bg layer" value="1"/>
   </properties>
  </object>
  <object id="3410" gid="16426" x="12432" y="272" width="16" height="16">
   <properties>
    <property name="bg layer" value="1"/>
   </properties>
  </object>
  <object id="3426" gid="16426" x="12512" y="304" width="16" height="16">
   <properties>
    <property name="bg layer" value="1"/>
   </properties>
  </object>
  <object id="3428" gid="16426" x="12576" y="320" width="16" height="16">
   <properties>
    <property name="bg layer" value="1"/>
   </properties>
  </object>
  <object id="3430" gid="16426" x="12640" y="272" width="16" height="16">
   <properties>
    <property name="bg layer" value="1"/>
   </properties>
  </object>
  <object id="3432" gid="16426" x="12704" y="240" width="16" height="16">
   <properties>
    <property name="bg layer" value="1"/>
   </properties>
  </object>
  <object id="3434" gid="16426" x="12768" y="256" width="16" height="16">
   <properties>
    <property name="bg layer" value="1"/>
   </properties>
  </object>
  <object id="3436" gid="16426" x="12848" y="240" width="16" height="16">
   <properties>
    <property name="bg layer" value="1"/>
   </properties>
  </object>
  <object id="3438" gid="16426" x="12896" y="176" width="16" height="16">
   <properties>
    <property name="bg layer" value="1"/>
   </properties>
  </object>
  <object id="3440" gid="16426" x="12976" y="160" width="16" height="16">
   <properties>
    <property name="bg layer" value="1"/>
   </properties>
  </object>
  <object id="3442" gid="16426" x="13048" y="168" width="16" height="16">
   <properties>
    <property name="bg layer" value="1"/>
   </properties>
  </object>
  <object id="3444" gid="16426" x="13096" y="208" width="16" height="16">
   <properties>
    <property name="bg layer" value="1"/>
   </properties>
  </object>
  <object id="3446" gid="16426" x="13144" y="256" width="16" height="16">
   <properties>
    <property name="bg layer" value="1"/>
   </properties>
  </object>
  <object id="3343" gid="16426" x="11424" y="352" width="16" height="16">
   <properties>
    <property name="bg layer" value="1"/>
   </properties>
  </object>
  <object id="3345" gid="16426" x="11552" y="272" width="16" height="16">
   <properties>
    <property name="bg layer" value="1"/>
   </properties>
  </object>
  <object id="3347" gid="16426" x="11680" y="304" width="16" height="16">
   <properties>
    <property name="bg layer" value="1"/>
   </properties>
  </object>
  <object id="3349" gid="16426" x="11776" y="336" width="16" height="16">
   <properties>
    <property name="bg layer" value="1"/>
   </properties>
  </object>
  <object id="3351" gid="16426" x="11888" y="352" width="16" height="16">
   <properties>
    <property name="bg layer" value="1"/>
   </properties>
  </object>
  <object id="3353" gid="16426" x="12032" y="288" width="16" height="16">
   <properties>
    <property name="bg layer" value="1"/>
   </properties>
  </object>
  <object id="3355" gid="16426" x="12128" y="320" width="16" height="16">
   <properties>
    <property name="bg layer" value="1"/>
   </properties>
  </object>
  <object id="3357" gid="16426" x="12256" y="240" width="16" height="16">
   <properties>
    <property name="bg layer" value="1"/>
   </properties>
  </object>
  <object id="3359" gid="16426" x="12368" y="336" width="16" height="16">
   <properties>
    <property name="bg layer" value="1"/>
   </properties>
  </object>
  <object id="3361" gid="16426" x="12480" y="384" width="16" height="16">
   <properties>
    <property name="bg layer" value="1"/>
   </properties>
  </object>
  <object id="3363" gid="16426" x="12704" y="384" width="16" height="16">
   <properties>
    <property name="bg layer" value="1"/>
   </properties>
  </object>
  <object id="3365" gid="16426" x="12816" y="368" width="16" height="16">
   <properties>
    <property name="bg layer" value="1"/>
   </properties>
  </object>
  <object id="3367" gid="16426" x="12944" y="272" width="16" height="16">
   <properties>
    <property name="bg layer" value="1"/>
   </properties>
  </object>
  <object id="3369" gid="16426" x="13040" y="336" width="16" height="16">
   <properties>
    <property name="bg layer" value="1"/>
   </properties>
  </object>
  <object id="3371" gid="16426" x="13072" y="384" width="16" height="16">
   <properties>
    <property name="bg layer" value="1"/>
   </properties>
  </object>
  <object id="3447" gid="16391" x="15003" y="320" width="16" height="16">
   <properties>
    <property name="bg layer" value="2"/>
    <property name="color channel" value="2"/>
    <property name="vflip" type="bool" value="true"/>
   </properties>
  </object>
  <object id="3448" gid="16389" x="15072" y="320" width="16" height="16">
   <properties>
    <property name="bg layer" value="2"/>
    <property name="color channel" value="2"/>
    <property name="vflip" type="bool" value="true"/>
   </properties>
  </object>
  <object id="3449" gid="16391" x="15184" y="320" width="16" height="16">
   <properties>
    <property name="bg layer" value="2"/>
    <property name="color channel" value="2"/>
    <property name="vflip" type="bool" value="true"/>
   </properties>
  </object>
  <object id="3450" gid="16391" x="15376" y="320" width="16" height="16">
   <properties>
    <property name="bg layer" value="2"/>
    <property name="color channel" value="2"/>
    <property name="vflip" type="bool" value="true"/>
   </properties>
  </object>
  <object id="3451" gid="16390" x="15472" y="320" width="16" height="16">
   <properties>
    <property name="bg layer" value="2"/>
    <property name="color channel" value="2"/>
    <property name="vflip" type="bool" value="true"/>
   </properties>
  </object>
  <object id="3452" gid="16389" x="15528" y="320" width="16" height="16">
   <properties>
    <property name="bg layer" value="2"/>
    <property name="color channel" value="2"/>
    <property name="vflip" type="bool" value="true"/>
   </properties>
  </object>
  <object id="3453" gid="16391" x="15578" y="320" width="16" height="16">
   <properties>
    <property name="bg layer" value="2"/>
    <property name="color channel" value="2"/>
    <property name="hflip" type="bool" value="true"/>
    <property name="vflip" type="bool" value="true"/>
   </properties>
  </object>
  <object id="3454" gid="16390" x="15672" y="320" width="16" height="16">
   <properties>
    <property name="bg layer" value="2"/>
    <property name="color channel" value="2"/>
    <property name="vflip" type="bool" value="true"/>
   </properties>
  </object>
  <object id="3455" gid="16391" x="15820" y="320" width="16" height="16">
   <properties>
    <property name="bg layer" value="2"/>
    <property name="color channel" value="2"/>
    <property name="vflip" type="bool" value="true"/>
   </properties>
  </object>
  <object id="3456" gid="16389" x="15872" y="320" width="16" height="16">
   <properties>
    <property name="bg layer" value="2"/>
    <property name="color channel" value="2"/>
    <property name="vflip" type="bool" value="true"/>
   </properties>
  </object>
  <object id="3457" gid="16389" x="15259" y="400" width="16" height="16">
   <properties>
    <property name="bg layer" value="2"/>
    <property name="color channel" value="1"/>
   </properties>
  </object>
  <object id="3458" gid="16390" x="15322" y="400" width="16" height="16">
   <properties>
    <property name="bg layer" value="2"/>
    <property name="color channel" value="1"/>
   </properties>
  </object>
  <object id="3459" gid="16390" x="15424" y="400" width="16" height="16">
   <properties>
    <property name="bg layer" value="2"/>
    <property name="color channel" value="1"/>
   </properties>
  </object>
  <object id="3460" gid="16391" x="15536" y="400" width="16" height="16">
   <properties>
    <property name="bg layer" value="2"/>
    <property name="color channel" value="1"/>
   </properties>
  </object>
  <object id="3461" gid="16389" x="15608" y="400" width="16" height="16">
   <properties>
    <property name="bg layer" value="2"/>
    <property name="color channel" value="1"/>
   </properties>
  </object>
  <object id="3462" gid="16390" x="15716" y="400" width="16" height="16">
   <properties>
    <property name="bg layer" value="2"/>
    <property name="color channel" value="1"/>
   </properties>
  </object>
  <object id="3463" gid="16389" x="15776" y="400" width="16" height="16">
   <properties>
    <property name="bg layer" value="2"/>
    <property name="color channel" value="1"/>
   </properties>
  </object>
  <object id="3464" gid="16390" x="15888" y="400" width="16" height="16">
   <properties>
    <property name="bg layer" value="2"/>
    <property name="color channel" value="1"/>
   </properties>
  </object>
  <object id="3465" gid="16391" x="15925" y="400" width="16" height="16">
   <properties>
    <property name="bg layer" value="2"/>
    <property name="color channel" value="1"/>
   </properties>
  </object>
  <object id="3466" gid="16391" x="16176" y="320" width="16" height="16">
   <properties>
    <property name="bg layer" value="2"/>
    <property name="color channel" value="2"/>
    <property name="vflip" type="bool" value="true"/>
   </properties>
  </object>
  <object id="3467" gid="16391" x="16230" y="320" width="16" height="16">
   <properties>
    <property name="bg layer" value="2"/>
    <property name="color channel" value="2"/>
    <property name="vflip" type="bool" value="true"/>
   </properties>
  </object>
  <object id="3468" gid="16391" x="16282" y="320" width="16" height="16">
   <properties>
    <property name="bg layer" value="2"/>
    <property name="color channel" value="2"/>
    <property name="hflip" type="bool" value="true"/>
    <property name="vflip" type="bool" value="true"/>
   </properties>
  </object>
  <object id="3480" gid="16389" x="16368" y="320" width="16" height="16">
   <properties>
    <property name="bg layer" value="2"/>
    <property name="color channel" value="2"/>
    <property name="vflip" type="bool" value="true"/>
   </properties>
  </object>
  <object id="3481" gid="16390" x="16440" y="320" width="16" height="16">
   <properties>
    <property name="bg layer" value="2"/>
    <property name="color channel" value="2"/>
    <property name="vflip" type="bool" value="true"/>
   </properties>
  </object>
  <object id="3482" gid="16391" x="16504" y="320" width="16" height="16">
   <properties>
    <property name="bg layer" value="2"/>
    <property name="color channel" value="2"/>
    <property name="vflip" type="bool" value="true"/>
   </properties>
  </object>
  <object id="3483" gid="16390" x="16576" y="320" width="16" height="16">
   <properties>
    <property name="bg layer" value="2"/>
    <property name="color channel" value="2"/>
    <property name="vflip" type="bool" value="true"/>
   </properties>
  </object>
  <object id="3484" gid="16391" x="16632" y="320" width="16" height="16">
   <properties>
    <property name="bg layer" value="2"/>
    <property name="color channel" value="2"/>
    <property name="vflip" type="bool" value="true"/>
   </properties>
  </object>
  <object id="3485" gid="16391" x="16680" y="320" width="16" height="16">
   <properties>
    <property name="bg layer" value="2"/>
    <property name="color channel" value="2"/>
    <property name="vflip" type="bool" value="true"/>
   </properties>
  </object>
  <object id="3486" gid="16389" x="16764" y="320" width="16" height="16">
   <properties>
    <property name="bg layer" value="2"/>
    <property name="color channel" value="2"/>
    <property name="vflip" type="bool" value="true"/>
   </properties>
  </object>
  <object id="3487" gid="16391" x="16804" y="320" width="16" height="16">
   <properties>
    <property name="bg layer" value="2"/>
    <property name="color channel" value="2"/>
    <property name="vflip" type="bool" value="true"/>
   </properties>
  </object>
  <object id="3488" gid="16390" x="16176" y="416" width="16" height="16">
   <properties>
    <property name="bg layer" value="2"/>
    <property name="color channel" value="1"/>
   </properties>
  </object>
  <object id="3489" gid="16391" x="16230" y="416" width="16" height="16">
   <properties>
    <property name="bg layer" value="2"/>
    <property name="color channel" value="1"/>
   </properties>
  </object>
  <object id="3490" gid="16391" x="16280" y="416" width="16" height="16">
   <properties>
    <property name="bg layer" value="2"/>
    <property name="color channel" value="1"/>
    <property name="hflip" type="bool" value="true"/>
   </properties>
  </object>
  <object id="3491" gid="16390" x="16357" y="416" width="16" height="16">
   <properties>
    <property name="bg layer" value="2"/>
    <property name="color channel" value="1"/>
   </properties>
  </object>
  <object id="3492" gid="16389" x="16432" y="416" width="16" height="16">
   <properties>
    <property name="bg layer" value="2"/>
    <property name="color channel" value="1"/>
   </properties>
  </object>
  <object id="3493" gid="16391" x="16504" y="416" width="16" height="16">
   <properties>
    <property name="bg layer" value="2"/>
    <property name="color channel" value="1"/>
   </properties>
  </object>
  <object id="3494" gid="16391" x="16576" y="416" width="16" height="16">
   <properties>
    <property name="bg layer" value="2"/>
    <property name="color channel" value="1"/>
    <property name="hflip" type="bool" value="true"/>
   </properties>
  </object>
  <object id="3495" gid="16391" x="16632" y="416" width="16" height="16">
   <properties>
    <property name="bg layer" value="2"/>
    <property name="color channel" value="1"/>
   </properties>
  </object>
  <object id="3496" gid="16391" x="16680" y="416" width="16" height="16">
   <properties>
    <property name="bg layer" value="2"/>
    <property name="color channel" value="1"/>
   </properties>
  </object>
  <object id="3497" gid="16389" x="16764" y="416" width="16" height="16">
   <properties>
    <property name="bg layer" value="2"/>
    <property name="color channel" value="1"/>
   </properties>
  </object>
  <object id="3498" gid="16391" x="16803" y="416" width="16" height="16">
   <properties>
    <property name="bg layer" value="2"/>
    <property name="color channel" value="1"/>
   </properties>
  </object>
  <object id="3499" gid="16536" x="11312" y="432" width="16" height="16">
   <properties>
    <property name="bg layer" value="1"/>
    <property name="color channel" value="4"/>
    <property name="z index" type="int" value="15"/>
   </properties>
  </object>
  <object id="3500" gid="16535" x="11344" y="432" width="16" height="16">
   <properties>
    <property name="bg layer" value="1"/>
    <property name="color channel" value="4"/>
    <property name="z index" type="int" value="15"/>
   </properties>
  </object>
  <object id="3501" gid="16536" x="11376" y="432" width="16" height="16">
   <properties>
    <property name="bg layer" value="1"/>
    <property name="color channel" value="4"/>
    <property name="z index" type="int" value="15"/>
   </properties>
  </object>
  <object id="3502" gid="16537" x="11408" y="432" width="16" height="16">
   <properties>
    <property name="bg layer" value="1"/>
    <property name="color channel" value="4"/>
    <property name="z index" type="int" value="15"/>
   </properties>
  </object>
  <object id="3503" gid="16535" x="11440" y="432" width="16" height="16">
   <properties>
    <property name="bg layer" value="1"/>
    <property name="color channel" value="4"/>
    <property name="z index" type="int" value="15"/>
   </properties>
  </object>
  <object id="3504" gid="16535" x="11504" y="432" width="16" height="16">
   <properties>
    <property name="bg layer" value="1"/>
    <property name="color channel" value="4"/>
    <property name="z index" type="int" value="15"/>
   </properties>
  </object>
  <object id="3505" gid="16536" x="11536" y="432" width="16" height="16">
   <properties>
    <property name="bg layer" value="1"/>
    <property name="color channel" value="4"/>
    <property name="z index" type="int" value="15"/>
   </properties>
  </object>
  <object id="3506" gid="16537" x="11568" y="432" width="16" height="16">
   <properties>
    <property name="bg layer" value="1"/>
    <property name="color channel" value="4"/>
    <property name="z index" type="int" value="15"/>
   </properties>
  </object>
  <object id="3507" gid="16536" x="11600" y="432" width="16" height="16">
   <properties>
    <property name="bg layer" value="1"/>
    <property name="color channel" value="4"/>
    <property name="z index" type="int" value="15"/>
   </properties>
  </object>
  <object id="3508" gid="16537" x="11648" y="432" width="16" height="16">
   <properties>
    <property name="bg layer" value="1"/>
    <property name="color channel" value="4"/>
    <property name="z index" type="int" value="15"/>
   </properties>
  </object>
  <object id="3509" gid="16535" x="11680" y="432" width="16" height="16">
   <properties>
    <property name="bg layer" value="1"/>
    <property name="color channel" value="4"/>
    <property name="z index" type="int" value="15"/>
   </properties>
  </object>
  <object id="3510" gid="16536" x="11712" y="432" width="16" height="16">
   <properties>
    <property name="bg layer" value="1"/>
    <property name="color channel" value="4"/>
    <property name="z index" type="int" value="15"/>
   </properties>
  </object>
  <object id="3511" gid="16535" x="11760" y="432" width="16" height="16">
   <properties>
    <property name="bg layer" value="1"/>
    <property name="color channel" value="4"/>
    <property name="z index" type="int" value="15"/>
   </properties>
  </object>
  <object id="3512" gid="16537" x="11792" y="432" width="16" height="16">
   <properties>
    <property name="bg layer" value="1"/>
    <property name="color channel" value="4"/>
    <property name="z index" type="int" value="15"/>
   </properties>
  </object>
  <object id="3513" gid="16536" x="11824" y="432" width="16" height="16">
   <properties>
    <property name="bg layer" value="1"/>
    <property name="color channel" value="4"/>
    <property name="z index" type="int" value="15"/>
   </properties>
  </object>
  <object id="3514" gid="16537" x="11856" y="432" width="16" height="16">
   <properties>
    <property name="bg layer" value="1"/>
    <property name="color channel" value="4"/>
    <property name="z index" type="int" value="15"/>
   </properties>
  </object>
  <object id="3515" gid="16536" x="11888" y="432" width="16" height="16">
   <properties>
    <property name="bg layer" value="1"/>
    <property name="color channel" value="4"/>
    <property name="z index" type="int" value="15"/>
   </properties>
  </object>
  <object id="3516" gid="16535" x="11920" y="432" width="16" height="16">
   <properties>
    <property name="bg layer" value="1"/>
    <property name="color channel" value="4"/>
    <property name="z index" type="int" value="15"/>
   </properties>
  </object>
  <object id="3517" gid="16536" x="11984" y="432" width="16" height="16">
   <properties>
    <property name="bg layer" value="1"/>
    <property name="color channel" value="4"/>
    <property name="z index" type="int" value="15"/>
   </properties>
  </object>
  <object id="3518" gid="16537" x="12016" y="432" width="16" height="16">
   <properties>
    <property name="bg layer" value="1"/>
    <property name="color channel" value="4"/>
    <property name="z index" type="int" value="15"/>
   </properties>
  </object>
  <object id="3519" gid="16535" x="12064" y="432" width="16" height="16">
   <properties>
    <property name="bg layer" value="1"/>
    <property name="color channel" value="4"/>
    <property name="z index" type="int" value="15"/>
   </properties>
  </object>
  <object id="3520" gid="16537" x="12096" y="432" width="16" height="16">
   <properties>
    <property name="bg layer" value="1"/>
    <property name="color channel" value="4"/>
    <property name="z index" type="int" value="15"/>
   </properties>
  </object>
  <object id="3521" gid="16535" x="12144" y="432" width="16" height="16">
   <properties>
    <property name="bg layer" value="1"/>
    <property name="color channel" value="4"/>
    <property name="z index" type="int" value="15"/>
   </properties>
  </object>
  <object id="3522" gid="16536" x="12208" y="432" width="16" height="16">
   <properties>
    <property name="bg layer" value="1"/>
    <property name="color channel" value="4"/>
    <property name="z index" type="int" value="15"/>
   </properties>
  </object>
  <object id="3523" gid="16535" x="12240" y="432" width="16" height="16">
   <properties>
    <property name="bg layer" value="1"/>
    <property name="color channel" value="4"/>
    <property name="z index" type="int" value="15"/>
   </properties>
  </object>
  <object id="3524" gid="16537" x="12272" y="432" width="16" height="16">
   <properties>
    <property name="bg layer" value="1"/>
    <property name="color channel" value="4"/>
    <property name="z index" type="int" value="15"/>
   </properties>
  </object>
  <object id="3525" gid="16536" x="12304" y="432" width="16" height="16">
   <properties>
    <property name="bg layer" value="1"/>
    <property name="color channel" value="4"/>
    <property name="z index" type="int" value="15"/>
   </properties>
  </object>
  <object id="3526" gid="16535" x="12336" y="432" width="16" height="16">
   <properties>
    <property name="bg layer" value="1"/>
    <property name="color channel" value="4"/>
    <property name="z index" type="int" value="15"/>
   </properties>
  </object>
  <object id="3527" gid="16537" x="12368" y="432" width="16" height="16">
   <properties>
    <property name="bg layer" value="1"/>
    <property name="color channel" value="4"/>
    <property name="z index" type="int" value="15"/>
   </properties>
  </object>
  <object id="3528" gid="16536" x="12400" y="432" width="16" height="16">
   <properties>
    <property name="bg layer" value="1"/>
    <property name="color channel" value="4"/>
    <property name="z index" type="int" value="15"/>
   </properties>
  </object>
  <object id="3529" gid="16537" x="12464" y="432" width="16" height="16">
   <properties>
    <property name="bg layer" value="1"/>
    <property name="color channel" value="4"/>
    <property name="z index" type="int" value="15"/>
   </properties>
  </object>
  <object id="3530" gid="16537" x="12528" y="432" width="16" height="16">
   <properties>
    <property name="bg layer" value="1"/>
    <property name="color channel" value="4"/>
    <property name="z index" type="int" value="15"/>
   </properties>
  </object>
  <object id="3531" gid="16535" x="12496" y="432" width="16" height="16">
   <properties>
    <property name="bg layer" value="1"/>
    <property name="color channel" value="4"/>
    <property name="z index" type="int" value="15"/>
   </properties>
  </object>
  <object id="3532" gid="16536" x="12576" y="432" width="16" height="16">
   <properties>
    <property name="bg layer" value="1"/>
    <property name="color channel" value="4"/>
    <property name="z index" type="int" value="15"/>
   </properties>
  </object>
  <object id="3533" gid="16535" x="12624" y="432" width="16" height="16">
   <properties>
    <property name="bg layer" value="1"/>
    <property name="color channel" value="4"/>
    <property name="z index" type="int" value="15"/>
   </properties>
  </object>
  <object id="3534" gid="16535" x="12688" y="432" width="16" height="16">
   <properties>
    <property name="bg layer" value="1"/>
    <property name="color channel" value="4"/>
    <property name="z index" type="int" value="15"/>
   </properties>
  </object>
  <object id="3535" gid="16537" x="12720" y="432" width="16" height="16">
   <properties>
    <property name="bg layer" value="1"/>
    <property name="color channel" value="4"/>
    <property name="z index" type="int" value="15"/>
   </properties>
  </object>
  <object id="3536" gid="16536" x="12776" y="432" width="16" height="16">
   <properties>
    <property name="bg layer" value="1"/>
    <property name="color channel" value="4"/>
    <property name="z index" type="int" value="15"/>
   </properties>
  </object>
  <object id="3537" gid="16537" x="12800" y="432" width="16" height="16">
   <properties>
    <property name="bg layer" value="1"/>
    <property name="color channel" value="4"/>
    <property name="z index" type="int" value="15"/>
   </properties>
  </object>
  <object id="3538" gid="16535" x="12832" y="432" width="16" height="16">
   <properties>
    <property name="bg layer" value="1"/>
    <property name="color channel" value="4"/>
    <property name="z index" type="int" value="15"/>
   </properties>
  </object>
  <object id="3539" gid="16536" x="12896" y="432" width="16" height="16">
   <properties>
    <property name="bg layer" value="1"/>
    <property name="color channel" value="4"/>
    <property name="z index" type="int" value="15"/>
   </properties>
  </object>
  <object id="3540" gid="16535" x="12928" y="432" width="16" height="16">
   <properties>
    <property name="bg layer" value="1"/>
    <property name="color channel" value="4"/>
    <property name="z index" type="int" value="15"/>
   </properties>
  </object>
  <object id="3541" gid="16537" x="12960" y="432" width="16" height="16">
   <properties>
    <property name="bg layer" value="1"/>
    <property name="color channel" value="4"/>
    <property name="z index" type="int" value="15"/>
   </properties>
  </object>
  <object id="3542" gid="16535" x="12992" y="432" width="16" height="16">
   <properties>
    <property name="bg layer" value="1"/>
    <property name="color channel" value="4"/>
    <property name="z index" type="int" value="15"/>
   </properties>
  </object>
  <object id="3543" gid="16535" x="13056" y="432" width="16" height="16">
   <properties>
    <property name="bg layer" value="1"/>
    <property name="color channel" value="4"/>
    <property name="z index" type="int" value="15"/>
   </properties>
  </object>
  <object id="3544" gid="16536" x="13024" y="432" width="16" height="16">
   <properties>
    <property name="bg layer" value="1"/>
    <property name="color channel" value="4"/>
    <property name="z index" type="int" value="15"/>
   </properties>
  </object>
  <object id="3545" gid="16537" x="13088" y="432" width="16" height="16">
   <properties>
    <property name="bg layer" value="1"/>
    <property name="color channel" value="4"/>
    <property name="z index" type="int" value="15"/>
   </properties>
  </object>
  <object id="3547" gid="16389" x="11328" y="432" width="16" height="16">
   <properties>
    <property name="bg layer" value="1"/>
    <property name="color channel" value="3"/>
   </properties>
  </object>
  <object id="3548" gid="16391" x="11384" y="432" width="16" height="16">
   <properties>
    <property name="bg layer" value="1"/>
    <property name="color channel" value="3"/>
   </properties>
  </object>
  <object id="3549" gid="16390" x="11435" y="432" width="16" height="16">
   <properties>
    <property name="bg layer" value="1"/>
    <property name="color channel" value="3"/>
   </properties>
  </object>
  <object id="3550" gid="16390" x="11510" y="432" width="16" height="16">
   <properties>
    <property name="bg layer" value="1"/>
    <property name="color channel" value="3"/>
   </properties>
  </object>
  <object id="3551" gid="16389" x="11578" y="432" width="16" height="16">
   <properties>
    <property name="bg layer" value="1"/>
    <property name="color channel" value="3"/>
   </properties>
  </object>
  <object id="3552" gid="16391" x="11643" y="432" width="16" height="16">
   <properties>
    <property name="bg layer" value="1"/>
    <property name="color channel" value="3"/>
   </properties>
  </object>
  <object id="3553" gid="16389" x="11702" y="432" width="16" height="16">
   <properties>
    <property name="bg layer" value="1"/>
    <property name="color channel" value="3"/>
   </properties>
  </object>
  <object id="3554" gid="16389" x="11774" y="432" width="16" height="16">
   <properties>
    <property name="bg layer" value="1"/>
    <property name="color channel" value="3"/>
    <property name="hflip" type="bool" value="true"/>
   </properties>
  </object>
  <object id="3555" gid="16390" x="11840" y="432" width="16" height="16">
   <properties>
    <property name="bg layer" value="1"/>
    <property name="color channel" value="3"/>
   </properties>
  </object>
  <object id="3556" gid="16389" x="11907" y="432" width="16" height="16">
   <properties>
    <property name="bg layer" value="1"/>
    <property name="color channel" value="3"/>
   </properties>
  </object>
  <object id="3557" gid="16390" x="11994" y="432" width="16" height="16">
   <properties>
    <property name="bg layer" value="1"/>
    <property name="color channel" value="3"/>
   </properties>
  </object>
  <object id="3558" gid="16389" x="12064" y="432" width="16" height="16">
   <properties>
    <property name="bg layer" value="1"/>
    <property name="color channel" value="3"/>
   </properties>
  </object>
  <object id="3559" gid="16389" x="12133" y="432" width="16" height="16">
   <properties>
    <property name="bg layer" value="1"/>
    <property name="color channel" value="3"/>
   </properties>
  </object>
  <object id="3560" gid="16391" x="12208" y="432" width="16" height="16">
   <properties>
    <property name="bg layer" value="1"/>
    <property name="color channel" value="3"/>
   </properties>
  </object>
  <object id="3561" gid="16389" x="12272" y="432" width="16" height="16">
   <properties>
    <property name="bg layer" value="1"/>
    <property name="color channel" value="3"/>
   </properties>
  </object>
  <object id="3562" gid="16390" x="12336" y="432" width="16" height="16">
   <properties>
    <property name="bg layer" value="1"/>
    <property name="color channel" value="3"/>
   </properties>
  </object>
  <object id="3563" gid="16390" x="12400" y="432" width="16" height="16">
   <properties>
    <property name="bg layer" value="1"/>
    <property name="color channel" value="3"/>
    <property name="hflip" type="bool" value="true"/>
   </properties>
  </object>
  <object id="3564" gid="16389" x="12480" y="432" width="16" height="16">
   <properties>
    <property name="bg layer" value="1"/>
    <property name="color channel" value="3"/>
   </properties>
  </object>
  <object id="3565" gid="16391" x="12544" y="432" width="16" height="16">
   <properties>
    <property name="bg layer" value="1"/>
    <property name="color channel" value="3"/>
   </properties>
  </object>
  <object id="3566" gid="16389" x="12608" y="432" width="16" height="16">
   <properties>
    <property name="bg layer" value="1"/>
    <property name="color channel" value="3"/>
   </properties>
  </object>
  <object id="3567" gid="16391" x="12684" y="432" width="16" height="16">
   <properties>
    <property name="bg layer" value="1"/>
    <property name="color channel" value="3"/>
   </properties>
  </object>
  <object id="3568" gid="16391" x="12724" y="432" width="16" height="16">
   <properties>
    <property name="bg layer" value="1"/>
    <property name="color channel" value="3"/>
    <property name="hflip" type="bool" value="true"/>
   </properties>
  </object>
  <object id="3569" gid="16391" x="12784" y="432" width="16" height="16">
   <properties>
    <property name="bg layer" value="1"/>
    <property name="color channel" value="3"/>
   </properties>
  </object>
  <object id="3570" gid="16390" x="12832" y="432" width="16" height="16">
   <properties>
    <property name="bg layer" value="1"/>
    <property name="color channel" value="3"/>
   </properties>
  </object>
  <object id="3571" gid="16389" x="12912" y="432" width="16" height="16">
   <properties>
    <property name="bg layer" value="1"/>
    <property name="color channel" value="3"/>
   </properties>
  </object>
  <object id="3572" gid="16389" x="12984" y="432" width="16" height="16">
   <properties>
    <property name="bg layer" value="1"/>
    <property name="color channel" value="3"/>
   </properties>
  </object>
  <object id="3573" gid="16390" x="13048" y="432" width="16" height="16">
   <properties>
    <property name="bg layer" value="1"/>
    <property name="color channel" value="3"/>
   </properties>
  </object>
  <object id="3574" gid="16391" x="13093" y="432" width="16" height="16">
   <properties>
    <property name="bg layer" value="1"/>
    <property name="color channel" value="3"/>
   </properties>
  </object>
  <object id="3575" gid="16467" x="21616" y="288" width="16" height="16">
   <properties>
    <property name="color channel" value="4"/>
   </properties>
  </object>
  <object id="3576" gid="16466" x="21648" y="272" width="16" height="16">
   <properties>
    <property name="color channel" value="4"/>
   </properties>
  </object>
  <object id="3577" gid="16466" x="21744" y="256" width="16" height="16">
   <properties>
    <property name="color channel" value="4"/>
   </properties>
  </object>
  <object id="3578" gid="16466" x="21664" y="384" width="16" height="16">
   <properties>
    <property name="color channel" value="4"/>
   </properties>
  </object>
  <object id="3579" gid="16465" x="21728" y="400" width="16" height="16">
   <properties>
    <property name="color channel" value="4"/>
   </properties>
  </object>
  <object id="3580" gid="16465" x="21792" y="272" width="16" height="16">
   <properties>
    <property name="color channel" value="4"/>
   </properties>
  </object>
  <object id="3581" gid="16466" x="21824" y="384" width="16" height="16">
   <properties>
    <property name="color channel" value="4"/>
   </properties>
  </object>
  <object id="3582" gid="16467" x="21792" y="400" width="16" height="16">
   <properties>
    <property name="color channel" value="4"/>
   </properties>
  </object>
  <object id="3583" gid="16467" x="21904" y="240" width="16" height="16">
   <properties>
    <property name="color channel" value="4"/>
   </properties>
  </object>
  <object id="3584" gid="16465" x="21952" y="256" width="16" height="16">
   <properties>
    <property name="color channel" value="4"/>
   </properties>
  </object>
  <object id="3585" gid="16465" x="21952" y="400" width="16" height="16">
   <properties>
    <property name="color channel" value="4"/>
   </properties>
  </object>
  <object id="3586" gid="16466" x="22032" y="384" width="16" height="16">
   <properties>
    <property name="color channel" value="4"/>
   </properties>
  </object>
  <object id="3587" gid="16466" x="22176" y="384" width="16" height="16">
   <properties>
    <property name="color channel" value="4"/>
   </properties>
  </object>
  <object id="3588" gid="16466" x="22080" y="272" width="16" height="16">
   <properties>
    <property name="color channel" value="4"/>
   </properties>
  </object>
  <object id="3589" gid="16465" x="22128" y="400" width="16" height="16">
   <properties>
    <property name="color channel" value="4"/>
   </properties>
  </object>
  <object id="3590" gid="16465" x="22128" y="256" width="16" height="16">
   <properties>
    <property name="color channel" value="4"/>
   </properties>
  </object>
  <object id="3591" gid="16390" x="16864" y="416" width="16" height="16">
   <properties>
    <property name="bg layer" value="2"/>
    <property name="color channel" value="1"/>
   </properties>
  </object>
  <object id="3615" gid="16390" x="17840" y="400" width="16" height="16">
   <properties>
    <property name="bg layer" value="2"/>
    <property name="color channel" value="1"/>
   </properties>
  </object>
  <object id="3618" gid="16390" x="18104" y="400" width="16" height="16">
   <properties>
    <property name="bg layer" value="2"/>
    <property name="color channel" value="1"/>
   </properties>
  </object>
  <object id="3619" gid="16390" x="18192" y="384" width="16" height="16">
   <properties>
    <property name="bg layer" value="2"/>
    <property name="color channel" value="1"/>
   </properties>
  </object>
  <object id="3616" gid="16390" x="17920" y="384" width="16" height="16">
   <properties>
    <property name="bg layer" value="2"/>
    <property name="color channel" value="1"/>
   </properties>
  </object>
  <object id="3592" gid="16391" x="16912" y="416" width="16" height="16">
   <properties>
    <property name="bg layer" value="2"/>
    <property name="color channel" value="1"/>
   </properties>
  </object>
  <object id="3617" gid="16391" x="17976" y="368" width="16" height="16">
   <properties>
    <property name="bg layer" value="2"/>
    <property name="color channel" value="1"/>
   </properties>
  </object>
  <object id="3620" gid="16391" x="18326" y="432" width="16" height="16">
   <properties>
    <property name="bg layer" value="2"/>
    <property name="color channel" value="1"/>
   </properties>
  </object>
  <object id="3621" gid="16391" x="18399" y="416" width="16" height="16">
   <properties>
    <property name="bg layer" value="2"/>
    <property name="color channel" value="1"/>
   </properties>
  </object>
  <object id="3622" gid="16391" x="18454" y="400" width="16" height="16">
   <properties>
    <property name="bg layer" value="2"/>
    <property name="color channel" value="1"/>
   </properties>
  </object>
  <object id="3593" gid="16389" x="16960" y="400" width="16" height="16">
   <properties>
    <property name="bg layer" value="2"/>
    <property name="color channel" value="1"/>
    <property name="enable rotation" type="bool" value="true"/>
    <property name="rotation angle" type="int" value="-26"/>
   </properties>
  </object>
  <object id="3600" gid="16389" x="17408" y="368" width="16" height="16">
   <properties>
    <property name="bg layer" value="2"/>
    <property name="color channel" value="1"/>
    <property name="enable rotation" type="bool" value="true"/>
    <property name="rotation angle" type="int" value="-26"/>
   </properties>
  </object>
  <object id="3602" gid="16389" x="17583" y="377" width="16" height="16">
   <properties>
    <property name="bg layer" value="2"/>
    <property name="color channel" value="1"/>
    <property name="enable rotation" type="bool" value="true"/>
    <property name="rotation angle" type="int" value="-26"/>
   </properties>
  </object>
  <object id="3594" gid="16390" x="17024" y="368" width="16" height="16">
   <properties>
    <property name="bg layer" value="2"/>
    <property name="color channel" value="1"/>
    <property name="enable rotation" type="bool" value="true"/>
    <property name="rotation angle" type="int" value="-26"/>
   </properties>
  </object>
  <object id="3597" gid="16390" x="17200" y="379" width="16" height="16">
   <properties>
    <property name="bg layer" value="2"/>
    <property name="color channel" value="1"/>
    <property name="enable rotation" type="bool" value="true"/>
    <property name="rotation angle" type="int" value="-26"/>
   </properties>
  </object>
  <object id="3598" gid="16390" x="17312" y="416" width="16" height="16">
   <properties>
    <property name="bg layer" value="2"/>
    <property name="color channel" value="1"/>
    <property name="enable rotation" type="bool" value="true"/>
    <property name="rotation angle" type="int" value="-26"/>
   </properties>
  </object>
  <object id="3603" gid="16390" x="17644" y="348" width="16" height="16">
   <properties>
    <property name="bg layer" value="2"/>
    <property name="color channel" value="1"/>
    <property name="enable rotation" type="bool" value="true"/>
    <property name="rotation angle" type="int" value="-26"/>
   </properties>
  </object>
  <object id="3613" gid="16390" x="18547" y="376" width="16" height="16">
   <properties>
    <property name="bg layer" value="2"/>
    <property name="color channel" value="1"/>
    <property name="enable rotation" type="bool" value="true"/>
    <property name="rotation angle" type="int" value="-26"/>
   </properties>
  </object>
  <object id="3595" gid="16391" x="17072" y="346" width="16" height="16">
   <properties>
    <property name="bg layer" value="2"/>
    <property name="color channel" value="1"/>
    <property name="enable rotation" type="bool" value="true"/>
    <property name="rotation angle" type="int" value="-26"/>
   </properties>
  </object>
  <object id="3599" gid="16391" x="17359" y="394" width="16" height="16">
   <properties>
    <property name="bg layer" value="2"/>
    <property name="color channel" value="1"/>
    <property name="enable rotation" type="bool" value="true"/>
    <property name="rotation angle" type="int" value="-26"/>
   </properties>
  </object>
  <object id="3601" gid="16391" x="17536" y="400" width="16" height="16">
   <properties>
    <property name="bg layer" value="2"/>
    <property name="color channel" value="1"/>
    <property name="enable rotation" type="bool" value="true"/>
    <property name="rotation angle" type="int" value="-26"/>
   </properties>
  </object>
  <object id="3604" gid="16391" x="17878" y="389" width="16" height="16">
   <properties>
    <property name="bg layer" value="2"/>
    <property name="color channel" value="1"/>
    <property name="enable rotation" type="bool" value="true"/>
    <property name="hflip" type="bool" value="true"/>
    <property name="rotation angle" type="int" value="26"/>
   </properties>
  </object>
  <object id="3605" gid="16391" x="17942" y="373" width="16" height="16">
   <properties>
    <property name="bg layer" value="2"/>
    <property name="color channel" value="1"/>
    <property name="enable rotation" type="bool" value="true"/>
    <property name="hflip" type="bool" value="true"/>
    <property name="rotation angle" type="int" value="26"/>
   </properties>
  </object>
  <object id="3606" gid="16391" x="18006" y="357" width="16" height="16">
   <properties>
    <property name="bg layer" value="2"/>
    <property name="color channel" value="1"/>
    <property name="enable rotation" type="bool" value="true"/>
    <property name="hflip" type="bool" value="true"/>
    <property name="rotation angle" type="int" value="26"/>
   </properties>
  </object>
  <object id="3607" gid="16391" x="18145" y="391" width="16" height="16">
   <properties>
    <property name="bg layer" value="2"/>
    <property name="color channel" value="1"/>
    <property name="enable rotation" type="bool" value="true"/>
    <property name="rotation angle" type="int" value="-26"/>
   </properties>
  </object>
  <object id="3608" gid="16391" x="18225" y="375" width="16" height="16">
   <properties>
    <property name="bg layer" value="2"/>
    <property name="color channel" value="1"/>
    <property name="enable rotation" type="bool" value="true"/>
    <property name="rotation angle" type="int" value="-26"/>
   </properties>
  </object>
  <object id="3609" gid="16391" x="18364" y="421" width="16" height="16">
   <properties>
    <property name="bg layer" value="2"/>
    <property name="color channel" value="1"/>
    <property name="enable rotation" type="bool" value="true"/>
    <property name="rotation angle" type="int" value="-26"/>
   </properties>
  </object>
  <object id="3610" gid="16391" x="18421" y="407" width="16" height="16">
   <properties>
    <property name="bg layer" value="2"/>
    <property name="color channel" value="1"/>
    <property name="enable rotation" type="bool" value="true"/>
    <property name="rotation angle" type="int" value="-26"/>
   </properties>
  </object>
  <object id="3611" gid="16391" x="18485" y="391" width="16" height="16">
   <properties>
    <property name="bg layer" value="2"/>
    <property name="color channel" value="1"/>
    <property name="enable rotation" type="bool" value="true"/>
    <property name="rotation angle" type="int" value="-26"/>
   </properties>
  </object>
  <object id="3623" gid="16391" x="18520" y="384" width="16" height="16">
   <properties>
    <property name="bg layer" value="2"/>
    <property name="color channel" value="1"/>
    <property name="enable rotation" type="bool" value="true"/>
    <property name="rotation angle" type="int" value="-26"/>
   </properties>
  </object>
  <object id="3624" gid="16391" x="18588" y="368" width="16" height="16">
   <properties>
    <property name="bg layer" value="2"/>
    <property name="color channel" value="1"/>
    <property name="enable rotation" type="bool" value="true"/>
    <property name="rotation angle" type="int" value="-26"/>
   </properties>
  </object>
  <object id="3612" gid="16391" x="18615" y="359" width="16" height="16">
   <properties>
    <property name="bg layer" value="2"/>
    <property name="color channel" value="1"/>
    <property name="enable rotation" type="bool" value="true"/>
    <property name="rotation angle" type="int" value="-26"/>
   </properties>
  </object>
  <object id="3596" gid="16391" x="17168" y="395" width="16" height="16">
   <properties>
    <property name="bg layer" value="2"/>
    <property name="color channel" value="1"/>
    <property name="enable rotation" type="bool" value="true"/>
    <property name="rotation angle" type="int" value="-26"/>
   </properties>
  </object>
  <object id="3614" gid="16389" x="17752" y="384" width="16" height="16">
   <properties>
    <property name="bg layer" value="2"/>
    <property name="color channel" value="1"/>
   </properties>
  </object>
  <object id="3625" gid="16389" x="17136" y="368" width="16" height="16">
   <properties>
    <property name="bg layer" value="2"/>
    <property name="color channel" value="1"/>
    <property name="enable rotation" type="bool" value="true"/>
    <property name="rotation angle" type="int" value="45"/>
   </properties>
  </object>
  <object id="3632" gid="16389" x="18056" y="376" width="16" height="16">
   <properties>
    <property name="bg layer" value="2"/>
    <property name="color channel" value="1"/>
    <property name="enable rotation" type="bool" value="true"/>
    <property name="rotation angle" type="int" value="45"/>
   </properties>
  </object>
  <object id="3633" gid="16389" x="18278" y="392" width="16" height="16">
   <properties>
    <property name="bg layer" value="2"/>
    <property name="color channel" value="1"/>
    <property name="enable rotation" type="bool" value="true"/>
    <property name="rotation angle" type="int" value="45"/>
   </properties>
  </object>
  <object id="3626" gid="16390" x="17251" y="390" width="16" height="16">
   <properties>
    <property name="bg layer" value="2"/>
    <property name="color channel" value="1"/>
    <property name="enable rotation" type="bool" value="true"/>
    <property name="rotation angle" type="int" value="45"/>
   </properties>
  </object>
  <object id="3630" gid="16390" x="17704" y="360" width="16" height="16">
   <properties>
    <property name="bg layer" value="2"/>
    <property name="color channel" value="1"/>
    <property name="enable rotation" type="bool" value="true"/>
    <property name="rotation angle" type="int" value="45"/>
   </properties>
  </object>
  <object id="3629" gid="16390" x="17504" y="400" width="16" height="16">
   <properties>
    <property name="bg layer" value="2"/>
    <property name="color channel" value="1"/>
    <property name="enable rotation" type="bool" value="true"/>
    <property name="rotation angle" type="int" value="45"/>
   </properties>
  </object>
  <object id="3635" gid="16390" x="18659" y="373" width="16" height="16">
   <properties>
    <property name="bg layer" value="2"/>
    <property name="color channel" value="1"/>
    <property name="enable rotation" type="bool" value="true"/>
    <property name="rotation angle" type="int" value="45"/>
   </properties>
  </object>
  <object id="3627" gid="16391" x="17280" y="416" width="16" height="16">
   <properties>
    <property name="bg layer" value="2"/>
    <property name="color channel" value="1"/>
    <property name="enable rotation" type="bool" value="true"/>
    <property name="rotation angle" type="int" value="45"/>
   </properties>
  </object>
  <object id="3628" gid="16391" x="17472" y="368" width="16" height="16">
   <properties>
    <property name="bg layer" value="2"/>
    <property name="color channel" value="1"/>
    <property name="enable rotation" type="bool" value="true"/>
    <property name="rotation angle" type="int" value="45"/>
   </properties>
  </object>
  <object id="3634" gid="16391" x="18307" y="427" width="16" height="16">
   <properties>
    <property name="bg layer" value="2"/>
    <property name="color channel" value="1"/>
    <property name="enable rotation" type="bool" value="true"/>
    <property name="rotation angle" type="int" value="45"/>
   </properties>
  </object>
  <object id="3631" gid="16391" x="17800" y="392" width="16" height="16">
   <properties>
    <property name="bg layer" value="2"/>
    <property name="color channel" value="1"/>
    <property name="enable rotation" type="bool" value="true"/>
    <property name="rotation angle" type="int" value="26"/>
   </properties>
  </object>
  <object id="3636" gid="16391" x="16864" y="336" width="16" height="16">
   <properties>
    <property name="bg layer" value="2"/>
    <property name="color channel" value="2"/>
    <property name="vflip" type="bool" value="true"/>
   </properties>
  </object>
  <object id="3637" gid="16390" x="16912" y="336" width="16" height="16">
   <properties>
    <property name="bg layer" value="2"/>
    <property name="color channel" value="2"/>
    <property name="vflip" type="bool" value="true"/>
   </properties>
  </object>
  <object id="3638" gid="16391" x="17056" y="288" width="16" height="16">
   <properties>
    <property name="bg layer" value="2"/>
    <property name="color channel" value="2"/>
    <property name="vflip" type="bool" value="true"/>
   </properties>
  </object>
  <object id="3639" gid="16389" x="17104" y="288" width="16" height="16">
   <properties>
    <property name="bg layer" value="2"/>
    <property name="color channel" value="2"/>
    <property name="vflip" type="bool" value="true"/>
   </properties>
  </object>
  <object id="3640" gid="16390" x="17408" y="288" width="16" height="16">
   <properties>
    <property name="bg layer" value="2"/>
    <property name="color channel" value="2"/>
    <property name="vflip" type="bool" value="true"/>
   </properties>
  </object>
  <object id="3641" gid="16391" x="17456" y="288" width="16" height="16">
   <properties>
    <property name="bg layer" value="2"/>
    <property name="color channel" value="2"/>
    <property name="vflip" type="bool" value="true"/>
   </properties>
  </object>
  <object id="3642" gid="16390" x="17675" y="288" width="16" height="16">
   <properties>
    <property name="bg layer" value="2"/>
    <property name="color channel" value="2"/>
    <property name="hflip" type="bool" value="true"/>
    <property name="vflip" type="bool" value="true"/>
   </properties>
  </object>
  <object id="3643" gid="16391" x="17632" y="288" width="16" height="16">
   <properties>
    <property name="bg layer" value="2"/>
    <property name="color channel" value="2"/>
    <property name="vflip" type="bool" value="true"/>
   </properties>
  </object>
  <object id="3644" gid="16391" x="17784" y="320" width="16" height="16">
   <properties>
    <property name="bg layer" value="2"/>
    <property name="color channel" value="2"/>
    <property name="vflip" type="bool" value="true"/>
   </properties>
  </object>
  <object id="3645" gid="16391" x="17912" y="336" width="16" height="16">
   <properties>
    <property name="bg layer" value="2"/>
    <property name="color channel" value="2"/>
    <property name="vflip" type="bool" value="true"/>
   </properties>
  </object>
  <object id="3648" gid="16391" x="17976" y="320" width="16" height="16">
   <properties>
    <property name="bg layer" value="2"/>
    <property name="color channel" value="2"/>
    <property name="vflip" type="bool" value="true"/>
   </properties>
  </object>
  <object id="3649" gid="16391" x="18040" y="304" width="16" height="16">
   <properties>
    <property name="bg layer" value="2"/>
    <property name="color channel" value="2"/>
    <property name="vflip" type="bool" value="true"/>
   </properties>
  </object>
  <object id="3650" gid="16391" x="18120" y="352" width="16" height="16">
   <properties>
    <property name="bg layer" value="2"/>
    <property name="color channel" value="2"/>
    <property name="vflip" type="bool" value="true"/>
   </properties>
  </object>
  <object id="3651" gid="16391" x="18268" y="320" width="16" height="16">
   <properties>
    <property name="bg layer" value="2"/>
    <property name="color channel" value="2"/>
    <property name="vflip" type="bool" value="true"/>
   </properties>
  </object>
  <object id="3652" gid="16390" x="18192" y="336" width="16" height="16">
   <properties>
    <property name="bg layer" value="2"/>
    <property name="color channel" value="2"/>
    <property name="vflip" type="bool" value="true"/>
   </properties>
  </object>
  <object id="3653" gid="16391" x="18392" y="368" width="16" height="16">
   <properties>
    <property name="bg layer" value="2"/>
    <property name="color channel" value="2"/>
    <property name="vflip" type="bool" value="true"/>
   </properties>
  </object>
  <object id="3654" gid="16391" x="18456" y="352" width="16" height="16">
   <properties>
    <property name="bg layer" value="2"/>
    <property name="color channel" value="2"/>
    <property name="vflip" type="bool" value="true"/>
   </properties>
  </object>
  <object id="3655" gid="16391" x="18523" y="336" width="16" height="16">
   <properties>
    <property name="bg layer" value="2"/>
    <property name="color channel" value="2"/>
    <property name="vflip" type="bool" value="true"/>
   </properties>
  </object>
  <object id="3656" gid="16391" x="18582" y="320" width="16" height="16">
   <properties>
    <property name="bg layer" value="2"/>
    <property name="color channel" value="2"/>
    <property name="vflip" type="bool" value="true"/>
   </properties>
  </object>
  <object id="3657" gid="16389" x="16976" y="320" width="16" height="16">
   <properties>
    <property name="bg layer" value="2"/>
    <property name="color channel" value="2"/>
    <property name="enable rotation" type="bool" value="true"/>
    <property name="rotation angle" type="int" value="26"/>
    <property name="vflip" type="bool" value="true"/>
   </properties>
  </object>
  <object id="3658" gid="16391" x="17024" y="294" width="16" height="16">
   <properties>
    <property name="bg layer" value="2"/>
    <property name="color channel" value="2"/>
    <property name="enable rotation" type="bool" value="true"/>
    <property name="hflip" type="bool" value="true"/>
    <property name="rotation angle" type="int" value="-26"/>
    <property name="vflip" type="bool" value="true"/>
   </properties>
  </object>
  <object id="3660" gid="16391" x="17312" y="328" width="16" height="16">
   <properties>
    <property name="bg layer" value="2"/>
    <property name="color channel" value="2"/>
    <property name="enable rotation" type="bool" value="true"/>
    <property name="hflip" type="bool" value="true"/>
    <property name="rotation angle" type="int" value="-26"/>
    <property name="vflip" type="bool" value="true"/>
   </properties>
  </object>
  <object id="3664" gid="16391" x="17885" y="344" width="16" height="16">
   <properties>
    <property name="bg layer" value="2"/>
    <property name="color channel" value="2"/>
    <property name="enable rotation" type="bool" value="true"/>
    <property name="hflip" type="bool" value="true"/>
    <property name="rotation angle" type="int" value="-26"/>
    <property name="vflip" type="bool" value="true"/>
   </properties>
  </object>
  <object id="3667" gid="16390" x="17947" y="327" width="16" height="16">
   <properties>
    <property name="bg layer" value="2"/>
    <property name="color channel" value="2"/>
    <property name="enable rotation" type="bool" value="true"/>
    <property name="hflip" type="bool" value="true"/>
    <property name="rotation angle" type="int" value="-26"/>
    <property name="vflip" type="bool" value="true"/>
   </properties>
  </object>
  <object id="3668" gid="16390" x="18235" y="328" width="16" height="16">
   <properties>
    <property name="bg layer" value="2"/>
    <property name="color channel" value="2"/>
    <property name="enable rotation" type="bool" value="true"/>
    <property name="hflip" type="bool" value="true"/>
    <property name="rotation angle" type="int" value="-26"/>
    <property name="vflip" type="bool" value="true"/>
   </properties>
  </object>
  <object id="3673" gid="16390" x="18496" y="342" width="16" height="16">
   <properties>
    <property name="bg layer" value="2"/>
    <property name="color channel" value="2"/>
    <property name="enable rotation" type="bool" value="true"/>
    <property name="hflip" type="bool" value="true"/>
    <property name="rotation angle" type="int" value="-26"/>
    <property name="vflip" type="bool" value="true"/>
   </properties>
  </object>
  <object id="3674" gid="16390" x="18624" y="312" width="16" height="16">
   <properties>
    <property name="bg layer" value="2"/>
    <property name="color channel" value="2"/>
    <property name="enable rotation" type="bool" value="true"/>
    <property name="hflip" type="bool" value="true"/>
    <property name="rotation angle" type="int" value="-26"/>
    <property name="vflip" type="bool" value="true"/>
   </properties>
  </object>
  <object id="3665" gid="16391" x="18013" y="312" width="16" height="16">
   <properties>
    <property name="bg layer" value="2"/>
    <property name="color channel" value="2"/>
    <property name="enable rotation" type="bool" value="true"/>
    <property name="hflip" type="bool" value="true"/>
    <property name="rotation angle" type="int" value="-26"/>
    <property name="vflip" type="bool" value="true"/>
   </properties>
  </object>
  <object id="3666" gid="16391" x="18156" y="344" width="16" height="16">
   <properties>
    <property name="bg layer" value="2"/>
    <property name="color channel" value="2"/>
    <property name="enable rotation" type="bool" value="true"/>
    <property name="hflip" type="bool" value="false"/>
    <property name="rotation angle" type="int" value="26"/>
    <property name="vflip" type="bool" value="true"/>
   </properties>
  </object>
  <object id="3669" gid="16391" x="18360" y="376" width="16" height="16">
   <properties>
    <property name="bg layer" value="2"/>
    <property name="color channel" value="2"/>
    <property name="enable rotation" type="bool" value="true"/>
    <property name="hflip" type="bool" value="false"/>
    <property name="rotation angle" type="int" value="26"/>
    <property name="vflip" type="bool" value="true"/>
   </properties>
  </object>
  <object id="3670" gid="16391" x="18428" y="360" width="16" height="16">
   <properties>
    <property name="bg layer" value="2"/>
    <property name="color channel" value="2"/>
    <property name="enable rotation" type="bool" value="true"/>
    <property name="hflip" type="bool" value="false"/>
    <property name="rotation angle" type="int" value="26"/>
    <property name="vflip" type="bool" value="true"/>
   </properties>
  </object>
  <object id="3672" gid="16391" x="18550" y="331" width="16" height="16">
   <properties>
    <property name="bg layer" value="2"/>
    <property name="color channel" value="2"/>
    <property name="enable rotation" type="bool" value="true"/>
    <property name="hflip" type="bool" value="false"/>
    <property name="rotation angle" type="int" value="26"/>
    <property name="vflip" type="bool" value="true"/>
   </properties>
  </object>
  <object id="3659" gid="16389" x="17213" y="304" width="16" height="16">
   <properties>
    <property name="bg layer" value="2"/>
    <property name="color channel" value="2"/>
    <property name="enable rotation" type="bool" value="true"/>
    <property name="hflip" type="bool" value="true"/>
    <property name="rotation angle" type="int" value="-26"/>
    <property name="vflip" type="bool" value="true"/>
   </properties>
  </object>
  <object id="3661" gid="16389" x="17360" y="300" width="16" height="16">
   <properties>
    <property name="bg layer" value="2"/>
    <property name="color channel" value="2"/>
    <property name="enable rotation" type="bool" value="true"/>
    <property name="hflip" type="bool" value="true"/>
    <property name="rotation angle" type="int" value="-26"/>
    <property name="vflip" type="bool" value="true"/>
   </properties>
  </object>
  <object id="3663" gid="16389" x="17603" y="293" width="16" height="16">
   <properties>
    <property name="bg layer" value="2"/>
    <property name="color channel" value="2"/>
    <property name="enable rotation" type="bool" value="true"/>
    <property name="hflip" type="bool" value="true"/>
    <property name="rotation angle" type="int" value="-26"/>
    <property name="vflip" type="bool" value="true"/>
   </properties>
  </object>
  <object id="3662" gid="16390" x="17558" y="323" width="16" height="16">
   <properties>
    <property name="bg layer" value="2"/>
    <property name="color channel" value="2"/>
    <property name="enable rotation" type="bool" value="true"/>
    <property name="hflip" type="bool" value="true"/>
    <property name="rotation angle" type="int" value="-26"/>
    <property name="vflip" type="bool" value="true"/>
   </properties>
  </object>
  <object id="3675" gid="16390" x="17161" y="295" width="16" height="16">
   <properties>
    <property name="bg layer" value="2"/>
    <property name="color channel" value="2"/>
    <property name="enable rotation" type="bool" value="true"/>
    <property name="hflip" type="bool" value="true"/>
    <property name="rotation angle" type="int" value="45"/>
    <property name="vflip" type="bool" value="true"/>
   </properties>
  </object>
  <object id="3676" gid="16390" x="17258" y="312" width="16" height="16">
   <properties>
    <property name="bg layer" value="2"/>
    <property name="color channel" value="2"/>
    <property name="enable rotation" type="bool" value="true"/>
    <property name="hflip" type="bool" value="true"/>
    <property name="rotation angle" type="int" value="45"/>
    <property name="vflip" type="bool" value="true"/>
   </properties>
  </object>
  <object id="3677" gid="16389" x="17496" y="310" width="16" height="16">
   <properties>
    <property name="bg layer" value="2"/>
    <property name="color channel" value="2"/>
    <property name="enable rotation" type="bool" value="true"/>
    <property name="hflip" type="bool" value="true"/>
    <property name="rotation angle" type="int" value="45"/>
    <property name="vflip" type="bool" value="true"/>
   </properties>
  </object>
  <object id="3681" gid="16391" x="18291" y="336" width="16" height="16">
   <properties>
    <property name="bg layer" value="2"/>
    <property name="color channel" value="2"/>
    <property name="enable rotation" type="bool" value="true"/>
    <property name="hflip" type="bool" value="true"/>
    <property name="rotation angle" type="int" value="45"/>
    <property name="vflip" type="bool" value="true"/>
   </properties>
  </object>
  <object id="3683" gid="16389" x="18662" y="320" width="16" height="16">
   <properties>
    <property name="bg layer" value="2"/>
    <property name="color channel" value="2"/>
    <property name="enable rotation" type="bool" value="true"/>
    <property name="hflip" type="bool" value="false"/>
    <property name="rotation angle" type="int" value="-26"/>
    <property name="vflip" type="bool" value="true"/>
   </properties>
  </object>
  <object id="3682" gid="16390" x="18320" y="364" width="16" height="16">
   <properties>
    <property name="bg layer" value="2"/>
    <property name="color channel" value="2"/>
    <property name="enable rotation" type="bool" value="true"/>
    <property name="hflip" type="bool" value="true"/>
    <property name="rotation angle" type="int" value="45"/>
    <property name="vflip" type="bool" value="true"/>
   </properties>
  </object>
  <object id="3680" gid="16389" x="18070" y="326" width="16" height="16">
   <properties>
    <property name="bg layer" value="2"/>
    <property name="color channel" value="2"/>
    <property name="enable rotation" type="bool" value="true"/>
    <property name="hflip" type="bool" value="true"/>
    <property name="rotation angle" type="int" value="45"/>
    <property name="vflip" type="bool" value="true"/>
   </properties>
  </object>
  <object id="3684" gid="16389" x="20539" y="310" width="16" height="16">
   <properties>
    <property name="bg layer" value="2"/>
    <property name="color channel" value="1"/>
    <property name="enable rotation" type="bool" value="true"/>
    <property name="hflip" type="bool" value="true"/>
    <property name="rotation angle" type="int" value="45"/>
    <property name="vflip" type="bool" value="true"/>
   </properties>
  </object>
  <object id="3678" gid="16389" x="17732" y="305" width="16" height="16">
   <properties>
    <property name="bg layer" value="2"/>
    <property name="color channel" value="2"/>
    <property name="enable rotation" type="bool" value="true"/>
    <property name="hflip" type="bool" value="true"/>
    <property name="rotation angle" type="int" value="26"/>
    <property name="vflip" type="bool" value="true"/>
   </properties>
  </object>
  <object id="3679" gid="16389" x="17828" y="337" width="16" height="16">
   <properties>
    <property name="bg layer" value="2"/>
    <property name="color channel" value="2"/>
    <property name="enable rotation" type="bool" value="true"/>
    <property name="hflip" type="bool" value="true"/>
    <property name="rotation angle" type="int" value="26"/>
    <property name="vflip" type="bool" value="true"/>
   </properties>
  </object>
  <object id="3685" gid="16390" x="20592" y="348" width="16" height="16">
   <properties>
    <property name="bg layer" value="2"/>
    <property name="color channel" value="1"/>
    <property name="enable rotation" type="bool" value="true"/>
    <property name="hflip" type="bool" value="true"/>
    <property name="rotation angle" type="int" value="26"/>
    <property name="vflip" type="bool" value="true"/>
   </properties>
  </object>
  <object id="3688" gid="16390" x="20760" y="337" width="16" height="16">
   <properties>
    <property name="bg layer" value="2"/>
    <property name="color channel" value="1"/>
    <property name="enable rotation" type="bool" value="true"/>
    <property name="hflip" type="bool" value="true"/>
    <property name="rotation angle" type="int" value="-26"/>
    <property name="vflip" type="bool" value="true"/>
   </properties>
  </object>
  <object id="3686" gid="16391" x="20639" y="373" width="16" height="16">
   <properties>
    <property name="bg layer" value="2"/>
    <property name="color channel" value="1"/>
    <property name="enable rotation" type="bool" value="true"/>
    <property name="hflip" type="bool" value="true"/>
    <property name="rotation angle" type="int" value="26"/>
    <property name="vflip" type="bool" value="true"/>
   </properties>
  </object>
  <object id="3687" gid="16389" x="20704" y="365" width="16" height="16">
   <properties>
    <property name="bg layer" value="2"/>
    <property name="color channel" value="1"/>
    <property name="enable rotation" type="bool" value="true"/>
    <property name="hflip" type="bool" value="true"/>
    <property name="rotation angle" type="int" value="-26"/>
    <property name="vflip" type="bool" value="true"/>
   </properties>
  </object>
  <object id="3689" gid="16389" x="20822" y="308" width="16" height="16">
   <properties>
    <property name="bg layer" value="2"/>
    <property name="color channel" value="1"/>
    <property name="enable rotation" type="bool" value="true"/>
    <property name="hflip" type="bool" value="true"/>
    <property name="rotation angle" type="int" value="-26"/>
    <property name="vflip" type="bool" value="true"/>
   </properties>
  </object>
  <object id="3690" gid="16391" x="20872" y="288" width="16" height="16">
   <properties>
    <property name="bg layer" value="2"/>
    <property name="color channel" value="1"/>
    <property name="vflip" type="bool" value="true"/>
   </properties>
  </object>
  <object id="3691" gid="16391" x="21096" y="288" width="16" height="16">
   <properties>
    <property name="bg layer" value="2"/>
    <property name="color channel" value="1"/>
    <property name="hflip" type="bool" value="true"/>
    <property name="vflip" type="bool" value="true"/>
   </properties>
  </object>
  <object id="3692" gid="16389" x="21140" y="305" width="16" height="16">
   <properties>
    <property name="bg layer" value="2"/>
    <property name="color channel" value="1"/>
    <property name="enable rotation" type="bool" value="true"/>
    <property name="hflip" type="bool" value="true"/>
    <property name="rotation angle" type="int" value="26"/>
    <property name="vflip" type="bool" value="true"/>
   </properties>
  </object>
  <object id="3695" gid="16389" x="21330" y="319" width="16" height="16">
   <properties>
    <property name="bg layer" value="2"/>
    <property name="color channel" value="1"/>
    <property name="enable rotation" type="bool" value="true"/>
    <property name="hflip" type="bool" value="true"/>
    <property name="rotation angle" type="int" value="26"/>
    <property name="vflip" type="bool" value="true"/>
   </properties>
  </object>
  <object id="3693" gid="16391" x="21189" y="328" width="16" height="16">
   <properties>
    <property name="bg layer" value="2"/>
    <property name="color channel" value="1"/>
    <property name="enable rotation" type="bool" value="true"/>
    <property name="hflip" type="bool" value="true"/>
    <property name="rotation angle" type="int" value="26"/>
    <property name="vflip" type="bool" value="true"/>
   </properties>
  </object>
  <object id="3694" gid="16390" x="21274" y="320" width="16" height="16">
   <properties>
    <property name="bg layer" value="2"/>
    <property name="color channel" value="1"/>
    <property name="enable rotation" type="bool" value="true"/>
    <property name="hflip" type="bool" value="true"/>
    <property name="rotation angle" type="int" value="-26"/>
    <property name="vflip" type="bool" value="true"/>
   </properties>
  </object>
  <object id="3696" gid="16391" x="21422" y="326" width="16" height="16">
   <properties>
    <property name="bg layer" value="2"/>
    <property name="color channel" value="1"/>
    <property name="enable rotation" type="bool" value="true"/>
    <property name="hflip" type="bool" value="true"/>
    <property name="rotation angle" type="int" value="-26"/>
    <property name="vflip" type="bool" value="true"/>
   </properties>
  </object>
  <object id="3697" gid="16390" x="21464" y="320" width="16" height="16">
   <properties>
    <property name="bg layer" value="2"/>
    <property name="color channel" value="1"/>
    <property name="vflip" type="bool" value="true"/>
   </properties>
  </object>
  <object id="3698" gid="16391" x="21508" y="320" width="16" height="16">
   <properties>
    <property name="bg layer" value="2"/>
    <property name="color channel" value="1"/>
    <property name="vflip" type="bool" value="true"/>
   </properties>
  </object>
  <object id="3699" gid="16389" x="21536" y="275" width="16" height="16">
   <properties>
    <property name="bg layer" value="2"/>
    <property name="color channel" value="1"/>
    <property name="enable rotation" type="bool" value="true"/>
    <property name="rotation angle" type="int" value="90"/>
   </properties>
  </object>
  <object id="3700" gid="16392" x="21632" y="320" width="16" height="16">
   <properties>
    <property name="color channel" value="2"/>
    <property name="enable rotation" type="bool" value="true"/>
    <property name="rotation angle" type="int" value="-90"/>
   </properties>
  </object>
  <object id="3701" gid="16391" x="20506" y="304" width="16" height="16">
   <properties>
    <property name="bg layer" value="1"/>
    <property name="color channel" value="1"/>
    <property name="vflip" type="bool" value="true"/>
   </properties>
  </object>
  <object id="3702" gid="16389" x="20517" y="414" width="16" height="16">
   <properties>
    <property name="bg layer" value="2"/>
    <property name="color channel" value="2"/>
    <property name="enable rotation" type="bool" value="true"/>
    <property name="rotation angle" type="int" value="-45"/>
   </properties>
  </object>
  <object id="3706" gid="16389" x="20704" y="416" width="16" height="16">
   <properties>
    <property name="bg layer" value="2"/>
    <property name="color channel" value="2"/>
    <property name="enable rotation" type="bool" value="true"/>
    <property name="rotation angle" type="int" value="-26"/>
   </properties>
  </object>
  <object id="3709" gid="16389" x="20832" y="352" width="16" height="16">
   <properties>
    <property name="bg layer" value="2"/>
    <property name="color channel" value="2"/>
    <property name="enable rotation" type="bool" value="true"/>
    <property name="rotation angle" type="int" value="-26"/>
   </properties>
  </object>
  <object id="3712" gid="16389" x="20946" y="403" width="16" height="16">
   <properties>
    <property name="bg layer" value="2"/>
    <property name="color channel" value="2"/>
    <property name="enable rotation" type="bool" value="true"/>
    <property name="rotation angle" type="int" value="45"/>
   </properties>
  </object>
  <object id="3714" gid="16389" x="21059" y="366" width="16" height="16">
   <properties>
    <property name="bg layer" value="2"/>
    <property name="color channel" value="2"/>
    <property name="enable rotation" type="bool" value="true"/>
    <property name="rotation angle" type="int" value="-45"/>
   </properties>
  </object>
  <object id="3718" gid="16389" x="21251" y="382" width="16" height="16">
   <properties>
    <property name="bg layer" value="2"/>
    <property name="color channel" value="2"/>
    <property name="enable rotation" type="bool" value="true"/>
    <property name="hflip" type="bool" value="true"/>
    <property name="rotation angle" type="int" value="26"/>
   </properties>
  </object>
  <object id="3720" gid="16389" x="21408" y="384" width="16" height="16">
   <properties>
    <property name="bg layer" value="2"/>
    <property name="color channel" value="2"/>
    <property name="enable rotation" type="bool" value="true"/>
    <property name="hflip" type="bool" value="true"/>
    <property name="rotation angle" type="int" value="26"/>
   </properties>
  </object>
  <object id="3703" gid="16390" x="20587" y="398" width="16" height="16">
   <properties>
    <property name="bg layer" value="2"/>
    <property name="color channel" value="2"/>
    <property name="enable rotation" type="bool" value="true"/>
    <property name="rotation angle" type="int" value="26"/>
   </properties>
  </object>
  <object id="3704" gid="16390" x="20627" y="418" width="16" height="16">
   <properties>
    <property name="bg layer" value="2"/>
    <property name="color channel" value="2"/>
    <property name="enable rotation" type="bool" value="true"/>
    <property name="rotation angle" type="int" value="26"/>
   </properties>
  </object>
  <object id="3705" gid="16391" x="20664" y="432" width="16" height="16">
   <properties>
    <property name="bg layer" value="2"/>
    <property name="color channel" value="2"/>
   </properties>
  </object>
  <object id="3710" gid="16391" x="20984" y="432" width="16" height="16">
   <properties>
    <property name="bg layer" value="2"/>
    <property name="color channel" value="2"/>
   </properties>
  </object>
  <object id="3707" gid="16391" x="20752" y="394" width="16" height="16">
   <properties>
    <property name="bg layer" value="2"/>
    <property name="color channel" value="2"/>
    <property name="enable rotation" type="bool" value="true"/>
    <property name="rotation angle" type="int" value="-26"/>
   </properties>
  </object>
  <object id="3708" gid="16391" x="20786" y="377" width="16" height="16">
   <properties>
    <property name="bg layer" value="2"/>
    <property name="color channel" value="2"/>
    <property name="enable rotation" type="bool" value="true"/>
    <property name="rotation angle" type="int" value="-26"/>
   </properties>
  </object>
  <object id="3716" gid="16390" x="21168" y="368" width="16" height="16">
   <properties>
    <property name="bg layer" value="2"/>
    <property name="color channel" value="2"/>
    <property name="enable rotation" type="bool" value="true"/>
    <property name="rotation angle" type="int" value="26"/>
   </properties>
  </object>
  <object id="3719" gid="16390" x="21355" y="383" width="16" height="16">
   <properties>
    <property name="bg layer" value="2"/>
    <property name="color channel" value="2"/>
    <property name="enable rotation" type="bool" value="true"/>
    <property name="rotation angle" type="int" value="26"/>
   </properties>
  </object>
  <object id="3715" gid="16391" x="21120" y="346" width="16" height="16">
   <properties>
    <property name="bg layer" value="2"/>
    <property name="color channel" value="2"/>
    <property name="enable rotation" type="bool" value="true"/>
    <property name="rotation angle" type="int" value="26"/>
   </properties>
  </object>
  <object id="3717" gid="16391" x="21208" y="389" width="16" height="16">
   <properties>
    <property name="bg layer" value="2"/>
    <property name="color channel" value="2"/>
    <property name="enable rotation" type="bool" value="true"/>
    <property name="rotation angle" type="int" value="26"/>
   </properties>
  </object>
  <object id="3711" gid="16390" x="20900" y="357" width="16" height="16">
   <properties>
    <property name="bg layer" value="2"/>
    <property name="color channel" value="2"/>
    <property name="enable rotation" type="bool" value="true"/>
    <property name="rotation angle" type="int" value="45"/>
   </properties>
  </object>
  <object id="3713" gid="16390" x="21016" y="411" width="16" height="16">
   <properties>
    <property name="bg layer" value="2"/>
    <property name="color channel" value="2"/>
    <property name="enable rotation" type="bool" value="true"/>
    <property name="rotation angle" type="int" value="-45"/>
   </properties>
  </object>
  <object id="3721" gid="16389" x="18784" y="336" width="16" height="16">
   <properties>
    <property name="bg layer" value="2"/>
    <property name="color channel" value="1"/>
    <property name="enable rotation" type="bool" value="true"/>
    <property name="rotation angle" type="int" value="-26"/>
   </properties>
  </object>
  <object id="3724" gid="16389" x="18784" y="380" width="16" height="16">
   <properties>
    <property name="bg layer" value="2"/>
    <property name="color channel" value="1"/>
    <property name="enable rotation" type="bool" value="true"/>
    <property name="hflip" type="bool" value="true"/>
    <property name="rotation angle" type="int" value="26"/>
    <property name="vflip" type="bool" value="true"/>
   </properties>
  </object>
  <object id="3722" gid="16391" x="18840" y="320" width="16" height="16">
   <properties>
    <property name="bg layer" value="2"/>
    <property name="color channel" value="1"/>
   </properties>
  </object>
  <object id="3725" gid="16391" x="18840" y="400" width="16" height="16">
   <properties>
    <property name="bg layer" value="2"/>
    <property name="color channel" value="1"/>
    <property name="hflip" type="bool" value="true"/>
    <property name="vflip" type="bool" value="true"/>
   </properties>
  </object>
  <object id="3723" gid="16390" x="18896" y="336" width="16" height="16">
   <properties>
    <property name="bg layer" value="2"/>
    <property name="color channel" value="1"/>
    <property name="enable rotation" type="bool" value="true"/>
    <property name="rotation angle" type="int" value="26"/>
   </properties>
  </object>
  <object id="3726" gid="16390" x="18892" y="384" width="16" height="16">
   <properties>
    <property name="bg layer" value="2"/>
    <property name="color channel" value="1"/>
    <property name="enable rotation" type="bool" value="true"/>
    <property name="hflip" type="bool" value="true"/>
    <property name="rotation angle" type="int" value="-26"/>
    <property name="vflip" type="bool" value="true"/>
   </properties>
  </object>
  <object id="3727" gid="16390" x="18922" y="430" width="16" height="16">
   <properties>
    <property name="bg layer" value="2"/>
    <property name="color channel" value="2"/>
    <property name="enable rotation" type="bool" value="true"/>
    <property name="rotation angle" type="int" value="-26"/>
   </properties>
  </object>
  <object id="3735" gid="16390" x="19210" y="430" width="16" height="16">
   <properties>
    <property name="bg layer" value="2"/>
    <property name="color channel" value="2"/>
    <property name="enable rotation" type="bool" value="true"/>
    <property name="rotation angle" type="int" value="-26"/>
   </properties>
  </object>
  <object id="3741" gid="16390" x="19530" y="430" width="16" height="16">
   <properties>
    <property name="bg layer" value="2"/>
    <property name="color channel" value="2"/>
    <property name="enable rotation" type="bool" value="true"/>
    <property name="rotation angle" type="int" value="-26"/>
   </properties>
  </object>
  <object id="3728" gid="16389" x="18976" y="400" width="16" height="16">
   <properties>
    <property name="bg layer" value="2"/>
    <property name="color channel" value="2"/>
    <property name="enable rotation" type="bool" value="true"/>
    <property name="rotation angle" type="int" value="-26"/>
   </properties>
  </object>
  <object id="3736" gid="16389" x="19264" y="400" width="16" height="16">
   <properties>
    <property name="bg layer" value="2"/>
    <property name="color channel" value="2"/>
    <property name="enable rotation" type="bool" value="true"/>
    <property name="rotation angle" type="int" value="-26"/>
   </properties>
  </object>
  <object id="3742" gid="16389" x="19584" y="400" width="16" height="16">
   <properties>
    <property name="bg layer" value="2"/>
    <property name="color channel" value="2"/>
    <property name="enable rotation" type="bool" value="true"/>
    <property name="rotation angle" type="int" value="-26"/>
   </properties>
  </object>
  <object id="3730" gid="16389" x="19088" y="416" width="16" height="16">
   <properties>
    <property name="bg layer" value="2"/>
    <property name="color channel" value="2"/>
    <property name="enable rotation" type="bool" value="true"/>
    <property name="hflip" type="bool" value="true"/>
    <property name="rotation angle" type="int" value="-26"/>
   </properties>
  </object>
  <object id="3737" gid="16389" x="19408" y="416" width="16" height="16">
   <properties>
    <property name="bg layer" value="2"/>
    <property name="color channel" value="2"/>
    <property name="enable rotation" type="bool" value="true"/>
    <property name="hflip" type="bool" value="true"/>
    <property name="rotation angle" type="int" value="-26"/>
   </properties>
  </object>
  <object id="3729" gid="16391" x="19038" y="394" width="16" height="16">
   <properties>
    <property name="bg layer" value="2"/>
    <property name="color channel" value="2"/>
    <property name="enable rotation" type="bool" value="true"/>
    <property name="rotation angle" type="int" value="26"/>
   </properties>
  </object>
  <object id="3738" gid="16391" x="19358" y="394" width="16" height="16">
   <properties>
    <property name="bg layer" value="2"/>
    <property name="color channel" value="2"/>
    <property name="enable rotation" type="bool" value="true"/>
    <property name="rotation angle" type="int" value="26"/>
   </properties>
  </object>
  <object id="3731" gid="16390" x="19136" y="432" width="16" height="16">
   <properties>
    <property name="bg layer" value="2"/>
    <property name="color channel" value="2"/>
   </properties>
  </object>
  <object id="3734" gid="16390" x="19456" y="432" width="16" height="16">
   <properties>
    <property name="bg layer" value="2"/>
    <property name="color channel" value="2"/>
   </properties>
  </object>
  <object id="3732" gid="16391" x="19184" y="432" width="16" height="16">
   <properties>
    <property name="bg layer" value="2"/>
    <property name="color channel" value="2"/>
   </properties>
  </object>
  <object id="3733" gid="16391" x="19504" y="432" width="16" height="16">
   <properties>
    <property name="bg layer" value="2"/>
    <property name="color channel" value="2"/>
   </properties>
  </object>
  <object id="3739" gid="16391" x="19318" y="336" width="16" height="16">
   <properties>
    <property name="bg layer" value="2"/>
    <property name="color channel" value="2"/>
    <property name="vflip" type="bool" value="true"/>
   </properties>
  </object>
  <object id="3740" gid="16391" x="19320" y="384" width="16" height="16">
   <properties>
    <property name="bg layer" value="2"/>
    <property name="color channel" value="2"/>
   </properties>
  </object>
  <object id="3743" gid="16390" x="18922" y="290" width="16" height="16">
   <properties>
    <property name="bg layer" value="2"/>
    <property name="color channel" value="2"/>
    <property name="rotation angle" type="int" value="-26"/>
    <property name="vflip" type="bool" value="true"/>
   </properties>
  </object>
  <object id="3775" gid="16390" x="19210" y="290" width="16" height="16">
   <properties>
    <property name="bg layer" value="2"/>
    <property name="color channel" value="2"/>
    <property name="rotation angle" type="int" value="-26"/>
    <property name="vflip" type="bool" value="true"/>
   </properties>
  </object>
  <object id="3781" gid="16390" x="19530" y="290" width="16" height="16">
   <properties>
    <property name="bg layer" value="2"/>
    <property name="color channel" value="2"/>
    <property name="rotation angle" type="int" value="-26"/>
    <property name="vflip" type="bool" value="true"/>
   </properties>
  </object>
  <object id="3744" gid="16389" x="18976" y="320" width="16" height="16">
   <properties>
    <property name="bg layer" value="2"/>
    <property name="color channel" value="2"/>
    <property name="enable rotation" type="bool" value="true"/>
    <property name="rotation angle" type="int" value="-26"/>
    <property name="vflip" type="bool" value="true"/>
   </properties>
  </object>
  <object id="3774" gid="16389" x="19264" y="320" width="16" height="16">
   <properties>
    <property name="bg layer" value="2"/>
    <property name="color channel" value="2"/>
    <property name="enable rotation" type="bool" value="true"/>
    <property name="rotation angle" type="int" value="-26"/>
    <property name="vflip" type="bool" value="true"/>
   </properties>
  </object>
  <object id="3780" gid="16389" x="19584" y="320" width="16" height="16">
   <properties>
    <property name="bg layer" value="2"/>
    <property name="color channel" value="2"/>
    <property name="enable rotation" type="bool" value="true"/>
    <property name="rotation angle" type="int" value="-26"/>
    <property name="vflip" type="bool" value="true"/>
   </properties>
  </object>
  <object id="3746" gid="16389" x="19088" y="304" width="16" height="16">
   <properties>
    <property name="bg layer" value="2"/>
    <property name="color channel" value="2"/>
    <property name="enable rotation" type="bool" value="true"/>
    <property name="hflip" type="bool" value="true"/>
    <property name="rotation angle" type="int" value="-26"/>
    <property name="vflip" type="bool" value="true"/>
   </properties>
  </object>
  <object id="3777" gid="16389" x="19408" y="304" width="16" height="16">
   <properties>
    <property name="bg layer" value="2"/>
    <property name="color channel" value="2"/>
    <property name="enable rotation" type="bool" value="true"/>
    <property name="hflip" type="bool" value="true"/>
    <property name="rotation angle" type="int" value="-26"/>
    <property name="vflip" type="bool" value="true"/>
   </properties>
  </object>
  <object id="3745" gid="16391" x="19038" y="326" width="16" height="16">
   <properties>
    <property name="bg layer" value="2"/>
    <property name="color channel" value="2"/>
    <property name="enable rotation" type="bool" value="true"/>
    <property name="rotation angle" type="int" value="26"/>
    <property name="vflip" type="bool" value="true"/>
   </properties>
  </object>
  <object id="3776" gid="16391" x="19358" y="326" width="16" height="16">
   <properties>
    <property name="bg layer" value="2"/>
    <property name="color channel" value="2"/>
    <property name="enable rotation" type="bool" value="true"/>
    <property name="rotation angle" type="int" value="26"/>
    <property name="vflip" type="bool" value="true"/>
   </properties>
  </object>
  <object id="3747" gid="16391" x="19125" y="288" width="16" height="16">
   <properties>
    <property name="bg layer" value="2"/>
    <property name="color channel" value="2"/>
    <property name="vflip" type="bool" value="true"/>
   </properties>
  </object>
  <object id="3779" gid="16391" x="19446" y="288" width="16" height="16">
   <properties>
    <property name="bg layer" value="2"/>
    <property name="color channel" value="2"/>
    <property name="vflip" type="bool" value="true"/>
   </properties>
  </object>
  <object id="3748" gid="16389" x="19176" y="288" width="16" height="16">
   <properties>
    <property name="bg layer" value="2"/>
    <property name="color channel" value="2"/>
    <property name="enable rotation" type="bool" value="false"/>
    <property name="vflip" type="bool" value="true"/>
   </properties>
  </object>
  <object id="3778" gid="16389" x="19497" y="288" width="16" height="16">
   <properties>
    <property name="bg layer" value="2"/>
    <property name="color channel" value="2"/>
    <property name="enable rotation" type="bool" value="false"/>
    <property name="vflip" type="bool" value="true"/>
   </properties>
  </object>
  <object id="3766" gid="16501" x="20208" y="384" width="16" height="16">
   <properties>
    <property name="bg layer" value="1"/>
    <property name="color channel" value="2"/>
    <property name="z index" type="int" value="15"/>
   </properties>
  </object>
  <object id="3773" gid="16501" x="20144" y="416" width="16" height="16">
   <properties>
    <property name="bg layer" value="1"/>
    <property name="color channel" value="2"/>
    <property name="z index" type="int" value="15"/>
   </properties>
  </object>
  <object id="3769" gid="16501" x="20208" y="352" width="16" height="16">
   <properties>
    <property name="bg layer" value="1"/>
    <property name="color channel" value="1"/>
    <property name="z index" type="int" value="15"/>
   </properties>
  </object>
  <object id="3771" gid="16501" x="20144" y="320" width="16" height="16">
   <properties>
    <property name="bg layer" value="1"/>
    <property name="color channel" value="1"/>
    <property name="z index" type="int" value="15"/>
   </properties>
  </object>
  <object id="3767" gid="16433" x="20208" y="384" width="16" height="16">
   <properties>
    <property name="bg layer" value="1"/>
    <property name="color channel" value="2"/>
    <property name="z index" type="int" value="10"/>
   </properties>
  </object>
  <object id="3772" gid="16433" x="20144" y="416" width="16" height="16">
   <properties>
    <property name="bg layer" value="1"/>
    <property name="color channel" value="2"/>
    <property name="z index" type="int" value="10"/>
   </properties>
  </object>
  <object id="3768" gid="16433" x="20208" y="352" width="16" height="16">
   <properties>
    <property name="bg layer" value="1"/>
    <property name="color channel" value="1"/>
    <property name="z index" type="int" value="10"/>
   </properties>
  </object>
  <object id="3770" gid="16433" x="20144" y="320" width="16" height="16">
   <properties>
    <property name="bg layer" value="1"/>
    <property name="color channel" value="1"/>
    <property name="z index" type="int" value="10"/>
   </properties>
  </object>
  <object id="3782" gid="16391" x="19773" y="432" width="16" height="16">
   <properties>
    <property name="bg layer" value="1"/>
    <property name="color channel" value="2"/>
   </properties>
  </object>
  <object id="3789" gid="16391" x="19773" y="304" width="16" height="16">
   <properties>
    <property name="bg layer" value="1"/>
    <property name="color channel" value="1"/>
    <property name="vflip" type="bool" value="true"/>
   </properties>
  </object>
  <object id="3783" gid="16390" x="19824" y="432" width="16" height="16">
   <properties>
    <property name="bg layer" value="1"/>
    <property name="color channel" value="2"/>
   </properties>
  </object>
  <object id="3788" gid="16390" x="19824" y="304" width="16" height="16">
   <properties>
    <property name="bg layer" value="1"/>
    <property name="color channel" value="1"/>
    <property name="vflip" type="bool" value="true"/>
   </properties>
  </object>
  <object id="3784" gid="16389" x="19904" y="432" width="16" height="16">
   <properties>
    <property name="bg layer" value="1"/>
    <property name="color channel" value="2"/>
   </properties>
  </object>
  <object id="3787" gid="16389" x="19904" y="304" width="16" height="16">
   <properties>
    <property name="bg layer" value="1"/>
    <property name="color channel" value="1"/>
    <property name="vflip" type="bool" value="true"/>
   </properties>
  </object>
  <object id="3785" gid="16390" x="20024" y="432" width="16" height="16">
   <properties>
    <property name="bg layer" value="1"/>
    <property name="color channel" value="2"/>
   </properties>
  </object>
  <object id="3786" gid="16390" x="20024" y="304" width="16" height="16">
   <properties>
    <property name="bg layer" value="1"/>
    <property name="color channel" value="1"/>
    <property name="vflip" type="bool" value="true"/>
   </properties>
  </object>
  <object id="3790" gid="16391" x="20128" y="432" width="16" height="16">
   <properties>
    <property name="bg layer" value="1"/>
    <property name="color channel" value="2"/>
   </properties>
  </object>
  <object id="3791" gid="16389" x="20192" y="432" width="16" height="16">
   <properties>
    <property name="bg layer" value="1"/>
    <property name="color channel" value="2"/>
   </properties>
  </object>
  <object id="3792" gid="16390" x="20256" y="432" width="16" height="16">
   <properties>
    <property name="bg layer" value="1"/>
    <property name="color channel" value="2"/>
   </properties>
  </object>
  <object id="3793" gid="16389" x="20320" y="432" width="16" height="16">
   <properties>
    <property name="bg layer" value="1"/>
    <property name="color channel" value="2"/>
   </properties>
  </object>
  <object id="3794" gid="16390" x="20376" y="432" width="16" height="16">
   <properties>
    <property name="bg layer" value="1"/>
    <property name="color channel" value="2"/>
   </properties>
  </object>
  <object id="3795" gid="16389" x="20432" y="432" width="16" height="16">
   <properties>
    <property name="bg layer" value="1"/>
    <property name="color channel" value="2"/>
   </properties>
  </object>
  <object id="3796" gid="16389" x="20138" y="304" width="16" height="16">
   <properties>
    <property name="bg layer" value="1"/>
    <property name="color channel" value="1"/>
    <property name="vflip" type="bool" value="true"/>
   </properties>
  </object>
  <object id="3797" gid="16391" x="20192" y="304" width="16" height="16">
   <properties>
    <property name="bg layer" value="1"/>
    <property name="color channel" value="1"/>
    <property name="vflip" type="bool" value="true"/>
   </properties>
  </object>
  <object id="3798" gid="16390" x="20241" y="304" width="16" height="16">
   <properties>
    <property name="bg layer" value="1"/>
    <property name="color channel" value="1"/>
    <property name="vflip" type="bool" value="true"/>
   </properties>
  </object>
  <object id="3799" gid="16389" x="20304" y="304" width="16" height="16">
   <properties>
    <property name="bg layer" value="1"/>
    <property name="color channel" value="1"/>
    <property name="vflip" type="bool" value="true"/>
   </properties>
  </object>
  <object id="3800" gid="16389" x="20380" y="304" width="16" height="16">
   <properties>
    <property name="bg layer" value="1"/>
    <property name="color channel" value="1"/>
    <property name="vflip" type="bool" value="true"/>
   </properties>
  </object>
  <object id="3801" gid="16390" x="20445" y="304" width="16" height="16">
   <properties>
    <property name="bg layer" value="1"/>
    <property name="color channel" value="1"/>
    <property name="vflip" type="bool" value="true"/>
   </properties>
  </object>
  <object id="3802" gid="16392" x="21664" y="368" width="16" height="16">
   <properties>
    <property name="bg layer" value="-1"/>
    <property name="color channel" value="2"/>
    <property name="vflip" type="bool" value="true"/>
   </properties>
  </object>
  <object id="3803" gid="16392" x="21872" y="368" width="16" height="16">
   <properties>
    <property name="color channel" value="2"/>
    <property name="vflip" type="bool" value="true"/>
   </properties>
  </object>
  <object id="3804" gid="16392" x="21872" y="304" width="16" height="16">
   <properties>
    <property name="color channel" value="2"/>
   </properties>
  </object>
  <object id="3805" gid="16391" x="21648" y="346" width="16" height="16">
   <properties>
    <property name="color channel" value="2"/>
    <property name="enable rotation" type="bool" value="true"/>
    <property name="rotation angle" type="int" value="-90"/>
   </properties>
  </object>
  <object id="3806" gid="16391" x="21680" y="345" width="16" height="16">
   <properties>
    <property name="color channel" value="2"/>
    <property name="enable rotation" type="bool" value="true"/>
    <property name="rotation angle" type="int" value="-90"/>
   </properties>
  </object>
  <object id="3807" gid="16392" x="21680" y="345" width="16" height="16">
   <properties>
    <property name="color channel" value="2"/>
    <property name="enable rotation" type="bool" value="true"/>
    <property name="hflip" type="bool" value="true"/>
    <property name="rotation angle" type="int" value="-90"/>
   </properties>
  </object>
  <object id="3808" gid="16391" x="21856" y="336" width="16" height="16">
   <properties>
    <property name="color channel" value="2"/>
    <property name="enable rotation" type="bool" value="true"/>
    <property name="rotation angle" type="int" value="90"/>
   </properties>
  </object>
  <object id="3809" gid="16390" x="21856" y="336" width="16" height="16">
   <properties>
    <property name="color channel" value="2"/>
    <property name="enable rotation" type="bool" value="true"/>
    <property name="rotation angle" type="int" value="-90"/>
   </properties>
  </object>
  <object id="3810" gid="16390" x="21888" y="336" width="16" height="16">
   <properties>
    <property name="color channel" value="2"/>
    <property name="enable rotation" type="bool" value="true"/>
    <property name="hflip" type="bool" value="false"/>
    <property name="rotation angle" type="int" value="-90"/>
   </properties>
  </object>
  <object id="3811" gid="16391" x="21888" y="336" width="16" height="16">
   <properties>
    <property name="color channel" value="2"/>
    <property name="enable rotation" type="bool" value="true"/>
    <property name="hflip" type="bool" value="false"/>
    <property name="rotation angle" type="int" value="90"/>
   </properties>
  </object>
  <object id="3812" gid="16390" x="22176" y="336" width="16" height="16">
   <properties>
    <property name="color channel" value="2"/>
    <property name="enable rotation" type="bool" value="true"/>
    <property name="rotation angle" type="int" value="90"/>
   </properties>
  </object>
  <object id="3813" gid="16389" x="21675" y="304" width="16" height="16">
   <properties>
    <property name="color channel" value="2"/>
   </properties>
  </object>
  <object id="3814" gid="16391" x="21726" y="304" width="16" height="16">
   <properties>
    <property name="color channel" value="2"/>
   </properties>
  </object>
  <object id="3815" gid="16390" x="21772" y="304" width="16" height="16">
   <properties>
    <property name="color channel" value="2"/>
   </properties>
  </object>
  <object id="3816" gid="16391" x="21832" y="304" width="16" height="16">
   <properties>
    <property name="color channel" value="2"/>
   </properties>
  </object>
  <object id="3817" gid="16391" x="21916" y="304" width="16" height="16">
   <properties>
    <property name="color channel" value="2"/>
   </properties>
  </object>
  <object id="3818" gid="16389" x="21968" y="304" width="16" height="16">
   <properties>
    <property name="color channel" value="2"/>
   </properties>
  </object>
  <object id="3819" gid="16390" x="22029" y="304" width="16" height="16">
   <properties>
    <property name="color channel" value="2"/>
   </properties>
  </object>
  <object id="3820" gid="16391" x="22091" y="304" width="16" height="16">
   <properties>
    <property name="color channel" value="2"/>
   </properties>
  </object>
  <object id="3821" gid="16389" x="22134" y="304" width="16" height="16">
   <properties>
    <property name="color channel" value="2"/>
   </properties>
  </object>
  <object id="3822" gid="16389" x="21720" y="368" width="16" height="16">
   <properties>
    <property name="color channel" value="2"/>
    <property name="vflip" type="bool" value="true"/>
   </properties>
  </object>
  <object id="3823" gid="16391" x="21768" y="368" width="16" height="16">
   <properties>
    <property name="color channel" value="2"/>
    <property name="vflip" type="bool" value="true"/>
   </properties>
  </object>
  <object id="3824" gid="16389" x="21816" y="368" width="16" height="16">
   <properties>
    <property name="color channel" value="2"/>
    <property name="vflip" type="bool" value="true"/>
   </properties>
  </object>
  <object id="3825" gid="16391" x="21915" y="368" width="16" height="16">
   <properties>
    <property name="color channel" value="2"/>
    <property name="vflip" type="bool" value="true"/>
   </properties>
  </object>
  <object id="3826" gid="16389" x="21968" y="368" width="16" height="16">
   <properties>
    <property name="color channel" value="2"/>
    <property name="vflip" type="bool" value="true"/>
   </properties>
  </object>
  <object id="3827" gid="16391" x="22024" y="368" width="16" height="16">
   <properties>
    <property name="color channel" value="2"/>
    <property name="vflip" type="bool" value="true"/>
   </properties>
  </object>
  <object id="3829" gid="16389" x="22080" y="368" width="16" height="16">
   <properties>
    <property name="color channel" value="2"/>
    <property name="vflip" type="bool" value="true"/>
   </properties>
  </object>
  <object id="3830" gid="16390" x="22144" y="368" width="16" height="16">
   <properties>
    <property name="color channel" value="2"/>
    <property name="vflip" type="bool" value="true"/>
   </properties>
  </object>
  <object id="3831" gid="16390" x="19128" y="342" width="16" height="16">
   <properties>
    <property name="bg layer" value="2"/>
    <property name="color channel" value="1"/>
    <property name="enable rotation" type="bool" value="true"/>
    <property name="rotation angle" type="int" value="-26"/>
   </properties>
  </object>
  <object id="3841" gid="16390" x="19448" y="342" width="16" height="16">
   <properties>
    <property name="bg layer" value="2"/>
    <property name="color channel" value="1"/>
    <property name="enable rotation" type="bool" value="true"/>
    <property name="rotation angle" type="int" value="-26"/>
   </properties>
  </object>
  <object id="3836" gid="16390" x="19190" y="378" width="16" height="16">
   <properties>
    <property name="bg layer" value="2"/>
    <property name="color channel" value="1"/>
    <property name="enable rotation" type="bool" value="true"/>
    <property name="hflip" type="bool" value="true"/>
    <property name="rotation angle" type="int" value="-26"/>
    <property name="vflip" type="bool" value="true"/>
   </properties>
  </object>
  <object id="3838" gid="16390" x="19510" y="378" width="16" height="16">
   <properties>
    <property name="bg layer" value="2"/>
    <property name="color channel" value="1"/>
    <property name="enable rotation" type="bool" value="true"/>
    <property name="hflip" type="bool" value="true"/>
    <property name="rotation angle" type="int" value="-26"/>
    <property name="vflip" type="bool" value="true"/>
   </properties>
  </object>
  <object id="3832" gid="16391" x="19160" y="336" width="16" height="16">
   <properties>
    <property name="color channel" value="1"/>
   </properties>
  </object>
  <object id="3842" gid="16391" x="19480" y="336" width="16" height="16">
   <properties>
    <property name="color channel" value="1"/>
   </properties>
  </object>
  <object id="3833" gid="16391" x="19160" y="384" width="16" height="16">
   <properties>
    <property name="color channel" value="1"/>
    <property name="hflip" type="bool" value="true"/>
    <property name="vflip" type="bool" value="true"/>
   </properties>
  </object>
  <object id="3837" gid="16391" x="19480" y="384" width="16" height="16">
   <properties>
    <property name="color channel" value="1"/>
    <property name="hflip" type="bool" value="true"/>
    <property name="vflip" type="bool" value="true"/>
   </properties>
  </object>
  <object id="3834" gid="16391" x="19195" y="343" width="16" height="16">
   <properties>
    <property name="color channel" value="1"/>
    <property name="enable rotation" type="bool" value="true"/>
    <property name="rotation angle" type="int" value="26"/>
   </properties>
  </object>
  <object id="3840" gid="16391" x="19515" y="343" width="16" height="16">
   <properties>
    <property name="color channel" value="1"/>
    <property name="enable rotation" type="bool" value="true"/>
    <property name="rotation angle" type="int" value="26"/>
   </properties>
  </object>
  <object id="3835" gid="16391" x="19126" y="377" width="16" height="16">
   <properties>
    <property name="color channel" value="1"/>
    <property name="enable rotation" type="bool" value="true"/>
    <property name="hflip" type="bool" value="true"/>
    <property name="rotation angle" type="int" value="26"/>
    <property name="vflip" type="bool" value="true"/>
   </properties>
  </object>
  <object id="3839" gid="16391" x="19446" y="377" width="16" height="16">
   <properties>
    <property name="color channel" value="1"/>
    <property name="enable rotation" type="bool" value="true"/>
    <property name="hflip" type="bool" value="true"/>
    <property name="rotation angle" type="int" value="26"/>
    <property name="vflip" type="bool" value="true"/>
   </properties>
  </object>
  <object id="3843" gid="16392" x="1088" y="352" width="16" height="16">
   <properties>
    <property name="bg layer" value="2"/>
    <property name="color channel" value="2"/>
   </properties>
  </object>
  <object id="3844" gid="8046" x="224" y="371" width="16" height="16">
   <properties>
    <property name="bg layer" value="0"/>
   </properties>
  </object>
  <object id="3845" gid="8033" x="216" y="387" width="16" height="16">
   <properties>
    <property name="bg layer" value="0"/>
   </properties>
  </object>
  <object id="3846" gid="8035" x="240" y="355" width="16" height="16">
   <properties>
    <property name="bg layer" value="0"/>
   </properties>
  </object>
  <object id="3847" gid="8038" x="256" y="355" width="16" height="16">
   <properties>
    <property name="bg layer" value="0"/>
   </properties>
  </object>
  <object id="3848" gid="8043" x="272" y="371" width="16" height="16">
   <properties>
    <property name="bg layer" value="0"/>
   </properties>
  </object>
  <object id="3849" gid="8040" x="280" y="387" width="16" height="16">
   <properties>
    <property name="bg layer" value="0"/>
   </properties>
  </object>
  <object id="3851" gid="8046" x="240" y="339" width="16" height="16">
   <properties>
    <property name="bg layer" value="0"/>
   </properties>
  </object>
  <object id="3852" gid="8043" x="256" y="339" width="16" height="16">
   <properties>
    <property name="bg layer" value="0"/>
   </properties>
  </object>
  <object id="3855" gid="5972" x="269" y="384" width="16" height="16">
   <properties>
    <property name="bg layer" value="0"/>
   </properties>
  </object>
  <object id="3856" gid="5972" x="227" y="384" width="16" height="16">
   <properties>
    <property name="bg layer" value="0"/>
   </properties>
  </object>
 </objectgroup>
</map>
