<?xml version="1.0" encoding="UTF-8"?>
<map version="1.10" tiledversion="1.11.2" orientation="orthogonal" renderorder="right-down" width="176" height="27" tilewidth="16" tileheight="16" infinite="0" nextlayerid="8" nextobjectid="655">
 <editorsettings>
  <export target="sml13.json" format="json"/>
 </editorsettings>
 <properties>
  <property name="BG" type="color" value="#ff000000"/>
  <property name="Background Type" type="int" value="1"/>
  <property name="COL1" type="color" value="#ff000000"/>
  <property name="COL2" type="color" value="#ff000000"/>
  <property name="COL3" type="color" value="#ff000000"/>
  <property name="COL4" type="color" value="#ff000000"/>
  <property name="Difficulty" value="NA"/>
  <property name="GROUND" type="color" value="#ff000000"/>
  <property name="Gamemode" type="int" value="0"/>
  <property name="Ground Type" type="int" value="8"/>
  <property name="Level name" value="WORLD 1.3"/>
  <property name="OBJ" type="color" value="#ff000000"/>
  <property name="Song" value="STEREOMA"/>
  <property name="Speed" type="int" value="0"/>
  <property name="Stars" type="int" value="0"/>
 </properties>
 <tileset firstgid="1" source="famidash.tsx"/>
 <tileset firstgid="16385" source="sprites.tsx"/>
 <layer id="4" name="l2" width="176" height="27">
  <data encoding="csv">
718,718,718,718,718,718,718,718,718,718,718,718,718,718,718,718,718,718,718,718,718,718,718,718,718,718,718,718,718,718,718,718,718,718,718,718,718,718,718,718,718,718,718,718,718,718,718,718,718,718,718,718,718,718,718,718,718,718,718,718,718,718,718,718,718,718,718,718,718,718,718,718,718,718,718,718,718,718,718,718,718,718,718,718,718,718,718,718,718,718,718,718,718,718,718,718,718,718,718,718,718,718,718,718,718,718,718,718,718,718,718,718,718,718,718,718,718,718,718,718,718,718,718,718,718,718,718,718,718,718,718,718,718,718,718,718,718,718,718,718,718,718,718,718,718,718,718,718,718,718,718,718,718,718,718,718,718,718,718,718,718,718,718,718,718,718,718,718,718,718,718,718,718,718,718,718,
718,718,718,718,718,718,718,718,718,718,718,718,718,718,718,718,718,718,718,718,718,718,718,718,718,718,718,718,718,718,718,718,718,718,718,718,718,718,718,718,718,718,718,718,718,718,718,718,718,718,718,718,718,718,718,718,718,718,718,718,718,718,718,718,718,718,718,718,718,718,718,718,718,718,718,718,718,718,718,718,718,718,718,718,718,718,718,718,718,718,718,718,718,718,718,718,718,718,718,718,718,718,718,718,718,718,718,718,718,718,718,718,718,718,718,718,718,718,718,718,718,718,718,718,718,718,718,718,718,718,718,718,718,718,718,718,718,718,718,718,718,718,718,718,718,718,718,718,718,718,718,718,718,718,718,718,718,718,718,718,718,718,718,718,718,718,718,718,718,718,718,718,718,718,718,718,
718,718,718,718,718,718,718,718,718,718,718,718,718,718,718,718,718,718,718,718,718,718,718,718,718,718,718,718,718,718,718,718,718,718,718,718,718,718,718,718,718,718,718,718,718,718,718,718,718,718,718,718,718,718,718,718,718,718,718,718,718,718,718,718,718,718,718,718,718,718,718,718,718,718,718,718,718,718,718,718,718,718,718,718,718,718,718,718,718,718,718,718,718,718,718,718,718,718,718,718,718,718,718,718,718,718,718,718,718,718,718,718,718,718,718,718,718,718,718,718,718,718,718,718,718,718,718,718,718,718,718,718,718,718,718,718,718,718,718,718,718,718,718,718,718,718,718,718,718,718,718,718,718,718,718,718,718,718,718,718,718,718,718,718,718,718,718,718,718,718,718,718,718,718,718,718,
718,718,718,718,718,718,718,718,718,718,718,718,718,718,718,718,718,718,718,718,718,718,718,718,718,718,718,718,718,718,718,718,718,718,718,718,718,718,718,718,718,718,718,718,718,718,718,718,718,718,718,718,718,718,718,718,718,718,718,718,718,718,718,718,718,718,718,718,718,718,718,718,718,718,718,718,718,718,718,718,718,718,718,718,718,718,718,718,718,718,718,718,718,718,718,718,718,718,718,718,718,718,718,718,718,718,718,718,718,718,718,718,718,718,718,718,718,718,718,718,718,718,718,718,718,718,718,718,718,718,718,718,718,718,718,718,718,718,718,718,718,718,718,718,718,718,718,718,718,718,718,718,718,718,718,718,718,718,718,718,718,718,718,718,718,718,718,718,718,718,718,718,718,718,718,718,
718,718,718,718,718,718,718,718,718,718,718,718,718,718,718,718,718,718,718,718,718,718,718,718,718,718,718,718,718,718,718,718,718,718,718,718,718,718,718,718,718,718,718,718,718,718,718,718,718,718,718,718,718,718,718,718,718,718,718,718,718,718,718,718,718,718,718,718,718,718,718,718,718,718,718,718,718,718,718,718,718,718,718,718,718,718,718,718,718,718,718,718,718,718,718,718,718,718,718,718,718,718,718,718,718,718,718,718,718,718,718,718,718,718,718,718,718,718,718,718,718,718,718,718,718,718,718,718,718,718,718,718,718,718,718,718,718,718,718,718,718,718,718,718,718,718,718,718,718,718,718,718,718,718,718,718,718,718,718,718,718,718,718,718,718,718,718,718,718,718,718,718,718,718,718,718,
718,718,718,718,718,718,718,718,718,718,718,718,718,718,718,718,718,718,718,718,718,718,718,718,718,718,718,718,718,718,718,718,718,718,718,718,718,718,718,718,718,718,718,718,718,718,718,718,718,718,718,718,718,718,718,718,718,718,718,718,718,718,718,718,718,718,718,718,718,718,718,718,718,718,718,718,718,718,718,718,718,718,718,718,718,718,718,718,718,718,718,718,718,718,718,718,718,718,718,718,718,718,718,718,718,718,718,718,718,718,718,718,718,718,718,718,718,718,718,718,718,718,718,718,718,718,718,718,718,718,718,718,718,718,718,718,718,718,718,718,718,718,718,718,718,718,718,718,718,718,718,718,718,718,718,718,718,718,718,718,718,718,718,718,718,718,718,718,718,718,718,718,718,718,718,718,
718,718,718,718,718,718,718,718,718,718,718,718,718,718,718,718,718,718,718,718,718,718,718,718,718,718,718,718,718,718,718,718,718,718,718,718,718,718,718,718,718,718,718,718,718,718,718,718,718,718,718,718,718,718,718,718,718,718,718,718,718,718,718,718,718,718,718,718,718,718,718,718,718,718,718,718,718,718,718,718,718,718,718,718,718,718,718,718,718,718,718,718,718,718,718,718,718,718,718,718,718,718,718,718,718,718,718,718,718,718,718,718,718,718,718,718,718,718,718,718,718,718,718,718,718,718,718,718,718,718,718,718,718,718,718,718,718,718,718,718,718,718,718,718,718,718,718,718,718,718,718,718,718,718,718,718,718,718,718,718,718,718,718,718,718,718,718,718,718,718,718,718,718,718,718,718,
718,718,718,718,718,718,718,718,718,718,718,718,718,718,718,718,718,718,718,718,718,718,718,718,718,718,718,718,718,718,718,718,718,718,718,718,718,718,718,718,718,718,718,718,718,718,718,718,718,718,718,718,718,718,718,718,718,718,718,718,718,718,718,718,718,718,718,718,718,718,718,718,718,718,718,718,718,718,718,718,718,718,718,718,718,718,718,718,718,718,718,718,718,718,718,718,718,718,718,718,718,718,718,718,718,718,718,718,718,718,718,718,718,718,718,718,718,718,718,718,718,718,718,718,718,718,718,718,718,718,718,718,718,718,718,718,718,718,718,718,718,718,718,718,718,718,718,718,718,718,718,718,718,718,718,718,718,718,718,718,718,718,718,718,718,718,718,718,718,718,718,718,718,718,718,718,
718,718,718,718,718,718,718,718,718,718,718,718,718,718,718,718,718,718,718,718,718,718,718,718,718,718,718,718,718,718,718,718,718,718,718,718,718,718,718,718,718,718,718,718,718,718,718,718,718,718,718,718,718,718,718,718,718,718,718,718,718,718,718,718,718,718,718,718,718,718,718,718,718,718,718,718,718,718,718,718,718,718,718,718,718,718,718,718,718,718,718,718,718,718,718,718,718,718,718,718,718,718,718,718,718,718,718,718,718,718,718,718,718,718,718,718,718,718,718,718,718,718,718,718,718,718,718,718,718,718,718,718,718,718,718,718,718,718,718,718,718,718,718,718,718,718,718,718,718,718,718,718,718,718,718,718,718,718,718,718,718,718,718,718,718,718,718,718,718,718,718,718,718,718,718,718,
718,718,718,718,718,718,718,718,718,718,718,718,718,718,718,718,718,718,718,718,718,718,718,718,718,718,718,718,718,718,718,718,718,718,718,718,718,718,718,718,718,718,718,718,718,718,718,718,718,718,718,718,718,718,718,718,718,718,718,718,718,718,718,718,718,718,718,718,718,718,718,718,718,718,718,718,718,718,718,718,718,718,718,718,718,718,718,718,718,718,718,718,718,718,718,718,718,718,718,718,718,718,718,718,718,718,718,718,718,718,718,718,718,718,718,718,718,718,718,718,718,718,718,718,718,718,718,718,718,718,718,718,718,718,718,718,718,718,718,718,718,718,718,718,718,718,718,718,718,718,718,718,718,718,718,718,718,718,718,718,718,718,718,718,718,718,718,718,718,718,718,718,718,718,718,718,
718,718,718,718,718,718,718,718,718,718,718,718,718,718,718,718,718,718,718,718,718,718,718,718,718,718,718,718,718,718,718,718,718,718,718,718,718,718,718,718,718,718,718,718,718,718,718,718,718,718,718,718,718,718,718,718,718,718,718,718,718,718,718,718,718,718,718,718,718,718,718,718,718,718,718,718,718,718,718,718,718,718,718,718,718,718,718,718,718,718,718,718,718,718,718,718,718,718,718,718,718,718,718,718,718,718,718,718,718,718,718,718,718,718,718,718,718,718,718,718,718,718,718,718,718,718,718,718,718,718,718,718,718,718,718,718,718,718,718,718,718,718,718,718,718,718,718,718,718,718,718,718,718,718,718,718,718,718,718,718,718,718,718,718,718,718,718,718,718,718,718,718,718,718,718,718,
718,718,718,718,718,718,718,718,718,718,718,718,718,718,718,718,718,718,718,718,718,718,718,718,718,718,718,718,718,718,718,718,718,718,718,718,718,718,718,718,718,718,718,718,718,718,718,718,718,718,718,718,718,718,718,718,718,718,718,718,718,718,718,718,718,718,718,718,718,718,718,718,718,718,718,718,718,718,718,718,718,718,718,718,718,718,718,718,718,718,718,718,718,718,718,718,718,718,718,718,718,718,718,718,718,718,718,718,718,718,718,718,718,718,718,718,718,718,718,718,718,718,718,718,718,718,718,718,718,718,718,718,718,718,718,718,718,718,718,718,718,718,718,718,718,718,718,718,718,718,718,718,718,718,718,718,718,718,718,718,718,718,718,718,718,718,718,718,718,718,718,718,718,718,718,718,
718,718,718,718,718,718,718,718,718,718,718,718,718,718,718,718,718,718,718,718,718,718,718,718,718,718,718,718,718,718,718,718,718,718,718,718,718,718,718,718,718,718,718,718,718,718,718,718,718,718,718,718,718,718,718,718,718,718,718,718,718,718,718,718,718,718,718,718,718,718,718,718,718,718,718,718,718,718,718,718,718,718,718,718,718,718,718,718,718,718,718,718,718,718,718,718,718,718,718,718,718,718,718,718,718,718,718,718,718,718,718,718,718,718,718,718,718,718,718,718,718,718,718,718,718,718,718,718,718,718,718,718,718,718,718,718,718,718,718,718,718,718,718,718,718,718,718,718,718,718,718,718,718,718,718,718,718,718,718,718,718,718,718,718,718,718,718,718,718,718,718,718,718,718,718,718,
718,718,718,718,718,718,718,718,718,718,718,718,718,718,718,718,718,718,718,718,718,718,718,718,718,718,718,718,718,718,718,718,718,718,718,718,718,718,718,718,718,718,718,718,718,718,718,718,718,718,718,718,718,718,718,718,718,718,718,718,718,718,718,718,718,718,718,718,718,718,718,718,718,718,718,718,718,718,718,718,718,718,718,718,718,718,718,718,718,718,718,718,718,718,718,718,1473,718,718,718,718,1443,718,718,718,718,718,718,718,718,718,1457,1457,1457,1457,1457,1457,1457,1460,1460,1460,1460,1460,1460,1460,1460,1460,1460,1460,1460,1460,718,718,718,718,718,718,718,718,718,718,718,718,718,718,718,718,718,718,718,718,718,1460,1460,1460,1460,1460,1460,1460,1460,718,718,718,718,718,718,718,718,718,718,718,718,718,718,718,718,
718,718,718,718,718,718,718,718,718,718,718,718,718,718,718,718,718,718,718,718,718,718,718,718,718,718,718,718,718,718,718,718,718,718,718,718,718,718,718,718,718,718,718,718,718,718,718,718,718,718,718,718,718,718,718,718,718,718,718,718,718,718,718,718,718,718,718,718,718,718,718,718,718,718,718,718,718,718,718,718,718,718,718,718,718,718,718,718,718,718,718,718,718,1464,718,718,718,718,718,718,718,1443,1442,718,718,718,718,718,718,718,718,1441,1441,1441,718,1473,718,718,718,1473,718,718,718,1460,1460,1460,1460,718,1473,718,718,718,1473,718,718,1473,718,718,718,718,718,1473,718,718,1473,718,718,718,718,718,718,718,1460,1460,1460,1460,1460,1460,1460,1460,718,718,718,718,718,718,718,718,718,718,718,718,718,718,718,718,
718,718,718,718,718,718,718,718,718,718,718,718,718,718,718,718,718,718,718,718,718,718,718,718,718,718,718,718,718,718,718,718,718,718,718,718,718,718,718,718,718,718,718,718,718,718,718,718,718,718,718,718,718,718,718,718,718,718,718,718,718,718,718,718,718,718,718,718,718,718,718,718,718,718,718,718,718,718,718,718,718,718,718,718,718,718,718,718,718,718,718,1476,718,718,718,718,718,718,1476,718,718,1443,1428,718,718,718,718,718,718,718,718,718,718,718,718,718,718,1476,718,718,718,1476,718,1460,1460,1460,1460,1476,718,718,718,718,718,718,718,718,718,718,718,718,718,718,718,718,718,1476,718,718,718,718,718,718,718,718,718,718,718,718,718,1460,718,718,718,718,718,718,718,718,718,718,718,718,718,718,718,718,
718,718,718,718,718,718,718,718,718,718,718,718,718,718,718,718,718,718,718,718,718,718,718,718,718,718,718,718,718,718,718,718,718,718,718,718,718,718,718,718,718,718,718,718,718,718,718,718,718,718,718,718,718,718,718,718,718,718,718,718,718,718,718,718,718,718,718,718,718,718,718,718,718,718,718,718,718,718,718,718,718,718,718,718,718,718,718,718,718,718,718,718,718,718,718,718,718,718,718,718,718,1458,718,718,718,718,718,718,718,718,718,718,718,718,718,718,718,718,718,718,718,718,718,718,718,718,718,718,718,718,718,718,718,718,718,718,718,718,718,718,718,718,718,718,718,718,718,718,718,718,718,718,718,718,718,718,718,718,718,6797,718,718,718,718,718,718,718,718,718,718,718,718,718,718,718,718,
718,718,718,718,718,718,718,718,718,718,718,718,718,718,718,718,718,718,718,718,718,718,718,718,718,718,718,718,718,718,718,718,718,718,718,718,718,718,718,718,718,718,718,718,718,718,718,718,718,718,718,718,718,718,718,718,718,718,718,718,718,718,718,718,718,718,718,718,718,718,718,718,718,718,718,718,718,718,718,718,718,718,718,718,718,718,718,718,718,718,718,718,718,718,718,718,718,718,718,718,718,718,718,718,718,718,718,718,718,718,718,718,718,718,718,718,718,718,718,718,718,718,718,3343,3343,3343,3343,718,718,718,718,718,718,718,718,718,718,718,718,718,718,718,718,718,718,718,718,718,718,718,718,718,718,718,718,718,718,718,718,6797,718,718,718,718,718,718,718,718,718,718,718,718,718,718,718,718,
718,718,718,718,718,718,718,718,718,718,718,718,718,718,3331,3331,718,718,718,718,718,718,718,1459,718,718,718,718,718,718,718,718,718,718,718,718,718,718,718,718,718,718,718,718,718,718,718,718,718,718,718,718,718,718,718,718,718,718,718,718,718,718,718,718,718,718,718,718,718,718,718,718,718,718,3331,3331,718,718,718,718,718,718,718,3331,3331,718,718,718,718,718,718,718,718,718,718,718,718,718,718,718,718,718,718,718,718,718,718,718,718,718,718,718,718,718,718,718,718,718,718,718,718,1460,718,718,718,718,718,718,718,718,718,718,718,718,718,718,718,718,718,718,718,718,718,718,718,718,718,718,718,718,718,718,718,718,718,718,718,5757,718,718,718,718,718,718,718,718,718,718,718,718,718,718,718,718,718,718,
718,718,718,718,718,718,718,718,718,718,718,718,718,718,718,718,718,718,718,718,718,1444,718,1444,718,718,718,718,718,718,718,718,718,718,718,718,718,718,718,718,718,718,718,718,718,718,718,718,718,718,718,718,718,718,718,718,718,718,718,718,718,718,718,718,718,718,718,718,718,718,718,718,718,718,718,718,718,718,718,718,718,718,718,718,718,718,718,718,718,718,718,718,718,718,718,718,718,718,718,718,3345,3349,0,718,718,718,718,718,718,3363,718,718,3315,718,718,3363,1460,1460,1460,718,718,1460,1460,1460,1460,1460,1460,1460,1253,1253,1460,718,718,718,718,718,5757,718,718,718,718,718,718,718,718,5757,718,718,718,718,718,718,718,718,718,718,718,718,718,718,718,718,718,718,718,718,718,718,718,718,718,718,718,718,718,718,
718,718,718,718,718,718,718,718,718,1341,718,718,718,718,718,718,718,718,718,718,718,718,718,1444,718,718,718,718,718,718,718,718,718,718,718,718,718,718,718,718,718,718,718,718,718,718,718,718,718,718,718,718,718,718,718,718,718,718,718,718,718,718,718,718,718,718,718,718,718,718,718,718,718,718,718,718,718,718,718,718,718,718,718,718,718,718,718,718,718,718,718,718,718,718,718,718,718,718,3329,3333,3333,3333,3333,3333,718,718,718,718,718,718,718,903,718,718,718,718,1460,1460,1460,718,718,1460,1460,1460,1460,1460,1460,1460,718,718,1460,6793,718,6793,6793,6793,6793,718,718,718,6793,718,6793,6793,6793,6793,718,718,718,718,6793,6793,6793,6793,6793,6793,6793,6793,718,718,718,718,718,718,718,718,718,718,718,718,718,718,718,718,718,718,
718,718,718,718,718,718,718,718,718,1342,718,718,718,718,718,718,718,718,718,718,718,718,718,718,2,718,2,718,718,718,718,718,718,718,718,718,718,718,718,718,718,718,718,718,718,718,718,718,718,718,718,718,718,718,2,2,718,718,718,718,718,718,718,718,2,718,2,718,718,718,718,0,0,0,0,0,718,718,718,718,718,718,718,718,718,718,718,718,718,2,2,718,718,718,718,718,718,718,718,718,718,718,718,718,718,718,718,718,718,718,718,718,718,718,718,718,718,718,718,718,2,718,718,718,718,718,718,718,2,2,718,2,718,2,2,2,2,718,718,718,2,718,2,2,2,2,718,718,718,718,2,2,2,2,2,2,2,2,718,718,718,718,718,718,718,718,718,718,718,718,718,718,718,718,718,718,
718,718,718,718,718,718,718,718,1341,718,718,718,718,718,718,718,718,718,718,718,718,718,718,718,718,718,718,718,718,718,718,718,718,718,718,718,718,718,718,718,718,718,718,718,718,718,718,718,718,718,718,718,718,718,718,718,718,718,718,718,718,718,718,718,718,718,718,718,718,718,718,0,0,0,0,0,718,718,718,718,718,718,718,718,718,718,718,718,718,718,718,718,718,718,718,718,718,718,718,718,718,718,718,718,718,718,718,718,718,718,718,718,718,718,718,718,718,718,718,718,718,718,718,718,718,718,718,718,718,718,718,718,718,718,718,718,718,718,718,718,718,718,718,718,718,718,718,718,718,718,718,718,718,718,718,718,718,718,718,718,718,718,718,718,718,718,718,718,718,718,718,718,718,718,718,718,
718,718,718,718,718,718,718,718,1342,718,718,718,718,718,718,718,718,718,718,718,718,718,718,718,718,718,718,718,718,718,718,718,718,718,718,718,718,718,718,718,718,718,718,718,718,718,718,718,718,718,718,718,718,718,718,718,718,718,718,718,718,718,718,718,718,718,718,718,718,718,718,718,718,718,718,718,718,718,718,718,718,718,718,718,718,718,718,718,718,718,718,718,718,718,718,718,718,718,718,718,718,718,718,718,718,718,718,718,718,718,718,718,718,718,718,718,718,718,718,718,718,718,718,718,718,718,718,718,718,718,718,718,718,718,718,718,718,718,718,718,718,718,718,718,718,718,718,718,718,718,718,718,718,718,718,718,718,718,718,718,718,718,718,718,718,718,718,718,718,718,718,718,718,718,718,718,
718,718,718,718,718,718,718,1341,718,718,718,718,718,718,718,718,718,718,718,718,718,718,718,718,718,718,718,718,718,718,718,718,718,718,718,718,718,718,718,718,718,718,718,718,718,718,718,718,718,718,718,718,718,718,718,718,718,718,718,718,718,718,718,718,718,718,718,718,718,718,718,718,718,718,718,718,718,718,718,718,718,718,718,718,718,718,718,718,718,718,718,718,718,718,718,718,718,718,718,718,718,718,718,718,718,718,718,718,718,718,718,718,718,718,718,718,718,718,718,718,718,718,718,718,718,718,718,718,718,718,718,718,718,718,718,718,718,718,718,718,718,718,718,718,718,718,718,718,718,718,718,718,718,718,718,718,718,718,718,718,718,718,718,718,718,718,718,718,718,718,718,718,718,718,718,718,
718,718,718,718,718,718,718,1342,718,718,718,718,718,718,718,718,718,718,718,718,718,718,718,718,718,718,718,718,718,718,718,718,718,718,718,718,718,718,718,718,718,718,718,718,718,718,718,718,718,718,718,718,718,718,718,718,718,718,718,718,718,718,718,718,718,718,718,718,718,718,718,718,718,718,718,718,718,718,718,718,718,718,718,718,718,718,718,718,718,718,718,718,718,718,718,718,718,718,718,718,718,718,718,718,718,718,718,718,718,718,718,718,718,718,718,718,718,718,718,718,718,718,718,718,718,718,718,718,718,718,718,718,718,718,718,718,718,718,718,718,718,718,718,718,718,718,718,718,718,718,718,718,718,718,718,718,718,718,718,718,718,718,718,718,718,718,718,718,718,718,718,718,718,718,718,718,
718,718,718,718,718,718,1341,718,718,718,718,718,718,718,718,718,718,718,718,718,718,718,718,718,718,718,718,718,718,718,718,718,718,718,718,718,718,718,718,718,718,718,718,718,718,718,718,718,718,718,718,718,718,718,718,718,718,718,718,718,718,718,718,718,718,718,718,718,718,718,718,718,718,718,718,718,718,718,718,718,718,718,718,718,718,718,718,718,718,718,718,718,718,718,718,718,718,718,718,718,718,718,718,718,718,718,718,718,718,718,718,718,718,718,718,718,718,718,718,718,718,718,718,718,718,718,718,718,718,718,718,718,718,718,718,718,718,718,718,718,718,718,718,718,718,718,718,718,718,718,718,718,718,718,718,718,718,718,718,718,718,718,718,718,718,718,718,718,718,718,718,718,718,718,718,718
</data>
 </layer>
 <layer id="1" name="l1" width="176" height="27">
  <data encoding="csv">
1,1,126,126,126,126,126,126,126,126,126,126,126,126,126,126,126,126,126,126,126,126,126,126,126,126,126,126,126,126,126,126,126,126,126,126,126,126,126,126,126,126,126,126,126,126,126,126,126,126,126,126,126,126,126,126,126,126,126,126,126,126,126,126,126,126,126,126,126,126,126,126,126,126,126,126,126,126,126,126,126,126,126,126,126,126,126,126,126,126,126,126,126,126,126,126,126,126,126,126,126,126,126,126,126,126,126,126,126,126,126,126,126,126,126,126,126,126,126,126,126,126,126,126,126,126,126,126,126,126,126,126,126,126,126,126,126,126,126,126,126,126,126,126,126,126,126,126,126,126,126,126,126,126,126,126,126,126,126,126,126,126,126,126,126,126,126,126,126,126,126,126,126,126,126,126,
1,1,126,126,126,126,126,126,126,126,126,126,126,126,126,126,126,126,126,126,126,126,126,126,126,126,126,126,126,126,126,126,126,126,126,126,126,126,126,126,126,126,126,126,126,126,126,126,126,126,126,126,126,126,126,126,126,126,126,126,126,126,126,126,126,126,126,126,126,126,126,126,126,126,126,126,126,126,126,126,126,126,126,126,126,126,126,126,126,126,126,126,126,126,126,126,126,126,126,126,126,126,126,126,126,126,126,126,126,126,126,126,126,126,126,126,126,126,126,126,126,126,126,126,126,126,126,126,126,126,126,126,126,126,126,126,126,126,126,126,126,126,126,126,126,126,126,126,126,126,126,126,126,126,126,126,126,126,126,126,126,126,126,126,126,126,126,126,126,126,126,126,126,126,126,126,
1,1,126,126,126,126,126,126,126,126,126,126,126,126,126,126,126,126,126,126,126,126,126,126,126,126,126,126,126,126,126,126,126,126,126,126,126,126,126,126,126,126,126,126,126,126,126,126,126,126,126,126,126,126,126,126,126,126,126,126,126,126,126,126,126,126,126,126,126,126,126,126,126,126,126,126,126,126,126,126,126,126,126,126,126,126,126,126,126,126,126,126,126,126,126,126,126,126,126,126,126,126,126,126,126,126,126,126,126,126,126,126,126,126,126,126,126,126,126,126,126,126,126,126,126,126,126,126,126,126,126,126,126,126,126,126,126,126,126,126,126,126,126,126,126,126,126,126,126,126,126,126,126,126,126,126,126,126,126,126,126,126,126,126,126,126,126,126,126,126,126,126,126,126,126,126,
1,1,126,126,126,126,126,126,126,126,126,126,126,126,126,126,126,126,126,126,126,126,126,126,126,126,126,126,126,126,126,126,126,126,126,126,126,126,126,126,126,126,126,126,126,126,126,126,126,126,126,126,126,126,126,126,126,126,126,126,126,126,126,126,126,126,126,126,126,126,126,126,126,126,126,126,126,126,126,126,126,126,126,126,126,126,126,126,126,126,126,126,126,126,126,126,126,126,126,126,126,126,126,126,126,126,126,126,126,126,126,126,126,126,126,126,126,126,126,126,126,126,126,126,126,126,126,126,126,126,126,126,126,126,126,126,126,126,126,126,126,126,126,126,126,126,126,126,126,126,126,126,126,126,126,126,126,126,126,126,126,126,126,126,126,126,126,126,126,126,126,126,126,126,126,126,
1,1,126,126,126,126,126,126,126,126,126,126,126,126,126,126,126,126,126,126,126,126,126,126,126,126,126,126,126,126,126,126,126,126,126,126,126,126,126,126,126,126,126,126,126,126,126,126,126,126,126,126,126,126,126,126,126,126,126,126,126,126,126,126,126,126,126,126,126,126,126,126,126,126,126,126,126,126,126,126,126,126,126,126,126,126,126,126,126,126,126,126,126,126,126,126,126,126,126,126,126,126,126,126,126,126,126,126,126,126,126,126,126,126,126,126,126,126,126,126,126,126,126,126,126,126,126,126,126,126,126,126,126,126,126,126,126,126,126,126,126,126,126,126,126,126,126,126,126,126,126,126,126,126,126,126,126,126,126,126,126,126,126,126,126,126,126,126,126,126,126,126,126,126,126,126,
1,1,126,126,126,126,126,126,126,126,126,126,126,126,126,126,126,126,126,126,126,126,126,126,126,126,126,126,126,126,126,126,126,126,126,126,126,126,126,126,126,126,126,126,126,126,126,126,126,126,126,126,126,126,126,126,126,126,126,126,126,126,126,126,126,126,126,126,126,126,126,126,126,126,126,126,126,126,126,126,126,126,126,126,126,126,126,126,126,126,126,126,126,126,126,126,126,126,126,126,126,126,126,126,126,126,126,126,126,126,126,126,126,126,126,126,126,126,126,126,126,126,126,126,126,126,126,126,126,126,126,126,126,126,126,126,126,126,126,126,126,126,126,126,126,126,126,126,126,126,126,126,126,126,126,126,126,126,126,126,126,126,126,126,126,126,126,126,126,126,126,126,126,126,126,126,
1,1,126,126,126,126,126,126,126,126,126,126,126,126,126,126,126,126,126,126,126,126,126,126,126,126,126,126,126,126,126,126,126,126,126,126,126,126,126,126,126,126,126,126,126,126,126,126,126,126,126,126,126,126,126,126,126,126,126,126,126,126,126,126,126,126,126,126,126,126,126,126,126,126,126,126,126,126,126,126,126,126,126,126,126,126,126,126,126,126,126,126,126,126,126,126,126,126,126,126,126,126,126,126,126,126,126,126,126,126,126,126,126,126,126,126,126,126,126,126,126,126,126,126,126,126,126,126,126,126,126,126,126,126,126,126,126,126,126,126,126,126,126,126,126,126,126,126,126,126,126,126,126,126,126,126,126,126,126,126,126,126,126,126,126,126,126,126,126,126,126,126,126,126,126,126,
1,1,126,126,126,126,126,126,126,126,126,126,126,126,126,126,126,126,126,126,126,126,126,126,126,126,126,126,126,126,126,126,126,126,126,126,126,126,126,126,126,126,126,126,126,126,126,126,126,126,126,126,126,126,126,126,126,126,126,126,126,126,126,126,126,126,126,126,126,126,126,126,126,126,126,126,126,126,126,126,126,126,126,126,126,126,126,126,126,126,126,126,126,126,126,126,126,126,126,126,126,126,126,126,126,126,126,126,126,126,126,126,126,126,126,126,126,126,126,126,126,126,126,126,126,126,126,126,126,126,126,126,126,126,126,126,126,126,126,126,126,126,126,126,126,126,126,126,126,126,126,126,126,126,126,126,126,126,126,126,126,126,126,126,126,126,126,126,126,126,126,126,126,126,126,126,
1,1,126,126,126,126,126,126,126,126,126,126,126,126,126,126,126,126,126,126,126,126,126,126,126,126,126,126,126,126,126,126,126,126,126,126,126,126,126,126,126,126,126,126,126,126,126,126,126,126,126,126,126,126,126,126,126,126,126,126,126,126,126,126,126,126,126,126,126,126,126,126,126,126,126,126,126,126,126,126,126,126,126,126,126,126,126,126,126,126,126,126,126,126,126,126,126,126,126,126,126,126,126,126,126,126,126,126,126,126,126,126,126,126,126,126,126,126,126,126,126,126,126,126,126,126,126,126,126,126,126,126,126,126,126,126,126,126,126,126,126,126,126,126,126,126,126,126,126,126,126,126,126,126,126,126,126,126,126,126,126,126,126,126,126,126,126,126,126,126,126,126,126,126,126,126,
1,1,126,126,126,126,126,126,126,126,126,126,126,126,126,126,126,126,126,126,126,126,126,126,126,126,126,126,126,126,126,126,126,126,126,126,126,126,126,126,126,126,126,126,126,126,126,126,126,126,126,126,126,126,126,126,126,126,126,126,126,126,126,126,126,126,126,126,126,126,126,126,126,126,126,126,126,126,126,126,126,126,126,126,126,126,126,126,126,126,126,126,126,126,126,126,126,126,126,126,126,126,126,126,126,126,126,126,126,126,126,126,126,126,126,126,126,126,126,126,126,126,126,126,126,126,126,126,126,126,126,126,126,126,126,126,126,126,126,126,126,126,126,126,126,126,126,126,126,126,126,126,126,126,126,126,126,126,126,126,126,126,126,126,126,126,126,126,126,126,126,126,126,126,126,126,
1,1,126,126,126,126,126,126,126,126,126,126,126,126,126,126,126,126,126,126,126,126,126,126,126,126,126,126,126,126,126,126,126,126,126,126,126,126,126,126,126,126,126,126,126,126,126,126,126,126,126,126,126,126,126,126,126,126,126,126,126,126,126,126,126,126,126,126,126,126,126,126,126,126,126,126,126,126,126,126,126,126,126,126,126,126,126,126,126,126,126,126,126,126,126,126,126,126,126,126,126,126,126,126,126,126,126,126,126,126,126,126,126,126,126,126,126,126,126,126,126,126,126,126,126,126,126,126,126,126,126,126,126,126,126,126,126,126,126,126,126,126,126,126,126,126,126,126,126,126,126,126,126,126,126,126,126,126,126,126,126,126,126,126,126,126,126,126,126,126,126,126,126,126,126,126,
1,1,126,126,126,126,126,126,126,126,126,126,126,126,126,126,126,126,126,126,126,126,126,126,126,126,126,126,126,126,126,126,126,126,126,126,126,126,126,126,126,126,126,126,126,126,126,126,126,126,126,126,126,126,126,126,126,126,126,126,126,126,126,126,126,126,126,126,126,126,126,126,126,126,126,126,126,126,126,126,126,126,126,126,126,126,126,126,126,126,126,126,126,126,126,126,126,126,126,126,126,126,126,126,126,126,126,126,126,126,126,126,126,126,126,126,126,126,126,126,126,126,126,126,126,126,126,126,126,126,126,126,126,126,126,126,126,126,126,126,126,126,126,126,126,126,126,126,126,126,126,126,126,126,126,126,126,126,126,126,126,126,126,126,126,126,126,126,126,126,126,126,126,126,126,126,
133,133,133,133,133,133,133,133,133,133,126,126,126,126,126,126,126,126,126,126,126,126,126,126,126,126,126,126,126,126,126,126,126,126,126,126,126,126,126,126,126,126,126,126,126,126,126,126,126,126,126,126,126,126,126,126,126,126,126,126,126,126,126,126,126,126,126,126,126,126,126,126,126,126,126,126,126,126,126,126,126,126,126,126,126,126,126,126,126,126,126,126,126,126,126,126,126,126,126,126,126,126,126,126,126,126,126,126,126,126,126,126,126,126,126,126,126,126,126,126,126,126,126,126,126,126,126,126,126,126,126,126,126,126,126,126,126,126,126,126,126,126,126,126,126,126,126,126,126,126,126,126,126,126,126,126,126,126,126,126,126,126,126,126,126,126,126,126,126,126,126,126,126,126,126,126,
133,133,133,133,133,133,133,133,133,133,1457,1457,1457,1457,1457,1457,1457,1457,1457,1457,1457,1457,1457,1457,1457,1457,1457,1457,1457,1457,1457,1457,1428,1428,1428,1428,1428,1428,1428,1428,1457,1457,1428,1428,1428,1428,1428,1428,1428,1428,1475,1,1,1,1,1,1,1,1475,1457,1457,1457,1457,1457,1457,1457,1457,1457,1457,1457,1457,1457,1457,1457,1457,1457,1457,1457,1457,1457,1457,1457,1457,1457,1457,1457,1457,1457,1457,1475,1,1,1,1459,1,1,1,1,1,1,1,1,1457,1457,1457,1457,1457,1457,1457,1457,1457,1,1,1,1,1,1,1,1,1,1,1,1,1,1,1,1,1,1,1,1,1460,1460,1460,1460,1460,1460,1460,1460,1460,1460,1460,1460,1460,1460,1460,1460,1460,1460,1460,1460,1460,1,1,1,1,1,1,1,1,1474,1474,1474,1474,1474,1474,1474,1474,1474,1474,1474,1474,1474,1474,1474,1474,
133,133,133,133,133,133,133,133,133,133,1457,1457,1442,1441,0,0,0,0,1443,1457,1442,1441,1441,1441,1441,1441,1441,1441,1441,1443,1457,1457,1457,1457,1457,1457,1457,1457,1457,1457,1457,1457,1457,1457,1457,1457,1457,1457,1457,1457,1475,1473,1,1,1,1,1,1,1473,1475,1442,1441,1441,1441,1441,1441,1441,1441,1441,1443,1457,1457,1442,1441,1441,1441,1,1,1443,1457,1457,1442,1441,1,1,1,1,1443,1457,1457,1457,1457,1457,1475,1475,1,1,1,1,1,1,1,1,1,1473,1,1,1,1,1441,1441,1,1,1,1,1,1,1,5730,5730,5730,5730,5737,1,1,1,1,5734,5730,5730,5730,5730,5730,5730,5730,5730,5737,1460,1460,5734,5730,5730,5730,5730,5730,5737,1460,1460,5734,5737,1460,1460,1,1,1,1,1,1,1,1,1,1,1,1,1,1,1,1,1,1,1,1,1,1,1,58,
133,133,133,133,133,133,133,133,133,133,1458,1473,0,0,1473,0,0,0,0,1458,0,0,0,0,0,0,0,0,0,0,1441,1441,1441,1441,1441,1441,1441,1441,1441,1441,1441,1441,1441,1441,1441,1441,1441,1441,1441,1441,1,1,1,1,1,1,1,1,1,1,1,1,1,1,1,1,1,1,1,1,1458,1473,1,1,1473,1,1,1,1,1458,1473,1,1,1473,1,1,1,1,1458,1,1,1,1,1,1,1,1,0,0,1,1,1,1,1476,1,1,1,1,1476,1,1,1,1,1,1,1,1,1,1,1,1,1,5733,1,1,1,1,5731,1,1,1,1476,1,1,1,1,1476,5730,5730,0,1476,1,1,1,1,0,5730,5730,0,1,5730,5730,5730,5730,5730,5730,5730,5730,5737,1,1,1,1,1,1,1,1,1,1,1,1,1,1,1,1,58,
133,133,133,133,133,133,0,0,0,0,1458,0,1476,0,0,0,0,1476,0,1458,0,0,0,0,0,0,0,0,0,0,1476,0,1473,1,1,1,1,1476,1,1,1476,1,1473,1,1,1,1,1476,1,1,1,1,1476,1,1,1476,1,1,1441,1,1,1,1,1,1,1,1,1,1,1,1458,1,1476,1,1,1,1,1476,1,1458,1,1476,1,1,1,1,1476,1,1458,1,1,1,1,1,1,1,1,1,1,1,1,3317,0,1,1,1,1,1,1,1,1,1,3374,3362,1,1,1,1,0,0,1,1,0,5730,5730,5730,5730,0,1,1,1,1,1,1,1,1,1,1,1,1,1,1,1,1,1,1,1,1,1,1,1,1,1,1,1,1,1476,1476,1,5973,1,1,1,1,1,1,1,1,1,1,1,1,1,1,1,58,
133,133,133,133,133,133,0,0,0,0,1458,0,0,0,0,0,0,0,0,1441,0,0,0,0,0,1459,0,0,0,0,0,0,0,1,1,1,1,1,1,1,1,1,1,1,1,1,1,1,1,1,1,1,1,1,1,1,1,1,1,1,1,1,1,1,1,1459,1,1,1,1,1458,1,1,1,1,1,1,1,1,1441,1,1,1,1,1,1,1,1,1441,1,1,1,1,1,1,3361,1,1,1,1,1,3343,0,1,1,1,1,1,1,1,1,3374,1,3363,3362,1,1,1,0,0,0,0,0,1,1,1,1,1,1,1,1,1,1,1,1,1,1,1,1,1,1,1,1,1,1,1,1,1,1,1,1,1,1,1,1,1,1,1,3330,5973,1,1,1,1,1,1,1,1,1,1,1,1,1,1,1,58,
133,133,133,133,133,133,0,0,0,0,0,0,0,0,3316,3316,3316,0,0,0,0,0,0,0,0,1444,0,1459,0,0,0,0,0,0,1,1,1,1,1,1,1,1,1,1,1,1,1,1,1,1,1459,1,1,1,1,1,1,1,1,1,1,0,1,1459,1,1444,1,1459,1,1,1441,1,1,1,3316,3316,3316,1,1,1,1,1,1,3316,3316,3316,1,1,1,1,1,1,1,1,3361,3375,3369,1,1,1,1,3334,3333,3333,3333,3333,1,1,1,1,3374,1,1,1,1,1,1,5733,1460,1460,3486,1,5731,1,1,1,1,1,1,1,1,1,1,1,1,1,1,1,1,1460,1,1,1,1,1,1,1,1,1,1,1,1,1,1,1,1,1,1,1460,1460,1,1,1,1,1,1,1,1,1,1,1,1,1,1,1,58,
133,133,133,133,133,133,0,0,0,0,0,0,0,0,0,0,0,1458,0,0,0,1459,0,0,0,1444,0,1444,0,0,1458,1458,1458,1458,1458,1458,1459,1458,1458,1459,1458,1458,1458,1458,1458,1458,1459,1458,1458,1459,1444,1,1,1,1,1,1,1,1,1,1,1459,1,1444,1,1444,1,1444,1,1,1,1,1,1,1,1,1,1458,1,1,1,1,1,1,1,1,1458,1,1,1,1,1,1,3361,3375,3375,3375,3369,1,1,1,1,3333,3333,3333,3333,3333,3333,3333,3333,1,1,1,1,1,0,3362,0,1460,1460,3486,1,1,1,1,1,1,1,3475,3477,1,0,1,1,3349,3349,3349,1460,1460,1460,1,1,1,3349,3349,3349,1460,1460,1460,1460,3350,3350,3350,3350,3350,3350,3350,3350,1460,1460,1,1,1,1,1,1,1,1,1,1,1,1,1,1,1,58,
133,133,133,133,133,133,0,0,0,0,1457,1457,1457,1457,1457,1457,1457,1457,1457,1457,1457,1457,1457,0,0,1444,0,1443,1457,1457,1457,1457,1457,1457,1457,1457,1457,1457,1457,1457,1457,1457,1457,1457,1457,1457,1457,1457,1457,1457,1457,1457,1457,1442,1,1,1443,1457,1457,1457,1457,1457,1457,1444,1,1444,1,1443,1457,1457,1457,1457,1457,1457,1457,1457,1457,1457,1457,1457,1457,1457,1457,1457,1457,1457,1457,1457,1457,1,1,1443,1457,1457,1457,1457,1457,1457,1442,902,902,902,902,902,902,902,902,902,902,902,902,902,902,902,902,902,1,0,1460,1460,3486,1,1,1,1,1,1,1,3475,3477,1,3455,1460,3455,3455,3455,3455,1460,1460,1460,3455,1460,3455,3455,3455,3455,1460,1460,1460,1460,3455,3455,3455,3455,3455,3455,3455,3455,1460,1460,1474,1474,1474,1474,1474,1474,1474,1474,1474,1474,1474,1474,1474,1474,1474,1474,
133,133,133,133,133,133,0,0,0,0,126,126,126,126,126,126,126,126,126,126,126,126,126,126,133,126,133,126,126,126,126,126,126,126,126,126,126,126,126,126,126,126,126,126,126,126,126,126,126,126,126,126,126,126,133,133,126,126,126,126,126,126,126,126,133,126,133,126,126,126,126,126,126,126,126,126,126,126,126,126,126,126,126,126,126,126,126,126,126,133,133,126,126,126,126,126,126,126,126,126,126,126,126,126,126,126,126,126,126,126,126,126,126,126,126,126,126,126,126,126,133,126,126,126,126,126,126,126,133,133,126,133,126,133,133,133,133,126,126,126,133,126,133,133,133,133,126,126,126,126,133,133,133,133,133,133,133,133,126,126,126,126,126,126,126,126,126,126,126,126,126,126,126,126,126,126,
133,133,133,133,133,133,0,0,0,126,126,126,126,126,126,126,126,126,126,126,126,126,126,126,126,126,126,126,126,126,126,126,126,126,126,126,126,126,126,126,126,126,126,126,126,126,126,126,126,126,126,126,126,126,126,126,126,126,126,126,126,126,126,126,126,126,126,126,126,126,126,126,126,126,126,126,126,126,126,126,126,126,126,126,126,126,126,126,126,126,126,126,126,126,126,126,126,126,126,126,126,126,126,126,126,126,126,126,126,126,126,126,126,126,126,126,126,126,126,126,126,126,126,126,126,126,126,126,126,126,126,126,126,126,126,126,126,126,126,126,126,126,126,126,126,126,126,126,126,126,126,126,126,126,126,126,126,126,126,126,126,126,126,126,126,126,126,126,126,126,126,126,126,126,126,126,
0,0,0,0,0,0,0,0,0,126,126,126,126,126,126,126,126,126,126,126,126,126,126,126,126,126,126,126,126,126,126,126,126,126,126,126,126,126,126,126,126,126,126,126,126,126,126,126,126,126,126,126,126,126,126,126,126,126,126,126,126,126,126,126,126,126,126,126,126,126,126,126,126,126,126,126,126,126,126,126,126,126,126,126,126,126,126,126,126,126,126,126,126,126,126,126,126,126,126,126,126,126,126,126,126,126,126,126,126,126,126,126,126,126,126,126,126,126,126,126,126,126,126,126,126,126,126,126,126,126,126,126,126,126,126,126,126,126,126,126,126,126,126,126,126,126,126,126,126,126,126,126,126,126,126,126,126,126,126,126,126,126,126,126,126,126,126,126,126,126,126,126,126,126,126,126,
0,0,0,0,0,0,0,0,126,126,126,126,126,126,126,126,126,126,126,126,126,126,126,126,126,126,126,126,126,126,126,126,126,126,126,126,126,126,126,126,126,126,126,126,126,126,126,126,126,126,126,126,126,126,126,126,126,126,126,126,126,126,126,126,126,126,126,126,126,126,126,126,126,126,126,126,126,126,126,126,126,126,126,126,126,126,126,126,126,126,126,126,126,126,126,126,126,126,126,126,126,126,126,126,126,126,126,126,126,126,126,126,126,126,126,126,126,126,126,126,126,126,126,126,126,126,126,126,126,126,126,126,126,126,126,126,126,126,126,126,126,126,126,126,126,126,126,126,126,126,126,126,126,126,126,126,126,126,126,126,126,126,126,126,126,126,126,126,126,126,126,126,126,126,126,126,
0,0,0,0,0,0,0,0,126,126,126,126,126,126,126,126,126,126,126,126,126,126,126,126,126,126,126,126,126,126,126,126,126,126,126,126,126,126,126,126,126,126,126,126,126,126,126,126,126,126,126,126,126,126,126,126,126,126,126,126,126,126,126,126,126,126,126,126,126,126,126,126,126,126,126,126,126,126,126,126,126,126,126,126,126,126,126,126,126,126,126,126,126,126,126,126,126,126,126,126,126,126,126,126,126,126,126,126,126,126,126,126,126,126,126,126,126,126,126,126,126,126,126,126,126,126,126,126,126,126,126,126,126,126,126,126,126,126,126,126,126,126,126,126,126,126,126,126,126,126,126,126,126,126,126,126,126,126,126,126,126,126,126,126,126,126,126,126,126,126,126,126,126,126,126,126,
0,0,0,0,0,0,0,126,126,126,126,126,126,126,126,126,126,126,126,126,126,126,126,126,126,126,126,126,126,126,126,126,126,126,126,126,126,126,126,126,126,126,126,126,126,126,126,126,126,126,126,126,126,126,126,126,126,126,126,126,126,126,126,126,126,126,126,126,126,126,126,126,126,126,126,126,126,126,126,126,126,126,126,126,126,126,126,126,126,126,126,126,126,126,126,126,126,126,126,126,126,126,126,126,126,126,126,126,126,126,126,126,126,126,126,126,126,126,126,126,126,126,126,126,126,126,126,126,126,126,126,126,126,126,126,126,126,126,126,126,126,126,126,126,126,126,126,126,126,126,126,126,126,126,126,126,126,126,126,126,126,126,126,126,126,126,126,126,126,126,126,126,126,126,126,126
</data>
 </layer>
 <objectgroup id="7" name="SP">
  <object id="467" gid="133" x="0" y="384" width="16" height="16">
   <properties>
    <property name="z index" type="int" value="0"/>
   </properties>
  </object>
  <object id="468" gid="133" x="0" y="400" width="16" height="16">
   <properties>
    <property name="z index" type="int" value="0"/>
   </properties>
  </object>
  <object id="469" gid="133" x="0" y="416" width="16" height="16">
   <properties>
    <property name="z index" type="int" value="0"/>
   </properties>
  </object>
  <object id="470" gid="133" x="0" y="432" width="16" height="16">
   <properties>
    <property name="z index" type="int" value="0"/>
   </properties>
  </object>
  <object id="545" gid="133" x="0" y="440" width="16" height="16">
   <properties>
    <property name="z index" type="int" value="0"/>
   </properties>
  </object>
  <object id="471" gid="133" x="16" y="432" width="16" height="16">
   <properties>
    <property name="z index" type="int" value="0"/>
   </properties>
  </object>
  <object id="544" gid="133" x="16" y="440" width="16" height="16">
   <properties>
    <property name="z index" type="int" value="0"/>
   </properties>
  </object>
  <object id="472" gid="133" x="16" y="416" width="16" height="16">
   <properties>
    <property name="z index" type="int" value="0"/>
   </properties>
  </object>
  <object id="473" gid="133" x="16" y="400" width="16" height="16">
   <properties>
    <property name="z index" type="int" value="0"/>
   </properties>
  </object>
  <object id="474" gid="133" x="16" y="384" width="16" height="16">
   <properties>
    <property name="z index" type="int" value="0"/>
   </properties>
  </object>
  <object id="475" gid="133" x="32" y="384" width="16" height="16">
   <properties>
    <property name="z index" type="int" value="0"/>
   </properties>
  </object>
  <object id="476" gid="133" x="32" y="400" width="16" height="16">
   <properties>
    <property name="z index" type="int" value="0"/>
   </properties>
  </object>
  <object id="477" gid="133" x="32" y="416" width="16" height="16">
   <properties>
    <property name="z index" type="int" value="0"/>
   </properties>
  </object>
  <object id="478" gid="133" x="32" y="432" width="16" height="16">
   <properties>
    <property name="z index" type="int" value="0"/>
   </properties>
  </object>
  <object id="543" gid="133" x="32" y="440" width="16" height="16">
   <properties>
    <property name="z index" type="int" value="0"/>
   </properties>
  </object>
  <object id="479" gid="133" x="48" y="432" width="16" height="16">
   <properties>
    <property name="z index" type="int" value="0"/>
   </properties>
  </object>
  <object id="542" gid="133" x="48" y="440" width="16" height="16">
   <properties>
    <property name="z index" type="int" value="0"/>
   </properties>
  </object>
  <object id="480" gid="133" x="48" y="416" width="16" height="16">
   <properties>
    <property name="z index" type="int" value="0"/>
   </properties>
  </object>
  <object id="481" gid="133" x="48" y="400" width="16" height="16">
   <properties>
    <property name="z index" type="int" value="0"/>
   </properties>
  </object>
  <object id="482" gid="133" x="48" y="384" width="16" height="16">
   <properties>
    <property name="z index" type="int" value="0"/>
   </properties>
  </object>
  <object id="483" gid="133" x="64" y="384" width="16" height="16">
   <properties>
    <property name="z index" type="int" value="0"/>
   </properties>
  </object>
  <object id="484" gid="133" x="64" y="416" width="16" height="16">
   <properties>
    <property name="z index" type="int" value="0"/>
   </properties>
  </object>
  <object id="485" gid="133" x="64" y="400" width="16" height="16">
   <properties>
    <property name="z index" type="int" value="0"/>
   </properties>
  </object>
  <object id="486" gid="133" x="64" y="432" width="16" height="16">
   <properties>
    <property name="z index" type="int" value="0"/>
   </properties>
  </object>
  <object id="541" gid="133" x="64" y="440" width="16" height="16">
   <properties>
    <property name="z index" type="int" value="0"/>
   </properties>
  </object>
  <object id="487" gid="133" x="80" y="432" width="16" height="16">
   <properties>
    <property name="z index" type="int" value="0"/>
   </properties>
  </object>
  <object id="540" gid="133" x="80" y="440" width="16" height="16">
   <properties>
    <property name="z index" type="int" value="0"/>
   </properties>
  </object>
  <object id="488" gid="133" x="80" y="416" width="16" height="16">
   <properties>
    <property name="z index" type="int" value="0"/>
   </properties>
  </object>
  <object id="489" gid="133" x="80" y="400" width="16" height="16">
   <properties>
    <property name="z index" type="int" value="0"/>
   </properties>
  </object>
  <object id="490" gid="133" x="80" y="384" width="16" height="16">
   <properties>
    <property name="z index" type="int" value="0"/>
   </properties>
  </object>
  <object id="491" gid="133" x="96" y="384" width="16" height="16">
   <properties>
    <property name="z index" type="int" value="0"/>
   </properties>
  </object>
  <object id="492" gid="133" x="96" y="400" width="16" height="16">
   <properties>
    <property name="z index" type="int" value="0"/>
   </properties>
  </object>
  <object id="493" gid="133" x="96" y="416" width="16" height="16">
   <properties>
    <property name="z index" type="int" value="0"/>
   </properties>
  </object>
  <object id="494" gid="133" x="96" y="432" width="16" height="16">
   <properties>
    <property name="z index" type="int" value="0"/>
   </properties>
  </object>
  <object id="539" gid="133" x="96" y="440" width="16" height="16">
   <properties>
    <property name="z index" type="int" value="0"/>
   </properties>
  </object>
  <object id="495" gid="133" x="112" y="432" width="16" height="16">
   <properties>
    <property name="z index" type="int" value="0"/>
   </properties>
  </object>
  <object id="538" gid="133" x="112" y="440" width="16" height="16">
   <properties>
    <property name="z index" type="int" value="0"/>
   </properties>
  </object>
  <object id="496" gid="133" x="112" y="416" width="16" height="16">
   <properties>
    <property name="z index" type="int" value="0"/>
   </properties>
  </object>
  <object id="497" gid="133" x="112" y="400" width="16" height="16">
   <properties>
    <property name="z index" type="int" value="0"/>
   </properties>
  </object>
  <object id="498" gid="133" x="112" y="384" width="16" height="16">
   <properties>
    <property name="z index" type="int" value="0"/>
   </properties>
  </object>
  <object id="499" gid="133" x="128" y="384" width="16" height="16">
   <properties>
    <property name="z index" type="int" value="0"/>
   </properties>
  </object>
  <object id="500" gid="133" x="128" y="400" width="16" height="16">
   <properties>
    <property name="z index" type="int" value="0"/>
   </properties>
  </object>
  <object id="501" gid="133" x="128" y="416" width="16" height="16">
   <properties>
    <property name="z index" type="int" value="0"/>
   </properties>
  </object>
  <object id="502" gid="133" x="128" y="432" width="16" height="16">
   <properties>
    <property name="z index" type="int" value="0"/>
   </properties>
  </object>
  <object id="537" gid="133" x="128" y="440" width="16" height="16">
   <properties>
    <property name="z index" type="int" value="0"/>
   </properties>
  </object>
  <object id="503" gid="133" x="144" y="432" width="16" height="16">
   <properties>
    <property name="z index" type="int" value="0"/>
   </properties>
  </object>
  <object id="536" gid="133" x="144" y="440" width="16" height="16">
   <properties>
    <property name="z index" type="int" value="0"/>
   </properties>
  </object>
  <object id="504" gid="133" x="144" y="416" width="16" height="16">
   <properties>
    <property name="z index" type="int" value="0"/>
   </properties>
  </object>
  <object id="505" gid="133" x="144" y="400" width="16" height="16">
   <properties>
    <property name="z index" type="int" value="0"/>
   </properties>
  </object>
  <object id="506" gid="133" x="144" y="384" width="16" height="16">
   <properties>
    <property name="z index" type="int" value="0"/>
   </properties>
  </object>
  <object id="517" gid="16413" x="32" y="416" width="16" height="16">
   <properties>
    <property name="bg layer" value="2"/>
   </properties>
  </object>
  <object id="518" gid="16388" x="160" y="191.995" width="16" height="16">
   <properties>
    <property name="Channel" value="GROUND"/>
    <property name="Color" type="color" value="#ffffffff"/>
   </properties>
  </object>
  <object id="546" gid="16388" x="160" y="176" width="16" height="16">
   <properties>
    <property name="Channel" value="1"/>
    <property name="Color" type="color" value="#ffffffff"/>
   </properties>
  </object>
  <object id="547" gid="16388" x="160" y="160" width="16" height="16">
   <properties>
    <property name="Channel" value="2"/>
    <property name="Color" type="color" value="#ffaaaaaa"/>
   </properties>
  </object>
  <object id="548" gid="16388" x="160" y="144" width="16" height="16">
   <properties>
    <property name="Channel" value="3"/>
    <property name="Color" type="color" value="#ff555555"/>
   </properties>
  </object>
  <object id="519" gid="16388" x="160" y="207.995" width="16" height="16">
   <properties>
    <property name="Channel" value="BG"/>
    <property name="Color" type="color" value="#ffffffff"/>
   </properties>
  </object>
  <object id="524" gid="133" x="112" y="368" width="16" height="16">
   <properties>
    <property name="z index" type="int" value="0"/>
   </properties>
  </object>
  <object id="525" gid="133" x="112" y="352" width="16" height="16">
   <properties>
    <property name="z index" type="int" value="0"/>
   </properties>
  </object>
  <object id="526" gid="133" x="112" y="336" width="16" height="16">
   <properties>
    <property name="z index" type="int" value="0"/>
   </properties>
  </object>
  <object id="527" gid="133" x="112" y="320" width="16" height="16">
   <properties>
    <property name="z index" type="int" value="0"/>
   </properties>
  </object>
  <object id="528" gid="133" x="128" y="320" width="16" height="16">
   <properties>
    <property name="z index" type="int" value="0"/>
   </properties>
  </object>
  <object id="529" gid="133" x="128" y="336" width="16" height="16">
   <properties>
    <property name="z index" type="int" value="0"/>
   </properties>
  </object>
  <object id="530" gid="133" x="128" y="352" width="16" height="16">
   <properties>
    <property name="z index" type="int" value="0"/>
   </properties>
  </object>
  <object id="531" gid="133" x="128" y="368" width="16" height="16">
   <properties>
    <property name="z index" type="int" value="0"/>
   </properties>
  </object>
  <object id="532" gid="133" x="144" y="368" width="16" height="16">
   <properties>
    <property name="z index" type="int" value="0"/>
   </properties>
  </object>
  <object id="533" gid="133" x="144" y="352" width="16" height="16">
   <properties>
    <property name="z index" type="int" value="0"/>
   </properties>
  </object>
  <object id="534" gid="133" x="144" y="336" width="16" height="16">
   <properties>
    <property name="z index" type="int" value="0"/>
   </properties>
  </object>
  <object id="535" gid="133" x="144" y="320" width="16" height="16">
   <properties>
    <property name="z index" type="int" value="0"/>
   </properties>
  </object>
  <object id="549" gid="133" x="112" y="288" width="16" height="16">
   <properties>
    <property name="z index" type="int" value="0"/>
   </properties>
  </object>
  <object id="550" gid="133" x="112" y="272" width="16" height="16">
   <properties>
    <property name="z index" type="int" value="0"/>
   </properties>
  </object>
  <object id="551" gid="133" x="128" y="272" width="16" height="16">
   <properties>
    <property name="z index" type="int" value="0"/>
   </properties>
  </object>
  <object id="552" gid="133" x="128" y="288" width="16" height="16">
   <properties>
    <property name="z index" type="int" value="0"/>
   </properties>
  </object>
  <object id="553" gid="133" x="144" y="288" width="16" height="16">
   <properties>
    <property name="z index" type="int" value="0"/>
   </properties>
  </object>
  <object id="554" gid="133" x="144" y="272" width="16" height="16">
   <properties>
    <property name="z index" type="int" value="0"/>
   </properties>
  </object>
  <object id="566" gid="133" x="96" y="368" width="16" height="16">
   <properties>
    <property name="z index" type="int" value="0"/>
   </properties>
  </object>
  <object id="567" gid="133" x="96" y="352" width="16" height="16">
   <properties>
    <property name="z index" type="int" value="0"/>
   </properties>
  </object>
  <object id="568" gid="133" x="96" y="336" width="16" height="16">
   <properties>
    <property name="z index" type="int" value="0"/>
   </properties>
  </object>
  <object id="569" gid="133" x="96" y="320" width="16" height="16">
   <properties>
    <property name="z index" type="int" value="0"/>
   </properties>
  </object>
  <object id="570" gid="133" x="112" y="304" width="16" height="16">
   <properties>
    <property name="z index" type="int" value="0"/>
   </properties>
  </object>
  <object id="571" gid="133" x="128" y="304" width="16" height="16">
   <properties>
    <property name="z index" type="int" value="0"/>
   </properties>
  </object>
  <object id="572" gid="133" x="144" y="304" width="16" height="16">
   <properties>
    <property name="z index" type="int" value="0"/>
   </properties>
  </object>
  <object id="573" gid="133" x="96" y="304" width="16" height="16">
   <properties>
    <property name="z index" type="int" value="0"/>
   </properties>
  </object>
  <object id="574" gid="133" x="96" y="288" width="16" height="16">
   <properties>
    <property name="z index" type="int" value="0"/>
   </properties>
  </object>
  <object id="575" gid="133" x="96" y="272" width="16" height="16">
   <properties>
    <property name="z index" type="int" value="0"/>
   </properties>
  </object>
  <object id="576" gid="718" x="1640" y="256" width="16" height="16">
   <properties>
    <property name="bg layer" value="1"/>
   </properties>
  </object>
  <object id="577" gid="5973" x="2539" y="272" width="16" height="16"/>
  <object id="578" gid="5973" x="2539" y="288" width="16" height="16"/>
  <object id="580" gid="718" x="1184" y="304" width="16" height="16">
   <properties>
    <property name="bg layer" value="2"/>
   </properties>
  </object>
  <object id="581" gid="718" x="1200" y="304" width="16" height="16">
   <properties>
    <property name="bg layer" value="2"/>
   </properties>
  </object>
  <object id="582" gid="718" x="1328" y="304" width="16" height="16">
   <properties>
    <property name="bg layer" value="2"/>
   </properties>
  </object>
  <object id="583" gid="718" x="1344" y="304" width="16" height="16">
   <properties>
    <property name="bg layer" value="2"/>
   </properties>
  </object>
  <object id="584" gid="718" x="224" y="304" width="16" height="16">
   <properties>
    <property name="bg layer" value="2"/>
   </properties>
  </object>
  <object id="585" gid="718" x="240" y="304" width="16" height="16">
   <properties>
    <property name="bg layer" value="2"/>
   </properties>
  </object>
  <object id="586" gid="718" x="1488" y="240" width="16" height="16">
   <properties>
    <property name="bg layer" value="2"/>
   </properties>
  </object>
  <object id="587" gid="718" x="1792" y="320" width="16" height="16">
   <properties>
    <property name="bg layer" value="2"/>
   </properties>
  </object>
  <object id="588" gid="718" x="1840" y="320" width="16" height="16">
   <properties>
    <property name="bg layer" value="2"/>
   </properties>
  </object>
  <object id="589" gid="718" x="1776" y="336" width="16" height="16">
   <properties>
    <property name="bg layer" value="2"/>
   </properties>
  </object>
  <object id="590" gid="718" x="2048" y="320" width="16" height="16">
   <properties>
    <property name="bg layer" value="2"/>
   </properties>
  </object>
  <object id="591" gid="718" x="2064" y="320" width="16" height="16">
   <properties>
    <property name="bg layer" value="2"/>
   </properties>
  </object>
  <object id="592" gid="718" x="2096" y="336" width="16" height="16">
   <properties>
    <property name="bg layer" value="2"/>
   </properties>
  </object>
  <object id="593" gid="718" x="2128" y="336" width="16" height="16">
   <properties>
    <property name="bg layer" value="2"/>
   </properties>
  </object>
  <object id="594" gid="718" x="2144" y="336" width="16" height="16">
   <properties>
    <property name="bg layer" value="2"/>
   </properties>
  </object>
  <object id="595" gid="718" x="2160" y="336" width="16" height="16">
   <properties>
    <property name="bg layer" value="2"/>
   </properties>
  </object>
  <object id="596" gid="718" x="2176" y="336" width="16" height="16">
   <properties>
    <property name="bg layer" value="2"/>
   </properties>
  </object>
  <object id="597" gid="718" x="2176" y="320" width="16" height="16">
   <properties>
    <property name="bg layer" value="2"/>
   </properties>
  </object>
  <object id="598" gid="718" x="1600" y="320" width="16" height="16">
   <properties>
    <property name="bg layer" value="2"/>
   </properties>
  </object>
  <object id="599" gid="718" x="1616" y="320" width="16" height="16">
   <properties>
    <property name="bg layer" value="2"/>
   </properties>
  </object>
  <object id="600" gid="718" x="1632" y="320" width="16" height="16">
   <properties>
    <property name="bg layer" value="2"/>
   </properties>
  </object>
  <object id="601" gid="718" x="1648" y="336" width="16" height="16">
   <properties>
    <property name="bg layer" value="2"/>
   </properties>
  </object>
  <object id="602" gid="718" x="1616" y="336" width="16" height="16">
   <properties>
    <property name="bg layer" value="2"/>
   </properties>
  </object>
  <object id="603" gid="718" x="1632" y="336" width="16" height="16">
   <properties>
    <property name="bg layer" value="2"/>
   </properties>
  </object>
  <object id="604" gid="718" x="1600" y="336" width="16" height="16">
   <properties>
    <property name="bg layer" value="2"/>
   </properties>
  </object>
  <object id="605" gid="718" x="1584" y="336" width="16" height="16">
   <properties>
    <property name="bg layer" value="2"/>
   </properties>
  </object>
  <object id="606" gid="718" x="1744" y="320" width="16" height="16">
   <properties>
    <property name="bg layer" value="2"/>
   </properties>
  </object>
  <object id="607" gid="718" x="2240" y="336" width="16" height="16">
   <properties>
    <property name="bg layer" value="2"/>
   </properties>
  </object>
  <object id="608" gid="718" x="2272" y="336" width="16" height="16">
   <properties>
    <property name="bg layer" value="2"/>
   </properties>
  </object>
  <object id="609" gid="718" x="2288" y="336" width="16" height="16">
   <properties>
    <property name="bg layer" value="2"/>
   </properties>
  </object>
  <object id="610" gid="718" x="2304" y="336" width="16" height="16">
   <properties>
    <property name="bg layer" value="2"/>
   </properties>
  </object>
  <object id="611" gid="718" x="2320" y="336" width="16" height="16">
   <properties>
    <property name="bg layer" value="2"/>
   </properties>
  </object>
  <object id="612" gid="718" x="2320" y="320" width="16" height="16">
   <properties>
    <property name="bg layer" value="2"/>
   </properties>
  </object>
  <object id="613" gid="718" x="2544" y="272" width="16" height="16">
   <properties>
    <property name="bg layer" value="2"/>
   </properties>
  </object>
  <object id="614" gid="718" x="2544" y="288" width="16" height="16">
   <properties>
    <property name="bg layer" value="2"/>
   </properties>
  </object>
  <object id="615" gid="718" x="2512" y="304" width="16" height="16">
   <properties>
    <property name="bg layer" value="2"/>
   </properties>
  </object>
  <object id="616" gid="718" x="2512" y="336" width="16" height="16">
   <properties>
    <property name="bg layer" value="2"/>
   </properties>
  </object>
  <object id="617" gid="718" x="2496" y="336" width="16" height="16">
   <properties>
    <property name="bg layer" value="2"/>
   </properties>
  </object>
  <object id="618" gid="718" x="2480" y="336" width="16" height="16">
   <properties>
    <property name="bg layer" value="2"/>
   </properties>
  </object>
  <object id="619" gid="718" x="2464" y="336" width="16" height="16">
   <properties>
    <property name="bg layer" value="2"/>
   </properties>
  </object>
  <object id="622" gid="718" x="2448" y="336" width="16" height="16">
   <properties>
    <property name="bg layer" value="2"/>
   </properties>
  </object>
  <object id="623" gid="718" x="2432" y="336" width="16" height="16">
   <properties>
    <property name="bg layer" value="2"/>
   </properties>
  </object>
  <object id="624" gid="718" x="2416" y="336" width="16" height="16">
   <properties>
    <property name="bg layer" value="2"/>
   </properties>
  </object>
  <object id="625" gid="718" x="2400" y="336" width="16" height="16">
   <properties>
    <property name="bg layer" value="2"/>
   </properties>
  </object>
  <object id="627" gid="718" x="2320" y="256" width="16" height="16">
   <properties>
    <property name="bg layer" value="2"/>
   </properties>
  </object>
  <object id="628" gid="718" x="1568" y="256" width="16" height="16">
   <properties>
    <property name="bg layer" value="2"/>
   </properties>
  </object>
  <object id="629" gid="718" x="1456" y="256" width="16" height="16">
   <properties>
    <property name="bg layer" value="2"/>
   </properties>
  </object>
  <object id="630" gid="718" x="1632" y="256" width="16" height="16">
   <properties>
    <property name="bg layer" value="2"/>
   </properties>
  </object>
  <object id="631" gid="718" x="1632" y="240" width="16" height="16">
   <properties>
    <property name="bg layer" value="2"/>
   </properties>
  </object>
  <object id="632" gid="718" x="1616" y="224" width="16" height="16">
   <properties>
    <property name="bg layer" value="2"/>
   </properties>
  </object>
  <object id="633" gid="718" x="1616" y="240" width="16" height="16">
   <properties>
    <property name="bg layer" value="2"/>
   </properties>
  </object>
  <object id="634" gid="718" x="1616" y="256" width="16" height="16">
   <properties>
    <property name="bg layer" value="2"/>
   </properties>
  </object>
  <object id="635" gid="718" x="1632" y="224" width="16" height="16">
   <properties>
    <property name="bg layer" value="2"/>
   </properties>
  </object>
  <object id="636" gid="718" x="1616" y="272" width="16" height="16">
   <properties>
    <property name="bg layer" value="2"/>
   </properties>
  </object>
  <object id="637" gid="718" x="1776" y="240" width="16" height="16">
   <properties>
    <property name="bg layer" value="2"/>
   </properties>
  </object>
  <object id="638" gid="718" x="1792" y="240" width="16" height="16">
   <properties>
    <property name="bg layer" value="2"/>
   </properties>
  </object>
  <object id="639" gid="718" x="1808" y="240" width="16" height="16">
   <properties>
    <property name="bg layer" value="2"/>
   </properties>
  </object>
  <object id="640" gid="718" x="1760" y="240" width="16" height="16">
   <properties>
    <property name="bg layer" value="2"/>
   </properties>
  </object>
  <object id="641" gid="718" x="1744" y="240" width="16" height="16">
   <properties>
    <property name="bg layer" value="2"/>
   </properties>
  </object>
  <object id="642" gid="718" x="1936" y="256" width="16" height="16">
   <properties>
    <property name="bg layer" value="2"/>
   </properties>
  </object>
  <object id="643" gid="718" x="1904" y="240" width="16" height="16">
   <properties>
    <property name="bg layer" value="2"/>
   </properties>
  </object>
  <object id="644" gid="718" x="1872" y="256" width="16" height="16">
   <properties>
    <property name="bg layer" value="2"/>
   </properties>
  </object>
  <object id="645" gid="718" x="1840" y="240" width="16" height="16">
   <properties>
    <property name="bg layer" value="2"/>
   </properties>
  </object>
  <object id="646" gid="718" x="2176" y="256" width="16" height="16">
   <properties>
    <property name="bg layer" value="2"/>
   </properties>
  </object>
  <object id="647" gid="718" x="2160" y="240" width="16" height="16">
   <properties>
    <property name="bg layer" value="2"/>
   </properties>
  </object>
  <object id="648" gid="718" x="2112" y="240" width="16" height="16">
   <properties>
    <property name="bg layer" value="2"/>
   </properties>
  </object>
  <object id="649" gid="718" x="2096" y="256" width="16" height="16">
   <properties>
    <property name="bg layer" value="2"/>
   </properties>
  </object>
  <object id="650" gid="718" x="2048" y="240" width="16" height="16">
   <properties>
    <property name="bg layer" value="2"/>
   </properties>
  </object>
  <object id="651" gid="718" x="2032" y="256" width="16" height="16">
   <properties>
    <property name="bg layer" value="2"/>
   </properties>
  </object>
  <object id="652" gid="718" x="2240" y="256" width="16" height="16">
   <properties>
    <property name="bg layer" value="2"/>
   </properties>
  </object>
  <object id="653" gid="718" x="2256" y="240" width="16" height="16">
   <properties>
    <property name="bg layer" value="2"/>
   </properties>
  </object>
  <object id="654" gid="718" x="2304" y="240" width="16" height="16">
   <properties>
    <property name="bg layer" value="2"/>
   </properties>
  </object>
 </objectgroup>
</map>
