<?xml version="1.0" encoding="UTF-8"?>
<map version="1.10" tiledversion="1.11.2" orientation="orthogonal" renderorder="right-down" width="1939" height="27" tilewidth="16" tileheight="16" infinite="0" nextlayerid="8" nextobjectid="3364">
 <editorsettings>
  <export target="tetrix.json" format="json"/>
 </editorsettings>
 <properties>
  <property name="BG" type="color" value="#ff000000"/>
  <property name="Background Type" type="int" value="0"/>
  <property name="COL1" type="color" value="#ff000000"/>
  <property name="COL2" type="color" value="#ff000000"/>
  <property name="COL3" type="color" value="#ffffffff"/>
  <property name="COL4" type="color" value="#ffffffff"/>
  <property name="Difficulty" value="INSANE"/>
  <property name="GROUND" type="color" value="#ff000000"/>
  <property name="Gamemode" type="int" value="0"/>
  <property name="Ground Type" type="int" value="1"/>
  <property name="Level name" value="TETRIX"/>
  <property name="OBJ" type="color" value="#ffffffff"/>
  <property name="Song" value="STEREOMA"/>
  <property name="Speed" type="int" value="1"/>
  <property name="Stars" type="int" value="9"/>
 </properties>
 <tileset firstgid="1" source="famidash.tsx"/>
 <tileset firstgid="16385" source="sprites.tsx"/>
 <layer id="4" name="l2" width="1939" height="27">
  <data encoding="csv">
1,1,1,1,1,1,1,1,1,1,1,1,1,1,1,1,1,1,1,1,1,1,1,1,1,1,1,1,1,1,1,1,1,1,1,1,1,1,1,1,1,1,1,1,1,1,1,1,1,1,1,1,1,1,1,1,1,1,1,1,1,1,1,1,1,1,1,1,1,1,1,1,1,1,1,1,1,1,1,1,1,1,1,1,1,1,1,1,1,1,1,1,1,1,1,1,1,1,1,1,1,1,1,1,1,1,1,1,1,1,1,1,1,1,1,1,1,1,1,1,1,1,1,1,1,1,1,1,1,1,1,1,1,1,1,1,1,1,1,1,1,1,1,1,1,1,1,1,1,1,1,1,1,1,1,1,1,1,1,1,1,1,1,1,1,1,1,1,1,1,1,1,1,1,1,1,1,1,1,1,1,1,1,1,1,1,1,1,1,1,1,1,1,1,1,1,1,1,1,1,1,1,1,1,1,1,1,1,1,1,1,1,1,1,1,1,1,1,1,1,1,1,1,1,1,1,1,1,1,1,1,1,1,1,1,1,1,1,1,1,1,1,1,1,1,1,1,1,1,1,1,1,1,1,1,1,1,1,1,1,1,1,1,1,1,1,1,1,1,1,1,1,1,1,1,1,1,1,1,1,1,1,1,1,1,1,1,1,1,1,1,1,1,1,1,1,1,1,1,1,1,1,1,1,1,1,1,1,1,1,1,1,1,1,1,1,1,1,1,1,1,1,1,1,1,1,1,1,1,1,1,1,1,1,1,1,1,1,1,1,1,1,1,1,1,1,1,1,1,1,1,1,1,1,1,1,1,1,1,1,1,1,1,1,1,1,1,1,1,1,1,1,1,1,1,1,1,1,1,1,1,1,1,1,1,1,1,1,1,1,1,1,1,1,1,1,1,1,1,1,1,1,1,1,1,1,1,1,1,1,1,1,1,1,1,1,1,1,1,1,1,1,1,1,1,1,1,1,1,1,1,1,1,1,1,1,1,1,1,1,1,1,1,1,1,1,1,1,1,1,1,1,1,1,1,1,1,1,1,1,1,1,1,1,1,1,1,1,1,1,1,1,1,1,1,1,1,1,1,1,1,1,1,1,1,1,1,1,1,1,1,1,1,1,1,1,1,1,1,1,1,1,1,1,1,1,1,1,1,1,1,1,1,1,1,1,1,1,1,1,1,1,1,1,1,1,1,1,1,1,1,1,1,1,1,1,1,1,1,1,1,1,1,1,1,1,1,1,1,1,1,1,1,1,1,1,1,1,1,1,1,1,1,1,1,1,1,1,1,1,1,1,1,1,1,1,1,1,1,1,1,1,1,1,1,1,1,1,1,1,1,1,1,1,1,1,1,1,1,1,1,1,1,1,1,1,1,1,1,1,1,1,1,1,1,1,1,1,1,1,1,1,1,1,1,1,1,1,1,1,1,1,1,1,1,1,1,1,1,1,1,1,1,1,1,1,1,1,1,1,1,1,1,1,1,1,1,1,1,1,1,1,1,1,1,1,1,1,1,1,1,1,1,1,1,1,1,1,1,1,1,1,1,1,1,1,1,1,1,1,1,1,1,1,1,1,1,1,1,1,1,1,1,1,1,1,1,1,1,1,1,1,1,1,1,1,1,1,1,1,1,1,1,1,1,1,1,1,1,1,1,1,1,1,1,1,1,1,1,1,1,1,1,1,1,1,1,1,1,1,1,1,1,1,1,1,1,1,1,1,1,1,1,1,1,1,1,1,1,1,1,1,1,1,1,1,1,1,1,1,1,1,1,1,1,1,1,1,1,1,1,1,1,1,1,1,1,1,1,1,1,1,1,1,1,1,1,1,1,1,1,1,1,1,1,1,1,1,1,1,1,1,1,1,1,1,1,1,1,1,1,1,1,1,1,1,1,1,1,1,1,1,1,1,1,1,1,1,1,1,1,1,1,1,1,1,1,1,1,1,1,1,1,1,1,1,1,1,1,1,1,1,1,1,1,1,1,1,1,1,1,1,1,1,1,1,1,1,1,1,1,1,1,1,1,0,0,0,0,0,0,0,0,0,0,0,0,0,0,0,0,0,0,0,0,0,0,0,0,0,0,0,0,0,0,0,0,0,0,0,0,0,0,0,0,0,0,0,0,0,0,0,0,0,0,0,0,0,0,0,0,0,0,0,0,0,0,0,0,0,0,0,0,0,0,0,0,0,0,0,0,0,0,0,0,0,0,0,0,0,0,0,0,0,0,0,0,0,0,0,0,0,0,0,0,0,0,0,0,0,0,0,0,0,0,0,0,0,0,0,0,0,0,0,0,0,0,0,0,0,0,0,0,0,0,0,0,0,0,0,0,0,0,0,0,0,0,0,0,0,0,0,0,0,0,0,0,0,0,0,0,0,0,0,0,0,0,0,0,0,0,0,0,0,0,0,0,0,0,0,0,0,0,0,0,0,0,0,0,0,0,0,0,0,0,0,0,0,0,0,0,0,0,0,0,0,0,0,0,0,0,0,0,0,0,0,0,0,0,0,0,0,0,0,0,0,0,0,0,0,0,0,0,0,0,0,0,0,0,0,0,0,0,0,0,0,0,0,0,0,0,0,0,0,0,0,0,0,0,0,0,0,0,0,0,0,0,0,0,0,0,0,0,0,0,0,0,0,0,0,0,0,0,0,0,0,0,0,0,0,0,0,0,0,0,0,0,0,0,0,0,0,0,0,0,0,0,0,0,0,0,0,0,0,0,0,0,0,0,0,0,0,0,0,0,0,0,0,0,0,0,0,0,0,0,0,0,0,0,0,0,0,0,0,0,0,0,0,0,0,0,0,0,0,0,0,0,0,0,0,0,0,0,0,0,0,0,0,0,0,0,0,0,0,0,0,0,0,0,0,0,0,0,0,0,0,0,0,0,0,0,0,0,0,0,0,0,0,0,0,0,0,0,0,0,0,0,0,0,0,0,0,0,0,0,0,0,0,0,0,0,0,0,0,0,0,0,0,0,0,0,0,0,0,0,0,0,0,0,0,0,0,0,0,0,0,0,0,0,0,0,0,0,0,0,0,0,0,0,0,0,0,0,0,0,0,0,0,0,0,0,0,0,0,0,0,0,0,0,0,0,0,0,0,0,0,0,0,0,0,0,0,0,0,0,0,0,0,0,0,0,0,0,0,0,0,0,0,0,0,0,0,0,0,0,0,0,0,0,0,0,0,0,0,0,0,0,0,0,0,0,0,0,0,0,0,0,0,0,0,0,0,0,0,0,0,0,0,0,0,0,0,0,0,0,0,0,0,0,0,0,0,0,0,0,0,0,0,0,0,0,0,0,0,0,0,0,0,0,0,0,0,0,0,0,0,0,0,0,0,0,0,0,0,0,0,0,0,0,0,0,0,0,0,0,0,0,0,0,0,0,0,0,0,0,0,0,0,0,0,0,0,0,0,0,0,0,0,0,0,0,0,0,0,0,0,0,0,0,0,0,0,0,0,0,0,0,0,0,0,0,0,0,0,0,0,0,0,0,0,0,0,0,0,0,0,0,0,0,0,0,0,0,0,0,0,0,0,0,0,0,0,0,0,0,0,0,0,0,0,0,0,0,0,0,0,0,0,0,0,0,0,0,0,0,0,0,0,0,0,0,0,0,0,0,0,0,0,0,0,0,0,0,0,0,0,0,0,0,0,0,0,0,0,0,0,0,0,0,0,0,0,0,0,0,0,0,0,0,0,0,0,0,0,0,0,0,0,0,0,0,0,0,0,0,0,0,0,0,0,0,0,0,0,0,0,0,0,0,0,0,0,0,0,0,0,0,0,0,0,0,0,0,0,0,0,0,0,0,0,0,0,0,0,0,0,0,0,0,0,0,0,0,0,0,0,0,0,0,0,0,0,0,0,0,0,0,0,0,0,0,0,0,0,0,0,0,0,0,0,0,0,0,0,0,0,0,0,0,0,0,0,0,0,0,0,0,0,0,0,0,0,0,0,0,0,0,0,0,0,0,0,0,0,0,0,0,0,0,0,0,0,0,0,0,0,0,0,0,0,0,0,0,0,0,0,0,0,0,0,0,0,0,0,0,0,0,0,0,0,0,0,0,0,0,0,0,0,0,0,0,0,0,0,0,0,0,0,0,0,0,0,0,0,0,0,0,0,0,0,0,0,0,0,0,0,0,0,0,0,0,0,0,0,0,0,0,0,0,0,0,0,0,0,0,0,0,0,0,0,0,0,0,0,0,0,0,0,0,0,0,0,0,0,0,0,0,0,0,0,0,0,0,0,0,0,0,0,0,0,0,0,0,0,0,0,0,0,0,0,0,0,0,0,0,0,0,0,0,0,0,0,0,0,0,0,0,0,0,0,0,0,0,0,0,0,0,0,0,0,0,0,0,0,0,0,0,0,0,
1,1,1,1,1,1,1,1,1,1,1,1,1,1,1,1,1,1,1,1,1,1,1,1,1,1,1,1,1,1,1,1,1,1,1,1,1,1,1,1,1,1,1,1,1,1,1,1,1,1,1,1,1,1,1,1,1,1,1,1,1,1,1,1,1,1,1,1,1,1,1,1,1,1,1,1,1,1,1,1,1,1,1,1,1,1,1,1,1,1,1,1,1,1,1,1,1,1,1,1,1,1,1,1,1,1,1,1,1,1,1,1,1,1,1,1,1,1,1,1,1,1,1,1,1,1,1,1,1,1,1,1,1,1,1,1,1,1,1,1,1,1,1,1,1,1,1,1,1,1,1,1,1,1,1,1,1,1,1,1,1,1,1,1,1,1,1,1,1,1,1,1,1,1,1,1,1,1,1,1,1,1,1,1,1,1,1,1,1,1,1,1,1,1,1,1,1,1,1,1,1,1,1,1,1,1,1,1,1,1,1,1,1,1,1,1,1,1,1,1,1,1,1,1,1,1,1,1,1,1,1,1,1,1,1,1,1,1,1,1,1,1,1,1,1,1,1,1,1,1,1,1,1,1,1,1,1,1,1,1,1,1,1,1,1,1,1,1,1,1,1,1,1,1,1,1,1,1,1,1,1,1,1,1,1,1,1,1,1,1,1,1,1,1,1,1,1,1,1,1,1,1,1,1,1,1,1,1,1,1,1,1,1,1,1,1,1,1,1,1,1,1,1,1,1,1,1,1,1,1,1,1,1,1,1,1,1,1,1,1,1,1,1,1,1,1,1,1,1,1,1,1,1,1,1,1,1,1,1,1,1,1,1,1,1,1,1,1,1,1,1,1,1,1,1,1,1,1,1,1,1,1,1,1,1,1,1,1,1,1,1,1,1,1,1,1,1,1,1,1,1,1,1,1,1,1,1,1,1,1,1,1,1,1,1,1,1,1,1,1,1,1,1,1,1,1,1,1,1,1,1,1,1,1,1,1,1,1,1,1,1,1,1,1,1,1,1,1,1,1,1,1,1,1,1,1,1,1,1,1,1,1,1,1,1,1,1,1,1,1,1,1,1,1,1,1,1,1,1,1,1,1,1,1,1,1,1,1,1,1,1,1,1,1,1,1,1,1,1,1,1,1,1,1,1,1,1,1,1,1,1,1,1,1,1,1,1,1,1,1,1,1,1,1,1,1,1,1,1,1,1,1,1,1,1,1,1,1,1,1,1,1,1,1,1,1,1,1,1,1,1,1,1,1,1,1,1,1,1,1,1,1,1,1,1,1,1,1,1,1,1,1,1,1,1,1,1,1,1,1,1,1,1,1,1,1,1,1,1,1,1,1,1,1,1,1,1,1,1,1,1,1,1,1,1,1,1,1,1,1,1,1,1,1,1,1,1,1,1,1,1,1,1,1,1,1,1,1,1,1,1,1,1,1,1,1,1,1,1,1,1,1,1,1,1,1,1,1,1,1,1,1,1,1,1,1,1,1,1,1,1,1,1,1,1,1,1,1,1,1,1,1,1,1,1,1,1,1,1,1,1,1,1,1,1,1,1,1,1,1,1,1,1,1,1,1,1,1,1,1,1,1,1,1,1,1,1,1,1,1,1,1,1,1,1,1,1,1,1,1,1,1,1,1,1,1,1,1,1,1,1,1,1,1,1,1,1,1,1,1,1,1,1,1,1,1,1,1,1,1,1,1,1,1,1,1,1,1,1,1,1,1,1,1,1,1,1,1,1,1,1,1,1,1,1,1,1,1,1,1,1,1,1,1,1,1,1,1,1,1,1,1,1,1,1,1,1,1,1,1,1,1,1,1,1,1,1,1,1,1,1,1,1,1,1,1,1,1,1,1,1,1,1,1,1,1,1,1,1,1,1,1,1,1,1,1,1,1,1,1,1,1,1,1,1,1,1,1,1,1,1,1,1,1,1,1,1,1,1,1,1,1,1,1,1,1,1,1,1,1,1,1,1,1,1,1,1,1,1,1,1,1,1,1,1,1,1,1,1,1,1,1,1,1,1,0,0,0,0,0,0,0,0,0,0,0,0,0,0,0,0,0,0,0,0,0,0,0,0,0,0,0,0,0,0,0,0,0,0,0,0,0,0,0,0,0,0,0,0,0,0,0,0,0,0,0,0,0,0,0,0,0,0,0,0,0,0,0,0,0,0,0,0,0,0,0,0,0,0,0,0,0,0,0,0,0,0,0,0,0,0,0,0,0,0,0,0,0,0,0,0,0,0,0,0,0,0,0,0,0,0,0,0,0,0,0,0,0,0,0,0,0,0,0,0,0,0,0,0,0,0,0,0,0,0,0,0,0,0,0,0,0,0,0,0,0,0,0,0,0,0,0,0,0,0,0,0,0,0,0,0,0,0,0,0,0,0,0,0,0,0,0,0,0,0,0,0,0,0,0,0,0,0,0,0,0,0,0,0,0,0,0,0,0,0,0,0,0,0,0,0,0,0,0,0,0,0,0,0,0,0,0,0,0,0,0,0,0,0,0,0,0,0,0,0,0,0,0,0,0,0,0,0,0,0,0,0,0,0,0,0,0,0,0,0,0,0,0,0,0,0,0,0,0,0,0,0,0,0,0,0,0,0,0,0,0,0,0,0,0,0,0,0,0,0,0,0,0,0,0,0,0,0,0,0,0,0,0,0,0,0,0,0,0,0,0,0,0,0,0,0,0,0,0,0,0,0,0,0,0,0,0,0,0,0,0,0,0,0,0,0,0,0,0,0,0,0,0,0,0,0,0,0,0,0,0,0,0,0,0,0,0,0,0,0,0,0,0,0,0,0,0,0,0,0,0,0,0,0,0,0,0,0,0,0,0,0,0,0,0,0,0,0,0,0,0,0,0,0,0,0,0,0,0,0,0,0,0,0,0,0,0,0,0,0,0,0,0,0,0,0,0,0,0,0,0,0,0,0,0,0,0,0,0,0,0,0,0,0,0,0,0,0,0,0,0,0,0,0,0,0,0,0,0,0,0,0,0,0,0,0,0,0,0,0,0,0,0,0,0,0,0,0,0,0,0,0,0,0,0,0,0,0,0,0,0,0,0,0,0,0,0,0,0,0,0,0,0,0,0,0,0,0,0,0,0,0,0,0,0,0,0,0,0,0,0,0,0,0,0,0,0,0,0,0,0,0,0,0,0,0,0,0,0,0,0,0,0,0,0,0,0,0,0,0,0,0,0,0,0,0,0,0,0,0,0,0,0,0,0,0,0,0,0,0,0,0,0,0,0,0,0,0,0,0,0,0,0,0,0,0,0,0,0,0,0,0,0,0,0,0,0,0,0,0,0,0,0,0,0,0,0,0,0,0,0,0,0,0,0,0,0,0,0,0,0,0,0,0,0,0,0,0,0,0,0,0,0,0,0,0,0,0,0,0,0,0,0,0,0,0,0,0,0,0,0,0,0,0,0,0,0,0,0,0,0,0,0,0,0,0,0,0,0,0,0,0,0,0,0,0,0,0,0,0,0,0,0,0,0,0,0,0,0,0,0,0,0,0,0,0,0,0,0,0,0,0,0,0,0,0,0,0,0,0,0,0,0,0,0,0,0,0,0,0,0,0,0,0,0,0,0,0,0,0,0,0,0,0,0,0,0,0,0,0,0,0,0,0,0,0,0,0,0,0,0,0,0,0,0,0,0,0,0,0,0,0,0,0,0,0,0,0,0,0,0,0,0,0,0,0,0,0,0,0,0,0,0,0,0,0,0,0,0,0,0,0,0,0,0,0,0,0,0,0,0,0,0,0,0,0,0,0,0,0,0,0,0,0,0,0,0,0,0,0,0,0,0,0,0,0,0,0,0,0,0,0,0,0,0,0,0,0,0,0,0,0,0,0,0,0,0,0,0,0,0,0,0,0,0,0,0,0,0,0,0,0,0,0,0,0,0,0,0,0,0,0,0,0,0,0,0,0,0,0,0,0,0,0,0,0,0,0,0,0,0,0,0,0,0,0,0,0,0,0,0,0,0,0,0,0,0,0,0,0,0,0,0,0,0,0,0,0,0,0,0,0,0,0,0,0,0,0,0,0,0,0,0,0,0,0,0,0,0,0,0,0,0,0,0,0,0,0,0,0,0,0,0,0,0,0,0,0,0,0,0,0,0,0,0,0,0,0,0,0,0,0,0,0,0,0,0,0,0,0,0,0,0,0,0,0,0,0,0,0,0,0,0,0,0,0,0,0,0,0,0,0,0,0,0,0,0,0,0,0,0,0,0,0,0,0,0,0,0,0,0,0,0,0,0,0,0,0,0,0,0,0,0,0,0,0,0,0,0,0,0,0,0,0,0,0,0,0,0,0,0,0,0,0,0,0,0,0,0,0,0,0,0,0,0,0,0,0,0,0,0,0,0,0,
1,1,1,1,1,1,1,1,1,1,1,1,1,1,1,1,1,1,1,1,1,1,1,1,1,1,1,1,1,1,1,1,1,1,1,1,1,1,1,1,1,1,1,1,1,1,1,1,1,1,1,1,1,1,1,1,1,1,1,1,1,1,1,1,1,1,1,1,1,1,1,1,1,1,1,1,1,1,1,1,1,1,1,1,1,1,1,1,1,1,1,1,1,1,1,1,1,1,1,1,1,1,1,1,1,1,1,1,1,1,1,1,1,1,1,1,1,1,1,1,1,1,1,1,1,1,1,1,1,1,1,1,1,1,1,1,1,1,1,1,1,1,1,1,1,1,1,1,1,1,1,1,1,1,1,1,1,1,1,1,1,1,1,1,1,1,1,1,1,1,1,1,1,1,1,1,1,1,1,1,1,1,1,1,1,1,1,1,1,1,1,1,1,1,1,1,1,1,1,1,1,1,1,1,1,1,1,1,1,1,1,1,1,1,1,1,1,1,1,1,1,1,1,1,1,1,1,1,1,1,1,1,1,1,1,1,1,1,1,1,1,1,1,1,1,1,1,1,1,1,1,1,1,1,1,1,1,1,1,1,1,1,1,1,1,1,1,1,1,1,1,1,1,1,1,1,1,1,1,1,1,1,1,1,1,1,1,1,1,1,1,1,1,1,1,1,1,1,1,1,1,1,1,1,1,1,1,1,1,1,1,1,1,1,1,1,1,1,1,1,1,1,1,1,1,1,1,1,1,1,1,1,1,1,1,1,1,1,1,1,1,1,1,1,1,1,1,1,1,1,1,1,1,1,1,1,1,1,1,1,1,1,1,1,1,1,1,1,1,1,1,1,1,1,1,1,1,1,1,1,1,1,1,1,1,1,1,1,1,1,1,1,1,1,1,1,1,1,1,1,1,1,1,1,1,1,1,1,1,1,1,1,1,1,1,1,1,1,1,1,1,1,1,1,1,1,1,1,1,1,1,1,1,1,1,1,1,1,1,1,1,1,1,1,1,1,1,1,1,1,1,1,1,1,1,1,1,1,1,1,1,1,1,1,1,1,1,1,1,1,1,1,1,1,1,1,1,1,1,1,1,1,1,1,1,1,1,1,1,1,1,1,1,1,1,1,1,1,1,1,1,1,1,1,1,1,1,1,1,1,1,1,1,1,1,1,1,1,1,1,1,1,1,1,1,1,1,1,1,1,1,1,1,1,1,1,1,1,1,1,1,1,1,1,1,1,1,1,1,1,1,1,1,1,1,1,1,1,1,1,1,1,1,1,1,1,1,1,1,1,1,1,1,1,1,1,1,1,1,1,1,1,1,1,1,1,1,1,1,1,1,1,1,1,1,1,1,1,1,1,1,1,1,1,1,1,1,1,1,1,1,1,1,1,1,1,1,1,1,1,1,1,1,1,1,1,1,1,1,1,1,1,1,1,1,1,1,1,1,1,1,1,1,1,1,1,1,1,1,1,1,1,1,1,1,1,1,1,1,1,1,1,1,1,1,1,1,1,1,1,1,1,1,1,1,1,1,1,1,1,1,1,1,1,1,1,1,1,1,1,1,1,1,1,1,1,1,1,1,1,1,1,1,1,1,1,1,1,1,1,1,1,1,1,1,1,1,1,1,1,1,1,1,1,1,1,1,1,1,1,1,1,1,1,1,1,1,1,1,1,1,1,1,1,1,1,1,1,1,1,1,1,1,1,1,1,1,1,1,1,1,1,1,1,1,1,1,1,1,1,1,1,1,1,1,1,1,1,1,1,1,1,1,1,1,1,1,1,1,1,1,1,1,1,1,1,1,1,1,1,1,1,1,1,1,1,1,1,1,1,1,1,1,1,1,1,1,1,1,1,1,1,1,1,1,1,1,1,1,1,1,1,1,1,1,1,1,1,1,1,1,1,1,1,1,1,1,1,1,1,1,1,1,1,1,1,1,1,1,1,1,1,1,1,1,1,1,1,1,1,1,1,1,1,1,1,1,1,1,1,1,1,1,1,1,1,1,1,1,1,1,1,1,1,1,0,0,0,0,0,0,0,0,0,0,0,0,0,0,0,0,0,0,0,0,0,0,0,0,0,0,0,0,0,0,0,0,0,0,0,0,0,0,0,0,0,0,0,0,0,0,0,0,0,0,0,0,0,0,0,0,0,0,0,0,0,0,0,0,0,0,0,0,0,0,0,0,0,0,0,0,0,0,0,0,0,0,0,0,0,0,0,0,0,0,0,0,0,0,0,0,0,0,0,0,0,0,0,0,0,0,0,0,0,0,0,0,0,0,0,0,0,0,0,0,0,0,0,0,0,0,0,0,0,0,0,0,0,0,0,0,0,0,0,0,0,0,0,0,0,0,0,0,0,0,0,0,0,0,0,0,0,0,0,0,0,0,0,0,0,0,0,0,0,0,0,0,0,0,0,0,0,0,0,0,0,0,0,0,0,0,0,0,0,0,0,0,0,0,0,0,0,0,0,0,0,0,0,0,0,0,0,0,0,0,0,0,0,0,0,0,0,0,0,0,0,0,0,0,0,0,0,0,0,0,0,0,0,0,0,0,0,0,0,0,0,0,0,0,0,0,0,0,0,0,0,0,0,0,0,0,0,0,0,0,0,0,0,0,0,0,0,0,0,0,0,0,0,0,0,0,0,0,0,0,0,0,0,0,0,0,0,0,0,0,0,0,0,0,0,0,0,0,0,0,0,0,0,0,0,0,0,0,0,0,0,0,0,0,0,0,0,0,0,0,0,0,0,0,0,0,0,0,0,0,0,0,0,0,0,0,0,0,0,0,0,0,0,0,0,0,0,0,0,0,0,0,0,0,0,0,0,0,0,0,0,0,0,0,0,0,0,0,0,0,0,0,0,0,0,0,0,0,0,0,0,0,0,0,0,0,0,0,0,0,0,0,0,0,0,0,0,0,0,0,0,0,0,0,0,0,0,0,0,0,0,0,0,0,0,0,0,0,0,0,0,0,0,0,0,0,0,0,0,0,0,0,0,0,0,0,0,0,0,0,0,0,0,0,0,0,0,0,0,0,0,0,0,0,0,0,0,0,0,0,0,0,0,0,0,0,0,0,0,0,0,0,0,0,0,0,0,0,0,0,0,0,0,0,0,0,0,0,0,0,0,0,0,0,0,0,0,0,0,0,0,0,0,0,0,0,0,0,0,0,0,0,0,0,0,0,0,0,0,0,0,0,0,0,0,0,0,0,0,0,0,0,0,0,0,0,0,0,0,0,0,0,0,0,0,0,0,0,0,0,0,0,0,0,0,0,0,0,0,0,0,0,0,0,0,0,0,0,0,0,0,0,0,0,0,0,0,0,0,0,0,0,0,0,0,0,0,0,0,0,0,0,0,0,0,0,0,0,0,0,0,0,0,0,0,0,0,0,0,0,0,0,0,0,0,0,0,0,0,0,0,0,0,0,0,0,0,0,0,0,0,0,0,0,0,0,0,0,0,0,0,0,0,0,0,0,0,0,0,0,0,0,0,0,0,0,0,0,0,0,0,0,0,0,0,0,0,0,0,0,0,0,0,0,0,0,0,0,0,0,0,0,0,0,0,0,0,0,0,0,0,0,0,0,0,0,0,0,0,0,0,0,0,0,0,0,0,0,0,0,0,0,0,0,0,0,0,0,0,0,0,0,0,0,0,0,0,0,0,0,0,0,0,0,0,0,0,0,0,0,0,0,0,0,0,0,0,0,0,0,0,0,0,0,0,0,0,0,0,0,0,0,0,0,0,0,0,0,0,0,0,0,0,0,0,0,0,0,0,0,0,0,0,0,0,0,0,0,0,0,0,0,0,0,0,0,0,0,0,0,0,0,0,0,0,0,0,0,0,0,0,0,0,0,0,0,0,0,0,0,0,0,0,0,0,0,0,0,0,0,0,0,0,0,0,0,0,0,0,0,0,0,0,0,0,0,0,0,0,0,0,0,0,0,0,0,0,0,0,0,0,0,0,0,0,0,0,0,0,0,0,0,0,0,0,0,0,0,0,0,0,0,0,0,0,0,0,0,0,0,0,0,0,0,0,0,0,0,0,0,0,0,0,0,0,0,0,0,0,0,0,0,0,0,0,0,0,0,0,0,0,0,0,0,0,0,0,0,0,0,0,0,0,0,0,0,0,0,0,0,0,0,0,0,0,0,0,0,0,0,0,0,0,0,0,0,0,0,0,0,0,0,0,0,0,0,0,0,0,0,0,0,0,0,0,0,0,0,0,0,0,0,0,0,0,0,0,0,0,0,0,0,0,0,0,0,0,0,0,0,0,0,0,0,0,0,0,0,0,0,0,0,0,0,0,0,0,0,0,0,0,0,0,0,0,0,0,0,0,0,0,0,0,0,0,0,0,0,0,0,0,0,0,0,
1,1,1,1,1,1,1,1,1,1,1,1,1,1,1,1,1,1,1,1,1,1,1,1,1,1,1,1,1,1,1,1,1,1,1,1,1,1,1,1,1,1,1,1,1,1,1,1,1,1,1,1,1,1,1,1,1,1,1,1,1,1,1,1,1,1,1,1,1,1,1,1,1,1,1,1,1,1,1,1,1,1,1,1,1,1,1,1,1,1,1,1,1,1,1,1,1,1,1,1,1,1,1,1,1,1,1,1,1,1,1,1,1,1,1,1,1,1,1,1,1,1,1,1,1,1,1,1,1,1,1,1,1,1,1,1,1,1,1,1,1,1,1,1,1,1,1,1,1,1,1,1,1,1,1,1,1,1,1,1,1,1,1,1,1,1,1,1,1,1,1,1,1,1,1,1,1,1,1,1,1,1,1,1,1,1,1,1,1,1,1,1,1,1,1,1,1,1,1,1,1,1,1,1,1,1,1,1,1,1,1,1,1,1,1,1,1,1,1,1,1,1,1,1,1,1,1,1,1,1,1,1,1,1,1,1,1,1,1,1,1,1,1,1,1,1,1,1,1,1,1,1,1,1,1,1,1,1,1,1,1,1,1,1,1,1,1,1,1,1,1,1,1,1,1,1,1,1,1,1,1,1,1,1,1,1,1,1,1,1,1,1,1,1,1,1,1,1,1,1,1,1,1,1,1,1,1,1,1,1,1,1,1,1,1,1,1,1,1,1,1,1,1,1,1,1,1,1,1,1,1,1,1,1,1,1,1,1,1,1,1,1,1,1,1,1,1,1,1,1,1,1,1,1,1,1,1,1,1,1,1,1,1,1,1,1,1,1,1,1,1,1,1,1,1,1,1,1,1,1,1,1,1,1,1,1,1,1,1,1,1,1,1,1,1,1,1,1,1,1,1,1,1,1,1,1,1,1,1,1,1,1,1,1,1,1,1,1,1,1,1,1,1,1,1,1,1,1,1,1,1,1,1,1,1,1,1,1,1,1,1,1,1,1,1,1,1,1,1,1,1,1,1,1,1,1,1,1,1,1,1,1,1,1,1,1,1,1,1,1,1,1,1,1,1,1,1,1,1,1,1,1,1,1,1,1,1,1,1,1,1,1,1,1,1,1,1,1,1,1,1,1,1,1,1,1,1,1,1,1,1,1,1,1,1,1,1,1,1,1,1,1,1,1,1,1,1,1,1,1,1,1,1,1,1,1,1,1,1,1,1,1,1,1,1,1,1,1,1,1,1,1,1,1,1,1,1,1,1,1,1,1,1,1,1,1,1,1,1,1,1,1,1,1,1,1,1,1,1,1,1,1,1,1,1,1,1,1,1,1,1,1,1,1,1,1,1,1,1,1,1,1,1,1,1,1,1,1,1,1,1,1,1,1,1,1,1,1,1,1,1,1,1,1,1,1,1,1,1,1,1,1,1,1,1,1,1,1,1,1,1,1,1,1,1,1,1,1,1,1,1,1,1,1,1,1,1,1,1,1,1,1,1,1,1,1,1,1,1,1,1,1,1,1,1,1,1,1,1,1,1,1,1,1,1,1,1,1,1,1,1,1,1,1,1,1,1,1,1,1,1,1,1,1,1,1,1,1,1,1,1,1,1,1,1,1,1,1,1,1,1,1,1,1,1,1,1,1,1,1,1,1,1,1,1,1,1,1,1,1,1,1,1,1,1,1,1,1,1,1,1,1,1,1,1,1,1,1,1,1,1,1,1,1,1,1,1,1,1,1,1,1,1,1,1,1,1,1,1,1,1,1,1,1,1,1,1,1,1,1,1,1,1,1,1,1,1,1,1,1,1,1,1,1,1,1,1,1,1,1,1,1,1,1,1,1,1,1,1,1,1,1,1,1,1,1,1,1,1,1,1,1,1,1,1,1,1,1,1,1,1,1,1,1,1,1,1,1,1,1,1,1,1,1,1,1,1,1,1,1,1,1,1,1,1,1,1,1,1,1,1,1,1,1,1,1,1,1,1,1,1,1,1,1,1,1,1,1,1,1,1,1,1,1,1,0,0,0,0,0,0,0,0,0,0,0,0,0,0,0,0,0,0,0,0,0,0,0,0,0,0,0,0,0,0,0,0,0,0,0,0,0,0,0,0,0,0,0,0,0,0,0,0,0,0,0,0,0,0,0,0,0,0,0,0,0,0,0,0,0,0,0,0,0,0,0,0,0,0,0,0,0,0,0,0,0,0,0,0,0,0,0,0,0,0,0,0,0,0,0,0,0,0,0,0,0,0,0,0,0,0,0,0,0,0,0,0,0,0,0,0,0,0,0,0,0,0,0,0,0,0,0,0,0,0,0,0,0,0,0,0,0,0,0,0,0,0,0,0,0,0,0,0,0,0,0,0,0,0,0,0,0,0,0,0,0,0,0,0,0,0,0,0,0,0,0,0,0,0,0,0,0,0,0,0,0,0,0,0,0,0,0,0,0,0,0,0,0,0,0,0,0,3697,3698,0,0,0,0,0,0,0,0,0,0,0,0,0,0,0,0,0,0,0,0,0,0,0,0,0,0,0,0,0,0,0,0,0,0,0,0,0,0,0,0,0,0,0,0,0,0,0,0,0,0,0,0,0,0,0,0,0,0,0,0,0,0,0,0,0,0,0,0,0,0,0,0,0,0,0,0,0,0,0,0,0,0,0,0,0,0,0,0,0,0,0,0,0,0,0,0,0,0,0,0,0,0,0,0,0,0,0,0,0,0,0,0,0,0,0,0,0,0,0,0,0,0,0,0,0,0,0,0,0,0,0,0,0,0,0,0,0,0,0,0,0,0,0,0,0,0,0,0,0,0,0,0,0,0,0,0,0,0,0,0,0,0,0,0,0,0,0,0,0,0,0,0,0,0,0,0,0,0,0,0,0,0,0,0,0,0,0,0,0,0,0,0,0,0,0,0,0,0,0,0,0,0,0,0,0,0,0,0,0,0,0,0,0,0,0,0,0,0,0,0,0,0,0,0,0,0,0,0,0,0,0,0,0,0,0,0,0,0,0,0,0,0,0,0,0,0,0,0,0,0,0,0,0,0,0,0,0,0,0,0,0,0,0,0,0,0,0,0,0,0,0,0,0,0,0,0,0,0,0,0,0,0,0,0,0,0,0,0,0,0,0,0,0,0,0,0,0,0,0,0,0,0,0,0,0,0,0,0,0,0,0,0,0,0,0,0,0,0,0,0,0,0,0,0,0,0,0,0,0,0,0,0,0,0,0,0,0,0,0,0,0,0,0,0,0,0,0,0,0,0,0,0,0,0,0,0,0,0,0,0,0,0,0,0,0,0,0,0,0,0,0,0,0,0,0,0,0,0,0,0,0,0,0,0,0,0,0,0,0,0,0,0,0,0,0,0,0,0,0,0,0,0,0,0,0,0,0,0,0,0,0,0,0,0,0,0,0,0,0,0,0,0,0,0,0,0,0,0,0,0,0,0,0,0,0,0,0,0,0,0,0,0,0,0,0,0,0,0,0,0,0,0,0,0,0,0,0,0,0,0,0,0,0,0,0,0,0,0,0,0,0,0,0,0,0,0,0,0,0,0,0,0,0,0,0,0,0,0,0,0,0,0,0,0,0,0,0,0,0,0,0,0,0,0,0,0,0,0,0,0,0,0,0,0,0,0,0,0,0,0,0,0,0,0,0,0,0,0,0,0,0,0,0,0,0,0,0,0,0,0,0,0,0,0,0,0,0,0,0,0,0,0,0,0,0,0,0,0,0,0,0,0,0,0,0,0,0,0,0,0,0,0,0,0,0,0,0,0,0,0,0,0,0,0,0,0,0,0,0,0,0,0,0,0,0,0,0,0,0,0,0,0,0,0,0,0,0,0,0,0,0,0,0,0,0,0,0,0,0,0,0,0,0,0,0,0,0,0,0,0,0,0,0,0,0,0,0,0,0,0,0,0,0,0,0,0,0,0,0,0,0,0,0,0,0,0,0,0,0,0,0,0,0,0,0,0,0,0,0,0,0,0,0,0,0,0,0,0,0,0,0,0,0,0,0,0,0,0,0,0,0,0,0,0,3763,3779,3776,3780,3764,0,0,0,0,0,0,0,0,0,0,0,0,0,0,0,0,0,0,0,0,0,0,0,0,0,0,0,0,0,0,0,0,0,0,0,0,0,0,0,0,0,0,0,0,0,0,0,0,0,0,0,0,0,0,0,0,0,0,0,0,0,0,0,0,0,0,0,0,0,0,0,0,0,0,0,0,0,0,0,0,0,0,0,0,0,0,0,0,0,0,0,0,0,0,0,0,0,0,0,0,0,0,0,0,0,0,0,0,0,0,0,0,0,0,0,0,0,0,0,0,0,0,0,0,0,0,0,0,0,0,0,0,0,0,0,0,0,0,0,0,0,0,0,0,0,0,
1,1,1,1,1,1,1,1,1,1,1,1,1,1,1,1,1,1,1,1,1,1,1,1,1,1,1,1,1,1,1,1,1,1,1,1,1,1,1,1,1,1,1,1,1,1,1,1,1,1,1,1,1,1,1,1,1,1,1,1,1,1,1,1,1,1,1,1,1,1,1,1,1,1,1,1,1,1,1,1,1,1,1,1,1,1,1,1,1,1,1,1,1,1,1,1,1,1,1,1,1,1,1,1,1,1,1,1,1,1,1,1,1,1,1,1,1,1,1,1,1,1,1,1,1,1,1,1,1,1,1,1,1,1,1,1,1,1,1,1,1,1,1,1,1,1,1,1,1,1,1,1,1,1,1,1,1,1,1,1,1,1,1,1,1,1,1,1,1,1,1,1,1,1,1,1,1,1,1,1,1,1,1,1,1,1,1,1,1,1,1,1,1,1,1,1,1,1,1,1,1,1,1,1,1,1,1,1,1,1,1,1,1,1,1,1,1,1,1,1,1,1,1,1,1,1,1,1,1,1,1,1,1,1,1,1,1,1,1,1,1,1,1,1,1,1,1,1,1,1,1,1,1,1,1,1,1,1,1,1,1,1,1,1,1,1,1,1,1,1,1,1,1,1,1,1,1,1,1,1,1,1,1,1,1,1,1,1,1,1,1,1,1,1,1,1,1,1,1,1,1,1,1,1,1,1,1,1,1,1,1,1,1,1,1,1,1,1,1,1,1,1,1,1,1,1,1,1,1,1,1,1,1,1,1,1,1,1,1,1,1,1,1,1,1,1,1,1,1,1,1,1,1,1,1,1,1,1,1,1,1,1,1,1,1,1,1,1,1,1,1,1,1,1,1,1,1,1,1,1,1,1,1,1,1,1,1,1,1,1,1,1,1,1,1,1,1,1,1,1,1,1,1,1,1,1,1,1,1,1,1,1,1,1,1,1,1,1,1,1,1,1,1,1,1,1,1,1,1,1,1,1,1,1,1,1,1,1,1,1,1,1,1,1,1,1,1,1,1,1,1,1,1,1,1,1,1,1,1,1,1,1,1,1,1,1,1,1,1,1,1,1,1,1,1,1,1,1,1,1,1,1,1,1,1,1,1,1,1,1,1,1,1,1,1,1,1,1,1,1,1,1,1,1,1,1,1,1,1,1,1,1,1,1,1,1,1,1,1,1,1,1,1,1,1,1,1,1,1,1,1,1,1,1,1,1,1,1,1,1,1,1,1,1,1,1,1,1,1,1,1,1,1,1,1,1,1,1,1,1,1,1,1,1,1,1,1,1,1,1,1,1,1,1,1,1,1,1,1,1,1,1,1,1,1,1,1,1,1,1,1,1,1,1,1,1,1,1,1,1,1,1,1,1,1,1,1,1,1,1,1,1,1,1,1,1,1,1,1,1,1,1,1,1,1,1,1,1,1,1,1,1,1,1,1,1,1,1,1,1,1,1,1,1,1,1,1,1,1,1,1,1,1,1,1,1,1,1,1,1,1,1,1,1,1,1,1,1,1,1,1,1,1,1,1,1,1,1,1,1,1,1,1,1,1,1,1,1,1,1,1,1,1,1,1,1,1,1,1,1,1,1,1,1,1,1,1,1,1,1,1,1,1,1,1,1,1,1,1,1,1,1,1,1,1,1,1,1,1,1,1,1,1,1,1,1,1,1,1,1,1,1,1,1,1,1,1,1,1,1,1,1,1,1,1,1,1,1,1,1,1,1,1,1,1,1,1,1,1,1,1,1,1,1,1,1,1,1,1,1,1,1,1,1,1,1,1,1,1,1,1,1,1,1,1,1,1,1,1,1,1,1,1,1,1,1,1,1,1,1,1,1,1,1,1,1,1,1,1,1,1,1,1,1,1,1,1,1,1,1,1,1,1,1,1,1,1,1,1,1,1,1,1,1,1,1,1,1,1,1,1,1,1,1,1,1,1,1,1,1,1,1,1,1,1,1,1,1,1,1,1,1,1,1,1,1,1,1,1,1,1,1,1,1,1,1,1,1,1,1,1,1,1,1,1,0,0,0,0,0,0,0,0,0,0,0,0,0,0,0,0,0,0,0,0,0,0,0,0,0,0,0,3574,3579,3577,0,0,0,0,0,0,0,0,0,0,0,0,0,0,0,0,0,0,0,0,0,0,0,0,0,0,0,0,0,0,0,0,0,0,0,0,0,0,0,0,0,0,0,0,0,0,0,0,0,0,0,0,0,0,0,0,0,0,0,0,0,0,0,0,0,0,0,0,0,0,0,0,0,0,0,0,0,0,0,0,0,0,0,0,0,0,0,0,0,0,0,0,0,0,0,0,0,0,0,0,0,0,0,0,0,0,0,0,0,0,0,0,0,0,0,0,0,0,0,0,0,0,0,0,0,0,0,0,0,0,0,0,0,0,0,0,0,0,0,0,0,0,0,0,0,0,0,0,0,0,0,0,0,0,0,0,0,0,0,0,0,0,0,0,0,0,0,3699,3700,0,0,0,0,0,0,0,0,0,0,0,0,0,0,0,0,0,0,0,0,0,0,0,0,0,0,0,0,0,0,0,0,0,0,0,0,0,0,0,0,0,0,0,0,0,0,0,0,0,0,0,0,0,0,0,0,0,0,0,0,0,0,0,0,0,0,0,0,0,0,0,0,0,0,0,0,0,0,0,0,0,0,0,0,0,0,0,0,0,0,0,0,0,0,0,0,0,0,0,0,0,0,0,0,0,0,0,0,0,0,0,0,0,0,0,0,0,0,0,0,0,0,0,0,0,0,0,0,0,0,0,0,0,0,0,0,0,0,0,0,0,0,0,0,0,0,0,0,0,0,0,0,0,0,0,0,0,0,0,0,0,0,0,0,0,0,0,0,0,0,0,0,0,0,0,0,0,0,0,0,0,0,0,0,0,0,0,0,0,0,0,0,0,0,0,0,0,0,0,0,0,0,0,0,0,0,0,0,0,0,0,0,0,0,0,0,0,0,0,0,0,0,0,0,0,0,0,0,0,0,0,0,0,0,0,0,0,0,0,0,0,0,0,0,0,0,0,0,0,0,0,0,0,0,0,0,0,0,0,0,0,0,0,0,0,0,0,0,0,0,0,0,0,0,0,0,0,0,0,0,0,0,0,0,0,0,0,0,0,0,0,0,0,0,0,0,0,0,0,0,0,0,0,0,0,0,0,0,0,0,0,0,0,0,0,0,0,0,0,0,0,0,0,0,0,0,0,0,0,0,0,0,0,0,0,0,0,0,0,0,0,0,0,0,0,0,0,0,0,0,0,0,0,0,0,0,0,0,0,0,0,0,0,0,0,0,0,0,0,0,0,0,0,0,0,0,0,0,0,0,0,0,0,0,0,0,0,0,0,0,0,0,0,0,0,0,0,0,0,0,0,0,0,0,0,0,0,0,0,0,0,0,0,0,0,0,0,0,0,0,0,0,0,0,0,0,0,0,0,0,0,0,0,0,0,0,0,0,0,0,0,0,0,0,0,0,0,0,0,0,0,0,0,0,0,0,0,0,0,0,0,0,0,0,0,0,0,0,0,0,0,0,0,0,0,0,0,0,0,0,0,0,0,0,0,0,0,0,0,0,0,0,0,0,0,0,0,0,0,0,0,0,0,0,0,0,0,0,0,0,0,0,0,0,0,0,0,0,0,0,0,0,0,0,0,0,0,0,0,0,0,0,0,0,0,0,0,0,0,0,0,0,0,0,0,0,0,0,0,0,0,0,0,0,0,0,0,0,0,0,0,0,0,0,0,0,0,0,0,0,0,0,0,0,0,0,0,0,0,0,0,0,0,0,0,0,0,0,0,0,0,0,0,0,0,0,0,0,0,0,0,0,0,0,0,0,0,0,0,0,0,0,0,0,0,0,0,0,0,0,0,0,0,0,0,0,0,0,0,0,0,0,0,0,0,0,0,0,0,0,0,0,0,0,0,0,0,0,0,0,0,0,0,0,0,0,0,0,0,0,0,0,0,0,0,0,0,0,0,0,0,0,0,0,0,0,0,0,0,0,0,0,0,0,0,0,0,0,0,0,0,0,0,0,0,3763,3746,3764,0,0,0,0,0,0,0,0,0,0,0,0,0,0,0,0,0,0,0,0,0,0,0,0,0,0,0,0,0,0,0,0,0,0,0,0,0,0,0,0,0,0,0,0,0,0,0,0,0,0,0,0,0,0,0,0,0,0,0,0,0,0,0,0,0,0,0,0,0,0,0,0,0,0,0,0,0,0,0,0,0,0,0,0,0,0,0,0,0,0,0,0,0,0,0,0,0,0,0,0,0,0,0,0,0,0,0,0,0,0,0,0,0,0,0,0,0,0,0,0,0,0,0,0,0,0,0,0,0,0,0,0,0,0,0,0,0,0,0,0,0,0,0,0,0,0,0,
1,1,1,1,1,1,1,1,1,1,1,1,1,1,1,1,1,1,1,1,1,1,1,1,1,1,1,1,1,1,1,1,1,1,1,1,1,1,1,1,1,1,1,1,1,1,1,1,1,1,1,1,1,1,1,1,1,1,1,1,1,1,1,1,1,1,1,1,1,1,1,1,1,1,1,1,1,1,1,1,1,1,1,1,1,1,1,1,1,1,1,1,1,1,1,1,1,1,1,1,1,1,1,1,1,1,1,1,1,1,1,1,1,1,1,1,1,1,1,1,1,1,1,1,1,1,1,1,1,1,1,1,1,1,1,1,1,1,1,1,1,1,1,1,1,1,1,1,1,1,1,1,1,1,1,1,1,1,1,1,1,1,1,1,1,1,1,1,1,1,1,1,1,1,1,1,1,1,1,1,1,1,1,1,1,1,1,1,1,1,1,1,1,1,1,1,1,1,1,1,1,1,1,1,1,1,1,1,1,1,1,1,1,1,1,1,1,1,1,1,1,1,1,1,1,1,1,1,1,1,1,1,1,1,1,1,1,1,1,1,1,1,1,1,1,1,1,1,1,1,1,1,1,1,1,1,1,1,1,1,1,1,1,1,1,1,1,1,1,1,1,1,1,1,1,1,1,1,1,1,1,1,1,1,1,1,1,1,1,1,1,1,1,1,1,1,1,1,1,1,1,1,1,1,1,1,1,1,1,1,1,1,1,1,1,1,1,1,1,1,1,1,1,1,1,1,1,1,1,1,1,1,1,1,1,1,1,1,1,1,1,1,1,1,1,1,1,1,1,1,1,1,1,1,1,1,1,1,1,1,1,1,1,1,1,1,1,1,1,1,1,1,1,1,1,1,1,1,1,1,1,1,1,1,1,1,1,1,1,1,1,1,1,1,1,1,1,1,1,1,1,1,1,1,1,1,1,1,1,1,1,1,1,1,1,1,1,1,1,1,1,1,1,1,1,1,1,1,1,1,1,1,1,1,1,1,1,1,1,1,1,1,1,1,1,1,1,1,1,1,1,1,1,1,1,1,1,1,1,1,1,1,1,1,1,1,1,1,1,1,1,1,1,1,1,1,1,1,1,1,1,1,1,1,1,1,1,1,1,1,1,1,1,1,1,1,1,1,1,1,1,1,1,1,1,1,1,1,1,1,1,1,1,1,1,1,1,1,1,1,1,1,1,1,1,1,1,1,1,1,1,1,1,1,1,1,1,1,1,1,1,1,1,1,1,1,1,1,1,1,1,1,1,1,1,1,1,1,1,1,1,1,1,1,1,1,1,1,1,1,1,1,1,1,1,1,1,1,1,1,1,1,1,1,1,1,1,1,1,1,1,1,1,1,1,1,1,1,1,1,1,1,1,1,1,1,1,1,1,1,1,1,1,1,1,1,1,1,1,1,1,1,1,1,1,1,1,1,1,1,1,1,1,1,1,1,1,1,1,1,1,1,1,1,1,1,1,1,1,1,1,1,1,1,1,1,1,1,1,1,1,1,1,1,1,1,1,1,1,1,1,1,1,1,1,1,1,1,1,1,1,1,1,1,1,1,1,1,1,1,1,1,1,1,1,1,1,1,1,1,1,1,1,1,1,1,1,1,1,1,1,1,1,1,1,1,1,1,1,1,1,1,1,1,1,1,1,1,1,1,1,1,1,1,1,1,1,1,1,1,1,1,1,1,1,1,1,1,1,1,1,1,1,1,1,1,1,1,1,1,1,1,1,1,1,1,1,1,1,1,1,1,1,1,1,1,1,1,1,1,1,1,1,1,1,1,1,1,1,1,1,1,1,1,1,1,1,1,1,1,1,1,1,1,1,1,1,1,1,1,1,1,1,1,1,1,1,1,1,1,1,1,1,1,1,1,1,1,1,1,1,1,1,1,1,1,1,1,1,1,1,1,1,1,1,1,1,1,1,1,1,1,1,1,1,1,1,1,1,1,1,1,1,1,1,1,1,1,1,1,1,1,1,1,1,1,1,1,1,1,1,1,1,1,1,1,1,1,1,1,1,1,1,1,1,0,0,0,0,0,0,0,0,0,0,0,0,0,0,0,0,0,0,0,0,0,0,0,0,0,0,0,3578,3554,3578,0,0,0,0,0,0,0,0,0,0,0,0,0,0,0,0,0,0,0,0,0,0,0,0,0,0,0,0,0,0,0,0,0,0,0,0,0,0,0,0,0,0,0,0,0,0,0,0,0,0,0,0,0,0,0,0,0,0,0,0,0,0,0,0,0,0,0,0,0,0,0,0,0,0,0,0,0,0,0,0,0,0,0,0,0,0,0,0,0,0,0,0,0,0,0,0,0,0,0,0,0,0,0,0,0,0,0,0,0,0,0,0,0,0,0,0,0,0,0,0,0,0,0,0,0,0,0,0,0,0,0,0,0,0,0,0,0,0,0,0,0,0,0,0,0,0,0,0,0,0,0,0,0,0,0,0,0,0,0,0,0,0,0,0,0,0,0,0,0,0,0,0,0,0,0,0,0,0,0,0,0,0,0,0,0,0,0,0,0,0,0,0,0,0,0,0,0,0,0,0,0,0,0,0,0,0,0,0,0,0,0,0,0,0,0,0,0,0,0,0,0,0,0,0,0,0,0,0,0,0,0,0,0,0,0,0,0,0,0,0,0,0,0,0,0,0,0,0,0,0,0,0,0,0,0,0,0,0,0,0,0,0,0,0,0,0,0,0,0,0,0,0,0,0,0,0,0,0,0,0,0,0,0,0,0,0,0,0,0,0,0,0,0,0,0,0,0,0,0,0,0,0,0,0,0,0,0,0,0,0,0,0,0,0,0,0,0,0,0,0,0,0,0,0,0,0,0,0,0,0,0,0,0,0,0,0,0,0,0,0,0,0,0,0,0,0,0,0,0,0,0,0,0,0,0,0,0,0,0,0,0,0,0,0,0,0,0,0,0,0,0,0,0,0,0,0,0,0,0,0,0,0,0,0,0,0,0,0,0,0,0,0,0,0,0,0,0,0,0,0,0,0,0,0,0,0,0,0,0,0,0,0,0,0,0,0,0,0,0,0,0,0,0,0,0,0,0,0,0,0,0,0,0,0,0,0,0,0,0,0,0,0,0,0,0,0,0,0,0,0,0,0,0,0,0,0,0,0,0,0,0,0,0,0,0,0,0,0,0,0,0,0,0,0,0,0,0,0,0,0,0,0,0,0,0,0,0,0,0,0,0,0,0,0,0,0,0,0,0,0,0,0,0,0,0,0,0,0,0,0,0,0,0,0,0,0,0,0,0,0,0,0,0,0,0,0,0,0,0,0,0,0,0,0,0,0,0,0,0,0,0,0,0,0,0,0,0,0,0,0,0,0,0,0,0,0,0,0,0,0,0,0,0,0,0,0,0,0,0,0,0,0,0,0,0,0,0,0,0,0,0,0,0,0,0,0,0,0,0,0,0,0,0,0,0,0,0,0,0,0,0,0,0,0,0,0,0,0,0,0,0,0,0,0,0,0,0,0,0,0,0,0,0,0,0,0,0,0,0,0,0,0,0,0,0,0,0,0,0,0,0,0,0,0,0,0,0,0,0,0,0,0,0,0,0,0,0,0,0,0,0,0,0,0,0,0,0,0,0,0,0,0,0,0,0,0,0,0,0,0,0,0,0,0,0,0,0,0,0,0,0,0,0,0,0,0,0,0,0,0,0,0,0,0,0,0,0,0,0,0,0,0,0,0,0,0,0,0,0,0,0,0,0,0,0,0,0,0,0,0,0,0,0,0,0,0,0,0,0,0,0,0,0,0,0,0,0,0,0,0,0,0,0,0,0,0,0,0,0,0,0,0,0,0,0,0,0,0,0,0,0,0,0,0,0,0,0,0,0,0,0,0,0,0,0,0,0,0,0,0,0,0,0,0,0,0,0,0,0,0,0,0,0,0,0,0,0,0,0,0,0,0,0,0,0,0,0,0,0,0,0,0,0,0,0,0,0,0,0,0,0,0,0,0,0,0,0,0,0,0,0,0,0,0,0,0,0,0,0,0,0,0,0,0,0,0,0,0,0,0,0,0,0,0,0,0,0,0,0,0,0,0,0,0,0,0,0,0,0,0,0,0,0,0,0,0,0,0,0,0,0,0,0,0,0,0,0,0,0,0,0,0,0,0,0,0,0,0,0,0,0,0,0,0,0,0,0,0,0,0,0,0,0,0,0,0,0,0,0,0,0,0,0,0,0,0,0,0,0,0,0,0,0,0,0,0,0,0,0,0,0,0,0,0,0,0,0,0,0,0,0,0,0,0,0,0,0,0,0,0,0,0,0,0,0,0,0,0,0,0,0,0,0,0,0,0,0,0,0,0,0,0,0,0,0,0,0,0,0,0,0,0,0,0,0,0,0,0,0,0,0,0,0,0,
1,1,1,1,1,1,1,1,1,1,1,1,1,1,1,1,1,1,1,1,1,1,1,1,1,1,1,1,1,1,1,1,1,1,1,1,1,1,1,1,1,1,1,1,1,1,1,1,1,1,1,1,1,1,1,1,1,1,1,1,1,1,1,1,1,1,1,1,1,1,1,1,1,1,1,1,1,1,1,1,1,1,1,1,1,1,1,1,1,1,1,1,1,1,1,1,1,1,1,1,1,1,1,1,1,1,1,1,1,1,1,1,1,1,1,1,1,1,1,1,1,1,1,1,1,1,1,1,1,1,1,1,1,1,1,1,1,1,1,1,1,1,1,1,1,1,1,1,1,1,1,1,1,1,1,1,1,1,1,1,1,1,1,1,1,1,1,1,1,1,1,1,1,1,1,1,1,1,1,1,1,1,1,1,1,1,1,1,1,1,1,1,1,1,1,1,1,1,1,1,1,1,1,1,1,1,1,1,1,1,1,1,1,1,1,1,1,1,1,1,1,1,1,1,1,1,1,1,1,1,1,1,1,1,1,1,1,1,1,1,1,1,1,1,1,1,1,1,1,1,1,1,1,1,1,1,1,1,1,1,1,1,1,1,1,1,1,1,1,1,1,1,1,1,1,1,1,1,1,1,1,1,1,1,1,1,1,1,1,1,1,1,1,1,1,1,1,1,1,1,1,1,1,1,1,1,1,1,1,1,1,1,1,1,1,1,1,1,1,1,1,1,1,1,1,1,1,1,1,1,1,1,1,1,1,1,1,1,1,1,1,1,1,1,1,1,1,1,1,1,1,1,1,1,1,1,1,1,1,1,1,1,1,1,1,1,1,1,1,1,1,1,1,1,1,1,1,1,1,1,1,1,1,1,1,1,1,1,1,1,1,1,1,1,1,1,1,1,1,1,1,1,1,1,1,1,1,1,1,1,1,1,1,1,1,1,1,1,1,1,1,1,1,1,1,1,1,1,1,1,1,1,1,1,1,1,1,1,1,1,1,1,1,1,1,1,1,1,1,1,1,1,1,1,1,1,1,1,1,1,1,1,1,1,1,1,1,1,1,1,1,1,1,1,1,1,1,1,1,1,1,1,1,1,1,1,1,1,1,1,1,1,1,1,1,1,1,1,1,1,1,1,1,1,1,1,1,1,1,1,1,1,1,1,1,1,1,1,1,1,1,1,1,1,1,1,1,1,1,1,1,1,1,1,1,1,1,1,1,1,1,1,1,1,1,1,1,1,1,1,1,1,1,1,1,1,1,1,1,1,1,1,1,1,1,1,1,1,1,1,1,1,1,1,1,1,1,1,1,1,1,1,1,1,1,1,1,1,1,1,1,1,1,1,1,1,1,1,1,1,1,1,1,1,1,1,1,1,1,1,1,1,1,1,1,1,1,1,1,1,1,1,1,1,1,1,1,1,1,1,1,1,1,1,1,1,1,1,1,1,1,1,1,1,1,1,1,1,1,1,1,1,1,1,1,1,1,1,1,1,1,1,1,1,1,1,1,1,1,1,1,1,1,1,1,1,1,1,1,1,1,1,1,1,1,1,1,1,1,1,1,1,1,1,1,1,1,1,1,1,1,1,1,1,1,1,1,1,1,1,1,1,1,1,1,1,1,1,1,1,1,1,1,1,1,1,1,1,1,1,1,1,1,1,1,1,1,1,1,1,1,1,1,1,1,1,1,1,1,1,1,1,1,1,1,1,1,1,1,1,1,1,1,1,1,1,1,1,1,1,1,1,1,1,1,1,1,1,1,1,1,1,1,1,1,1,1,1,1,1,1,1,1,1,1,1,1,1,1,1,1,1,1,1,1,1,1,1,1,1,1,1,1,1,1,1,1,1,1,1,1,1,1,1,1,1,1,1,1,1,1,1,1,1,1,1,1,1,1,1,1,1,1,1,1,1,1,1,1,1,1,1,1,1,1,1,1,1,1,1,1,1,1,1,1,1,1,1,1,1,1,1,1,1,1,1,1,1,1,1,1,1,1,1,1,1,1,1,1,1,1,1,1,1,1,0,0,0,0,0,0,0,0,0,0,0,0,0,0,0,0,0,0,0,0,0,0,0,0,0,0,0,3578,3562,3578,0,0,0,0,0,0,0,0,0,0,0,0,0,0,0,0,0,0,0,0,0,0,0,0,0,0,0,0,0,0,0,0,0,0,0,0,0,0,0,0,0,0,0,0,0,0,0,0,0,0,0,0,0,0,0,0,0,0,0,0,0,0,0,0,0,0,0,0,0,0,0,0,0,0,0,0,0,0,0,0,0,0,0,0,0,0,0,0,0,0,0,0,0,0,0,0,0,0,0,0,0,0,0,0,0,0,0,0,0,0,0,0,0,0,0,0,0,0,0,0,0,0,0,0,0,0,0,0,0,0,0,0,0,0,0,0,0,0,0,0,0,0,0,0,0,0,0,0,0,0,0,0,0,0,0,0,0,0,0,0,0,0,0,0,0,0,0,0,0,0,0,0,0,0,0,0,0,0,0,0,0,0,0,0,0,0,0,0,0,0,0,0,0,0,0,0,0,0,0,0,0,0,0,0,0,0,0,0,0,0,0,0,0,0,0,0,0,0,0,0,0,0,0,0,0,0,0,0,0,0,0,0,0,0,0,0,0,0,0,0,0,0,0,0,0,0,0,0,0,0,0,0,0,0,0,0,0,0,0,0,0,0,0,0,0,0,0,0,0,0,0,0,0,0,0,0,0,0,0,0,0,0,0,0,0,0,0,0,0,0,0,0,0,0,0,0,0,0,0,0,0,0,0,0,0,0,0,0,0,0,0,0,0,0,0,0,0,0,0,0,0,0,0,0,0,0,0,0,0,0,0,0,0,0,0,0,0,0,0,0,0,0,0,0,0,0,0,0,0,0,0,0,0,0,0,0,0,0,0,0,0,0,0,0,0,0,0,0,0,0,0,0,0,0,0,0,0,0,0,0,0,0,0,0,0,0,0,0,0,0,0,0,0,0,0,0,0,0,0,0,0,0,0,0,0,0,0,0,0,0,0,0,0,0,0,0,0,0,0,0,0,0,0,0,0,0,0,0,0,0,0,0,0,0,0,0,0,0,0,0,0,0,0,0,0,0,0,0,0,0,0,0,0,0,0,0,0,0,0,0,0,0,0,0,0,0,0,0,0,0,0,0,0,0,0,0,0,0,0,0,0,0,0,0,0,0,0,0,0,0,0,0,0,0,0,0,0,0,0,0,0,0,0,0,0,0,0,0,0,0,0,0,0,0,0,0,0,0,0,0,0,0,0,0,0,0,0,0,0,0,0,0,0,0,0,0,0,0,0,0,0,0,0,0,0,0,0,0,0,0,0,0,0,0,0,0,0,0,0,0,0,0,0,0,0,0,0,0,0,0,0,0,0,0,0,0,0,0,0,0,0,0,0,0,0,0,0,0,0,0,0,0,0,0,0,0,0,0,0,0,0,0,0,0,0,0,0,0,0,0,0,0,0,0,0,0,0,0,0,0,0,0,0,0,0,0,0,0,0,0,0,0,0,0,0,0,0,0,0,0,0,0,0,0,0,0,0,0,0,0,0,0,0,0,0,0,0,0,0,0,0,0,0,0,0,0,0,0,0,0,0,0,0,0,0,0,0,0,0,0,0,0,0,0,0,0,0,0,0,0,0,0,0,0,0,0,0,0,0,0,0,0,0,0,0,0,0,0,0,0,0,0,0,0,0,0,0,0,0,0,0,0,0,0,0,0,0,0,0,0,0,0,0,0,0,0,0,0,0,0,0,0,0,0,0,0,0,0,0,0,0,0,0,0,0,0,0,0,0,0,0,0,0,0,0,0,0,0,0,0,0,0,0,0,0,0,0,0,0,0,0,0,0,0,0,0,0,0,0,0,0,0,0,0,0,0,0,0,0,0,0,0,0,0,0,0,0,0,0,0,0,0,0,0,0,0,0,0,0,0,0,0,0,0,0,0,0,0,0,0,0,0,0,0,0,0,0,0,0,0,0,0,0,0,0,0,0,0,0,0,0,0,0,0,0,0,0,0,0,0,0,0,0,0,0,0,0,0,0,0,0,0,0,0,0,0,0,0,0,0,0,0,0,0,0,0,0,0,0,0,0,0,0,0,0,0,0,0,0,0,0,0,0,0,0,0,0,0,0,0,0,0,0,0,0,0,0,0,0,0,0,0,0,0,0,0,0,0,0,0,0,0,0,0,0,0,0,0,0,0,0,0,0,0,0,0,0,0,0,0,0,0,0,0,0,0,0,0,0,0,0,0,0,0,0,0,0,0,0,0,0,0,0,0,0,0,0,0,0,0,0,0,0,0,0,0,0,0,0,0,0,0,0,0,0,0,0,0,0,0,0,0,0,0,0,0,0,0,0,0,0,0,0,0,
1,1,1,1,1,1,1,1,1,1,1,1,1,1,1,1,1,1,1,1,1,1,1,1,1,1,1,1,1,1,1,1,1,1,1,1,1,1,1,1,1,1,1,1,1,1,1,1,1,1,1,1,1,1,1,1,1,1,1,1,1,1,1,1,1,1,1,1,1,1,1,1,1,1,1,1,1,1,1,1,1,1,1,1,1,1,1,1,1,1,1,1,1,1,1,1,1,1,1,1,1,1,1,1,1,1,1,1,1,1,1,1,1,1,1,1,1,1,1,1,1,1,1,1,1,1,1,1,1,1,1,1,1,1,1,1,1,1,1,1,1,1,1,1,1,1,1,1,1,1,1,1,1,1,1,1,1,1,1,1,1,1,1,1,1,1,1,1,1,1,1,1,1,1,1,1,1,1,1,1,1,1,1,1,1,1,1,1,1,1,1,1,1,1,1,1,1,1,1,1,1,1,1,1,1,1,1,1,1,1,1,1,1,1,1,1,1,1,1,1,1,1,1,1,1,1,1,1,1,1,1,1,1,1,1,1,1,1,1,1,1,1,1,1,1,1,1,1,1,1,1,1,1,1,1,1,1,1,1,1,1,1,1,1,1,1,1,1,1,1,1,1,1,1,1,1,1,1,1,1,1,1,1,1,1,1,1,1,1,1,1,1,1,1,1,1,1,1,1,1,1,1,1,1,1,1,1,1,1,1,1,1,1,1,1,1,1,1,1,1,1,1,1,1,1,1,1,1,1,1,1,1,1,1,1,1,1,1,1,1,1,1,1,1,1,1,1,1,1,1,1,1,1,1,1,1,1,1,1,1,1,1,1,1,1,1,1,1,1,1,1,1,1,1,1,1,1,1,1,1,1,1,1,1,1,1,1,1,1,1,1,1,1,1,1,1,1,1,1,1,1,1,1,1,1,1,1,1,1,1,1,1,1,1,1,1,1,1,1,1,1,1,1,1,1,1,1,1,1,1,1,1,1,1,1,1,1,1,1,1,1,1,1,1,1,1,1,1,1,1,1,1,1,1,1,1,1,1,1,1,1,1,1,1,1,1,1,1,1,1,1,1,1,1,1,1,1,1,1,1,1,1,1,1,1,1,1,1,1,1,1,1,1,1,1,1,1,1,1,1,1,1,1,1,1,1,1,1,1,1,1,1,1,1,1,1,1,1,1,1,1,1,1,1,1,1,1,1,1,1,1,1,1,1,1,1,1,1,1,1,1,1,1,1,1,1,1,1,1,1,1,1,1,1,1,1,1,1,1,1,1,1,1,1,1,1,1,1,1,1,1,1,1,1,1,1,1,1,1,1,1,1,1,1,1,1,1,1,1,1,1,1,1,1,1,1,1,1,1,1,1,1,1,1,1,1,1,1,1,1,1,1,1,1,1,1,1,1,1,1,1,1,1,1,1,1,1,1,1,1,1,1,1,1,1,1,1,1,1,1,1,1,1,1,1,1,1,1,1,1,1,1,1,1,1,1,1,1,1,1,1,1,1,1,1,1,1,1,1,1,1,1,1,1,1,1,1,1,1,1,1,1,1,1,1,1,1,1,1,1,1,1,1,1,1,1,1,1,1,1,1,1,1,1,1,1,1,1,1,1,1,1,1,1,1,1,1,1,1,1,1,1,1,1,1,1,1,1,1,1,1,1,1,1,1,1,1,1,1,1,1,1,1,1,1,1,1,1,1,1,1,1,1,1,1,1,1,1,1,1,1,1,1,1,1,1,1,1,1,1,1,1,1,1,1,1,1,1,1,1,1,1,1,1,1,1,1,1,1,1,1,1,1,1,1,1,1,1,1,1,1,1,1,1,1,1,1,1,1,1,1,1,1,1,1,1,1,1,1,1,1,1,1,1,1,1,1,1,1,1,1,1,1,1,1,1,1,1,1,1,1,1,1,1,1,1,1,1,1,1,1,1,1,1,1,1,1,1,1,1,1,1,1,1,1,1,1,1,1,1,1,1,1,1,1,1,1,1,1,1,1,1,1,1,1,1,1,1,1,1,1,1,1,1,1,0,0,0,0,0,0,0,0,0,0,0,0,0,0,0,0,0,0,0,0,0,0,0,0,0,0,0,3578,3562,3578,0,0,0,0,0,0,1429,0,0,0,0,0,0,0,0,0,0,0,0,0,0,0,0,0,0,0,0,0,0,0,0,0,0,0,0,0,0,0,0,0,0,0,0,0,0,0,0,0,0,0,0,0,0,0,0,0,0,0,0,0,0,0,0,0,0,0,0,0,0,0,0,0,0,0,0,0,0,0,0,0,0,0,0,0,0,0,0,0,0,0,0,0,0,0,0,0,0,0,0,0,0,0,0,0,0,0,0,0,0,0,0,0,0,0,0,0,0,0,0,0,0,0,0,0,0,0,0,0,0,0,0,0,0,0,0,0,0,0,0,0,0,0,0,0,0,0,0,0,0,0,0,0,0,0,0,0,0,0,0,0,0,0,0,0,0,0,0,0,0,0,0,0,0,0,0,0,0,0,0,0,0,0,0,0,0,0,0,0,0,0,0,0,0,0,0,0,0,0,0,0,0,0,0,0,0,0,0,0,0,0,0,0,0,0,0,0,0,0,0,0,0,0,0,0,0,0,0,0,0,0,0,0,0,0,0,0,0,0,0,0,0,0,0,0,0,0,0,0,0,0,0,0,0,0,0,0,0,0,0,0,0,0,0,0,0,0,0,0,0,0,0,0,0,0,0,0,0,0,0,0,0,0,0,0,0,0,0,0,0,0,0,0,0,0,0,0,0,0,0,0,0,0,0,0,0,0,0,0,0,0,0,0,0,0,0,0,0,0,0,0,0,0,0,0,0,0,0,0,0,0,0,0,0,0,0,0,0,0,0,0,0,0,0,0,0,0,0,0,0,0,0,0,0,0,0,0,0,0,0,0,0,0,0,0,0,0,0,0,0,0,0,0,0,0,0,0,0,0,0,0,0,0,0,0,0,0,0,0,0,0,0,0,0,0,0,0,0,0,0,0,0,0,0,0,0,0,0,0,0,0,0,0,0,0,0,0,0,0,0,5123,0,0,0,0,0,0,0,0,0,0,0,0,0,0,0,0,0,0,0,0,0,0,0,0,0,0,0,0,0,0,0,0,0,0,0,0,0,0,0,0,0,0,0,0,0,0,0,0,0,0,0,0,0,0,0,0,0,0,0,0,0,0,0,0,0,0,0,0,0,0,0,0,0,0,0,0,0,0,0,0,0,0,0,0,0,0,0,0,0,0,0,0,0,0,0,0,0,0,0,0,0,0,0,0,0,0,0,0,0,0,0,0,0,0,0,0,0,0,0,0,0,0,0,0,0,0,0,0,0,0,0,0,0,0,0,0,0,0,0,0,0,0,0,0,0,0,0,0,0,0,0,0,0,0,0,0,0,0,0,0,0,0,0,0,0,0,0,0,0,0,0,0,0,0,0,0,0,0,0,0,0,0,0,0,0,0,0,0,0,0,0,0,0,0,0,0,0,0,0,0,0,0,0,0,0,0,0,0,0,0,0,0,0,0,0,0,0,0,0,0,0,0,0,0,0,0,0,0,0,0,0,0,0,0,0,0,0,0,0,0,0,0,0,0,0,0,0,0,0,0,0,0,0,0,0,0,0,0,0,0,0,0,0,0,0,0,0,0,0,0,0,0,0,0,0,0,0,0,0,0,0,0,0,0,0,0,0,0,0,0,0,0,0,0,0,0,0,0,0,0,0,0,0,0,0,0,0,0,0,0,0,0,0,0,0,0,0,0,0,0,0,0,0,0,0,0,0,0,0,0,0,0,0,0,0,0,0,0,0,0,0,0,0,0,0,0,0,0,0,0,0,0,0,0,0,0,0,0,0,0,0,0,0,0,0,0,0,0,0,0,0,0,0,0,0,0,0,0,0,0,0,0,0,0,0,0,0,0,0,0,0,0,0,0,0,0,0,0,0,0,0,0,0,0,0,0,0,0,0,0,0,0,0,0,0,0,0,0,0,0,0,0,0,0,0,0,0,0,0,0,0,0,0,0,0,0,0,0,0,0,0,0,0,0,0,0,0,0,0,0,0,0,0,0,0,0,0,0,0,0,0,0,0,0,0,0,0,0,0,0,0,0,0,0,0,0,0,0,0,0,0,0,0,0,0,0,0,0,0,0,0,0,0,0,0,0,0,0,0,0,0,0,0,0,0,0,0,0,0,0,0,0,0,0,0,0,0,0,0,0,0,0,0,0,0,0,0,0,0,0,0,0,0,0,0,0,0,0,0,0,0,0,0,0,0,0,0,0,0,0,0,0,0,0,0,0,0,0,0,0,0,0,0,0,0,0,0,0,0,0,0,0,0,0,0,0,0,0,0,0,0,0,0,0,0,0,0,0,0,0,0,0,0,0,
1,1,1,1,1,1,1,1,1,1,1,1,1,1,1,1,1,1,1,1,1,1,1,1,1,1,1,1,1,1,1,1,1,1,1,1,1,1,1,1,1,1,1,1,1,1,1,1,1,1,1,1,1,1,1,1,1,1,1,1,1,1,1,1,1,1,1,1,1,1,1,1,1,1,1,1,1,1,1,1,1,1,1,1,1,1,1,1,1,1,1,1,1,1,1,1,1,1,1,1,1,1,1,1,1,1,1,1,1,1,1,1,1,1,1,1,1,1,1,1,1,1,1,1,1,1,1,1,1,1,1,1,1,1,1,1,1,1,1,1,1,1,1,1,1,1,1,1,1,1,1,1,1,1,1,1,5089,1,1,1,1,1,1,1,1,1,1,1,1,1,1,1,1,1,1,1,1,1,1,1,1,1,1,1,1,1,1,1,1,1,1,1,1,1,1,1,1,1,1,1,1,1,1,1,1,1,1,1,1,1,1,1,1,1,1,1,1,1,1,1,1,1,1,1,1,1,1,1,1,1,1,1,1,1,1,1,1,1,1,1,1,1,1,1,1,1,1,1,1,1,1,1,1,1,1,1,1,1,1,1,1,1,1,1,1,1,1,1,1,1,1,1,1,1,1,1,1,1,1,1,1,1,1,1,1,1,1,1,1,1,1,1,1,1,1,1,1,1,1,1,1,1,1,1,1,1,1,1,1,1,1,1,1,1,1,1,1,1,1,1,1,1,1,1,1,1,1,1,1,1,1,1,1,1,1,1,1,1,1,1,1,1,1,1,1,1,1,1,1,1,1,1,1,1,1,1,1,1,1,1,1,1,1,1,1,1,1,1,1,1,1,1,1,1,1,1,1,1,1,1,1,1,1,1,1,1,1,1,1,1,1,1,1,1,1,1,1,1,1,1,1,1,1,1,1,1,1,1,1,1,1,1,1,1,1,1,1,1,1,1,1,1,1,1,1,1,1,1,1,1,1,1,1,1,1,1,1,1,1,1,1,1,1,1,1,1,1,1,1,1,1,1,1,1,1,1,1,1,1,1,1,1,1,1,1,1,1,1,1,1,1,1,1,1,1,1,1,1,1,1,1,1,1,1,1,1,1,1,1,1,1,1,1,1,1,1,1,1,1,1,1,1,1,1,1,1,1,1,1,1,1,1,1,1,1,1,1,1,1,1,1,1,1,1,1,1,1,1,1,1,1,1,1,1,1,1,1,1,1,1,1,1,1,1,1,1,1,1,1,1,1,1,1,1,1,1,1,1,1,1,1,1,1,1,1,1,1,1,1,1,1,1,1,1,1,1,1,1,1,1,1,1,1,1,1,1,1,1,1,1,1,1,1,1,1,1,1,1,1,1,1,1,1,1,1,1,1,1,1,1,1,1,1,1,1,1,1,1,1,1,1,1,1,1,1,1,1,1,1,1,1,1,1,1,1,1,1,1,1,1,1,1,1,1,1,1,1,1,1,1,1,1,1,1,1,1,1,1,1,1,1,1,1,1,1,1,1,1,1,1,1,1,1,1,1,1,1,1,1,1,1,1,1,1,1,1,1,1,1,1,1,1,1,1,1,1,1,1,1,1,1,1,1,1,1,1,1,1,1,1,1,1,1,1,1,1,1,1,1,1,1,1,1,1,1,1,1,1,1,1,1,1,1,1,1,1,1,1,1,1,1,1,1,1,1,1,1,1,1,1,1,1,1,1,1,1,1,1,1,1,1,1,1,1,1,1,1,1,1,1,1,1,1,1,1,1,1,1,1,1,1,1,1,1,1,1,1,1,1,1,1,1,1,1,1,1,1,1,1,1,1,1,1,1,1,1,1,1,1,1,1,0,1,1,1,1,1,1,5089,1,1,1,1,1,1,1,1,1,1,5089,1,1,1,1,5089,1,1,1,1,1,1,1,1,1,1,1,1,1,1,1,1,1,1,1,1,1,1,1,1,1,1,1,1,1,1,1,1,1,1,1,1,1,1,1,1,1,1,1,1,1,1,1,1,1,1,1,1,1,1,1,1,1,1,1,1,0,0,0,0,0,0,0,0,0,0,0,0,0,0,0,0,0,0,0,0,0,0,0,0,0,0,0,0,0,0,0,0,0,0,0,0,1445,0,0,0,0,0,0,0,0,0,0,0,0,0,0,0,0,0,0,0,0,0,0,0,0,0,0,0,0,0,0,0,0,0,0,0,0,0,0,0,0,0,0,0,0,0,0,0,0,0,0,0,0,0,0,0,0,0,0,0,0,0,0,0,0,0,0,0,0,0,0,0,0,0,0,0,0,0,0,0,0,0,0,0,0,0,0,0,0,0,0,0,0,0,0,0,0,0,0,0,0,0,0,0,0,0,0,0,0,0,0,0,0,0,0,0,0,0,0,0,0,0,0,0,0,0,0,0,0,0,0,0,0,0,0,0,0,0,0,0,0,0,0,0,0,0,0,0,0,0,0,0,0,0,0,0,0,0,0,0,0,0,0,0,0,0,0,0,0,0,0,0,0,0,0,0,0,0,0,0,0,0,0,0,0,0,0,0,0,0,0,0,0,0,0,0,0,0,0,0,0,0,0,0,0,0,0,0,0,0,0,0,0,0,0,0,0,0,0,0,0,0,0,0,0,0,0,0,0,0,0,0,0,0,0,0,0,0,0,0,0,0,0,0,0,0,0,0,0,0,0,0,0,0,0,0,0,0,0,0,0,0,0,0,0,0,0,0,0,0,0,0,0,0,0,0,0,0,0,0,0,0,0,0,0,0,0,0,0,0,0,0,0,0,0,0,0,0,0,0,0,0,0,0,0,0,0,0,0,0,0,0,0,0,0,0,0,0,0,0,0,0,0,0,0,0,0,0,0,0,0,0,0,0,0,0,0,0,0,0,0,0,0,0,0,0,0,0,0,0,0,0,0,0,0,0,0,0,0,0,0,0,0,0,0,0,0,0,0,0,0,0,0,0,0,0,0,0,0,0,0,0,0,0,0,0,0,0,0,0,0,0,0,0,0,0,0,0,0,0,0,0,0,0,0,0,0,0,0,0,0,0,0,5155,0,0,0,0,0,0,0,0,0,0,0,0,0,0,0,0,0,0,0,0,0,0,0,0,0,0,0,0,0,0,0,0,0,0,0,0,0,0,0,0,0,0,0,0,0,0,0,0,0,0,0,0,0,0,0,0,0,0,0,0,0,0,0,0,0,0,0,0,0,0,0,0,0,0,0,0,0,0,0,0,0,0,0,0,0,0,0,0,0,0,0,0,0,0,0,0,0,0,0,0,0,0,0,0,0,0,0,0,0,0,0,0,0,0,0,0,0,0,0,0,0,0,0,0,0,0,0,0,0,0,0,0,0,0,0,0,0,0,0,0,0,0,0,0,0,0,0,0,0,0,0,0,0,0,0,0,0,0,0,0,0,0,0,0,0,0,0,0,0,0,0,0,0,0,0,0,0,0,0,0,0,0,0,0,0,0,0,0,0,0,0,0,0,0,0,0,0,0,0,0,0,0,0,0,0,0,0,0,0,0,0,0,0,0,0,0,0,0,0,0,0,0,0,0,0,0,0,0,0,0,0,0,0,0,0,0,0,0,0,0,0,0,0,0,0,0,0,0,0,0,0,0,0,0,0,0,0,0,0,0,0,0,0,0,0,0,0,0,0,0,0,0,0,0,0,0,0,0,0,0,0,0,0,0,0,0,0,0,0,0,0,0,0,0,0,0,0,0,0,0,0,0,0,0,0,0,0,0,0,0,0,0,0,0,0,0,0,0,0,0,0,0,0,0,0,0,0,0,0,0,0,0,0,0,0,0,0,0,0,0,0,0,0,0,0,0,0,0,0,0,0,0,0,0,0,0,0,0,0,0,0,0,0,0,0,0,0,0,0,0,0,0,0,0,0,0,0,0,0,0,0,0,0,0,0,0,0,0,0,0,0,0,0,0,0,0,0,0,0,0,0,0,0,0,0,0,0,0,0,0,0,0,0,0,0,0,0,0,0,0,0,0,0,0,0,0,0,0,0,0,0,0,0,0,0,0,0,0,0,0,0,0,0,0,0,0,0,0,3747,3776,3748,0,0,0,0,0,0,0,0,0,0,0,0,0,0,0,0,0,0,0,0,0,0,0,0,0,0,0,0,0,0,0,0,0,0,0,0,0,0,0,0,0,0,0,0,0,0,0,0,0,0,0,0,0,0,0,0,0,0,0,0,0,0,0,0,0,0,0,0,0,0,0,0,0,0,0,0,0,0,0,0,0,0,0,0,0,0,0,0,0,0,0,0,0,0,0,0,0,0,0,0,0,0,0,0,0,0,0,0,0,0,0,0,0,0,0,0,0,0,0,0,0,0,0,0,0,0,0,0,0,0,0,0,0,0,0,0,0,0,0,0,0,0,0,
1,1,1,1,1,1,1,1,1,1,1,1,1,1,1,1,1,1,1,1,1,1,1,1,1,1,1,1,1,1,1,1,1,1,1,1,1,1,1,1,1,1,1,1,1,1,1,1,1,1,1,1,1,1,1,1,1,1,1,1,1,1,1,1,1,1,1,1,1,1,1,1,1,1,1,1,1,1,1,1,1,1,1,1,1,1,1,1,1,1,1,1,1,1,1,1,1,1,1,1,1,1,1,1,1,1,1,1,1,1,1,1,1,1,1,1,1,1,1,1,1,0,1,1,1,1,1,1,1,1,1,1,1,1,1,1,1,1,1,1,1,1,1,1,1,1,1,1,1,1,1,1,1,1,1,1,5089,1,1,1,1,1,1,1,1,1,1,1,1,1,1,1,1,1,1,1,1,1,1,1,1,1,1,1,1,1,1,1,1,1,1,1,1,1,1,1,1,1,1,1,1,1,1,1,1,1,1,1,1,1,1,1,1,1,1,1,1,1,1,1,1,1,1,1,1,1,1,1,1,1,1,1,1,1,1,1,1,1,1,1,1,1,1,1,1,1,1,1,1,1,1,1,1,1,1,1,1,1,1,1,1,1,1,1,1,1,1,1,1,1,1,1,1,1,1,1,1,1,1,1,1,1,1,1,1,1,1,1,1,1,1,1,1,1,1,1,1,1,1,1,1,1,1,1,1,1,1,1,1,1,1,1,1,1,1,1,1,1,1,1,1,1,1,1,1,1,1,1,1,1,1,1,1,1,1,1,1,1,1,1,1,1,1,1,1,1,1,1,1,1,1,1,1,1,1,1,1,1,1,1,1,1,1,1,1,1,1,1,1,1,1,1,1,1,1,1,1,1,1,1,1,1,1,1,1,1,1,1,1,1,1,1,1,1,1,1,5089,1,1,1,1,1,1,1,1,1,1,1,1,1,1,1,1,1,1,1,1,1,1,1,1,1,1,1,1,1,1,1,1,1,1,1,1,1,1,1,1,1,1,1,1,1,1,1,1,1,1,1,1,1,1,1,1,1,1,1,1,1,1,1,1,1,1,1,1,1,1,1,1,1,1,1,1,1,1,1,1,1,1,1,1,1,1,1,1,1,1,1,1,1,1,1,1,1,1,1,1,1,1,1,1,1,1,1,1,1,1,1,1,1,1,1,1,1,1,1,1,1,1,1,1,1,1,1,1,1,1,1,1,1,1,1,1,1,1,1,1,1,1,1,1,1,1,1,1,1,1,1,1,1,1,1,1,1,1,1,1,1,1,1,1,1,1,1,1,1,1,1,1,1,1,1,1,1,1,1,1,1,1,1,1,1,1,1,1,1,1,1,1,1,1,1,1,1,1,1,1,1,1,1,1,1,1,1,1,1,1,1,1,1,1,1,1,1,1,1,1,1,1,1,1,1,1,1,1,1,1,1,1,1,1,1,1,1,1,1,1,1,1,1,1,1,1,1,1,1,1,1,1,1,1,1,1,1,1,1,1,1,1,1,1,1,1,1,1,1,1,1,1,1,1,1,1,1,1,1,1,1,1,1,1,1,1,1,1,1,1,1,1,1,1,1,1,1,1,1,1,1,1,1,1,1,1,1,1,1,1,1,1,1,1,1,1,1,1,1,1,1,1,1,1,1,1,1,1,1,1,1,1,1,1,1,1,1,1,1,1,1,1,1,1,1,1,1,1,1,1,1,1,1,1,1,1,1,1,1,1,1,1,1,1,1,1,1,1,1,1,1,1,1,1,1,1,1,1,1,1,1,1,1,1,1,1,1,1,1,1,1,1,1,1,1,1,1,1,1,1,1,1,1,1,1,1,1,1,1,1,1,1,1,1,5089,1,1,1,1,1,1,5089,1,1,1,1,1,1,1,1,1,1,5089,1,1,1,1,5089,1,1,1,1,1,1,1,1,1,1,1,1,1,1,1,1,1,1,1,1,1,1,1,1,1,1,1,1,1,1,1,1,1,1,1,1,1,1,1,1,1,1,1,1,1,1,1,1,1,1,1,1,1,1,1,1,1,1,1,1,0,0,0,0,0,0,0,0,0,0,0,0,0,0,0,0,0,0,0,0,0,0,0,0,0,0,0,0,0,0,0,0,0,0,0,0,1461,0,0,0,0,0,0,0,0,0,0,0,0,0,0,0,0,0,0,0,0,0,0,0,0,0,0,0,0,0,0,0,0,0,0,0,0,0,0,0,0,0,0,0,0,0,0,0,0,0,0,0,0,0,0,0,0,0,0,0,0,0,0,0,0,0,0,0,0,0,0,0,0,0,0,0,0,0,0,0,0,0,0,0,0,0,0,0,0,0,0,0,0,0,0,0,0,0,0,0,0,0,0,0,0,0,0,0,0,0,0,0,0,0,0,0,0,0,0,0,0,0,0,0,0,0,0,0,0,0,0,0,0,0,0,0,0,0,0,0,0,0,0,0,0,0,0,0,0,0,0,0,0,0,0,0,0,0,0,0,0,0,0,0,0,0,0,0,0,0,0,0,0,0,0,0,0,0,0,0,0,0,0,0,0,0,0,0,0,0,0,0,0,0,0,0,0,0,0,0,0,0,0,0,0,0,0,0,0,0,0,0,0,0,0,0,0,0,0,0,0,0,0,0,0,0,0,0,0,0,0,0,0,0,0,0,0,0,0,0,0,0,0,0,0,0,0,0,0,0,0,0,0,0,0,0,0,0,0,0,0,0,0,0,0,0,0,0,0,0,0,0,0,0,0,0,0,0,0,0,0,0,0,0,0,0,0,0,0,0,0,0,0,0,0,0,0,0,0,0,0,0,0,0,0,0,0,0,0,0,0,0,0,0,0,0,0,0,0,0,0,0,0,0,0,0,0,0,0,0,0,0,0,0,0,0,0,0,0,0,0,0,0,0,0,0,0,0,0,0,0,0,0,0,0,0,0,0,0,0,0,0,0,0,0,0,0,0,0,0,0,0,0,0,0,0,0,0,0,0,0,0,0,0,0,0,0,0,0,0,0,0,0,0,0,0,0,0,0,0,0,0,0,0,0,0,0,0,0,0,0,0,0,5123,0,0,0,0,0,0,0,0,0,0,0,0,0,0,0,0,0,0,0,0,0,0,0,0,0,0,0,0,0,0,0,0,0,0,0,0,0,0,0,0,0,0,0,0,0,0,0,0,0,0,0,0,0,0,0,0,0,0,0,0,0,0,0,0,0,0,0,0,0,0,0,0,0,0,0,0,0,0,0,0,0,0,0,0,0,0,0,0,0,0,0,0,0,0,0,0,0,0,0,0,0,0,0,0,0,0,0,0,0,0,0,0,0,0,0,0,0,0,0,0,0,0,0,0,0,0,0,0,0,0,0,0,0,0,0,0,0,0,0,0,0,0,0,0,0,0,0,0,0,0,0,0,0,0,0,0,0,0,0,0,0,0,0,0,0,0,0,0,0,0,0,0,0,0,0,0,0,0,0,0,0,0,0,0,0,0,0,0,0,0,0,0,0,0,0,0,0,0,0,0,0,0,0,0,0,0,0,0,0,0,0,0,0,0,0,0,0,0,0,0,0,0,0,0,0,0,0,0,0,0,0,0,0,0,0,0,0,0,0,0,0,0,0,0,0,0,0,0,0,0,0,0,0,0,0,0,0,0,0,0,0,0,0,0,0,0,0,0,0,0,0,0,0,0,0,0,0,0,0,0,0,0,0,0,0,0,0,0,0,0,0,0,0,0,0,0,0,0,0,0,0,0,0,0,0,0,0,0,0,0,0,0,0,0,0,0,0,0,0,0,0,0,0,0,0,0,0,0,0,0,0,0,0,0,0,0,0,0,0,0,0,0,0,0,0,0,0,0,0,0,0,0,0,0,0,0,0,0,0,0,0,0,0,0,0,0,0,0,0,0,0,0,0,0,0,0,0,0,0,0,0,0,0,0,0,0,0,0,0,0,0,0,0,0,0,0,0,0,0,0,0,0,0,0,0,0,0,0,0,0,0,0,0,0,0,0,0,0,0,0,0,0,0,0,0,0,0,0,0,0,0,0,0,0,0,0,0,0,0,0,0,0,0,0,0,0,0,0,3747,3776,3748,0,0,0,0,0,0,0,0,0,0,0,0,0,0,0,0,0,0,0,0,0,0,0,0,0,0,0,0,0,0,0,0,0,0,0,0,0,0,0,0,0,0,0,0,0,0,0,0,0,0,0,0,0,0,0,0,0,0,0,0,0,0,0,0,0,0,0,0,0,0,0,0,0,0,0,0,0,0,0,0,0,0,0,0,0,0,0,0,0,0,0,0,0,0,0,0,0,0,0,0,0,0,0,0,0,0,0,0,0,0,0,0,0,0,0,0,0,0,0,0,0,0,0,0,0,0,0,0,0,0,0,0,0,0,0,0,0,0,0,0,0,0,0,
1,1,1,1,1,1,1,1,1,1,1,1,1,1,1,1,1,1,1,1,1,1,1,1,1,1,1,1,1,1,1,1,1,1,1,1,1,1,1,1,1,1,1,1,1,1,1,1,1,1,1,1,1,1,1,1,1,1,1,1,1,5089,1,1,1,1,1,1,1,1,1,1,1,1,1,1,1,1,1,1,1,1,1,1,1,1,1,1,1,1,1,1,1,1,1,1,1,1,1,1,1,1,1,1,1,1,1,1,1,1,1,1,1,1,1,1,1,1,1,1,1,1,1,1,1,1,1,1,1,1,1,1,1,1,1,1,1,1,1,1,1,1,1,1,1,1,1,1,1,1,1,1,1,1,1,1,5089,1,1,1,1,1,1,1,1,1,1,1,1,1,1,1,1,1,1,1,1,1,1,1,1,1,1,1,1,1,1,1,1,1,1,1,1,1,1,1,1,1,1,1,1,1,1,1,1,5089,1,1,1,1,5089,1,1,1,1,1,1,5089,1,1,1,1,1,5089,1,1,1,1,1,1,1,1,1,1,1,1,1,1,1,1,1,1,1,1,1,1,1,1,1,1,1,1,1,1,1,1,1,1,1,1,1,1,1,1,1,1,1,1,1,1,1,1,1,1,1,1,1,1,1,1,1,1,1,1,1,1,1,1,1,1,1,1,1,1,1,1,1,1,1,1,1,1,1,1,1,1,1,1,1,1,1,1,1,1,1,1,1,1,1,1,1,1,1,1,1,1,1,1,1,1,1,1,1,1,1,1,1,1,1,1,1,1,1,1,1,1,1,1,1,1,1,1,1,1,1,1,1,1,1,1,1,5089,1,1,1,1,1,1,1,1,1,1,1,1,1,1,1,1,1,1,1,1,1,1,1,1,1,1,1,1,1,1,5089,1,1,1,5089,1,1,1,5089,1,1,1,1,1,1,1,1,1,1,1,1,1,1,1,1,1,1,1,1,1,1,1,1,1,1,1,1,1,1,1,1,1,1,1,1,1,1,1,1,1,1,1,1,1,1,1,1,1,1,1,1,1,1,1,1,1,1,1,1,1,1,1,1,1,1,1,1,1,1,1,1,1,1,1,1,1,1,1,1,1,1,1,1,1,1,1,1,1,1,1,1,1,1,1,1,1,1,1,1,1,1,1,1,1,1,1,1,1,1,1,1,1,1,1,1,1,1,1,1,1,1,1,1,1,1,1,1,1,1,1,1,1,1,1,1,1,1,1,1,1,1,1,1,1,1,1,1,1,1,1,1,1,1,1,1,1,1,1,1,1,1,1,1,1,1,1,1,1,1,1,1,1,1,1,1,1,1,1,1,1,1,1,1,1,1,1,1,1,1,1,1,1,1,1,1,1,1,1,1,1,1,1,1,1,1,1,1,1,1,1,1,1,1,1,1,1,1,1,1,1,1,1,1,1,1,1,1,1,1,1,1,1,1,1,1,1,1,1,1,1,1,1,1,1,1,1,1,1,1,1,1,1,1,1,1,1,1,1,1,1,1,1,1,1,1,1,1,1,1,1,1,1,1,1,1,1,1,1,1,1,1,1,1,1,1,1,1,1,1,1,1,1,1,1,1,1,1,1,1,1,1,1,1,1,1,1,1,1,1,1,1,1,1,1,1,1,1,1,1,1,1,1,1,1,1,1,1,1,1,1,1,1,1,1,1,1,1,1,1,1,1,1,1,1,1,1,1,1,1,1,1,1,1,1,1,1,1,1,1,1,1,1,1,1,1,1,1,1,1,1,1,1,1,1,1,1,1,1,1,1,1,1,1,1,1,1,1,1,1,1,1,1,1,1,1,1,1,1,1,1,1,1,1,1,1,1,1,1,1,5089,1,1,1,1,1,1,5089,1,1,1,1,1,1,1,1,1,1,5089,1,1,1,1,5089,1,1,1,1,1,1,1,1,1,1,1,1,1,1,1,1,1,1,1,1,1,1,1,1,1,1,1,1,1,1,1,1,1,1,1,1,1,1,1,1,1,1,1,1,1,1,1,1,1,1,1,1,1,1,1,1,1,1,1,1,0,0,0,0,0,0,0,0,0,0,0,0,0,0,0,0,0,0,0,0,0,0,0,0,0,0,0,0,0,0,0,5089,0,0,0,0,1477,0,0,0,0,0,0,0,0,0,0,0,0,0,0,0,0,0,0,0,0,0,0,0,0,0,0,0,0,0,0,0,0,0,0,0,0,0,0,0,0,0,0,0,0,0,0,0,0,0,0,0,0,0,0,0,0,0,0,0,0,0,0,0,0,0,0,0,0,0,0,0,0,0,0,0,0,0,0,0,0,0,0,0,0,0,0,0,0,0,0,0,0,0,0,0,0,0,0,0,0,0,0,0,0,0,0,0,0,0,0,0,0,0,0,0,0,0,0,0,0,0,0,0,0,0,0,0,0,0,5981,0,0,0,0,0,0,0,0,0,0,0,0,1513,1514,0,3763,3764,0,5131,5154,5122,5154,5132,0,3699,3715,3712,3716,3700,0,5163,5122,5154,5122,5154,5122,5164,0,3763,3779,3776,3780,3764,0,5131,5154,5122,5154,5132,0,3699,3715,3712,3712,3712,3712,3712,3712,3712,3712,3712,3712,3712,3712,3712,3712,3712,3712,3712,3716,3700,0,0,0,0,0,0,0,0,0,0,0,0,0,0,0,0,0,0,0,0,0,0,0,0,0,0,0,0,0,0,0,0,0,0,0,0,0,0,0,0,0,0,0,0,0,0,0,0,0,0,0,0,0,0,0,0,0,0,0,0,0,0,0,0,0,0,0,0,0,0,0,0,0,0,0,0,0,0,0,0,0,0,0,0,0,0,0,0,0,0,0,0,0,0,0,0,0,0,0,0,0,0,0,0,0,0,0,0,0,0,0,0,0,0,0,0,0,0,0,0,0,0,0,0,0,0,0,0,0,0,0,0,0,0,0,0,0,0,0,0,0,0,0,0,0,0,0,0,0,0,0,0,0,0,0,0,0,0,0,0,0,0,0,0,0,0,0,0,0,0,0,0,0,0,0,0,0,0,0,0,0,0,0,0,0,0,0,0,0,0,0,0,0,0,0,0,0,0,0,0,0,0,1429,1430,1431,1432,1429,1430,1431,1432,0,5155,0,0,0,0,0,0,0,0,0,0,0,0,0,0,0,0,0,0,0,0,0,0,0,0,0,0,0,0,0,0,0,0,0,0,0,0,0,0,0,0,0,0,0,0,0,0,0,0,0,0,0,0,0,0,0,0,0,0,0,0,0,0,0,0,0,0,0,0,0,0,0,0,0,0,0,0,0,0,0,0,0,0,0,0,0,0,0,0,0,0,0,0,0,0,0,0,0,0,0,0,0,0,0,0,0,0,0,0,0,0,0,0,0,0,0,0,0,0,0,0,0,0,0,0,0,0,0,0,0,0,0,0,0,0,0,0,0,0,0,0,0,0,0,0,0,0,0,0,0,0,0,0,0,0,0,0,0,0,0,0,0,0,0,0,0,0,0,0,0,0,0,0,0,0,0,0,0,0,0,0,0,0,0,0,0,0,0,0,0,0,0,0,0,0,0,0,0,0,0,0,1463,1464,1461,1462,1463,1464,1461,1462,1463,1464,1461,1462,0,0,0,0,0,0,0,0,0,0,0,0,0,0,0,0,0,0,0,0,0,0,0,0,0,0,0,0,0,0,0,0,0,0,0,0,0,0,0,0,0,0,0,0,0,0,0,0,0,0,0,0,0,0,0,0,0,0,0,0,0,0,0,0,0,0,0,0,0,0,0,0,0,0,0,0,0,0,0,0,0,0,0,0,0,0,0,0,0,0,0,0,0,0,0,0,0,0,0,0,0,0,0,0,0,0,0,0,0,0,0,0,0,0,0,0,0,0,0,0,0,0,0,0,0,0,0,0,0,0,0,0,0,0,0,0,0,0,0,0,0,0,0,0,0,0,0,0,0,0,0,0,0,0,0,0,0,0,0,0,0,0,0,0,0,0,0,0,0,0,0,0,0,0,0,0,0,0,0,0,0,0,0,0,0,0,0,0,0,0,0,0,0,0,0,0,0,0,0,0,0,0,0,0,0,0,0,0,0,0,0,0,0,0,0,0,0,0,0,0,0,0,0,0,0,0,0,0,0,0,0,0,0,0,0,0,3747,3776,3748,0,0,0,0,0,0,0,0,0,0,0,0,0,0,0,0,0,0,0,0,0,0,0,0,0,0,5089,0,0,0,0,0,0,5089,0,0,0,0,0,0,0,3562,0,3578,0,0,0,0,0,0,0,0,0,0,0,0,0,0,0,0,0,0,0,0,0,0,0,0,0,0,0,0,0,0,0,0,0,0,0,0,0,0,0,3562,0,0,3578,0,0,0,0,0,3562,0,0,0,0,0,0,0,0,0,0,0,0,0,0,0,0,0,0,0,0,0,0,0,0,3562,3578,3562,3578,3562,0,0,0,3578,0,0,0,3562,0,0,0,0,0,0,0,0,0,0,0,0,0,
1,1,1,1,1,1,1,1,1,1,1,1,1,1,1,1,1,1,1,1,1,1,1,1,1,1,1,1,1,1,1,1,1,1,1,1,1,1,1,1,1,1,3562,1,3578,1,1,1,1,1,5089,1,1,1,1,1,1,1,1,1,1,5089,1,1,1,1,1,1,1,1,1,1,1,1,1,1,1,1,1,1,1,1,1,1,1,1,1,1,1,1,1,1,1,1,1,1,1,1,1,1,1,1,1,1,1,1,1,1,1,1,1,1,1,1,1,1,1,1,0,0,0,0,0,1,1,1,1,1,1,1,1,1,1,1,1,1,1,1,1,1,1,1,1,1,1,1,1,1,1,1,1,1,1,1,1,1,5089,1,1,1,1,1,1,1,1,1,1,1,1,1,1,1,1,1,1,1,1,1,1,1,1,1,1,1,1,1,1,1,1,1,1,1,1,1,1,1,1,1,1,1,1,1,1,1,1,5089,1,1,1,1,5089,1,1,1,1,1,1,5089,1,1,1,1,1,5089,1,1,1,1,1,1,1,1,1,1,1,1,1,1,1,1,1,1,1,1,1,1,1,1,1,1,1,1,1,1,1,1,1,1,1,1,1,1,1,1,1,1,1,1,1,1,1,1,1,1,1,1,1,1,1,1,1,1,1,1,1,1,1,1,1,1,1,1,1,1,1,1,1,1,1,1,1,1,1,1,1,1,1,1,1,1,1,1,1,1,1,1,1,1,1,1,1,1,1,1,1,1,1,1,1,1,1,1,1,1,1,1,1,1,1,1,1,1,1,1,1,1,5981,1,1,1,1,1,1,1,1,1,1,1,1,1,1,5089,1,1,1,1,1,1,1,1,1,1,1,1,1,1,1,1,5089,1,1,1,1,1,1,1,1,1,1,1,1,1,5089,1,1,1,5089,1,1,1,5089,1,1,1,1,1,1,5489,1,1,1,5489,1,1,1,1,1,1,1,1,1,1,1,1,1,1,1,1,1,1,1,1,1,1,1,1,1,1,1,1,1,1,1,1,1,1,1,1,1,1,1,1,1,1,1,1,1,1,1,1,1,1,1,1,1,1,1,1,1,1,1,1,1,1,1,1,1,1,1,1,1,1,1,1,1,1,1,1,1,1,1,1,1,1,1,1,1,1,1,1,1,1,1,1,1,1,1,1,1,1,1,1,1,1,1,1,1,1,1,1,1,1,1,1,1,1,1,1,1,1,1,1,1,1,1,1,1,1,1,1,1,1,1,1,1,1,1,1,1,1,1,1,1,1,1,1,1,1,1,1,1,1,1,1,1,1,1,1,1,1,1,1,1,1,1,1,1,1,1,1,1,1,1,1,1,1,1,1,1,1,1,1,1,1,1,1,1,1,1,1,1,1,1,1,1,1,1,1,1,1,1,1,1,1,1,1,1,1,1,1,1,1,1,1,1,1,1,1,1,1,1,1,1,1,1,1,1,1,1,1,1,1,1,1,1,1,1,1,1,1,1,1,1,1,1,1,1,1,1,1,1,1,1,1,1,1,1,1,1,1,1,1,1,1,1,1,1,1,1,1,1,1,1,1,1,1,1,1,1,1,1,1,1,1,1,1,1,1,1,1,1,1,1,1,1,1,1,1,1,1,1,1,1,1,1,1,1,1,1,1,1,1,1,1,1,1,1,1,1,1,1,1,1,1,1,1,1,1,1,1,1,1,1,1,1,1,1,1,1,1,1,1,1,1,1,1,1,1,1,1,1,1,1,1,1,1,1,1,1,1,1,1,1,1,1,1,1,1,1,1,1,1,1,1,1,1,1,1,1,1,1,1,1,1,1,1,1,1,1,1,1,1,1,1,1,1,1,1,1,1,1,5089,1,1,1,1,1,1,5089,1,1,1,1,1,1,1,1,1,1,5089,1,1,1,1,5089,1,1,1,1,1,1,1,1,1,1,1,1,1,1,1,1,1,1,1,1,1,1,1,1,1,1,1,1,1,1,1,1,1,1,1,1,1,1,1,1,1,1,1,1,1,1,1,1,1,1,1,1,1,1,1,1,1,1,1,1,0,0,0,0,0,0,0,0,0,0,0,0,0,5089,0,0,0,0,0,0,0,0,0,0,0,0,0,0,0,0,0,5089,0,0,0,0,1,0,0,0,0,0,5163,5122,5154,5122,5154,3773,5154,3706,5154,5122,3773,5122,5154,5122,5154,5122,5154,5122,5154,5122,3773,5122,3709,5122,5154,5122,5154,5122,5154,5122,5154,5122,5154,5122,5154,5122,5154,5122,5154,5122,5154,5122,5154,5122,5154,3709,5154,3770,5154,5122,3709,5122,3773,5122,5154,5132,0,5131,5154,5122,5154,5122,5154,5122,5154,5122,5154,5122,5154,5122,5154,5122,5154,5122,5154,5122,5154,5122,5154,5122,5154,5122,5154,5122,5154,5122,5154,5122,5154,5122,3770,5122,3709,5122,3773,5122,3706,5122,5154,5122,3773,5122,5154,5122,5154,5122,5154,3709,3709,5122,5154,3773,5154,3709,5154,5122,5154,5122,5154,5122,5154,5122,5154,3709,5981,0,0,0,0,0,0,0,0,0,0,0,0,0,1513,1514,0,0,1515,1516,0,0,0,1513,1514,0,3699,3682,3700,0,1515,1516,0,0,0,0,0,1513,1514,0,3763,3746,3764,0,1515,1516,0,0,0,1513,1514,0,3699,3682,3682,3682,3682,3682,3682,3682,3682,3682,3682,3682,3682,3682,3682,3682,3682,3682,3700,0,0,0,0,0,0,0,0,0,1513,1514,0,3763,3746,3746,3746,3746,3746,3746,3746,3746,3746,3746,3746,3746,3746,3746,3746,3779,3776,3776,3776,3776,3776,3776,3776,3780,3746,3746,3746,3746,3746,3746,3746,3746,3746,3779,3776,3776,3776,3776,3776,3776,3776,3776,3780,3746,3746,3746,3746,3764,0,0,0,0,0,0,0,0,0,3763,3779,0,0,0,0,0,0,0,0,0,0,0,0,0,0,0,0,0,0,0,0,0,0,0,0,0,0,0,0,0,0,0,0,0,0,0,0,0,0,0,0,0,0,0,0,0,0,0,0,0,0,0,0,0,0,0,0,0,0,0,0,0,0,0,0,0,0,0,0,0,0,0,0,0,0,0,0,0,0,0,0,0,0,0,0,0,0,0,0,0,0,0,0,0,0,0,0,0,0,0,0,0,0,0,0,0,0,0,0,0,0,0,0,0,0,0,0,0,0,0,0,0,0,0,0,0,0,0,0,0,0,0,1445,1446,1447,1448,1445,1446,1447,1448,0,5123,0,0,0,0,0,0,0,0,0,0,0,5089,0,0,0,0,0,0,0,0,0,0,0,0,0,0,0,0,0,0,0,0,0,0,0,0,0,0,0,0,0,0,0,0,0,0,0,0,0,0,0,0,0,0,0,0,0,0,0,0,0,0,0,0,0,0,5089,0,0,0,0,0,0,0,0,0,0,0,0,0,0,0,0,0,0,0,5089,0,0,0,0,0,0,0,0,0,0,0,0,0,0,0,0,0,0,0,0,0,0,0,0,0,0,0,0,0,0,0,0,0,0,0,0,0,0,0,0,0,0,0,0,0,0,0,0,0,0,0,0,0,0,0,0,0,0,0,0,0,0,0,0,0,0,0,0,0,0,0,0,0,0,0,0,0,0,0,0,0,0,0,0,0,0,0,0,0,0,0,0,0,0,0,0,0,0,0,0,0,0,1480,3763,3746,3779,3776,3776,3776,3780,3746,3764,0,0,0,0,0,0,0,0,0,0,0,0,0,0,3763,3779,3776,3780,3764,1477,0,0,0,0,0,0,0,0,0,0,0,0,0,0,0,0,0,0,0,0,0,0,0,0,0,0,0,0,0,0,0,0,0,0,0,0,0,0,0,0,0,0,0,0,0,0,0,0,0,0,0,0,0,0,0,0,0,0,0,0,0,0,0,0,0,0,0,0,0,0,0,0,0,0,0,0,0,0,0,0,0,0,0,0,0,0,0,0,0,0,0,0,0,0,0,0,0,0,0,0,0,0,0,0,0,0,0,0,0,0,0,0,0,0,0,0,0,0,0,0,0,0,0,0,0,0,0,0,0,0,0,0,0,0,0,0,0,0,0,0,0,0,0,0,0,0,0,0,0,0,0,0,0,0,0,0,0,0,0,0,0,0,0,0,0,0,0,0,0,0,0,0,0,0,0,0,0,0,0,0,0,0,0,0,0,0,0,0,0,0,0,0,0,0,0,0,0,0,0,0,0,0,0,0,0,0,0,0,0,0,0,0,0,0,0,0,0,0,0,0,0,0,0,0,0,0,0,0,0,3763,3779,3748,0,0,0,0,0,0,0,0,0,0,0,0,0,0,0,0,0,0,0,0,0,0,0,0,0,0,5089,0,0,0,0,0,0,5089,0,0,0,0,0,0,0,3562,0,3578,0,0,0,0,0,0,0,0,0,0,0,0,0,0,0,0,0,0,0,0,0,0,0,0,0,0,0,0,0,0,0,0,0,0,0,0,0,0,0,3562,0,0,3578,0,0,0,0,0,3562,0,0,0,0,0,0,0,0,0,0,0,0,0,0,0,0,0,0,0,0,0,0,0,0,3562,3578,3562,3578,3562,0,0,0,3578,0,0,0,3562,0,0,0,0,0,0,0,0,0,0,0,0,0,
1,1,1,1,1,1,1,1,1,1,1,1,1,1,1,1,1,1,1,1,1,1,1,1,1,1,1,5089,1,1,1,1,1,1,5089,1,1,1,1,1,1,1,3562,1,3578,1,1,1,1,1,5089,1,1,1,1,5089,1,1,1,1,1,5089,1,1,1,1,1,1,1,1,1,1,1,1,1,1,1,1,1,1,1,1,1,1,1,1,1,1,1,1,1,1,1,1,1,1,1,1,1,1,1,1,1,1,1,1,1,1,1,1,1,1,5089,1,1,1,1,1,0,0,0,0,0,1,1,1,1,1,1,1,1,1,1,1,1,1,1,1,1,1,1,1,1,1,1,1,1,1,1,1,1,1,1,1,1,1,5089,1,1,1,1,1,1,1,1,1,1,1,1,1,1,1,1,1,1,1,1,1,1,1,1,1,1,1,1,1,1,1,1,1,1,1,1,1,1,1,1,1,1,1,1,1,1,1,1,5089,1,1,1,1,5089,1,1,1,1,1,1,5089,1,1,1,1,1,5089,1,1,1,1,1,1,1,1,1,1,1,1,1,1,1,1,1,1,1,1,1,1,1,1,1,1,1,1,1,1,1,1,1,1,1,1,1,1,1,1,1,1,1,1,1,1,1,1,1,1,1,1,1,1,1,1,1,1,1,1,1,1,1,1,1,1,1,1,1,1,1,1,1,1,1,1,1,1,1,1,1,1,1,1,1,1,1,1,1,1,1,1,1,1,1,1,1,1,1,1,1,1,1,1,1,1,1,1,1,1,1,1,1,1,1,1,1,1,1,1,1,1,5981,1,1,1,1,1,1,1,1,1,1,1,1,1,1,5089,1,1,1,1,1,1,1,1,1,1,1,1,1,1,1,1,5089,1,1,1,1,1,5089,1,1,1,1,1,1,1,5089,1,1,1,5089,1,1,1,5089,1,1,1,1,1,1,5489,1,1,1,5489,1,1,1,1,1,1,1,1,1,1,1,1,1,1,1,1,1,1,1,1,1,1,1,1,1,1,1,1,1,1,1,1,1,1,1,1,1,1,1,1,1,1,1,1,1,1,1,1,1,1,1,1,1,1,1,1,1,1,1,1,1,1,1,1,1,1,1,1,1,1,1,1,1,1,1,1,1,1,1,1,1,1,1,1,1,1,1,1,1,1,1,1,1,1,1,1,1,1,1,1,1,1,1,1,1,1,1,1,1,1,1,1,1,1,1,1,1,1,1,1,1,1,1,1,1,1,1,1,1,1,1,1,1,1,1,1,1,1,1,1,1,1,1,1,1,1,1,1,1,1,1,1,1,1,1,1,1,1,1,1,1,1,1,1,1,1,1,1,1,1,1,1,1,1,1,1,1,1,1,1,1,1,1,1,1,1,1,1,1,1,1,1,1,1,1,1,1,1,1,1,1,1,1,1,1,1,1,1,1,1,1,1,1,1,1,1,1,1,1,1,1,1,1,1,1,1,1,1,1,1,1,1,1,1,1,1,1,1,1,1,1,1,1,1,1,1,1,1,1,1,1,1,1,1,1,1,1,1,1,1,1,1,1,1,1,1,1,1,1,1,1,1,1,1,1,1,1,1,1,1,1,1,1,1,1,1,1,1,1,1,1,1,1,1,1,1,1,1,1,1,1,1,1,1,1,1,1,1,1,1,1,1,1,1,1,1,1,1,1,1,1,1,1,1,1,1,1,1,1,1,1,1,1,1,1,1,1,1,1,1,1,1,1,1,1,1,1,1,1,1,1,1,1,1,1,1,1,1,1,1,1,1,1,1,1,1,1,1,1,1,1,1,1,1,1,1,1,1,1,1,1,1,1,1,1,1,1,1,1,1,1,1,1,1,1,1,1,1,1,5089,1,1,1,1,1,1,5089,1,1,1,1,1,1,1,1,1,1,5089,1,1,1,1,5089,1,1,1,1,1,1,5089,1,1,1,1,1,1,1,1,1,1,1,1,1,1,1,1,1,1,1,1,1,1,1,1,1,1,1,1,1,1,1,1,1,1,1,1,1,1,1,1,1,1,1,1,1,1,1,1,1,1,1,1,1,0,0,0,0,0,0,0,0,0,0,0,0,0,5089,0,0,0,0,0,0,0,0,0,0,0,0,0,0,0,0,0,5089,0,0,0,0,1,0,0,0,0,0,0,0,0,0,0,3770,5837,0,0,0,3773,5981,0,0,0,0,0,0,0,0,3773,5981,3706,5837,0,0,0,0,0,0,0,0,0,0,0,0,0,0,0,0,0,0,0,0,0,3706,5837,0,0,0,3709,5981,3770,5837,0,0,0,0,0,0,0,0,0,0,0,0,0,0,0,0,0,0,0,0,0,0,0,0,0,0,0,0,0,0,0,0,0,0,0,0,0,0,3709,5981,3770,5837,0,0,0,0,3770,5837,0,0,0,0,0,3703,3704,5837,0,3773,5981,3709,5981,0,0,0,0,0,0,0,0,3706,5837,0,0,0,0,0,0,0,0,0,0,0,0,0,0,1513,1514,1515,1516,0,0,0,0,0,1513,1514,0,0,0,28,0,0,0,0,0,0,0,0,1513,1514,0,0,0,28,0,0,0,0,0,0,1513,1514,0,0,0,0,0,0,0,0,0,0,0,0,0,0,0,0,0,0,0,0,0,0,0,0,0,0,0,0,0,1513,1514,0,0,0,0,0,0,0,0,0,0,0,0,0,0,0,0,3763,3779,3776,3776,3776,3776,3776,3780,3764,0,0,0,0,0,0,0,0,0,3763,3779,3776,3776,3776,3780,3746,3746,3746,3764,0,0,0,0,0,1515,1516,0,0,0,0,0,0,0,0,3763,3779,3776,3776,3776,0,0,0,0,0,0,0,0,0,0,0,0,0,0,0,0,0,0,0,0,0,0,0,0,0,0,0,0,0,0,0,0,0,0,0,0,0,0,0,0,0,0,0,0,0,0,0,0,0,0,0,0,0,0,0,0,0,0,0,0,0,0,0,0,0,0,0,0,0,0,0,0,0,0,0,0,0,0,0,0,0,0,0,0,0,0,0,0,0,0,0,0,0,0,0,0,0,0,0,0,0,0,0,0,0,0,0,0,0,0,0,0,0,0,0,0,0,0,0,0,0,0,0,0,0,0,0,1461,1462,1463,1464,1461,1462,1463,1464,0,5155,0,0,0,0,0,5089,0,0,0,0,0,5089,0,0,0,0,0,0,5089,0,0,0,0,0,0,0,0,0,0,0,0,0,0,0,0,0,0,0,0,0,0,0,0,0,0,0,0,0,0,0,0,0,0,0,0,0,0,0,0,0,0,0,0,0,0,0,5089,0,0,0,0,0,0,0,0,0,0,0,0,0,0,0,0,0,0,0,5089,0,0,0,0,0,0,0,0,0,5089,0,0,0,0,0,0,0,0,0,0,0,0,0,0,0,5163,5122,5154,5122,5154,5122,5154,5122,5154,5122,5154,5122,5154,5132,0,3763,3746,3779,3776,3776,3776,3780,3746,3764,0,5131,5154,5122,5154,5122,5154,5122,5154,5122,5154,5122,5154,5122,5154,5122,5154,5122,5154,5122,5154,5122,5154,5122,5154,5122,5154,5122,5154,5122,5154,5122,5154,5122,5154,5122,5154,5122,5154,5122,5154,5122,5154,5122,5154,5122,5154,5122,5154,5122,5154,5122,5154,5132,0,0,3763,3746,3746,3746,3764,0,0,0,0,0,0,0,0,0,0,0,0,0,0,0,0,0,3763,3746,3764,0,5163,5122,5154,5122,5154,5122,5154,5122,5154,5122,5154,5122,5154,5122,5154,5122,5154,5122,5154,5122,5154,5122,5154,5122,5154,5122,5154,5122,5154,5122,5154,5122,5154,5122,5154,0,0,0,5154,5122,5154,5122,5154,5122,5154,5122,5154,5122,5154,5122,5154,5122,5154,5122,5154,5122,5154,5122,5164,0,3763,3779,3776,3780,3764,0,5163,5122,5154,5122,5154,5122,5154,5122,5154,5122,5154,5122,5154,5122,5154,5122,5154,5122,5154,5122,5154,5122,5154,5122,5154,5122,5154,5122,5154,5122,5154,5122,5154,0,126,0,5154,5122,5154,5122,5154,5122,5154,5122,5154,5122,5154,5122,5154,5122,5154,5122,5154,5122,0,126,0,5122,5154,5122,5154,5122,5154,5122,5154,5122,5154,5122,5154,5122,5154,5122,5154,5122,5154,5122,5154,5122,5164,0,3763,3779,3776,3780,3764,0,5163,5122,5154,5122,5154,5122,5154,5122,5154,5122,5154,5122,5154,5122,5154,5122,5154,5122,5154,5122,5154,5122,5154,5122,5154,5122,5154,5122,5154,5122,5154,5122,5154,5122,5154,5122,5154,5122,5154,5122,5154,5122,5154,5122,5154,5122,5154,5122,5154,5122,5154,5122,5154,5122,5154,5122,5154,5122,5154,5122,5154,5122,5154,5122,5154,5122,5154,5122,5154,5122,5154,5122,5154,5122,5154,5122,5154,5132,0,3763,3759,0,0,0,0,0,0,0,0,0,0,0,0,0,0,0,0,0,0,0,0,0,0,0,0,0,0,5089,0,0,0,0,0,0,5089,0,0,0,0,0,0,0,3562,0,3578,0,0,0,0,0,0,0,0,0,0,0,0,0,0,0,0,0,0,0,0,0,0,0,0,0,0,0,0,0,0,0,0,0,0,0,0,0,0,0,3562,0,0,3578,0,0,0,0,0,3562,0,0,0,0,0,0,0,0,0,0,0,0,0,0,0,0,0,0,0,0,0,0,0,0,3562,3578,3562,3578,3562,0,0,0,3578,0,0,0,3562,0,0,0,0,0,0,0,0,0,0,0,0,0,
1,1,1,1,1,1,1,1,1,1,1,1,1,1,1,1,1,1,1,1,1,1,1,1,1,1,1,5089,1,1,1,1,1,1,5089,1,1,1,1,1,1,1,3562,1,3578,1,1,1,1,1,5089,1,1,1,1,5089,1,1,1,1,1,5089,1,1,1,1,1,1,1,1,1,1,1,1,5089,0,1,1,1,1,1,1,1,1,3562,1,1,3578,1,1,1,1,1,3562,1,1,1,1,1,1,1,1,5089,1,1,1,1,1,1,1,1,1,5089,1,1,1,1,1,3562,3578,3562,3578,3562,1,1,1,3578,1,1,1,3562,1,1,1,1,1,1,1,1,1,1,1,1,1,1,1,1,1,1,1,1,1,1,1,1,1,5089,1,1,1,1,1,1,1,1,5089,1,1,1,1,1,1,1,1,1,1,1,1,1,3562,1,3578,1,1,1,1,1,1,1,1,3562,1,1,1,1,1,1,1,1,1,1,1,1,1,1,5089,1,1,1,1,5089,1,1,1,1,1,1,5089,1,1,1,1,1,5089,1,1,1,1,1,1,1,3562,1,3578,1,1,1,1,5089,1,1,1,1,1,1,1,3562,1,1,3578,1,1,5089,1,1,1,1,1,1,1,1,1,1,1,1,1,1,1,1,1,1,1,1,1,1,1,1,1,1,1,1,1,1,1,1,1,1,1,1,1,1,1,1,1,1,1,1,1,1,1,1,1,1,1,1,1,1,1,1,1,1,1,1,1,1,1,1,1,1,1,1,1,1,1,1,1,1,1,1,1,1,1,1,1,1,1,1,1,1,1,1,1,1,1,1,1,5981,1,1,1,5089,1,1,1,1,1,1,1,1,1,1,5089,1,1,1,1,1,1,5089,1,1,1,1,1,1,1,1,1,5089,1,1,1,1,1,5089,1,1,1,1,1,1,1,5089,1,1,1,5089,1,1,1,5089,1,1,1,1,1,1,5489,1,1,1,5489,1,1,1,1,5124,1,1,1,1,1,1,1,1,1,1,1,1,1,1,1,1,1,1,1,1,1,1,1,1,1,1,1,1,1,1,1,1,1,1,1,1,1,1,1,1,1,1,1,1,1,1,1,1,1,1,1,1,1,1,1,1,1,1,1,1,1,1,1,1,1,1,1,1,1,1,1,1,1,1,1,1,1,1,1,1,1,1,1,1,1,1,1,1,1,1,1,1,1,1,1,1,1,1,1,1,1,1,1,1,1,1,1,1,1,1,1,1,1,1,1,1,1,1,1,1,1,1,1,1,1,1,1,1,1,1,1,1,1,1,1,1,1,1,1,1,1,1,1,1,1,1,1,1,1,1,1,1,1,1,1,1,1,1,1,1,1,1,1,1,1,1,1,1,1,1,1,1,1,1,1,1,1,1,1,1,1,1,1,1,1,1,1,1,1,1,1,1,1,1,1,1,1,1,1,1,1,1,1,1,1,1,1,1,1,1,1,1,1,1,1,1,1,1,1,1,1,1,1,1,1,1,1,1,1,1,1,1,1,1,1,1,1,1,1,1,1,1,1,1,1,1,1,1,1,1,1,1,1,1,1,1,1,1,1,1,1,1,1,1,1,1,1,1,1,1,1,1,1,1,1,1,1,1,1,1,1,1,1,1,1,1,1,1,1,1,1,1,1,1,1,1,1,1,1,1,1,1,1,1,1,1,1,1,1,1,1,1,1,1,1,1,1,1,1,1,1,1,1,1,1,1,1,1,1,1,1,1,1,1,1,1,1,1,1,1,1,1,1,1,1,1,1,1,1,1,1,1,1,1,1,1,1,1,1,1,1,1,1,1,1,1,1,1,1,1,1,1,1,1,1,1,1,1,1,1,1,1,1,1,1,1,1,1,1,1,1,5123,1,1,5089,1,1,1,1,1,1,5092,1,1,1,1,1,1,1,1,1,1,5092,1,1,1,1,5089,1,1,1,1,1,1,5089,1,1,1,1,1,1,1,1,1,1,1,1,1,1,1,1,1,1,1,1,1,1,1,1,1,1,1,1,1,1,1,1,1,1,1,1,1,1,1,1,1,1,1,1,1,1,1,1,1,1,1,1,1,0,0,0,0,0,0,0,0,0,0,0,0,0,5089,0,0,0,0,0,0,0,0,0,0,5089,0,0,0,0,0,0,5089,0,0,0,0,1,0,0,0,0,0,0,0,0,0,0,0,0,0,0,0,3770,5837,0,0,0,0,0,0,0,0,3770,5837,0,0,0,0,0,0,0,0,0,0,5825,5857,0,0,0,0,0,0,0,0,0,0,0,0,0,0,0,0,3706,5837,0,0,0,0,0,0,0,0,0,0,0,0,0,5825,5857,0,0,0,0,0,0,0,0,0,5825,5857,0,0,0,0,0,0,0,0,0,0,0,0,0,0,3706,5837,0,0,0,0,0,0,0,0,0,0,0,0,0,0,1,0,0,3773,5981,3706,5837,0,0,0,0,0,0,0,0,0,0,0,0,0,0,0,0,0,0,0,0,0,0,0,0,0,1513,1516,0,0,0,0,0,0,0,0,0,0,0,0,0,0,0,0,0,0,0,0,0,0,0,0,0,0,0,0,0,0,0,0,0,1513,0,0,0,0,0,0,0,0,0,0,0,0,0,0,0,0,0,0,0,0,0,0,0,0,0,0,0,0,0,0,0,0,0,0,0,0,1513,1514,0,1515,1516,0,0,0,0,1513,1514,0,3763,3746,3746,3746,3746,3746,3764,0,1515,1516,0,0,0,0,0,1513,1514,0,3763,3746,3746,3746,3764,0,0,0,0,1515,1516,0,0,0,1516,0,0,0,0,0,0,0,0,0,0,3763,3779,3776,3776,3776,3776,3776,3776,0,0,0,0,0,0,0,0,0,0,0,0,0,0,0,0,0,0,0,0,0,0,0,0,0,0,0,0,0,0,0,0,0,0,0,0,0,0,0,0,0,0,0,0,0,0,0,0,0,0,0,0,0,0,0,0,0,0,0,0,0,0,0,0,0,0,0,0,0,0,0,0,0,0,0,0,0,0,0,0,0,0,0,0,0,0,0,0,0,0,0,0,0,0,0,0,0,0,0,0,0,0,0,0,0,0,0,0,0,0,0,0,0,0,0,0,0,0,0,0,0,0,0,1477,1478,1479,1480,1477,1478,1479,1480,0,5123,0,0,0,0,0,5089,0,0,0,0,0,5089,0,0,0,0,0,0,5089,0,0,0,0,0,0,0,0,0,0,5089,0,0,0,0,0,0,0,0,5089,0,0,0,0,0,0,0,0,0,0,0,0,0,0,0,0,5089,0,0,0,0,0,0,0,0,0,0,5089,0,0,0,0,0,3562,0,3578,0,0,3562,0,0,5089,0,0,0,0,0,5089,0,0,0,5089,0,0,0,0,0,5089,0,0,0,0,0,0,0,0,0,0,0,0,0,0,0,0,0,0,0,0,0,0,0,0,0,0,0,0,0,0,0,0,3763,3746,3746,3746,3764,0,0,0,0,0,0,0,0,0,0,0,0,0,0,0,0,0,0,0,0,0,0,0,0,0,0,0,0,0,0,0,0,0,0,0,0,0,0,0,0,0,0,0,0,0,0,0,0,0,0,0,0,0,0,0,0,0,0,0,0,0,0,0,0,0,0,0,0,0,0,0,0,0,0,0,0,0,0,0,0,0,0,0,0,0,0,0,0,0,0,0,0,0,0,0,0,0,0,0,0,0,0,0,0,0,0,0,0,0,0,0,0,0,0,0,0,0,0,0,0,0,0,0,0,0,0,0,0,0,0,0,0,0,0,0,0,0,0,0,0,0,0,0,0,0,3763,3746,3764,0,0,0,0,0,0,0,0,0,0,0,0,0,0,0,0,0,0,0,0,0,0,0,0,0,0,0,0,0,0,0,0,0,0,0,0,126,0,0,0,0,0,0,0,0,0,0,0,0,0,0,0,0,0,0,0,0,126,0,0,0,0,0,0,0,0,0,0,0,0,0,0,0,0,0,0,0,0,0,0,0,0,0,3763,3746,3764,0,0,0,0,0,0,0,0,0,0,0,0,0,0,0,0,0,0,0,0,0,0,0,0,0,0,0,0,0,0,0,0,0,0,0,0,0,0,0,0,0,0,0,0,0,0,0,0,0,0,0,0,0,0,0,0,0,0,0,0,0,0,0,0,0,0,0,0,0,0,0,0,0,0,0,0,0,0,0,0,0,0,3770,0,0,0,0,0,0,0,0,0,0,0,0,0,0,0,0,0,0,0,0,0,0,0,0,0,0,5089,0,0,0,0,0,0,5089,0,0,0,0,0,0,0,3562,0,3578,0,0,0,0,0,0,0,0,0,0,0,0,0,0,0,0,0,0,0,0,0,0,0,0,0,0,0,0,0,5089,0,0,0,0,0,0,0,0,0,3562,0,0,3578,0,0,0,0,0,3562,0,0,0,0,0,0,0,0,0,0,0,0,0,0,0,0,0,0,0,0,0,0,0,0,3562,3578,3562,3578,3562,0,0,0,3578,0,0,0,3562,0,0,0,0,0,0,0,0,0,0,0,0,0,
1,1,1,1,1,1,1,1,1,1,1,1,1,1,1,1,1,1,1,1,1,1,1,1,1,1,1,5089,1,1,1,1,1,1,5089,1,1,1,1,1,1,1,3562,1,3578,1,1,1,1,1,5089,1,1,1,1,5089,1,1,1,1,1,5089,1,1,1,1,1,1,1,1,1,1,1,1,5089,0,0,0,0,0,0,1,1,1,3562,1,1,3578,1,1,1,1,1,3562,1,1,1,1,1,1,1,1,5089,1,1,1,1,1,1,1,1,1,5089,1,1,1,1,1,3562,3578,3562,3578,3562,1,1,1,3578,1,1,1,3562,1,1,1,1,1,1,1,1,1,1,1,1,1,1,1,1,1,1,1,1,1,1,1,1,1,5092,1,1,1,1,1,1,1,1,5089,1,1,1,1,1,1,1,1,1,1,1,1,1,3562,1,3578,1,1,1,1,1,1,1,1,3562,1,1,1,1,1,1,1,1,1,1,1,1,1,1,5089,1,1,1,1,5089,1,1,1,1,1,1,5089,1,1,1,1,1,5089,1,1,1,1,1,1,1,3562,1,3578,1,1,1,1,5089,1,1,1,1,1,1,1,3562,1,1,3578,1,1,5089,1,1,1,1,1,1,1,1,1,1,1,1,1,1,1,1,1,1,1,1,1,1,1,1,1,1,1,1,1,1,1,1,1,1,1,1,1,1,1,1,1,1,1,1,1,1,1,1,1,1,1,1,1,1,1,1,1,1,1,1,1,1,1,1,1,1,1,1,1,1,1,1,1,1,1,1,1,1,1,1,1,1,1,1,1,1,1,1,1,1,1,1,1,5981,1,1,1,5089,1,1,1,1,1,1,1,1,1,1,5089,1,1,1,1,1,1,5089,1,1,1,1,1,1,1,1,1,5089,1,1,1,1,1,5089,1,1,1,1,1,1,1,5089,1,1,1,5089,1,1,1,5089,1,1,1,1,1,1,5489,1,1,1,5489,1,1,1,1,5156,1,1,1,1,1,1,1,1,1,1,1,1,1,1,1,1,1,1,1,1,1,1,1,1,1,1,1,1,1,1,1,1,1,1,1,1,1,1,1,1,1,1,1,1,1,1,1,1,1,1,1,1,1,1,1,1,1,1,1,1,1,1,1,1,1,1,1,1,1,1,1,1,1,1,1,1,1,1,1,1,1,1,1,1,1,1,1,1,1,1,1,1,1,1,1,1,1,1,1,1,1,1,1,1,1,1,1,1,1,1,1,1,1,1,1,1,1,1,1,1,1,1,1,1,1,1,1,1,1,1,1,1,1,1,1,1,1,1,1,1,1,1,1,1,1,1,1,1,1,1,1,1,1,1,1,1,1,1,1,1,1,1,1,1,1,1,1,1,1,1,1,1,1,1,1,1,1,1,1,1,1,1,1,1,1,1,1,1,1,1,1,1,1,1,1,1,1,1,1,1,1,1,1,1,1,1,1,1,1,1,1,1,1,1,1,1,1,1,1,1,1,1,1,1,1,1,1,1,1,1,1,1,1,1,1,1,1,1,1,1,1,1,1,1,1,1,1,1,1,1,1,1,1,1,1,1,1,1,1,1,1,1,1,1,1,1,1,1,1,1,1,1,1,1,1,1,1,1,1,1,1,1,1,1,1,1,1,1,1,1,1,1,1,1,1,1,1,1,1,1,1,1,1,1,1,1,1,1,1,1,1,1,1,1,1,1,1,1,1,1,1,1,1,1,1,1,1,1,1,1,1,1,1,1,1,1,1,1,1,1,1,1,1,1,1,1,1,1,1,1,1,1,1,1,1,1,1,1,1,1,1,1,1,1,1,1,1,1,1,1,1,1,1,1,1,1,1,1,1,1,1,1,1,1,1,1,1,1,1,1,1,5155,1,1,5089,1,1,1,1,1,1,1,1,1,1,1,1,1,1,1,1,1,1,1,1,1,1,5092,1,1,1,1,1,1,5089,1,1,1,1,1,1,1,1,1,0,1,1,1,1,1,1,1,1,1,1,1,5089,1,1,1,1,1,1,1,1,1,1,1,1,1,1,1,5089,1,1,1,1,1,1,1,1,1,1,1,1,1,1,1,5089,0,0,0,0,0,0,0,0,0,0,0,0,5089,0,0,0,0,5089,0,0,0,0,0,5089,0,0,0,0,0,0,5089,0,0,0,0,1,0,0,0,0,0,0,0,0,0,0,0,0,0,0,0,0,0,0,0,0,0,0,0,0,0,0,0,0,0,0,0,0,0,5825,5977,5977,5977,3705,5981,0,5857,0,0,0,0,0,0,0,0,0,0,0,0,0,0,0,0,0,0,0,0,0,0,0,0,0,0,0,0,0,3705,5977,5977,5857,0,0,0,0,0,0,0,3705,5977,5977,5857,0,0,0,0,0,0,0,0,0,0,0,0,0,0,0,0,0,0,0,0,0,0,0,0,0,0,0,1,1,0,0,3770,5837,0,0,0,0,0,0,0,0,0,0,0,0,0,0,0,0,0,0,0,0,0,0,0,0,0,0,0,0,0,0,0,0,0,0,0,0,0,0,0,0,0,0,0,0,0,0,0,0,0,0,0,0,0,0,0,0,0,0,0,0,0,0,0,0,0,0,0,0,0,0,0,0,0,0,0,0,0,0,0,0,0,0,0,0,0,0,0,0,0,0,0,0,0,0,0,0,0,0,0,0,0,0,0,0,0,0,0,0,0,1513,1514,0,0,0,0,0,0,0,1515,1516,0,0,0,0,0,0,0,1513,1514,0,0,0,0,0,1515,1516,0,0,1516,0,0,0,0,0,0,0,0,0,0,0,0,0,0,0,0,3763,3779,3776,3776,3776,3776,3776,3776,3776,3776,3776,3780,3764,0,5131,5154,5122,5154,5122,5154,5122,5154,5122,5154,5122,5154,5132,0,3763,3779,3776,3776,3776,3776,3776,3776,3776,3776,3776,3776,3776,3776,3776,3776,3776,3780,3764,0,5131,5154,5122,5154,5122,5154,5122,5154,5122,5154,5122,5154,5122,5154,5122,5154,5122,5154,5122,5154,5122,5154,5122,5154,5122,5154,5122,5154,5122,5154,5132,0,3763,3779,3776,3776,3776,3776,3776,3776,3776,3776,3776,3776,3776,3776,3776,3776,3780,3764,0,5163,5122,5154,5122,5154,5122,5154,5122,5154,5132,0,3763,3779,3776,3776,3780,3764,0,5163,5122,5154,5122,5164,0,3763,3779,3776,3776,3776,3776,3776,3780,3764,0,5163,5122,5154,5122,5154,5122,5164,0,0,0,0,0,5089,0,0,0,0,0,5089,0,0,0,0,0,0,5089,0,0,0,0,0,0,0,0,0,0,5089,0,0,3562,3578,3562,3578,3562,0,5089,0,3562,0,0,3578,0,0,3562,0,5089,0,0,0,0,0,0,5089,0,0,0,0,0,0,0,0,0,0,5089,0,0,5089,0,0,3562,0,3578,0,0,3562,0,0,5089,0,0,0,0,0,5089,0,0,0,5089,0,0,0,0,0,5089,0,0,0,0,0,0,0,3569,3553,3569,3553,3569,3553,3569,0,0,0,0,0,0,0,0,0,0,0,0,0,0,0,0,0,0,0,0,0,0,0,0,0,0,0,0,0,0,0,0,0,0,0,0,0,0,0,0,0,0,0,0,0,0,0,0,0,0,0,0,0,0,0,0,0,0,0,0,0,0,0,0,0,0,0,0,0,0,0,0,0,0,0,0,0,0,0,0,0,0,0,758,0,0,0,0,0,0,0,0,0,0,0,0,0,0,0,0,0,0,0,0,0,0,0,0,0,0,0,0,0,0,0,0,0,0,0,0,0,0,0,0,0,0,0,0,0,0,0,0,0,0,0,0,0,0,0,0,0,0,0,0,0,0,0,0,0,0,0,0,0,0,0,0,0,0,0,0,0,0,0,0,0,0,0,0,0,0,0,0,0,0,0,0,0,0,0,0,0,0,0,0,0,0,0,0,0,0,0,0,0,0,0,0,0,0,0,0,0,0,0,0,0,0,0,126,0,0,0,0,0,0,0,0,0,0,0,0,0,0,0,0,0,0,0,0,126,0,0,0,0,0,0,0,0,0,0,0,0,0,0,0,0,0,0,0,0,0,0,0,0,0,0,0,0,0,0,0,0,0,0,0,0,0,0,0,0,0,0,0,0,0,0,0,0,0,0,0,0,0,0,0,0,0,0,0,0,0,0,0,0,0,0,0,0,0,0,0,0,0,0,0,0,0,0,0,0,0,0,0,0,0,0,0,0,0,0,0,0,0,0,0,0,0,0,0,0,0,0,0,0,0,0,0,1,0,0,0,0,0,0,0,0,0,0,0,0,0,0,0,0,0,0,0,0,0,0,0,0,0,0,0,0,0,5089,0,0,0,0,0,0,5089,0,0,0,0,0,0,0,3562,0,3578,0,0,0,0,0,5089,0,0,0,0,5089,0,0,0,0,0,5089,0,0,0,0,0,0,0,0,0,0,0,0,5089,0,0,0,0,0,0,0,0,0,3562,0,0,3578,0,0,0,0,0,3562,0,0,0,0,0,0,0,0,0,0,0,0,0,0,0,0,0,0,0,0,0,0,0,0,3562,3578,3562,3578,3562,0,0,0,3578,0,0,0,3562,0,0,0,0,0,0,0,0,0,0,0,0,0,
1,1,1,1,1,1,1,1,1,1,1,1,1,1,1,1,1,1,1,1,1,1,1,1,1,1,1,5089,1,1,1,1,1,1,5089,1,1,1,1,1,1,1,3562,1,3578,1,1,1,1,1,5089,1,1,1,1,5089,1,1,1,1,1,5089,1,1,1,1,1,1,1,1,1,1,1,1,5089,1,1,1,1,1,0,0,1,1,3562,1,1,3578,1,1,1,1,1,3562,1,1,1,1,1,1,1,1,5089,1,1,1,1,1,1,1,1,1,5089,1,1,1,1,1,3562,3578,3562,3578,3562,1,1,1,3578,1,1,1,3562,1,1,1,1,1,1,1,1,1,1,5089,1,1,1,1,1,1,1,1,1,1,1,1,1,1,1,1,1,1,1,1,1,1,1,5089,1,1,1,1,1,1,1,1,1,1,1,1,1,3562,1,3578,1,1,1,1,1,1,1,1,3562,1,1,1,1,1,1,1,1,1,1,1,1,1,1,5089,1,1,1,1,5089,1,1,1,1,1,1,5089,1,1,1,1,1,5089,1,1,1,1,1,1,1,3562,1,3578,1,1,1,1,5089,1,1,1,5095,5090,5090,5090,3562,1,1,3578,1,1,5089,1,1,1,1,1,1,1,5089,1,1,1,1,1,1,1,1,1,1,1,1,5089,1,1,1,1,1,1,1,1,1,1,1,1,1,1,1,1,1,1,1,1,1,1,1,1,1,1,1,1,1,1,1,1,1,1,1,1,1,1,1,1,1,1,1,1,1,1,1,1,1,1,1,1,1,1,1,1,1,1,1,1,1,1,1,1,1,1,1,1,1,1,1,1,5981,1,1,1,5089,1,1,1,1,1,1,1,1,1,1,5089,1,1,1,1,1,1,5089,1,1,1,1,1,1,1,1,1,5089,1,1,1,1,1,5089,1,1,1,1,1,1,1,5089,1,1,1,5092,1,1,1,5089,1,1,1,1,1,1,5489,1,1,1,5489,1,1,1,1,5124,1,1,1,1,1,1,1,1,1,1,1,1,1,1,1,1,1,1,1,1,1,1,1,1,1,1,1,1,1,1,1,1,1,1,1,1,1,1,1,1,1,1,1,1,1,1,1,1,1,1,1,1,1,1,1,1,1,1,1,1,1,1,1,1,1,1,1,1,1,1,1,1,1,1,1,1,1,1,1,1,1,1,1,1,1,1,1,1,1,1,1,1,1,1,1,1,1,1,1,1,1,1,1,1,1,1,1,1,1,1,1,1,1,1,1,1,1,1,1,1,1,1,1,1,1,1,1,1,1,1,1,1,1,1,1,1,1,1,1,1,1,1,1,1,1,1,1,1,1,1,1,1,1,1,1,1,1,1,1,1,1,1,1,1,1,1,1,1,1,1,1,1,1,1,1,1,1,1,1,1,1,1,1,1,1,1,1,1,1,1,1,1,1,1,1,1,1,1,1,1,1,1,1,1,1,1,1,1,1,1,1,1,1,1,1,1,1,1,1,1,1,1,1,1,1,1,1,1,1,1,1,1,1,1,1,1,1,1,1,1,1,1,1,1,1,1,1,1,1,1,1,1,1,1,1,1,1,1,1,1,1,1,1,1,1,1,1,1,1,1,1,1,1,1,1,1,1,1,1,1,1,1,1,1,1,1,1,1,1,1,1,1,1,1,1,1,1,1,1,1,1,1,1,1,1,1,1,1,1,1,1,1,1,1,1,1,1,1,1,1,1,1,1,1,1,1,1,1,1,1,1,1,1,1,1,1,1,1,1,1,1,1,1,1,1,1,1,1,1,1,1,1,1,1,1,1,1,1,1,1,1,1,1,1,1,1,1,1,1,1,1,1,1,1,1,1,1,1,1,1,1,1,1,1,1,1,1,1,1,1,1,5123,1,1,5092,1,1,1,1,1,1,1,1,1,1,1,1,1,1,1,1,1,1,1,1,1,1,1,1,1,1,1,1,1,5089,1,1,1,1,1,1,1,1,1,5089,1,1,1,1,5089,1,1,1,1,1,1,5089,1,1,1,1,1,1,1,1,1,1,1,1,1,1,1,5089,1,1,1,1,1,1,1,1,1,1,1,1,1,1,1,5089,0,0,0,0,0,5089,0,0,0,0,0,0,5089,0,0,0,0,5089,0,0,0,0,0,5089,0,0,0,0,0,0,5089,0,0,0,0,1,0,0,0,0,0,0,0,0,0,0,0,0,0,0,0,0,0,0,0,0,0,0,0,0,0,0,0,0,0,0,0,0,0,3771,3774,3774,3772,3709,3771,3772,5837,0,0,0,0,0,0,0,0,0,0,0,0,0,0,0,0,0,0,0,0,0,0,0,0,0,0,0,0,0,3709,3771,3772,5837,0,0,0,0,0,0,0,3709,3771,3772,5837,0,0,0,0,0,0,0,0,0,0,0,0,0,0,0,0,0,0,0,0,0,0,0,0,0,0,0,1,1,0,0,5825,5857,0,0,0,0,0,0,0,0,0,0,0,0,0,0,0,0,0,0,0,0,0,0,0,0,0,0,0,0,0,0,0,0,0,0,0,0,0,0,0,0,0,0,0,0,0,0,0,0,0,0,0,0,0,0,0,0,0,0,0,0,0,0,0,0,0,0,0,0,0,0,0,0,0,0,0,0,0,0,0,0,0,0,0,0,0,0,0,0,0,0,0,0,0,0,0,0,0,0,0,0,0,0,0,0,0,0,0,0,0,0,0,0,0,0,0,0,0,0,0,0,0,0,0,0,0,0,0,0,1513,0,0,0,0,0,1516,0,0,0,0,0,0,0,0,1509,0,0,1509,0,0,0,0,0,0,0,0,0,3763,3779,3776,3776,3776,3776,3776,3776,3776,3780,3764,0,0,0,0,0,0,0,0,0,0,0,0,0,0,0,0,0,3763,3779,3776,3776,3776,3776,3776,3776,3776,3776,3776,3776,3776,3776,3776,3780,3764,0,0,0,0,0,0,0,0,0,0,0,0,0,0,0,0,0,0,0,0,0,0,0,0,0,0,0,0,0,0,0,0,0,0,0,3763,3779,3776,3776,3776,3776,3776,3776,3776,3776,3776,3776,3776,3776,3780,3764,0,0,0,0,0,0,0,0,0,0,0,0,0,0,3763,3779,3780,3764,0,0,0,0,0,0,0,0,0,3763,3779,3776,3776,3776,3780,3764,0,0,0,0,0,0,0,0,0,0,0,0,0,0,5089,0,0,0,0,0,5089,0,0,0,0,0,0,5089,0,0,0,0,5089,0,0,0,0,0,5089,0,0,3562,3578,3562,3578,3562,0,5089,0,3562,0,0,3578,0,0,3562,0,5089,0,0,0,0,0,0,5089,0,0,0,0,0,0,0,0,0,0,5089,0,0,5089,0,0,3562,0,3578,0,0,3562,0,0,5089,0,0,0,0,0,5089,0,0,0,5089,0,0,0,0,0,5089,0,0,0,0,0,0,0,0,0,0,0,0,0,0,0,0,0,0,0,0,0,0,0,0,0,0,0,0,0,0,0,0,0,0,758,0,0,0,0,0,0,0,0,0,0,0,0,0,0,0,0,0,0,0,0,0,0,0,0,0,0,0,0,0,0,0,0,0,0,0,0,0,0,0,0,0,0,0,0,0,0,0,0,0,0,0,0,0,0,0,0,0,0,0,0,0,0,0,0,0,0,0,0,0,0,0,0,0,0,0,0,0,0,0,0,0,0,0,0,0,0,0,0,0,0,0,0,0,0,0,0,0,0,0,0,0,0,0,0,0,0,0,0,0,0,0,0,0,0,0,0,0,0,0,0,0,0,0,0,0,0,0,0,0,0,0,0,0,0,0,0,0,0,0,0,0,0,0,0,0,0,0,0,0,0,0,0,0,0,0,0,0,0,0,0,0,0,0,0,0,0,0,0,0,0,0,0,0,0,0,0,0,0,0,0,0,0,0,0,0,0,126,0,0,0,0,0,0,0,0,0,0,0,0,0,0,0,0,0,0,0,0,126,0,0,0,0,0,0,0,0,0,0,0,0,0,0,0,0,0,0,0,0,0,0,0,0,0,0,0,0,0,0,0,0,0,0,0,0,0,0,0,0,0,0,0,0,0,0,0,0,0,0,0,0,0,0,0,0,0,0,0,0,0,0,0,0,0,0,0,0,0,0,0,0,0,0,0,0,0,0,0,0,0,0,0,0,0,0,0,0,0,0,0,0,0,0,0,0,0,0,0,0,0,0,0,0,0,0,0,1,1,1,0,0,0,0,0,0,0,0,0,0,0,0,0,0,0,0,0,0,0,0,0,0,0,0,0,0,0,5089,0,0,0,0,0,0,5089,0,0,0,0,0,0,0,3562,0,3578,0,0,0,0,0,5089,0,0,0,0,5089,0,0,0,0,0,5089,0,0,0,0,0,0,0,0,0,0,0,0,5089,0,0,0,0,0,0,0,0,0,3562,0,0,3578,0,0,0,0,0,3562,0,0,0,0,0,0,0,0,0,0,0,0,0,0,0,0,0,5089,0,0,0,0,0,0,3562,3578,3562,3578,3562,0,0,0,3578,0,0,0,3562,0,0,0,0,0,0,0,0,0,0,0,0,0,
1,1,1,1,1,1,1,1,1,1,1,1,1,1,1,1,1,1,1,1,1,1,1,1,1,1,1,5089,1,1,1,1,1,1,5092,1,1,1,1,1,1,1,3562,1,3578,1,1,1,1,1,5089,1,1,1,1,5089,1,1,1,1,1,5089,1,1,1,1,1,1,1,1,1,1,1,1,5089,1,1,1,1,1,1,0,1,1,3562,1,1,3578,1,1,1,1,1,3562,1,1,1,1,1,1,1,1,5089,1,1,1,1,1,1,1,1,1,5089,1,1,1,1,1,3562,3578,3562,3578,3562,1,1,1,3578,1,1,1,3562,1,1,1,1,1,1,1,1,1,1,5089,1,1,1,1,1,1,1,1,1,1,1,1,1,1,1,1,1,1,1,1,1,1,1,5089,1,1,1,1,1,1,1,1,1,1,1,1,1,3562,1,3578,1,1,1,1,1,1,1,1,3562,1,1,1,1,1,1,1,1,1,1,1,1,1,1,5089,1,1,1,1,5089,1,1,1,1,1,1,5089,1,1,1,1,1,5092,1,1,1,1,1,1,1,3562,1,3578,5090,5096,1,1,5089,1,1,1,5089,1,1,1,3562,1,1,3578,1,1,5089,1,1,1,1,1,1,1,5089,1,1,1,1,1,1,1,1,1,1,1,1,5089,1,1,1,1,1,1,1,1,1,1,1,1,1,1,1,1,1,1,1,1,1,1,1,1,1,1,1,1,1,1,1,1,1,1,1,1,1,1,1,1,1,1,1,1,1,1,1,1,1,1,1,1,1,1,1,1,3562,1,1,1,1,1,1,1,1,1,1,1,1,1,1,1,5981,1,1,1,5089,1,1,1,1,1,1,1,1,1,1,5092,1,1,1,1,1,1,5089,1,1,1,1,1,1,1,1,1,5089,1,1,1,1,1,5089,1,1,1,1,1,1,1,5092,1,1,1,1,1,1,1,5092,1,1,1,1,1,5866,5829,1,1,5866,5829,1,1,1,1,5156,1,1,1,1,1,1,1,1,1,1,1,1,1,1,1,1,1,1,1,1,1,1,1,1,1,1,1,1,1,1,1,1,1,1,1,1,1,1,1,1,1,1,1,1,1,1,1,1,1,1,1,1,1,1,1,1,1,1,1,1,1,1,1,1,1,1,1,1,1,1,1,1,1,1,1,1,1,1,1,1,1,1,1,1,1,1,1,1,1,1,1,1,1,1,1,1,1,1,1,1,1,1,1,1,1,1,1,1,1,1,1,1,1,1,1,1,1,1,1,1,1,1,1,1,1,1,1,1,1,1,1,1,1,1,1,1,1,1,1,1,1,1,1,1,1,1,1,1,1,1,1,1,1,1,1,1,1,1,1,1,1,1,1,1,1,1,1,1,1,1,1,1,1,1,1,1,1,1,1,1,1,1,1,1,1,1,1,1,1,1,1,1,1,1,1,1,1,1,1,1,1,1,1,1,1,1,1,1,1,1,1,1,1,1,1,1,1,1,1,1,1,1,1,1,1,1,1,1,1,1,1,1,1,1,1,1,1,1,1,1,1,1,1,1,1,1,1,1,1,1,1,1,1,1,1,1,1,1,1,1,1,1,1,1,1,1,1,1,1,1,1,1,1,1,1,1,1,1,1,1,1,1,1,1,1,1,1,1,1,1,1,1,1,1,1,1,1,1,1,1,1,1,1,1,1,1,1,1,1,1,1,1,1,1,1,1,1,1,1,1,1,1,1,1,1,1,1,1,1,1,1,1,1,1,1,1,1,1,1,1,1,1,1,1,1,1,1,1,1,1,1,1,1,1,1,1,1,1,1,1,1,1,1,1,1,1,1,1,1,1,1,1,1,1,1,1,1,1,1,1,1,1,1,1,1478,1,1,1,1,1,1,5155,1,1,1,1,1,1,1,1,1,1,1,1,1,1,1,1,1,1,1,1,1,1,1,1,1,1,1,1,1,1,1,1,5089,1,1,1,1,1,1,1,1,1,5089,1,1,1,1,5089,1,1,1,1,1,1,5089,1,1,1,1,1,1,1,1,1,1,1,1,1,1,1,5089,1,1,1,1,1,1,1,5089,1,1,1,1,1,1,1,5089,0,0,0,0,0,5089,0,0,0,0,0,0,5089,0,0,0,0,5089,0,0,0,0,0,5089,0,0,0,0,0,0,5089,0,0,0,0,1,0,0,0,0,0,0,0,0,0,0,0,0,0,0,0,5825,5857,0,0,0,0,0,0,0,0,5825,5857,0,0,0,0,0,0,0,0,0,0,3706,5837,0,0,0,0,0,0,0,0,0,0,0,0,0,0,0,0,5825,5857,0,0,0,0,0,0,0,0,0,0,0,0,0,3706,0,0,0,0,0,0,0,0,0,0,3706,0,0,0,0,0,0,0,0,0,0,0,0,0,0,0,5825,5857,0,0,0,0,0,0,0,0,0,0,0,0,0,1,1,0,0,3705,5981,5825,5857,0,0,0,0,0,0,0,0,0,0,0,0,0,0,0,0,0,0,0,0,0,0,0,0,0,0,0,0,0,0,0,0,0,0,0,0,0,0,0,0,0,0,0,0,0,0,0,0,0,0,0,0,0,0,0,0,0,0,0,0,0,0,0,0,0,0,0,0,0,0,0,0,0,0,0,0,0,0,0,0,0,0,0,0,0,0,0,0,0,0,0,0,1509,1510,0,0,0,0,0,0,0,1509,1510,0,0,0,0,0,0,0,0,0,0,0,0,0,0,0,1509,1510,0,0,0,0,0,0,0,0,0,0,0,0,0,0,0,0,1509,0,0,0,1509,1510,0,0,0,0,3697,3698,0,0,0,0,0,0,0,3763,3779,3776,3776,3776,3776,3776,3780,3764,0,0,0,0,0,0,0,0,0,0,0,0,0,0,0,0,0,0,0,3763,3779,3776,3776,3776,3776,3776,3776,3776,3776,3776,3776,3776,3780,3764,0,0,0,0,0,0,0,0,0,0,0,0,0,0,0,0,0,0,0,0,0,0,0,0,0,0,0,0,0,0,0,0,0,0,0,0,0,3763,3779,3776,3776,3776,3776,3776,3776,3776,3776,3776,3776,3780,3764,0,0,0,0,0,0,0,0,0,0,0,0,0,0,0,0,3763,3764,0,0,0,0,0,0,0,0,0,0,0,3763,3779,3776,3780,3764,0,0,0,0,0,0,0,0,0,0,0,0,0,0,0,5089,0,0,0,0,0,5089,0,0,0,0,0,0,5089,0,0,0,0,5089,0,0,0,0,0,5089,0,0,3562,3578,3562,3578,3562,0,5089,0,3562,0,0,3578,0,0,3562,0,5089,0,0,0,0,0,0,5089,0,0,0,0,5089,0,0,0,0,0,5092,0,0,5089,0,0,3562,0,3578,0,0,3562,0,0,5089,0,0,0,0,0,5089,0,0,0,5089,0,0,0,0,0,5089,0,0,0,0,0,0,0,0,0,0,0,0,0,0,0,0,0,0,0,0,0,0,0,0,0,0,0,0,0,0,0,0,0,0,0,0,0,0,0,0,0,0,0,0,0,0,0,0,0,0,0,0,0,0,0,0,0,0,0,0,0,0,0,0,0,0,0,0,0,0,0,0,0,0,0,0,0,0,0,0,0,0,0,0,0,0,0,0,0,0,0,0,0,0,0,0,0,0,0,0,0,0,0,0,0,0,0,0,0,0,0,0,0,0,0,0,0,0,0,0,0,0,0,0,0,0,0,0,0,0,0,0,0,0,0,0,0,0,0,0,0,0,0,0,0,0,0,0,0,0,0,0,0,0,0,0,0,0,0,0,0,0,0,0,0,0,0,0,0,0,0,0,0,0,0,0,0,0,0,0,0,0,0,0,0,0,0,0,0,0,0,0,0,0,0,0,0,0,0,0,0,0,0,0,0,0,0,0,0,0,0,0,0,0,0,0,0,0,0,0,0,126,0,0,0,0,0,0,0,0,0,0,0,0,0,0,0,0,0,0,0,0,0,0,0,0,0,0,0,0,0,0,0,0,0,0,0,0,0,0,0,0,0,0,0,0,0,0,0,0,0,0,0,0,0,0,0,0,0,0,0,0,0,0,0,0,0,0,0,0,0,0,0,0,0,0,0,0,0,0,0,0,0,0,0,0,0,0,0,0,0,0,0,0,0,0,0,0,0,0,0,0,0,0,0,0,0,0,0,0,0,0,0,0,0,0,0,0,0,0,0,0,0,0,0,0,0,0,0,0,1,1,1,0,0,0,0,0,0,0,0,0,0,0,0,0,0,0,0,0,0,0,0,0,0,0,0,0,0,0,5089,0,0,0,0,0,0,5092,0,0,0,0,0,0,0,3562,0,3578,0,0,0,0,0,5089,0,0,0,0,5089,0,0,0,0,0,5089,0,0,0,0,0,0,0,0,0,0,0,0,5089,0,0,0,0,0,0,5095,5090,5090,3562,0,0,3578,0,0,0,0,0,3562,0,0,0,0,0,0,0,0,5089,0,0,0,0,0,0,0,0,5089,0,0,0,0,0,0,3562,3578,3562,3578,3562,0,0,0,3578,0,0,0,3562,0,0,0,0,0,0,0,0,0,0,0,0,0,
1,1,1,1,1,1,1,1,1,1,1,1,1,1,1,1,1,1,1,1,1,1,1,1,1,1,1,5089,1,1,1,1,1,1,1,1,1,1,1,5095,5090,5090,3562,1,3578,1,1,1,1,1,5092,1,1,1,1,5089,1,1,1,1,1,5092,1,1,1,1,1,1,1,1,1,1,1,1,5089,1,1,1,1,1,1,5095,5090,5090,3562,1,1,3578,1,1,1,1,1,3562,1,1,1,1,1,1,1,1,5089,1,1,1,1,1,1,1,1,1,5089,1,1,1,1,1,3562,3578,3562,3578,3562,1,1,1,3578,1,1,1,3562,5090,5090,5096,1,1,1,1,1,1,1,5089,1,1,1,1,1,1,1,1,1,1,1,1,1,1,1,1,1,1,1,1,1,1,1,5089,1,1,1,1,1,1,1,1,1,1,1,1,1,3562,1,3578,1,1,1,1,1,1,5095,5090,3562,5090,5090,5096,1,1,1,1,1,1,1,1,1,1,1,5089,1,1,1,1,5092,1,1,1,1,1,1,5089,1,1,1,1,1,1,1,1,1,1,1,1,1,3562,1,3578,1,5089,1,1,5092,1,1,1,5089,1,1,1,3562,1,1,3578,1,1,5089,1,1,1,1,1,1,1,5089,1,1,1,1,1,1,1,1,1,1,1,1,5089,1,1,1514,1,3556,3578,3562,3578,3562,3578,3562,3572,1,5163,5122,5154,5122,5154,5122,5154,5132,0,3556,3578,3562,3578,3562,3578,3562,3572,1,5163,5122,5154,5122,5164,1,3572,3562,3578,3556,1,1,1,1,1,1,1,1,3572,3562,3578,3562,3578,3562,3578,3556,3572,1,1,1,1,1,1,1,1,3556,3578,3562,3578,3562,1,5981,1,1,1,5089,1,1,1,1,1,1,1,1,1,1,1,1,1,1,1,1,1,5089,1,1,1,1,1,1,1,1,1,5092,1,1,1,1,1,5089,1,1,1,1,1,1,1,1,1,1,1,1,1,1,1,1,1,1,1,1,1,5839,3569,1,1,5839,3569,1,1,1,1,5131,5154,5122,5154,5122,5154,5122,5154,5122,5154,3747,3778,3745,3777,3748,5154,5122,5154,5122,5154,5122,5154,5122,5154,5122,5154,5132,0,5131,5154,5122,5164,0,126,0,0,5131,5154,5122,5164,0,5131,5154,5122,5154,5122,5154,5122,3747,3748,5154,3683,3684,5122,5154,5122,5154,5122,3683,3714,3681,3713,3684,5122,5154,5122,5154,5122,3683,3684,273,3683,3684,5154,5122,5154,5122,5154,5122,5154,5122,5154,5122,5154,5122,5154,5122,5154,5122,5154,5122,5154,5122,5154,5122,5154,3683,3714,3713,3684,5122,5154,5122,5154,5122,5154,5122,5154,5122,5154,5122,5154,5122,5154,5122,5154,5122,5154,3747,3778,3777,3748,5122,5154,5122,3747,3748,5154,5122,5154,5122,5154,5122,5154,5122,5154,5122,5154,5122,5154,5122,3747,3776,3748,5122,5154,5122,5154,5122,5154,3747,3748,3747,3748,5122,5154,5122,5154,5122,5154,5122,5154,5122,5154,5122,5154,5122,5154,5122,5154,5122,5154,5122,5154,5122,5154,5122,5154,5122,5164,1,3763,3779,3780,3764,1,5131,5154,5122,5154,5132,5163,5122,5154,5122,5164,1,3763,3779,3776,3776,3776,3776,3780,3764,1,5131,5154,5122,5154,5122,5154,5132,1,1,5163,5122,5154,5122,5154,5122,5154,5122,5164,1,3763,3779,3776,3776,3780,3764,1,5131,5154,5122,5154,5122,5154,5122,5154,5122,5154,5122,5164,1,3763,3779,3780,3764,1,5131,5154,5122,5154,5122,5154,5122,5164,1,3763,3764,1,5131,5154,5122,5154,5122,5154,5122,5154,5122,5154,5122,5164,1,3763,3779,3776,3776,3776,3776,3776,3776,3776,3776,3776,3776,3780,3764,1,5131,5154,5122,5154,5122,5154,5122,5154,5122,5154,5132,1,3763,3779,3776,3776,3776,3776,3776,3776,3776,3776,3776,3776,3776,3780,3764,1,5131,5154,5122,5154,5122,5154,5122,5154,5122,5154,5122,5154,5122,5154,5122,5154,5122,5154,5122,5154,5122,5154,5122,5154,5132,1,3763,3779,3776,3776,3776,3776,3776,3776,3776,3776,3776,3776,3776,3780,3764,1,5131,5154,5122,5154,5122,5154,5132,1,3763,3764,1,5163,5122,5154,5122,5154,5122,5164,1,3763,3779,3776,3776,3780,3764,1,5131,5154,5122,5154,5122,5154,5132,1,1,1,1,1,1,1,1,1,1,1,1,1,1,1,1,1,1,1,1,1,1,1,1,1,1,1,1,1,1,1,1,5089,1,1,1,1,1,1,1,1,1,5089,1,1,1,1,5089,1,1,1,1,1,1,5089,1,1,1,1,1,1,1,1,5089,1,1,1,1,1,1,5089,1,1,1,1,1,1,1,5089,1,1,1,1,1,1,1,5089,0,0,0,0,0,5089,0,0,0,0,0,0,5092,0,0,0,0,5089,0,0,0,0,0,5089,0,0,0,0,0,0,5089,0,0,0,0,1,0,0,0,0,0,0,0,0,0,0,5825,5857,0,0,0,3705,5981,0,0,0,0,0,0,0,0,3705,5981,5825,5857,0,0,0,0,0,0,0,0,0,0,0,0,0,0,0,0,0,0,0,0,0,5825,5857,0,0,0,3769,5981,5825,5857,0,0,0,0,0,0,0,0,0,0,0,0,0,0,0,0,0,0,0,0,0,0,0,0,0,0,0,0,0,0,0,0,0,0,0,0,0,0,3769,5981,5825,5857,0,0,0,0,5825,5857,0,0,0,0,0,5825,5977,5857,0,3709,5981,3769,5981,0,0,0,0,0,0,0,0,5825,5857,0,0,0,0,0,0,0,0,0,0,0,0,0,0,0,1509,1512,0,0,0,0,0,0,0,0,0,0,0,0,0,0,0,0,0,0,0,0,0,0,0,0,0,0,0,0,0,0,0,0,0,1509,0,0,0,0,0,0,0,0,0,0,0,0,0,0,0,0,0,0,0,0,0,0,0,0,0,0,0,0,0,0,1509,1510,0,0,0,0,0,0,0,1509,1510,0,0,0,0,0,0,0,0,0,0,0,0,0,0,0,1509,1510,0,3697,3681,3698,0,0,0,0,0,0,0,0,0,1509,0,0,1509,1510,0,0,0,0,0,3697,3681,3681,3681,3713,3714,3698,0,0,0,0,0,0,0,3763,3779,3776,3776,3776,3780,3764,0,0,0,0,0,0,0,0,0,0,0,0,0,0,0,0,0,0,0,0,0,3763,3779,3776,3776,3776,3776,3776,3776,3776,3776,3776,3780,3764,0,0,0,0,0,0,0,0,0,0,0,0,0,0,0,0,0,0,0,0,0,0,0,0,0,0,0,0,0,0,0,0,0,0,0,0,0,0,0,3763,3779,3776,3776,3776,3776,3776,3776,3776,3776,3780,3764,0,0,0,0,0,0,0,0,0,0,0,0,0,0,0,0,0,0,0,0,0,0,0,0,0,0,0,0,0,0,0,3763,3746,3764,0,0,0,0,0,0,0,0,0,0,0,0,0,0,0,0,5089,0,0,0,0,0,5089,0,0,0,0,0,0,5092,0,0,0,0,5089,0,0,0,0,0,5089,0,0,3562,3572,3562,3572,3562,0,5089,0,3562,0,0,3578,0,0,3562,0,5089,0,0,0,0,0,0,5089,0,0,0,0,5089,0,0,0,0,0,0,0,0,5089,0,0,3562,0,3578,0,0,3562,0,0,5089,0,0,0,0,0,5092,0,0,0,5089,0,0,0,0,0,5089,0,0,0,0,0,0,0,0,0,0,0,0,0,0,0,0,0,0,0,0,0,0,0,0,0,0,0,0,0,0,0,0,0,0,0,0,0,0,0,0,0,0,0,0,0,0,0,0,0,0,0,0,0,0,0,0,0,0,0,0,0,0,0,0,0,0,0,0,0,0,0,0,0,0,0,0,0,0,0,0,0,0,0,0,0,0,0,0,0,0,0,0,0,0,0,0,0,0,0,0,0,0,0,0,0,0,0,0,0,0,0,0,0,0,0,0,0,0,0,0,0,0,0,0,0,0,0,0,0,0,0,0,0,0,0,0,0,0,0,0,0,0,0,0,0,0,0,0,0,0,0,0,0,0,0,0,0,0,0,0,0,0,0,0,0,0,0,0,0,0,0,0,0,0,0,0,0,0,0,0,0,0,0,0,0,0,0,0,0,0,0,0,0,0,0,0,0,0,0,0,126,0,0,0,0,0,0,0,0,0,0,0,0,0,0,0,0,0,0,0,0,0,0,0,0,0,0,0,0,0,0,0,0,0,0,0,0,0,0,0,0,0,0,0,0,0,0,0,0,0,0,0,0,0,0,0,0,0,0,0,0,0,0,0,0,0,0,0,0,0,0,0,0,0,0,0,0,0,0,0,0,0,0,0,0,0,0,0,0,0,0,0,0,0,0,0,0,0,0,0,0,0,0,0,0,0,0,0,0,0,0,0,0,0,0,0,0,0,0,0,0,0,0,0,0,0,0,0,0,0,0,0,0,0,0,0,0,0,0,0,0,0,0,0,0,0,0,0,0,0,1,1,1,0,0,0,0,0,0,0,0,0,0,0,0,0,0,0,0,0,0,0,0,0,0,0,0,0,0,0,5089,0,0,0,0,0,0,0,0,0,0,0,5095,5090,5090,3562,0,3578,0,0,0,0,0,5092,0,0,0,0,5089,0,0,0,0,0,5092,0,0,0,0,0,0,0,0,0,0,0,0,5089,0,0,0,0,0,0,5089,0,0,3562,0,0,3578,0,0,0,0,0,3562,0,0,0,0,0,0,0,0,5089,0,0,0,0,0,0,0,0,5089,0,0,0,0,0,0,3562,3578,3562,3578,3562,0,0,0,3578,0,0,0,3562,0,0,0,0,0,0,0,0,0,0,0,0,0,
1,1,1,1,1,1,1,1,1,1,1,1,1,1,1,1,1,1,1,1,1,1,1,1,1,1,1,5089,1,1,1,1,1,1,1,1,1,1,1,5089,1,1,3562,1,3578,1,1,1,1,1,1,1,1,1,1,5089,1,1,1,1,1,1,1,1,1,1,1,1,1,1,1,1,1,1,5089,1,1,1,1,1,1,5089,1,1,3556,1,1,3578,1,5090,5096,1,1,3562,5090,5090,5093,1,1,1,1,1,5089,1,1,1,1,1,1,1,1,1,5092,1,1,5095,5090,5090,3562,3578,3562,3578,3562,1,1,1,3578,1,1,1,3562,1,1,5089,1,1,1,1,1,1,1,5089,1,1,1,1,1,1,1,1,1,1,1,1,1,1,1,1,1,1,1,1,1,1,1,5089,1,1,1,1,1,1,1,1,1,1,1,1,1,3562,1,3578,5090,5090,5096,1,1,1,5089,1,3562,1,1,5089,1,1,1,1,1,1,1,1,1,1,1,5089,1,1,1,1,1,1,1,1,1,1,1,5089,1,1,1,1,1,1,1,1,1,1,5095,5090,5090,3562,1,3578,1,5092,1,1,1,1,1,1,5092,1,1,1,3562,1,1,3578,1,1,5089,1,1,1,1,1,1,1,5089,1,1,1,1,1,1,1,1,1,1,1,1,5089,1,1,1513,1514,1,3572,3562,3578,3562,3578,3556,1,1515,1516,1,1,1,1,1,1,1513,1514,1,3572,3562,3578,3562,3578,3556,1,1515,1516,1,1,1,1513,1514,1,3556,3572,1,5163,5122,5154,5122,5154,5122,5154,5132,1,3556,3578,3562,3572,3556,3572,3556,1,5131,5154,5122,5154,5122,5154,5122,5164,1,3572,3556,3572,3556,1,5981,1,1,1,5089,1,1,1,1,1,1,1,1,1,1,1,1,1,1,1,1,1,5089,1,1,1,1,1,1,1,1,1,1,1,1,1,1,1,5092,1,1,1,1,1,1,1,1,1,1,1,1,1,1,1,1,1,1,1,1,1,1,1,1,1,1,1,1,1,1,1,1,1,1,1,1,1,1,1,1,1,3763,3746,3746,3746,3764,5981,1,5089,1,1,1,1,1,5092,1,1,0,0,0,1,1,1,0,0,0,0,1,1,1,1,0,0,1,1,1,1,1,1,3747,3748,5981,3699,3700,5981,1,1,1,1,3699,3682,3682,3682,3700,5981,1,5089,1,1,3683,3714,3681,3713,3684,5981,1,1,1,1,1,1,1,1,1,1,1,1,1,1,1,1,1,1,1,5089,1,1,3699,3682,3682,3700,5981,1,1,5089,1,1,1,1,1,1,1,1,1,1,1,5089,1,1,3763,3746,3746,3764,5981,1,1,3763,3764,5981,1,5092,1,1,1,1,1,1,1,5089,1,1,1,3763,3746,3764,5981,1,1,1,1,1,3747,3778,3777,3748,5981,1,5092,1,1,1,1,1,1,1,1,1,1,5089,1,1,1,1,1,1,1,1,1,1,1,1513,1514,1,3763,3764,1,1515,1516,1,1,1,1513,1516,1,1,1,1513,1514,1,3763,3779,3776,3776,3780,3764,1,1515,1516,1,1,1,1,1,1513,1514,1515,1516,1,1,1,1,1,1,1,1513,1514,1,3763,3779,3780,3764,1,1515,1516,1,1,1,1,1,1,1,1,1,1,1513,1514,1,3763,3764,1,1515,1,1,1,1,1,1,1,1513,1514,1,1,1515,1,1,1,1,1,1,1,1,1,1,1,1,1,1,3763,3779,3776,3776,3776,3776,3776,3776,3776,3776,3780,3764,1,1,1,1,1,1,1,1,1,1,1,1,1,1,1,3763,3779,3776,3776,3776,3776,3776,3776,3776,3776,3776,3780,3764,1,1,1,1,1,1,1,1,1,1,1,1,1,1,1,1,1,1,1,1,1,1,1,1,1,1,1,1,1,3763,3779,3776,3776,3776,3776,3776,3776,3776,3776,3776,3780,3764,1,1,1,1,1,1,1,1,1,1,1,1,1,1,1,1,1,1,1,1,1,1,3763,3779,3780,3764,1,1,1,1,1,1,1,1,1,1,1,1,1,1,1,1,1,1,1,8021,1,1,1,1,1,1,1,1,1,1,1,1,1,1,1,1,1,1,1,1,1,5092,1,1,1,1,1,1,1,1,1,5089,1,1,1,1,5089,1,1,1,1,1,1,5089,1,1,1,1,1,1,1,1,5089,1,1,1,1,1,1,5089,1,1,1,1,1,1,1,5089,1,1,1,1,1,1,1,5089,0,0,0,0,0,5089,0,0,0,0,0,0,0,0,0,0,0,5089,0,0,0,0,0,5089,0,0,0,0,0,0,5092,0,0,0,0,1,0,0,0,0,0,0,0,0,0,0,3705,5981,5825,5857,0,3709,5981,0,0,0,0,0,0,0,0,3709,5981,3769,5981,0,0,0,0,0,0,0,0,0,0,0,0,0,0,0,0,0,0,0,0,0,3769,5981,5825,5857,0,3773,5981,3705,5981,0,0,0,0,0,0,0,0,0,0,0,0,0,0,0,0,0,0,0,0,0,0,0,0,0,0,0,0,0,0,0,0,0,0,0,0,5825,5857,3773,5981,3705,5981,5825,5857,0,0,3705,5981,0,0,0,0,0,3765,3766,5981,0,3709,5981,3773,5981,0,0,0,0,0,0,0,0,3769,5981,0,0,0,0,0,0,0,0,0,0,0,0,0,0,1509,1510,1511,1512,0,0,0,0,0,1509,1510,0,0,0,27,0,0,0,0,0,0,0,0,1509,1510,0,0,0,27,0,0,0,0,0,0,1509,1510,0,0,0,0,0,0,0,0,0,0,0,0,0,0,0,0,0,0,0,0,0,0,0,0,0,0,0,0,0,1509,1510,0,3697,3681,3681,3698,0,0,0,0,0,3697,3681,3681,3698,0,0,0,0,0,0,0,0,0,0,1509,1510,0,3697,3713,3712,3714,3698,0,0,0,0,1509,0,0,1509,1510,0,0,0,0,3697,3681,3681,3681,3681,3713,3712,3712,3712,3712,3712,3714,3698,0,0,0,0,0,0,0,3763,3746,3746,3746,3764,0,0,0,0,0,0,0,0,0,0,0,0,0,0,0,0,0,0,0,0,0,0,0,3763,3746,3746,3746,3746,3746,3746,3746,3746,3746,3764,0,0,0,0,0,0,0,0,0,0,0,0,0,0,0,0,0,0,0,0,0,0,0,0,0,0,0,0,0,0,0,0,0,0,0,0,0,0,0,0,0,3763,3746,3746,3746,3746,3746,3746,3746,3746,3764,0,0,0,0,0,0,0,0,0,0,0,0,0,0,0,0,0,0,0,0,0,0,0,0,0,0,0,0,0,0,0,0,0,0,0,0,0,0,0,0,0,0,0,0,0,0,0,0,0,0,0,5089,0,0,0,0,0,5089,0,0,0,0,0,0,0,0,0,0,0,5089,0,0,0,0,0,5092,0,0,3559,3563,3566,3563,3560,0,5092,0,3562,0,0,3578,0,0,3562,0,5089,0,0,0,0,0,0,5092,0,0,0,0,5089,0,0,0,0,0,0,0,0,5089,0,0,3562,0,3578,0,0,3562,0,0,5089,0,0,0,0,0,0,0,0,0,5089,0,0,0,0,0,5092,0,0,0,0,0,0,0,3553,3569,3553,3569,3553,0,0,0,0,0,0,0,0,0,0,0,0,0,0,0,0,0,0,0,0,0,0,933,0,0,0,0,0,0,0,0,0,0,0,0,0,0,0,0,0,0,0,0,0,0,0,0,0,0,0,0,0,0,0,0,0,0,0,0,0,0,0,0,0,0,0,0,0,0,0,0,0,0,0,0,0,0,0,0,0,0,0,0,0,0,0,0,0,0,0,0,0,0,0,0,0,0,0,0,0,0,0,0,0,0,0,0,0,0,0,0,0,0,0,0,0,0,0,0,0,0,0,0,0,0,0,0,0,0,0,0,0,0,0,0,0,0,0,0,0,0,0,0,0,0,0,0,0,0,0,0,0,0,0,0,0,0,0,0,0,0,0,0,0,0,0,0,0,0,0,0,0,0,0,0,0,0,0,0,0,0,0,0,0,0,0,0,0,126,0,0,0,0,0,0,0,0,0,0,0,0,0,0,0,0,0,0,0,0,0,0,0,0,0,0,0,0,0,0,0,126,0,0,0,0,0,0,0,0,0,0,0,0,0,0,0,0,0,0,0,0,0,0,0,0,0,0,0,0,0,0,0,0,0,0,0,0,0,0,0,0,0,0,0,0,0,0,0,0,0,0,0,0,0,0,0,0,0,0,0,0,0,0,0,0,0,0,0,0,0,0,0,0,0,0,0,0,0,0,0,0,0,0,0,0,0,0,0,0,0,0,0,0,0,0,0,0,0,0,0,0,0,0,0,0,0,0,0,0,0,0,0,0,0,0,0,0,0,1,1,1,0,0,0,0,0,0,0,0,0,0,0,0,0,0,0,0,0,0,0,0,0,0,0,0,0,0,0,5089,0,0,0,0,0,0,0,0,0,0,0,5089,0,0,3562,0,3578,0,0,0,0,0,0,0,0,0,0,5089,0,0,0,0,0,0,0,0,0,0,0,0,0,0,0,0,0,0,5089,0,0,0,0,0,0,5092,0,0,3556,0,0,3578,5090,5090,5096,0,0,3562,5090,5090,5093,0,0,0,0,0,5089,0,0,0,0,0,0,0,0,5092,0,0,0,5095,5090,5090,3562,3578,3562,3578,3562,0,0,0,3578,0,0,0,3562,0,0,0,0,0,0,0,0,0,0,0,0,0,
1,1,1,1,1,1,1,1,1,1,1,1,1,1,1,1,1,1,1,1,1,1,1,1,1,1,1,5089,1,1,1,1,1,1,1,1,1,1,1,5092,1,1,3562,1,3572,1,1,1,1,1,1,1,1,1,1,5092,1,1,1,1,1,1,1,1,1,1,1,1,1,1,1,1,1,1,5089,1,1,1,1,1,1,5092,1,1,1,1,1,3578,1,1,5089,1,1,3556,1,1,1,1,1,1,1,1,5092,1,1,1,1,1,1,1,1,1,1,1,1,5089,1,1,3562,3572,3562,3572,3562,1,1,1,3578,1,1,1,3562,1,1,5092,1,1,1,1,1,1,1,5092,1,1,1,1,1,1,1,1,1,1,1,1,1,1,1,1,1,1,1,1,1,1,1,5089,1,1,1,1,1,1,1,1,1,1,5095,5090,5090,3562,1,3578,1,1,5089,1,1,1,5092,1,3562,1,1,5092,1,1,1,1,1,1,1,1,1,1,1,5092,1,1,1,1,1,1,1,1,1,1,1,5089,1,1,1,1,1,1,1,1,1,1,5089,1,1,3562,1,3572,1,1,1,1,1,1,1,1,1,1,1,1,3556,1,1,3578,1,1,5092,1,1,1,1,1,1,1,5089,1,1,1,1,1,1,1,1,1,1,1,1,5089,1,1,1,1513,1514,1,3556,3578,3562,3572,1,1515,1516,1,1,1,1,1,1,1,1,1513,1514,1,3556,3578,3562,3572,1,1515,1516,1,1,1,1,1,1513,1514,1,1,1515,1516,1,1,1,1,1,1,1513,1514,1,3572,3556,1,1,1,1,1515,1516,1,1,1,1,1,1,7996,7994,0,1,1,1,1,5981,1,1,1,5092,1,1,1,1,1,1,8021,1,1,1,1,1,1,1,1,1,1,5092,1,1,1,1,1,1,1,1,1,1,1,1,1,1,1,1,1,1,1,1,1,1,1,1,1,1,1,1,1,1,1,1,1,1,1,1,1,1,1,1,1,1,1,1,1,1,1,1,1,1,1,1,1,1,1,1,1,5827,5979,5979,5979,5979,5863,1,5092,1,1,1,1,1,1,1,1,0,0,0,1,1,1,0,0,0,0,1,1,1,1,0,0,1,1,1,1,1,1,3763,3764,5981,5827,5979,5863,1,1,1,1,5827,5979,5979,5979,5979,5863,1,5092,1,1,3699,3682,3682,3682,3700,5981,1,2684354561,1,1,1,1,1,1,1,1,1,1,1,1,1,1,1,1,1,5092,1,1,5827,5979,5979,5979,5863,1,1,5092,1,1,1,1,1,1,1,1,1,1,1,5092,1,1,5827,5979,5979,5979,5863,1,1,5827,5979,5863,1,1,1,1,1,1,1,1,1,5092,1,1,1,5827,5979,5979,5863,1,1,1,1,1,3763,3746,3746,3764,5981,1,1,1,1,1,1,1,1,1,1,1,1,5092,1,1,1,1,1,1,1,1509,1512,1,1,1,1513,1514,1,1,1515,1516,1,1,1,1,1,1,1,1,1,1,1513,1514,1,3763,3779,3780,3764,1,1515,1516,1,1,1,1,1,1,1,1513,1516,1,1,1509,1512,1,1,1,1,1,1513,1514,1,3763,3764,1,1515,1516,1,1,1,1,1,1,1509,1512,1,1,1,1,1513,1514,1,1,1515,1,1,1,1,1,1,1,1,1,1513,1514,1515,1,1,1,1,1,1,1,1,1509,1,1,1,1,1,1,1,3763,3779,3776,3776,3776,3776,3776,3776,3780,3764,1,1,1,1,1,1,1,1,1,1,1,1,1,1,1,1,1,3763,3779,3776,3776,3776,3776,3776,3776,3776,3780,3764,1,1,1,1,1,1,1,1,1,1,1,1,1,1,1,1,1,1,1,1,1,1,1,1,1,1,1,1,1,1,1,3763,3779,3776,3776,3776,3776,3776,3776,3776,3780,3764,1,1,1,1,1,1,1,1,1,1,1,1,1,1,1,1,1,1,1,1,1,1,1,1,3763,3764,1,1,1,1,1,1,1,1,1,1,1,1,1,1,1,1334,1,1,1,1,8022,8023,8027,1,1,1,1,1,1,1,1,1,1,1,1,1,1,1,1,1,1,1,1,1,1,1,1,1,1,1,1,1,5089,1,1,1,1,5089,1,1,1,1,1,1,5089,1,1,1,1,1,1,1,1,5089,1,1,1,1,1,1,5089,1,1,0,0,1,1,1,5089,1,1,1,1,1,1,1,5089,0,0,0,0,0,5089,0,0,0,0,0,0,0,0,0,0,0,5089,0,0,0,0,0,5092,0,0,0,0,0,0,0,0,0,0,0,1,0,0,0,0,0,5129,5153,5121,5153,5121,3709,5121,3769,5121,5153,3709,5153,5121,5153,5121,5153,5121,5153,5121,5153,3709,5153,3773,5153,5121,5153,5121,5153,5121,5153,5121,5153,5121,5153,5121,5153,5121,5153,5121,5153,5121,5153,5121,5153,5121,3773,5121,3705,5121,5153,3773,5153,3709,5153,5121,5162,0,5161,5121,5153,5121,5153,5121,5153,5121,5153,5121,5153,5121,5153,5121,5153,5121,5153,5121,5153,5121,5153,5121,5153,5121,5153,5121,5153,5121,5153,5121,5153,5121,5153,3705,5153,3773,5153,3709,5153,3769,5153,5121,5153,3709,5153,5121,5153,5121,5153,5121,3773,3773,5153,5121,3709,5121,3773,5121,5153,5121,5153,5121,5153,5121,5153,5121,3773,5981,0,0,0,0,0,0,0,0,0,0,0,0,0,1509,1510,0,0,1511,1512,0,0,0,1509,1510,0,3761,3745,3762,0,1511,1512,0,0,0,0,0,1509,1510,0,3697,3681,3698,0,1511,1512,0,0,0,1509,1510,0,3761,3745,3745,3745,3745,3745,3745,3745,3745,3745,3745,3745,3745,3745,3745,3745,3745,3745,3762,0,0,0,0,0,0,0,0,0,1509,1510,0,3697,3713,3712,3712,3714,3681,3681,3681,3681,3681,3713,3712,3712,3714,3698,0,0,0,1509,1510,0,0,0,0,0,0,3697,3713,3712,3712,3712,3714,3698,0,0,1509,1510,0,0,0,0,3697,3681,3681,3681,3713,3712,3712,3712,3712,3712,3712,3712,3712,3712,3712,3712,3714,3698,0,0,0,0,0,0,0,0,0,0,0,0,0,0,0,0,0,0,3697,3681,3681,3681,3681,3681,3681,3681,3698,0,0,0,0,0,0,0,0,0,0,0,0,0,0,0,0,0,0,0,0,0,0,0,0,0,3697,3681,3681,3681,3681,3681,3681,3681,3681,3681,3681,3681,3681,3681,3681,3681,3681,3681,3681,3681,3681,3681,3681,3681,3681,3681,3681,3698,0,0,0,0,0,0,0,0,0,0,0,0,0,0,0,0,0,0,0,0,0,0,0,3697,3681,3681,3681,3681,3698,0,0,0,0,0,0,0,0,0,0,0,0,0,0,0,0,0,0,0,0,0,0,0,0,0,0,0,0,3697,3698,0,0,0,0,0,0,0,0,5089,0,0,0,0,0,5089,0,0,0,0,0,0,0,0,0,0,0,5089,0,0,0,0,0,0,0,0,0,0,0,0,0,0,0,0,3562,0,0,3578,0,0,3562,0,5089,0,0,0,0,0,0,0,0,0,0,0,5089,0,0,0,0,0,0,0,0,5092,0,0,3562,0,3578,0,0,3562,0,0,5089,0,0,0,0,0,0,0,0,0,5092,0,0,0,0,0,0,0,0,0,0,0,0,0,0,0,0,0,0,0,0,0,0,0,0,0,0,0,0,0,0,0,0,0,0,0,0,0,0,0,0,0,0,0,0,0,0,0,0,0,0,0,0,0,0,0,0,0,0,0,0,0,0,0,0,0,0,0,0,0,0,0,0,0,0,0,0,0,0,0,0,0,0,0,0,0,0,0,0,0,0,0,0,0,0,0,0,0,0,0,0,0,0,0,933,0,0,0,0,0,0,0,0,0,0,0,0,0,0,0,0,0,0,0,0,0,0,0,0,0,0,0,0,0,0,0,0,0,0,0,0,0,0,0,0,0,0,0,0,0,0,0,0,0,0,0,0,0,0,0,0,0,0,0,0,0,0,0,0,0,0,0,0,0,0,0,0,0,0,0,0,0,0,0,0,0,0,0,0,0,0,0,0,0,0,0,0,0,0,0,0,0,0,0,0,0,0,126,0,0,0,0,0,0,0,0,0,0,0,0,0,0,0,0,0,0,0,0,0,0,0,0,0,0,0,0,0,0,0,126,0,0,0,0,0,0,0,0,0,0,0,0,0,0,0,0,0,0,0,0,0,0,0,0,0,0,0,0,0,0,0,0,0,0,0,0,0,0,0,0,0,0,0,0,0,0,0,0,0,0,0,0,0,0,0,0,0,0,0,0,0,0,0,0,0,0,0,0,0,0,0,0,0,0,0,0,0,0,0,0,0,0,0,0,0,0,0,0,0,0,0,0,0,0,0,0,0,0,0,0,0,0,0,0,0,0,0,0,0,0,0,0,0,0,0,0,0,1,0,0,0,0,0,0,0,0,0,0,0,0,0,0,0,0,0,0,0,0,0,0,0,0,0,0,0,0,0,5089,0,0,0,0,0,0,0,0,0,0,0,5092,0,0,3562,0,3572,0,0,0,0,0,0,0,0,0,0,5092,0,0,0,0,0,0,0,0,0,0,0,0,0,0,0,0,0,0,5092,0,0,0,0,0,0,0,0,0,0,0,0,3578,0,0,5089,0,0,3556,0,0,0,0,0,0,0,0,5092,0,0,0,0,0,0,0,0,0,0,0,0,5089,0,0,3562,3572,3562,3572,3562,0,0,0,3578,0,0,0,3562,0,0,0,0,0,0,0,0,0,0,0,0,0,
1,1,1,1,1,1,1,1,1,1,1,1,1,1,1,1,1,1,1,1,1,1,1,1,1,1,1,5092,1,1,1,1,1,1,1,1,1,1,1,1,1,1,3556,1,1,1,1,1,1,1,1,1,1,1,1,0,1,1,1,1,1,1,1,1,1,1,1,1,1,1,1,1,1,1,5092,1,1,1,1,1,1,1,1,1,1,1,1,3572,1,1,5089,1,1,1,1,1,1,1,1,1,1,1,1,1,1,1,1,1,1,1,1,1,1,1,1,5092,1,1,3559,3563,3566,3563,3560,1,1,1,3578,1,1,1,3562,1,1,1,1,1,1,1,1,1,1,1,1,1,1,1,1,1,1,1,1,1,1,1,1,1,1,1,1,1,1,1,1,1,1,5092,1,1,1,1,1,1,1,1,1,1,5089,1,1,3562,1,3578,1,1,5092,1,1,1,1,1,3556,1,1,1,1,1,1,1,1,1,1,1,1,1,1,1,1,1,1,1,1,1,1,1,1,1,1,5092,1,1,1,1,1,1,1,1,1,1,5092,1,1,3556,1,1,1,1,1,1,1,1,1,1,1,1,1,1,1,1,1,3578,1,1,1,1,1,1,1,1,1,1,5092,1,1,1,1,1,1,1,1,1,1,1,1,5092,1,1,1,1,1513,1514,1,3572,3556,1,1515,1516,1,1,1,1,1509,1512,1,1,1,1,1513,1514,1,3572,3556,1,1515,1516,1,1,1,1,1,1,1,1513,1514,1515,1516,1,1,1,1,1,1,1,1,1513,1514,1,1,1515,1,1,1,1516,1,1,1,1,1,1,1,1,7995,5979,5979,5979,5979,5979,5863,1,1,1,1,1,1,1,1,1,1,8022,8023,8027,1,1,0,1,1,1,1,1,1,1,1,1,1,1,1,8021,1,1,1,1,1,1,1,1,1,1,1,1,1,1,1,1,1,1,1,1,1,1,1,1,1,1,1,1,1,1,1,1,1,1,1,1,1,1,1,1,1,1,1,1,1,1,1,1,1,1,1,1,1,1,1,1,1,1,1,1,1,1,1,1,1,1,0,1,1,1,1,1,1,1,1,1,1,1,1,1,1,1,1,1,1,1,1,1,5827,5979,5863,1,1,1,1,1,1,1,1,1,1,1,1,1,1,1,1,1,5827,5979,5979,5979,5979,5863,1,1,1,7987,1,1,1,1,1,1,1,1,1,1,1,1,1,1,1,1,1,1,1,1,1,1,1,1,1,1,1,1,1,1,1,1,1,1,1,1,1,1,1,1,1,1,1,1,1,1,1,1,1,1,1,1,1,1,1,1,1,1,1,1,1,1,1,1,1,1,1,1,1,1,1,1,5827,5979,5979,5979,5863,1,1,1,1,1,1,1,1,1,1,1,1,1,1,1,1,1,1,1,1509,1510,1511,1512,1,1,1,1513,1514,1515,1516,1,1,1,1,1,1509,1512,1,1,1,1,1,1513,1514,1,3763,3764,1,1515,1516,1,1,1,1,1,1,1,1,1,1,1,1509,1510,1511,1512,1,1,1,1,1,1513,1514,1,1,1515,1516,1,1,1,1,1,1,1509,1510,1511,1512,1,1,1,1,1513,1514,1515,1,1,1,1,1509,1512,1,1,1,1,1,1513,1,1,1,1,1,1,1,1,1509,1510,1,1,1,1,1,1,1,1,3763,3746,3746,3746,3746,3746,3746,3764,1,1,1,1,1,1,1,1,1,1,1,1,1,1,1,1,1,1,1,3763,3779,3776,3776,3776,3776,3776,3780,3764,1,1,1,1,1,1,1,1,1,1,1,1,1,1,1,1,1,1,1,1,1,1,1,1,1,1,1,1,1,1,1,1,1,3763,3779,3776,3776,3776,3776,3776,3780,3764,1,1,1,1,1,1,1,1,1,1,1,1,1,1,1,1,1,1,1,1,1,1,1,1,1,1,1,1,1,1,1,1,1,1,1,1,1,1,1,1,1,1,1,1,1,1,1,1,1,8022,8023,8024,1,1,1,1,1,1,1,1,1,1,8021,1,1,1,1,1,1,1,1,1,1,1,1,1,1,1,1,5092,1,1,1,1,5089,1,1,1,1,1,1,5092,1,1,1,1,1,1,1,1,5089,1,1,1,1,1,1,5092,1,1,0,0,1,1,1,5089,1,1,1,1,1,1,1,5092,0,0,0,0,0,5089,0,0,0,0,0,0,0,0,0,0,0,5092,0,0,0,0,0,0,0,0,0,0,0,0,0,0,0,0,0,1425,0,0,0,0,0,0,0,0,0,0,0,0,0,0,0,0,0,0,0,0,0,0,0,0,0,0,0,0,0,0,0,0,0,0,0,0,0,0,0,0,0,0,0,0,0,0,0,0,0,0,0,0,0,0,0,0,0,0,0,0,0,0,0,0,0,0,0,0,0,0,0,0,0,0,0,0,0,0,0,0,0,0,0,0,0,0,0,0,0,0,0,0,0,0,0,0,0,0,0,0,0,0,0,0,0,0,0,0,0,0,0,0,0,0,0,0,0,0,0,0,0,0,0,0,0,0,0,0,0,5981,0,0,0,0,0,0,0,0,0,0,0,0,1509,1510,0,3697,3698,0,5161,5121,5153,5121,5162,0,3761,3777,3776,3778,3762,0,5129,5153,5121,5153,5121,5153,5130,0,3697,3713,3712,3714,3698,0,5161,5121,5153,5121,5162,0,3761,3777,3776,3776,3776,3776,3776,3776,3776,3776,3776,3776,3776,3776,3776,3776,3776,3776,3776,3778,3762,0,0,0,0,0,0,0,1509,1510,0,3697,3713,3712,3712,3712,3712,3712,3712,3712,3712,3712,3712,3712,3712,3712,3714,3698,0,0,0,0,3697,3681,3681,3681,3681,3681,3713,3712,3712,3712,3712,3712,3714,3698,0,0,0,3697,3681,3681,3681,3713,3712,3712,3712,3712,3712,3712,3712,3712,3712,3712,3712,3712,3712,3712,3712,3712,3714,3698,0,0,0,0,0,0,0,0,0,0,0,0,0,0,0,0,3697,3713,3712,3712,3712,3712,3712,3712,3712,3714,3698,0,0,0,0,0,0,0,0,0,0,0,0,0,0,0,0,0,0,0,0,0,0,0,3697,3713,3712,3712,3712,3712,3712,3712,3712,3712,3712,3712,3712,3712,3712,3712,3712,3712,3712,3712,3712,3712,3712,3712,3712,3712,3712,3712,3714,3698,0,0,0,0,0,0,0,0,0,0,0,0,0,0,0,0,0,0,0,0,0,3697,3713,3712,3712,3712,3712,3714,3698,0,0,0,0,0,0,0,0,0,0,3697,3681,3698,0,0,0,0,0,0,0,0,0,0,0,0,0,3697,3713,3684,0,0,0,0,0,0,0,0,5089,0,0,0,0,0,5092,0,0,0,0,0,0,0,0,0,0,0,5092,0,0,0,0,0,0,0,0,0,0,0,0,0,0,0,0,3556,0,0,3578,0,0,3562,0,5092,0,0,0,0,0,0,0,0,0,0,0,5089,0,0,0,0,0,0,0,0,0,0,0,3562,0,3578,0,0,3562,0,0,5089,0,0,0,0,0,0,0,0,0,0,0,0,0,0,0,0,0,0,0,0,0,0,0,0,0,5091,0,0,0,0,0,0,0,0,0,0,0,0,0,0,0,0,0,0,0,0,0,0,3697,3681,3681,3681,3698,0,0,0,0,0,0,0,0,0,0,0,0,0,0,0,0,0,0,0,0,0,0,0,0,0,0,0,0,0,0,0,0,0,0,0,0,0,0,0,0,0,0,0,0,0,0,0,0,0,0,0,0,0,0,0,0,0,0,0,0,0,0,0,0,0,0,0,0,0,0,0,0,0,0,0,0,0,0,0,0,0,0,0,0,0,0,0,0,0,0,0,0,0,0,0,0,0,0,0,0,0,0,0,0,0,0,0,0,0,0,0,0,0,0,0,0,0,0,0,0,0,0,0,0,0,0,0,0,0,0,0,0,0,0,0,0,0,0,0,0,0,0,0,0,0,3697,3681,3698,0,0,0,0,0,0,0,0,0,0,0,0,0,0,0,126,0,0,0,0,0,0,0,0,0,0,0,0,0,0,0,0,0,0,0,0,0,0,0,0,0,0,0,0,0,0,0,126,0,0,0,0,0,0,0,0,0,0,0,0,0,0,0,0,0,0,0,0,0,0,0,0,0,0,0,0,0,0,0,0,0,0,0,3697,3681,3698,0,0,0,0,0,0,0,0,0,0,0,0,0,0,0,0,0,0,0,0,0,0,0,0,0,0,0,0,0,0,0,0,0,0,0,0,0,0,0,0,0,0,0,0,0,0,0,0,0,0,0,0,0,0,0,0,0,0,0,0,0,0,0,0,0,0,0,0,0,0,0,0,0,0,0,0,0,0,0,0,0,0,3705,0,0,0,0,0,0,0,0,0,0,0,0,0,0,0,0,0,0,0,0,0,0,0,0,0,0,5092,0,0,0,0,0,0,0,0,0,0,0,0,0,0,3556,0,0,0,0,0,0,0,0,0,0,0,0,0,0,0,0,0,0,0,0,0,0,0,0,0,0,0,0,0,0,0,0,0,0,0,0,0,0,0,0,0,0,0,0,3572,0,0,5089,0,0,0,0,0,0,0,0,0,0,0,0,0,0,0,0,0,0,0,0,0,0,0,0,5092,0,0,3559,3563,3566,3563,3560,0,0,0,3578,0,0,0,3562,0,0,0,0,0,0,0,0,0,0,0,0,0,
1,1,1,1,1,1,1,1,1,1,1,1,1,1,1,1,1,1,1,1,1,1,1,1,1,1,1,1,1,1,1,1,1,1,1,1,1,1,1,1,1,1,1,1,1,1,1,1,1,1,1,1,1,1,1,1,1,1,1,1,1,1,1,1,1,1,1,1,1,1,1,1,1,1,1,1,1,1,1,1,1,1,1,1,1,1,1,1,1,1,5092,1,1,1,1,1,1,1,1,1,1,1,1,1,1,1,1,1,1,1,1,1,1,1,1,1,1,1,0,0,0,0,0,1,1,1,3572,1,1,1,3562,1,1,1,1,1,1,1,1,1,1,1,1,1,1,1,1,1,1,1,1,1,1,1,1,1,1,1,1,1,1,1,1,1,1,1,1,1,1,1,1,1,1,1,1,1,5092,1,1,3562,1,3578,1,1,1,1,1,1,1,1,1,1,1,1,1,1,1,1,1,1,1,1,1,1,1,1,1,1,1,1,1,1,1,1,1,1,1,1,1,1,1,1,1,1,1,1,1,1,1,1,1,1,1,1,1,1,1,1,1,1,1,1,1,1,1,1,1,1,1,3572,1,1,1,1,1,1,1,1,1,1,1,1,1,1,1,1,1,1,1,1,1,1,1,1,1,1,1,1,1,1513,1514,0,1,1515,1516,1,1,1,1,1509,1510,1511,1512,1,1,1,1,1513,1514,1,1,1515,1516,1,1,1,1,1,1,1,1,1,1513,1516,1,1,1,1,1509,1512,1,1,1,1,1513,1514,1515,1516,1,1,1,1,1,1,1,1509,1512,1,1,1,1,1,1,1,1,1,1,1,1,1,1,1,1,1,1,1,1,1,1,8022,8023,8027,1,1,1,1,1,1,1,1,1,1,1,1,1,8022,8023,8027,1,1,1,1,1,1,1,1,1,8020,1,1,1,1,1,1,1,1,1,1,1,1,1,1,1,1,1,1,1,1,1,1,1,1,1,1,1,1,1,1,1,1,1,1,1,1,1,1,1,1,1,1,1,1,1,1,1,1,1,1,1,1,1,1,1,1,1,1,1,1,1,1,1,1,1,1,1,1,1,1,1,1,1,1,1,1,1,1,1,1,1,1,1,1,1,1,1,1,1,1,1,5825,5977,5977,5977,5977,5857,1,1,1,1,1,1,1,7985,7986,5981,1,1,1,1,1,1,1,1,1,1,1,5825,5977,5857,1,1,1,1,1,1,1,5825,5977,5857,1,1,1,1,1,1,1,1,1,5825,5977,5857,1,1,1,1,1,1,1,1,1,1,1,1,1,1,1,1,1,1,1,1,1,1,1,1,1,1,1,1,1,1,1,1,1,1,1,1,1,1,1,5825,5977,5977,5977,5977,5857,1,1,1,1,1,1,1,1,1,1,1,1,1,1509,1510,1,1,1511,1512,1,1,1,1513,1516,1,1,1,1,1,1509,1510,1511,1512,1,1,1,1,1,1513,1514,1,1,1515,1516,1,1,1,1,1,1,1,1,1,1,1,1509,1510,1,1,1511,1512,1,1,1,1,1,1513,1514,1515,1516,1,1,1,1,1,1,1509,1510,1,1,1511,1512,1,1,1,1,1513,1,1,1,1,1509,1510,1511,1512,1,1,1,0,0,0,0,1,1,1,1,1,1509,1510,1,1,1,1,1,1,1,1,1,1,1,1,1,1,1,1,1,1,1,1,1,1,1,1,1,1,1,1,1,1,1,1,1,1,1,1,1,3763,3746,3746,3746,3746,3746,3764,1,1,1,1,1,1,1,1,1,1,1,1,1,1,1,1,1,1,1,1,1,1,1,1,1,1,1,1,1,1,1,1,1,1,1,3763,3746,3746,3746,3746,3746,3764,1,1,1,1,1,1,1,1,1,1,1,1,1,1,1,1,1,1,1,1,1,1,1,1,1,1,1,1,1,1,1,1,1,1,1,1,1,1,1,1,1,3697,3698,1,1,1,1,1,1,3761,3762,1,5981,1,1,1,1,1,1,1,1,1,1,8022,8023,8027,1,1,1,1,1,1,1,1,1,1,1,1,1,1,1,1,1,1,1,5092,1,1,1,1,1,1,1,1,1,1,1,1,1,1,1,5089,1,1,1,1,1,1,1,1,1,0,0,1,1,1,5092,1,1,1,1,1,1,1,0,0,0,0,0,0,5092,0,0,0,0,0,0,0,0,0,0,0,0,0,0,0,0,0,0,0,0,0,0,0,0,0,0,0,0,0,1441,0,0,0,0,0,0,0,0,0,0,0,0,0,0,0,0,0,0,0,0,0,0,0,0,0,0,0,0,0,0,0,0,0,0,0,0,0,0,0,0,0,0,0,0,0,0,0,0,0,0,0,0,0,0,0,0,0,0,0,0,0,0,0,0,0,0,0,0,0,0,0,0,0,0,0,0,0,0,0,0,0,0,0,0,0,0,0,0,0,0,0,0,0,0,0,0,0,0,0,0,0,0,0,0,0,0,0,0,0,0,0,0,0,0,0,0,0,0,0,0,0,0,0,0,0,0,0,0,0,0,0,0,0,0,0,0,0,0,0,0,0,0,0,0,0,0,0,0,0,0,0,0,0,0,0,0,0,0,0,0,0,0,0,0,0,0,0,0,0,0,0,0,0,0,0,0,0,0,0,0,0,0,0,0,0,0,0,0,0,0,0,0,0,0,0,0,0,0,0,0,0,0,0,0,0,0,0,0,0,0,0,0,0,0,0,0,0,0,0,0,0,0,0,0,0,0,0,0,0,0,0,0,0,0,0,0,0,0,0,0,0,0,0,0,0,0,0,0,0,0,0,0,0,0,0,0,0,0,0,0,0,0,0,0,0,0,0,0,0,0,0,1425,1426,0,0,0,0,0,0,0,0,0,0,0,0,0,0,3697,3713,3712,3712,3712,3712,3712,3712,3712,3712,3712,3714,3698,0,0,0,0,0,0,0,0,0,0,0,0,0,0,0,0,0,0,0,0,0,3697,3713,3712,3712,3712,3712,3712,3712,3712,3712,3712,3712,3712,3712,3712,3712,3712,3712,3712,3712,3712,3712,3712,3712,3712,3712,3712,3712,3712,3712,3714,3698,0,0,0,0,0,0,0,0,0,0,0,0,0,0,0,0,0,0,0,3697,3713,3712,3712,3712,3712,3712,3712,3714,3698,0,0,0,0,0,0,0,0,3697,3713,3712,3714,3698,0,0,0,0,0,0,0,0,0,0,0,3697,3713,3712,3684,0,0,0,0,0,0,0,0,5092,0,0,0,0,0,0,0,0,0,0,0,0,0,0,0,0,0,0,0,0,0,0,0,0,0,0,0,0,0,0,0,0,0,0,0,0,0,3572,0,0,3562,0,0,0,0,0,0,0,0,0,0,0,0,0,5092,0,0,0,0,0,0,0,0,0,0,0,3562,0,3572,0,0,3562,0,0,5089,0,0,0,0,0,0,0,0,0,0,0,0,0,0,0,0,0,0,0,0,3570,0,5091,0,0,5089,0,0,0,0,0,5129,5153,5121,5153,5121,5153,5121,5153,5121,5153,5121,5153,5121,5162,0,3697,3681,3713,3712,3712,3712,3714,3681,3698,0,5161,5121,5153,5121,5153,5121,5153,5121,5153,5121,5153,5121,5153,5121,5153,5121,5153,5121,5153,5121,5153,5121,5153,5121,5153,5121,5153,5121,5153,5121,5153,5121,5153,5121,5153,5121,5153,5121,5153,5121,5153,5121,5153,5121,5153,5121,5153,5121,5153,5121,5153,5121,5162,0,0,3697,3681,3681,3681,3698,0,0,0,0,0,0,0,0,0,0,0,0,0,0,0,0,0,3697,3681,3698,0,5129,5153,5121,5153,5121,5153,5121,5153,5121,5153,5121,5153,5121,0,0,0,5121,5153,5121,5153,5121,5153,5121,5153,5121,5153,5121,5153,5121,5153,5121,5153,5121,5153,5121,5153,5121,5153,5121,5153,5121,5153,5121,5153,5121,5153,5121,5153,5121,5153,5121,5153,5121,5153,5121,5153,5121,5153,5130,0,3697,3713,3712,3714,3698,0,5129,5153,5121,5153,5121,5153,5121,5153,5121,5153,5121,5153,0,126,0,5153,5121,5153,5121,5153,5121,5153,5121,5153,5121,5153,5121,5153,5121,5153,5121,5153,5121,5153,5121,5153,5121,5153,5121,5153,5121,5153,5121,5153,0,126,0,5153,5121,5153,5121,5153,5121,5153,5121,5153,5121,5153,5121,5153,5121,5153,5121,5153,5121,5153,5121,5153,5121,5153,5121,5153,5121,5153,5121,5153,5121,5153,5130,0,3697,3713,3712,3714,3698,0,5129,5153,5121,5153,5121,5153,5121,5153,5121,5153,5121,5153,5121,5153,5121,5153,5121,5153,5121,5153,5121,5153,5121,5153,5121,5153,5121,5153,5121,5153,5121,5153,5121,5153,5121,5153,5121,5153,5121,5153,5121,5153,5121,5153,5121,5153,5121,5153,5121,5153,5121,5153,5121,5153,5121,5153,5121,5153,5121,5153,5121,5153,5121,5153,5121,5153,5121,5153,5121,5153,5121,5153,5121,5153,5121,5153,5121,5162,0,3697,3696,0,0,0,0,0,0,0,0,0,0,0,0,0,0,0,0,0,0,0,0,0,0,0,0,0,0,0,0,0,0,0,0,0,0,0,0,0,0,0,0,0,0,0,0,0,0,0,0,0,0,0,0,0,0,0,0,0,0,0,0,0,0,0,0,0,0,0,0,0,0,0,0,0,0,0,0,0,0,0,0,0,0,0,0,0,0,0,0,0,5092,0,0,0,0,0,0,0,0,0,0,0,0,0,0,0,0,0,0,0,0,0,0,0,0,0,0,0,0,0,0,0,0,0,0,0,3572,0,0,0,3562,0,0,0,0,0,0,0,0,0,0,0,0,0,
1,1,1,1,1,1,1,1,1,1,1,1,1,1,1,1,1,1,1,1,1,1,1,1,1,1,1,1,1,1,1,1,1,1,1,1,1,1,1,1,1,1,1,1,1,1,1,1,1,1,1,1,1,1,1,1,1,1,1,1,1,1,1,1,1,1,1,1,1,1,1,1,1,1,1,1,1,1,1,1,1,1,1,1,1,1,1,1,1,1,1,1,1,1,1,1,1,1,1,1,1,1,1,1,1,1,1,1,1,1,1,1,1,1,1,1,1,1,1,1,1,1,1,1,1,1,1,1,1,1,3556,1,1,1,1,1,1,1,1,1,1,1,1,1,1,1,1,1,1,1,1,1,1,1,1,1,1,1,1,1,1,1,1,1,1,1,1,1,1,1,1,1,1,1,1,1,1,1,1,3562,1,3572,1,1,1,1,1,1,1,1,1,1,1,1,1,1,1,1,1,1,1,1,1,1,1,1,1,1,1,1,1,1,1,1,1,1,1,1,1,1,1,1,1,1,1,1,1,1,1,1,1,1,1,1,1,1,1,1,1,1,1,1,1,1,1,1,1,1,1,1,1,1,1,1,1,1,1,1,1,1,1,1,1,1,1,1,1,1,1,1,1,1,1,1,1,1,1,1,1,1,1513,1514,1515,1516,1,1,1,1,1509,1510,1,1,1511,1512,1,1,1,1,1513,1514,1515,1516,1,1,1,1,1,1,1,1,1,1,1,1,1,1,1,1509,1510,1511,1512,1,1,1,1,1513,1516,1,1,1,1,1,1,1,1509,1510,1511,1512,1,1,1,1,1,1,1,1,1,1,1,1,1,1,5866,5829,1,1,1,1,3554,3570,1,8022,8023,8024,1,1,1,1,1,1,1,1,1,1,1,1,1,8022,8023,8024,1,1,1,1,1,8030,8018,8019,1,1,1,1,1,1,1,1,1,1,1,1,1,1,1,1,5866,5829,1,1,5866,5829,1,1,5866,5829,1,1,5825,5977,5977,5977,5977,5977,5977,5977,5977,5857,1,1,5091,1,1,1,1,1,1,1,1,1,1,1,5825,5977,5857,1,1,5825,5977,5857,1,1,1,1,1,5825,5977,5857,1,1,1,1,1,1,1,1,1,1,1,1,1,1,1,5825,5977,5857,1,1,1,1,1,3761,3745,3745,3745,3762,5981,1,5091,1,1,5825,5977,8018,8019,3777,5981,1,5091,1,1,1,1,1,1,5091,1,1,3697,3698,5981,5825,5977,5857,1,1,1,1,3761,3762,5981,5825,5977,5857,1,1,5091,1,1,1,3761,3762,5981,5825,5977,5857,1,1,5091,1,0,0,0,1,1,1,1,1,1,1,1,1,1,1,1,1,1,1,1,1,5091,1,1,5825,5977,5977,5977,5857,1,1,1,1,3697,3681,3681,3681,3698,5981,1,1,5091,1,1,1,1,1,1,1,1,1,1509,1510,1,3697,3698,1,1511,1512,1,1,1,1,1,1,1,1,1509,1510,1,1,1511,1512,1,1,1,1,1,1513,1514,1515,1516,1,1,1,1,1,1,1,1,1,1,1,1509,1510,1,3697,3698,1,1511,1512,1,1,1,1,1,1513,1516,1,1,1,1,1,1,1509,1510,1,3697,3698,1,1511,1512,1,1,1,1,1,1,1,1509,1510,1,1,1511,1512,1,1,0,0,0,0,1,1,1,1,1509,1510,1,3697,3698,1,1,1,1,1,1,1,1,1,1,1,1,1,1,1,1,1,1,1,1,1,3697,3681,3681,3681,3681,3681,3698,1,1,1,1,1,1,1,1,1,1,1,1,1,1,1,1,1,1,1,1,1,3697,3681,3681,3681,3681,3681,3681,3681,3681,3681,3681,3681,3681,3681,3681,3681,3681,3681,3681,3681,3698,1,1,1,1,1,1,1,1,1,1,1,1,1,1,1,1,1,1,1,1,1,3697,3681,3698,1,1,1,1,1,1,1,1,3697,3681,3698,1,1,1,1,1,1,1,1,1,1,1,1,3697,3681,3681,3681,3681,3681,3681,3681,3713,3684,1,1,1,1,1,1,3747,3748,1,5981,1,1,1,1,1,1,1,1,1,1,1,1,8022,8023,8027,1,1,1,1,1,1,1,1,1,1,1,1,1,1,1,1,1,1,1,1,1,1,1,1,1,1,1,1,1,1,1,1,1,5089,1,1,1,1,1,1,1,1,1,1,1,1,1,1,1,1,1,1,1,1,1,1,0,0,0,0,0,0,0,0,0,0,0,0,0,0,0,0,0,0,0,0,0,0,0,0,0,0,0,0,0,0,0,0,0,0,0,0,1457,0,0,0,0,0,0,0,0,0,0,0,0,0,0,0,0,0,0,0,0,0,0,0,0,0,0,0,0,0,0,0,0,0,0,0,0,0,0,0,0,0,0,0,0,0,0,0,0,0,0,0,0,0,0,0,0,0,0,0,0,0,0,0,0,0,0,0,0,0,0,0,0,0,0,0,0,0,0,0,0,0,0,0,0,0,0,0,0,0,0,0,0,0,0,0,0,0,0,0,0,0,0,0,0,0,0,0,0,0,0,0,0,0,0,0,0,0,0,0,0,0,0,0,0,0,0,0,0,0,0,0,0,0,0,0,0,0,0,0,0,0,0,0,0,0,0,0,0,0,0,0,0,0,0,0,0,0,0,0,0,0,0,0,0,0,0,0,0,0,0,0,0,0,0,0,0,0,0,0,0,0,0,0,0,0,0,0,0,0,0,0,0,0,0,0,0,0,0,0,0,0,0,0,0,0,0,0,0,0,0,0,0,0,0,0,0,0,0,0,0,0,0,0,0,0,0,0,0,0,0,0,0,0,0,0,0,0,0,0,0,0,0,0,0,0,0,0,0,0,0,0,0,0,0,0,0,0,0,0,0,0,0,0,0,0,0,0,0,0,0,0,1441,1442,1427,0,0,0,0,0,0,0,0,0,0,0,0,3697,3713,3712,3712,3712,3712,3712,3712,3712,3712,3712,3712,3712,3714,3698,0,0,0,0,0,0,0,0,0,0,0,0,0,0,0,0,0,0,0,3697,3713,3712,3712,3712,3712,3712,3712,3712,3712,3712,3712,3712,3712,3712,3712,3712,3712,3712,3712,3712,3712,3712,3712,3712,3712,3712,3712,3712,3712,3712,3712,3714,3698,0,0,0,0,0,0,0,0,0,0,0,0,0,0,0,0,0,3697,3713,3712,3712,3712,3712,3712,3712,3712,3712,3714,3698,0,0,0,0,0,0,3697,3713,3712,3712,3712,3714,3698,0,0,0,0,0,0,0,0,0,3697,3713,3712,3712,3684,0,0,0,0,0,0,0,0,0,0,0,0,0,0,0,0,0,0,0,0,0,0,0,0,0,0,0,0,0,0,0,0,0,0,0,0,0,0,0,0,0,0,0,0,0,0,0,0,0,3556,0,0,0,0,0,0,0,0,0,0,0,0,0,0,0,0,0,0,0,0,0,0,0,0,0,3556,0,0,0,0,3556,0,0,5092,0,0,0,0,0,0,0,0,0,0,0,0,0,0,0,0,0,3554,0,0,3578,0,5089,0,0,5089,0,0,0,1425,0,0,0,0,0,0,0,0,0,0,0,0,0,0,0,0,0,0,0,0,0,0,0,0,0,0,0,0,0,0,0,0,0,0,0,0,0,0,0,0,0,0,0,0,0,0,0,0,0,0,0,0,0,0,0,0,0,0,0,0,0,0,0,0,0,0,0,0,0,0,0,0,0,0,0,0,0,0,1428,3697,3681,3713,3712,3712,3712,3714,3681,3698,0,0,0,0,0,0,0,0,0,0,0,0,0,0,3697,3713,3712,3714,3698,1425,0,0,0,0,0,0,0,0,0,0,0,0,0,0,0,0,0,0,0,0,0,0,0,0,0,0,0,0,0,0,0,0,0,0,0,0,0,0,0,0,0,0,0,0,0,0,0,0,0,0,0,0,0,0,0,0,0,0,0,0,0,0,0,0,0,0,0,0,0,0,0,0,0,0,0,0,0,0,0,0,0,0,0,0,0,0,0,0,0,0,0,0,0,0,0,0,0,0,0,0,0,0,0,0,0,0,0,0,0,0,0,0,0,0,0,0,0,0,0,0,0,0,0,0,0,0,0,0,0,0,0,0,0,0,0,0,0,0,0,0,0,0,0,0,0,0,0,0,0,0,0,0,0,0,0,0,0,0,0,0,0,0,0,0,0,0,0,0,0,0,0,0,0,0,0,0,0,0,0,0,0,0,0,0,0,0,0,0,0,0,0,0,0,0,0,0,0,0,0,0,0,0,0,0,0,0,0,0,0,0,0,0,0,0,0,0,0,0,0,0,0,0,0,0,0,0,0,0,0,3697,3713,3684,0,0,0,0,0,0,0,0,0,0,0,0,0,0,0,0,0,0,0,0,0,0,0,0,0,0,0,0,0,0,0,0,0,0,0,0,0,0,0,0,0,0,0,0,0,0,0,0,0,0,0,0,0,0,0,0,0,0,0,0,0,0,0,0,0,0,0,0,0,0,0,0,0,0,0,0,0,0,0,0,0,0,0,0,0,0,0,0,0,0,0,0,0,0,0,0,0,0,0,0,0,0,0,0,0,0,0,0,0,0,0,0,0,0,0,0,0,0,0,0,0,0,0,0,0,0,0,0,0,3556,0,0,0,0,0,0,0,0,0,0,0,0,0,
1,1,1,1,1,1,1,1,1,1,1,1,1,1,1,1,1,1,1,1,1,1,1,1,1,1,1,1,1,1,1,1,1,1,1,1,1,1,1,1,1,1,1,1,1,1,1,1,1,1,1,1,1,1,1,1,1,1,1,1,1,3554,1,1,1,1,1,1,1,1,1,1,1,1,1,1,1,1,1,1,1,1,1,1,1,1,1,1,1,1,1,1,1,1,1,1,1,1,1,3554,1,1,1,1,1,1,1,1,1,1,1,1,1,1,1,1,1,1,1,1,1,1,1,1,1,1,1,1,1,1,1,1,1,1,1,1,1,1,1,1,1,1,1,1,1,1,1,3570,1,1,1,1,1,1,1,1,1,1,1,1,3554,1,1,1,1,1,1,1,1,1,1,1,1,1,1,1,1,1,1,3556,1,1,1,1,1,1,1,1,1,1,1,1,1,1,1,1,1,1,1,1,1,1,1,1,1,1,1,1,1,1,1,1,1,1,1,1,1,1,1,1,1,1,1,1,1,1,1,1,1,1,1,1,1,1,1,1,1,1,1,1,1,1,1,1,1,1,1,1,1,1,1,1,1,1,1,1,1,1,1,1,1,1,1,1,1,1,1,3570,1,1,1,1,1,1,1,1,1,1,1,1,1,1513,1516,1,1,0,1,1509,1510,1,3570,3554,1,1511,1512,1,1,1,1,1513,1516,1,1,1,1,1509,1,1,1,1512,1,1,1,1,1,1,1509,1510,1,1,1511,1512,1,1,1,1,1,1,1,1,1509,1,1,1,1510,1,1,1511,5977,5977,5977,5977,5977,5977,5977,5977,5977,5977,5977,5977,5857,1,5983,1,1,1,1,1,3562,3578,3554,3570,1,5981,1,1,5866,5977,5977,5829,1,1,1,1,1,1,3554,3570,1,5981,1,5091,1,8017,8018,8019,1,1,1,1,1,1,1,1,1,1,1,1,1,1,1,1,1,1,5839,3553,1,1,5839,3553,1,1,5839,3553,1,1,3697,3681,3681,3681,3681,3681,3681,3681,3698,5981,1,1,5089,1,1,1,1,5825,5977,5857,1,1,1,1,3761,3762,5981,1,1,3761,3762,5981,1,1,1,1,1,3761,3762,5981,1,1,1,1,1,1,1,1,1,1,1,1,1,1,1,3761,3762,5981,1,1,1,1,1,3747,3780,3746,3779,3748,5981,1,5089,1,1,3761,3745,3777,3776,3776,5981,1,5089,1,1,1,1,1,1,5089,1,1,3683,3684,5981,3761,3762,5981,1,1,1,1,3747,3748,5981,3697,3698,5981,1,1,5089,1,1,1,3747,3748,5981,3697,3698,5981,1,1,5089,1,0,0,0,1,1,1,1,1,1,1,1,1,1,1,1,1,1,1,1,1,5089,1,1,3697,3681,3681,3698,5981,1,1,1,1,3683,3716,3682,3715,3684,5981,1,1,5089,1,1,1,1,1,1,1,1,1509,1510,1,3697,3713,3714,3698,1,1511,1512,1,1,1,1,1,1,1509,1510,1,3697,3698,1,1511,1512,1,1,1,1,1,1513,1516,1,1,1,1509,1512,1,1,1,1,1,1,1509,1510,1,3697,3713,3714,3698,1,1511,1512,1,1,1,1,1,1,1,1,1,1,1,1509,1510,1,3697,3713,3714,3698,1,1511,1512,1,1,1,1,1,1509,1510,1,3697,3698,1,1511,1512,1,0,0,0,0,1,1,1,1509,1510,1,3697,3713,3714,3698,1,1,1,1,1,1,1,1,1,1,1,1,1,1,1,1,1,1,1,3697,3713,3712,3712,3712,3712,3712,3714,3698,1,1,1,1,1,1,1,1,1,1,1,1,1,1,1,1,1,1,1,3697,3713,3712,3712,3712,3712,3712,3712,3712,3712,3712,3712,3712,3712,3712,3712,3712,3712,3712,3712,3712,3714,3698,1,1,1,1,1,1,1,1,1,1,1,1,1,1,1,1,1,1,1,3697,3713,3712,3714,3698,1,1,1,1,1,1,3697,3713,3712,3714,3698,1,1,1,1,1,1,1,1,1,1,3697,3713,3712,3712,3712,3712,3712,3712,3712,3712,3684,1,1,1,1,1,1,3747,3748,1,5981,1,1,1,5091,1,1,1,1,1,1,1,3697,3698,1,8022,8023,8024,1,1,1,1,1,1,1,1,1,1,1,1,1,1,1,1,1,1,1,1,1,1,1,1,1,1,1,1,1,1,1,5092,1,1,1,1,1,1,5825,5857,1,1,1,5825,5857,1,1,1,1,1,1,1,1,1,0,0,0,0,0,0,0,0,0,0,0,0,0,0,0,0,0,0,0,0,0,0,0,0,0,0,0,3570,0,0,0,0,0,0,0,0,1473,0,0,0,0,0,0,0,0,0,0,0,0,0,0,0,0,0,0,0,0,0,0,0,0,0,0,0,0,0,0,0,0,0,0,0,0,0,0,0,0,0,0,0,0,0,0,0,0,0,0,0,0,0,0,0,0,0,0,0,0,0,0,0,0,0,0,0,0,0,0,0,0,0,0,0,0,0,0,0,0,0,0,0,0,0,0,0,0,0,0,0,0,0,0,0,0,0,0,0,0,0,0,0,0,0,0,0,0,0,0,0,0,0,0,0,0,0,0,0,0,0,0,0,0,0,0,0,0,0,0,0,0,0,0,0,0,0,0,0,0,0,0,0,0,0,0,0,0,0,0,0,0,0,0,0,0,0,0,0,0,0,0,0,0,0,0,0,0,0,0,0,0,0,0,0,0,0,0,0,0,0,0,0,0,0,0,0,0,0,0,0,0,0,0,0,0,0,0,0,0,0,0,0,0,0,0,0,0,0,0,0,0,0,0,0,0,0,0,0,0,0,0,0,0,0,0,0,0,0,0,0,0,0,0,0,0,0,0,0,0,0,0,0,0,0,0,0,0,0,0,0,0,0,0,0,0,0,0,0,0,0,0,0,0,0,0,0,0,0,0,0,1457,1458,1443,1428,0,5129,5153,5121,5153,5121,5153,5121,5162,0,3697,3713,3712,3712,3712,3712,3712,3712,3712,3712,3712,3712,3712,3712,3712,3714,3698,0,5161,5121,5153,5121,5153,5121,5153,5121,5153,5121,5153,5121,5153,5121,5162,0,3697,3713,3712,3712,3712,3712,3712,3712,3712,3712,3712,3712,3712,3712,3712,3712,3712,3712,3712,3712,3712,3712,3712,3712,3712,3712,3712,3712,3712,3712,3712,3712,3712,3712,3714,3698,5161,5121,5153,5121,5153,5121,5153,5121,5153,5121,5153,5121,5153,5130,0,3697,3713,3712,3712,3712,3712,3712,3712,3712,3712,3712,3712,3714,3698,0,5153,5121,0,3697,3713,3712,3712,3712,3712,3712,3714,3698,0,5129,5153,5121,5153,5130,0,3697,3713,3712,3712,3712,3684,0,0,0,0,0,0,0,0,0,0,0,0,0,0,0,0,0,0,0,0,0,0,0,0,0,0,0,0,0,0,0,0,0,0,0,3554,0,0,0,0,0,0,0,0,0,0,0,0,0,0,0,0,0,0,0,0,0,0,0,0,0,0,0,0,0,0,0,0,0,0,0,0,0,0,0,0,0,0,0,0,0,0,0,0,0,0,0,0,0,0,0,0,0,0,0,0,0,0,3570,0,0,3562,0,0,3578,0,5089,0,0,5089,0,0,0,1441,0,0,0,0,0,0,0,0,0,0,0,0,0,0,0,0,0,0,0,0,0,0,0,0,0,0,0,0,0,0,0,0,0,0,0,0,0,0,0,0,0,0,0,0,0,0,0,0,0,0,0,0,0,0,0,0,0,0,0,0,0,0,0,0,0,0,0,0,0,0,0,0,0,0,0,0,0,0,0,0,0,0,0,0,0,0,0,0,0,1443,1444,1441,1442,1443,1444,1441,1442,1443,1444,1441,1442,0,0,0,0,0,0,0,0,0,0,0,0,0,0,0,0,0,0,0,0,0,0,0,0,0,0,0,0,0,0,0,0,0,0,0,0,0,0,0,0,0,0,0,0,0,0,0,0,0,0,0,0,0,0,0,0,0,0,0,0,0,0,0,0,0,0,0,0,0,0,0,0,0,0,0,0,0,0,0,0,0,0,0,0,0,0,0,0,0,0,0,0,0,0,0,0,0,0,0,0,0,0,0,0,0,0,0,0,0,0,0,0,0,0,0,0,0,0,0,0,0,0,0,0,0,0,0,0,0,0,0,0,0,0,0,0,0,0,0,0,0,0,0,0,0,0,0,0,0,0,0,0,0,0,0,0,0,0,0,0,0,0,0,0,0,0,0,0,0,0,0,0,0,0,0,0,0,0,0,0,0,0,0,0,0,0,0,0,0,0,0,0,0,0,0,0,0,0,0,0,0,0,0,0,0,0,0,0,0,0,0,0,0,0,0,0,0,0,0,0,0,0,0,0,0,0,0,0,0,0,0,0,0,0,0,0,3683,3712,3684,0,0,0,0,3554,0,0,0,0,0,0,0,0,0,0,0,0,0,0,0,0,0,0,0,0,0,0,0,0,0,0,0,0,0,0,0,0,0,0,0,0,0,0,0,0,0,0,0,0,0,0,0,0,0,0,0,0,0,0,0,3554,0,0,0,0,0,0,0,0,0,0,0,0,0,0,0,0,0,0,0,0,0,0,0,0,0,0,0,0,0,0,0,0,0,0,0,0,0,3554,0,0,0,0,0,0,0,0,0,0,0,0,0,0,0,0,0,0,0,0,0,0,0,0,0,0,0,0,0,0,0,0,0,0,0,0,0,0,0,0,0,0,0,0,
1,1,1,1,1,1,1,1,1,1,1,1,1,1,1,1,1,1,1,1,1,1,1,3554,1,1,1,1,1,1,1,1,1,1,1,1,1,1,1,1,1,1,1,1,1,1,1,1,1,1,1,1,1,1,1,1,1,3570,1,1,1,3562,1,1,1,1,1,1,1,1,1,1,1,1,1,1,3570,1,1,1,1,1,3570,1,1,1,1,1,1,1,1,1,1,1,1,3570,1,1,1,3562,1,3570,1,1,1,1,1,1,1,1,1,1,1,1,1,1,1,1,1,1,5091,1,1,1,1,1,1,1,1,1,1,1,1,1,1,1,1,1,1,3558,3563,3564,3563,3561,1,1,1,3578,1,5091,1,1,1,1,1,1,1,1,1,1,3562,1,3570,1,1,1,1,1,1,3570,1,1,1,1,1,1,1,1,1,1,1,1,1,1,1,1,1,1,1,1,1,1,1,1,1,3570,1,1,1,5091,1,1,1,1,1,1,1,1,1,5091,1,1,1,1,3554,1,1,1,1,1,1,1,1,1,1,1,1,1,1,1,1,1,1,1,5091,1,1,1,1,1,1,1,1,1,1,1,1,1,1,1,1,1,1,1,1,1,1,1,1,1,1,1,1,3554,1,1,1,3578,1,1,1,1,1,1,1,1,1,1,1,1,1,1,1,1,1,1,1509,1510,1,3554,3578,3562,3570,3554,1511,1512,1,1,1,1,1,1,1,1,1509,1510,1,1,1,5129,5153,5121,5153,5121,5153,5121,5162,1,3570,3554,1,1511,1512,1,1,1,1,1,1,1509,1510,1,1,1,1,3554,3570,1,1,1,1,1,1,1,1,1,1,1,1,1,5981,1,5983,1,1,1,1,1,3562,3578,3562,3578,1,5981,1,1,5983,1,1,1,1,1,5091,1,1,1,3562,3578,1,5981,1,5089,1,5983,1,3554,3570,1,1,1,1,1,1,1,1,1,5091,1,1,1,1,1,1,1,1,5479,1,1,1,5479,1,1,1,5479,1,1,3683,3716,3682,3682,3682,3682,3682,3715,3684,5121,5153,5121,5153,5121,5153,5121,5153,3697,3698,5121,5153,5121,5153,5121,3747,3748,5153,5121,5153,3747,3748,5121,5153,5121,5153,5121,5153,3747,3748,5121,5153,5121,5153,5121,5153,5121,5153,5121,5153,5121,5153,5121,5153,5121,5153,3747,3748,5121,5153,5121,5153,5121,5153,3747,3748,273,3747,3748,5153,5121,5153,5121,5153,3747,3780,3746,3779,3748,5153,5121,5153,5121,5153,5121,5153,5121,5153,5121,5153,5121,3683,3684,5153,3747,3748,5121,5153,5121,5153,5121,3747,3748,5153,3683,3684,5121,5153,5121,5153,5121,5153,5121,3747,3748,5153,3683,3684,5121,5153,5121,5153,5121,5162,0,5161,5121,5153,5121,5153,5121,5153,5121,5153,5121,5153,5121,5153,5121,5153,5121,5153,5121,5153,5121,5153,3683,3716,3715,3684,5121,5153,5121,5153,5121,3683,3684,126,3683,3684,5981,1,1,5089,1,1,1,1,1,1,1,1509,1510,1,3697,3713,3712,3712,3714,3698,1,1511,1512,1,1,1,1,1509,1510,1,3697,3713,3714,3698,1,1511,1512,1,1,1,1,1,1,1,1,1509,1510,1511,1512,1,1,1,1,1509,1510,1,3697,3713,3712,3712,3714,3698,1,1511,1512,1,1,1,1,1,1,1,1,1,1509,1510,1,3697,3713,3712,3712,3714,3698,1,1511,1512,1,1,1,1509,1510,1,3697,3713,3714,3698,1,1511,1512,0,0,0,0,1,1,1509,1510,1,3697,3713,3712,3712,3714,3698,1,1,1,1,1,1,1,1,1,1,1,1,1,1,1,1,1,3697,3713,3712,3712,3712,3712,3712,3712,3712,3714,3698,1,1,1,1,1,1,1,1,1,1,1,1,1,1,1,1,1,3697,3713,3712,3712,3712,3712,3712,3712,3712,3712,3712,3712,3712,3712,3712,3712,3712,3712,3712,3712,3712,3712,3712,3714,3698,1,1,1,1,1,1,1,1,1,1,1,1,1,1,1,1,1,3697,3713,3712,3712,3712,3714,3698,1,1,1,1,3697,3713,3712,3712,3712,3714,3698,1,1,1,1,1,1,1,1,3697,3713,3712,3712,3712,3712,3712,3712,3712,3712,3712,3684,1,1,1,1,1,1,3747,3748,1,5981,1,1,1,5089,1,1,1,1,1,1,1,3683,3714,3681,3698,1,5981,1,1,1,1,1,1,1,1,1,1,1,1,1,1,1,1,1,1,1,1,1,1,1,1,1,1,1,1,1,1,1,1,1,1,1,1,1,1,3554,5981,5825,5857,1,3554,5981,5825,5857,1,1,1,1,1,3570,1,0,0,0,3570,0,0,0,0,0,0,0,0,0,0,0,0,0,0,0,0,0,0,0,0,3554,0,0,3578,0,0,0,0,0,0,0,0,0,0,0,0,0,0,0,0,0,0,0,0,0,0,0,0,0,0,0,0,0,0,0,0,0,0,0,0,0,0,0,0,0,0,0,0,0,0,0,0,0,0,0,0,0,0,0,0,0,0,0,0,0,0,0,0,0,0,0,0,0,0,0,0,0,0,0,0,0,0,0,0,0,0,0,0,0,0,0,0,0,0,0,0,0,0,0,0,0,0,0,0,0,0,0,0,0,0,0,0,0,0,0,0,0,0,0,0,0,0,0,0,0,0,0,0,0,0,0,0,0,0,0,0,0,0,0,0,0,0,0,0,0,0,0,0,0,0,0,0,0,0,0,0,0,0,0,0,0,0,0,0,0,0,0,0,0,0,0,0,0,0,0,0,0,0,0,0,0,0,0,0,0,0,0,0,0,0,0,0,0,0,0,0,0,0,0,0,0,0,0,0,0,0,0,0,0,0,0,0,0,0,0,0,0,0,0,0,0,0,0,0,0,0,0,0,0,0,0,0,0,0,0,0,0,0,0,0,0,0,0,0,0,0,0,0,0,0,0,0,0,0,0,0,0,0,0,0,0,0,0,0,0,0,0,0,0,0,0,0,0,0,0,0,0,0,0,0,0,0,0,0,1473,1474,1459,1444,0,0,0,0,0,0,0,0,0,0,0,0,0,0,0,0,0,0,0,0,0,0,0,0,0,0,0,0,0,0,0,0,0,0,0,0,0,0,0,0,0,0,0,0,0,0,0,0,0,0,0,0,0,0,0,0,0,0,0,0,0,0,0,0,0,0,0,0,0,0,0,0,0,0,0,0,0,0,0,0,0,0,0,0,0,0,0,0,0,0,0,0,0,0,0,0,0,0,0,0,0,0,0,0,0,0,0,0,0,0,0,0,0,0,0,0,0,0,0,0,0,0,0,0,0,0,0,0,0,0,0,0,0,0,0,0,0,0,0,3554,0,0,0,0,0,0,3570,0,0,0,0,0,0,0,0,0,0,0,0,3554,0,0,0,0,0,0,0,0,0,0,3562,0,0,0,0,0,0,0,0,0,0,0,0,0,0,0,0,0,0,0,0,0,0,0,0,0,0,0,0,0,0,0,0,0,0,0,0,0,0,0,0,0,0,0,0,0,0,0,0,0,0,0,0,0,0,0,0,0,0,0,0,0,0,3578,0,0,3562,0,0,3578,0,5089,0,0,5089,0,0,0,1457,0,0,0,0,0,0,0,0,0,0,0,0,0,0,0,0,0,0,0,0,0,0,0,0,0,0,0,0,0,0,0,0,0,0,0,0,0,0,0,0,0,0,0,0,0,0,0,0,0,0,0,0,0,0,0,0,0,0,0,0,0,0,0,0,0,0,0,0,0,0,0,0,0,0,0,0,0,0,0,0,0,0,0,0,0,0,0,0,0,0,0,0,0,0,0,0,0,0,0,0,0,0,0,0,0,0,0,0,0,0,0,0,0,0,0,0,0,0,0,0,0,0,0,0,0,0,0,0,0,0,0,0,0,0,0,0,0,0,0,0,0,0,0,0,0,0,0,0,0,0,0,0,0,0,0,0,0,0,0,0,0,0,0,0,0,0,0,0,0,0,0,0,0,0,0,0,0,0,0,0,0,0,0,0,0,0,0,0,0,0,0,0,0,0,0,0,0,0,0,0,0,0,0,0,0,0,0,0,0,0,0,0,0,0,0,0,0,0,0,0,0,0,0,0,0,0,0,0,0,0,0,0,0,0,0,0,0,0,0,0,0,0,0,0,0,0,0,0,0,0,0,0,0,0,0,0,0,0,0,0,0,0,0,0,0,0,0,0,0,0,0,0,0,0,0,0,0,0,0,0,0,0,0,0,0,0,0,0,0,0,0,0,0,0,0,0,0,0,0,0,0,0,0,0,0,0,0,0,0,0,0,0,0,0,0,0,0,0,0,0,0,0,0,0,0,0,0,0,0,0,0,0,0,0,0,0,0,3683,3712,3684,0,0,0,0,3562,0,3570,0,0,0,0,0,0,0,0,0,0,0,0,0,0,0,3554,0,0,0,0,0,0,0,0,0,0,0,0,0,0,0,0,0,0,0,0,5091,0,0,0,0,0,0,0,0,0,0,0,0,3570,0,0,0,3562,0,0,0,0,0,0,0,0,0,0,0,0,0,0,3570,0,0,0,0,0,3570,0,0,0,0,0,0,0,0,0,0,0,0,3570,0,0,0,3562,0,3570,0,0,0,0,0,0,0,0,0,0,0,0,0,0,0,0,0,0,5091,0,0,0,0,0,0,0,0,0,0,0,0,0,0,0,0,0,0,0,0,0,0,0,
1,1,1,1,1,1,1,1,1,1,1,1,1,1,1,1,1,1,1,1,1,1,1,3562,1,3570,1,1,1,1,1,1,1,1,1,1,1,1,1,1,1,1,1,1,1,1,1,1,1,1,1,1,1,3554,1,1,1,3578,1,1,1,3562,1,1,1,1,1,1,1,1,1,1,1,1,1,1,3578,1,3554,1,1,1,3578,1,1,1,1,1,1,1,1,1,1,1,1,3578,1,1,1,3562,1,3578,1,3554,1,1,1,1,1,1,1,1,1,1,1,1,1,3570,1,1,5089,1,1,1,1,1,1,1,1,1,1,1,1,1,1,1,1,1,1,3562,3570,3562,3570,3562,1,1,1,3578,1,5089,1,1,1,1,1,1,1,1,1,1,3562,1,3578,1,3554,1,1,1,1,3578,1,3554,1,1,1,1,1,1,1,1,1,1,1,1,1,1,1,1,1,1,1,1,1,1,1,3578,1,1,1,5089,1,1,1,1,1,1,1,1,1,5089,1,1,1,1,3562,1,3570,1,1,1,1,1,1,1,1,1,1,1,1,1,1,1,1,1,5089,1,1,1,1,1,1,1,1,1,1,1,1,1,1,1,3554,0,1,1,1,1,1,1,1,3570,1,1,1,3562,1,1,1,3578,1,1,1,1,1,1,1,1,1,1,1,1,1,1,1,1,1,1509,1510,1,3570,3562,3578,3562,3578,3562,1,1511,1512,1,1,1,1,1,1,1509,1510,1,3570,3554,3570,1,1,1,1,1,1,1,1,3554,3578,3562,3570,1,5129,5153,5121,5153,5121,5153,5121,5162,1,3554,3570,3554,3570,3562,3578,3554,3570,3554,3570,3554,3570,3554,3570,3554,3570,3554,3570,1,5981,1,5983,1,1,1,1,1,3562,3578,3562,3578,1,5981,1,1,5983,1,3553,1,1,1,5089,1,1,1,3562,3578,1,5981,1,5089,1,5983,1,3562,3578,1,1,1,1,1,1,1,1,1,5089,1,1,1,1,1,1,1,1,5489,1,1,1,5489,1,1,1,5489,1,1,3683,3684,3701,3710,3710,3710,3702,3683,3684,1,1,1,1,1,1,1,1,1,1,1,1,1,1,1,1,1,1,1,1,1,1,1,1,1,1,1,1,1,1,1,1,1,1,1,1,1,1,1,1,1,1,1,1,1,1,1,1,1,1,1,1,1,1,1,1,1,1,1,1,1,1,1,1,1,1,1,1,1,1,1,1,1,1,1,1,1,1,1,1,1,1,1,1,1,1,1,1,1,1,1,1,1,1,1,1,1,1,1,1,1,1,1,1,1,1,1,1,1,1,1,1,1,1,1,1,1,1,1,1,1,1,1,1,1,1,1,1,1,1,1,1,1,1,1,1,1,1,1,1,1,1,1,1,1,3683,3684,126,3683,3684,5981,1,1,5089,1,1,1,1,1,1,1509,1510,1,3697,3713,3712,3712,3712,3712,3714,3698,1,1511,1512,1,1,1509,1510,1,3697,3713,3712,3712,3714,3698,1,1511,1512,1,1,1,1,1,1,1509,1510,1,1,1511,1512,1,1,1509,1510,1,3697,3713,3712,3712,3712,3712,3714,3698,1,1511,1512,1,1,1,1,1,1,1,1509,1510,1,3697,3713,3712,3712,3712,3712,3714,3698,1,1511,1,1,1509,1510,1,3697,3713,3712,3712,3714,3698,1,1511,1512,1,1,1,1,1509,1510,1,3697,3713,3712,3712,3712,3712,3714,3698,1,1,1,1,1,1,1,1,1,1,1,1,1,1,1,3697,3713,3712,3712,3712,3712,3712,3712,3712,3712,3712,3714,3698,1,1,1,1,1,1,1,1,1,1,1,1,1,1,1,3697,3713,3712,3712,3712,3712,3712,3712,3712,3712,3712,3712,3712,3712,3712,3712,3712,3712,3712,3712,3712,3712,3712,3712,3712,3714,3698,1,1,1,1,1,1,1,1,1,1,1,1,1,1,1,3697,3713,3712,3712,3712,3712,3712,3714,3698,1,1,3697,3713,3712,3712,3712,3712,3712,3714,3698,1,1,1,1,1,1,3697,3713,3712,3712,3712,3712,3712,3712,3712,3712,3712,3712,3684,1,1,1,1,1,1,3747,3748,1,5981,1,1,1,5089,1,1,1,1,1,1,1,3683,3712,3712,3684,1,5981,5091,1,1,1,1,1,1,1,1,1,1,1,1,1,1,1,1,1,1,1,1,1,1,1,1,1,1,1,1,1,1,1,1,1,1,1,1,1,3562,5981,3570,5981,1,3562,5981,3570,5981,5825,5857,1,1,1,3578,1,3554,0,0,3578,0,3554,0,0,0,0,0,0,0,0,0,0,0,3554,0,0,0,3570,0,0,3562,0,0,3578,0,0,0,0,0,0,0,0,0,0,0,0,0,0,0,0,0,0,0,0,0,0,0,0,0,0,0,0,0,0,0,0,0,0,0,0,0,0,0,0,0,0,0,0,0,0,0,0,0,0,0,0,0,0,0,0,0,0,0,0,0,0,0,0,0,0,0,0,0,0,0,0,0,0,0,0,0,0,0,0,0,0,0,0,0,0,0,0,0,0,0,0,0,0,0,0,0,0,0,0,0,0,0,0,0,0,0,0,0,0,0,0,0,0,0,0,0,0,0,0,0,0,0,0,0,0,0,0,0,0,0,0,0,0,0,0,0,0,0,0,0,0,0,0,0,0,0,0,0,0,0,0,0,0,0,0,0,0,0,0,0,0,0,0,0,0,0,0,0,0,0,0,0,0,0,0,0,0,0,0,0,0,0,0,0,0,0,0,0,0,0,0,0,0,0,0,0,0,0,0,0,0,0,0,0,0,0,0,0,0,0,0,0,0,0,0,0,0,0,0,0,0,0,0,0,0,0,0,0,0,0,0,0,0,0,0,0,0,0,0,0,0,0,0,0,0,0,0,0,0,0,0,0,0,0,0,0,0,0,0,0,0,0,0,0,0,0,0,0,0,0,0,0,0,0,0,0,0,0,0,1,1,1475,1460,0,0,0,0,0,0,0,0,0,0,0,0,0,0,0,0,0,0,0,0,0,0,0,0,0,0,0,0,0,0,0,0,0,0,0,0,0,0,0,0,0,0,0,0,0,0,0,0,0,0,0,0,0,0,0,0,0,0,0,0,0,0,0,0,0,0,0,0,0,0,0,0,0,0,0,0,0,0,0,0,0,0,0,0,0,0,0,0,0,0,0,0,0,0,0,0,0,0,0,0,0,0,0,0,0,0,0,0,0,0,0,0,0,0,0,0,0,0,0,0,0,0,0,0,0,0,0,0,0,0,0,0,0,0,0,0,0,0,0,3562,0,3570,0,0,0,0,3578,0,3554,0,0,0,0,0,0,0,0,0,0,3562,0,3570,0,0,0,0,0,0,3570,0,3562,0,0,0,0,0,0,0,0,0,0,0,0,0,0,0,0,0,0,0,0,0,0,0,0,0,3554,0,0,0,0,0,0,0,0,0,0,0,0,0,0,0,0,0,0,0,0,0,0,0,0,0,0,0,0,0,0,0,0,0,0,0,0,3578,0,0,3562,0,0,3578,0,5089,0,0,5089,0,0,0,1473,0,0,0,0,0,0,0,0,0,0,0,0,0,0,0,0,0,0,0,0,0,0,0,0,0,0,0,0,0,0,0,0,0,0,0,0,0,0,0,0,0,0,0,0,0,0,0,0,0,0,0,0,0,0,0,0,0,0,0,0,0,0,0,0,0,0,0,0,0,0,0,0,0,0,0,0,0,0,0,0,0,0,0,0,0,0,0,0,0,0,0,0,0,0,0,0,0,0,0,0,0,0,0,0,0,0,0,0,0,0,0,0,0,0,0,0,0,0,0,0,0,0,0,0,0,0,0,0,0,0,0,0,0,0,0,0,0,0,0,0,0,0,0,0,0,0,0,0,0,0,0,0,0,0,0,0,0,0,0,0,0,0,0,0,0,0,0,0,0,0,0,0,0,0,0,0,0,0,0,0,0,0,0,0,0,0,0,0,0,0,0,0,0,0,0,0,0,0,0,0,0,0,0,0,0,0,0,0,0,0,0,0,0,0,0,0,0,0,0,0,0,0,0,0,0,0,0,0,0,0,0,0,0,0,0,0,0,0,0,0,0,0,0,0,0,0,0,0,0,0,0,0,0,0,0,0,0,0,0,0,0,0,0,0,0,0,0,0,0,0,0,0,0,0,0,0,0,0,0,0,0,0,0,0,0,0,0,0,0,0,0,0,0,0,0,0,0,0,0,0,0,0,0,0,0,0,0,0,0,0,0,0,0,0,0,0,0,0,0,0,0,0,0,0,0,0,0,0,0,0,0,0,0,0,0,0,0,3683,3712,3684,0,0,0,0,3562,0,3578,0,3554,0,0,0,0,3554,0,0,0,0,0,0,0,0,3562,0,3570,0,0,0,0,0,0,0,0,0,0,0,0,0,0,0,0,0,0,5089,0,0,0,0,0,0,0,0,3554,0,0,0,3578,0,0,0,3562,0,0,0,0,0,0,0,0,0,0,0,0,0,0,3578,0,3554,0,0,0,3578,0,0,0,0,0,0,0,0,0,0,0,0,3578,0,0,0,3562,0,3578,0,3554,0,0,0,0,0,0,0,0,0,0,0,0,0,3570,0,0,5089,0,0,0,0,0,0,0,0,0,0,0,0,0,0,0,0,0,0,0,0,0,0,0,
1,1,1,1,1,1,1,1,1,1,1,1,1,1,1,1,1,1,1,5129,5153,5121,5153,3562,5153,3578,5153,3554,5153,5121,5153,5121,5153,5121,5153,5121,5153,5121,5153,5121,5153,5121,5153,5121,5153,5121,5153,5121,5153,5121,5153,5121,5153,3562,5153,5121,5153,3578,5153,5121,5153,3562,5153,5121,5153,5121,5162,1,1,1,1,1,5129,5153,5121,5153,3578,5153,3562,5153,5121,5153,3578,5153,5121,5153,5121,5153,5121,5153,5121,5153,5121,5153,5121,3578,5121,5153,5121,3562,5121,3578,5121,3562,5121,5153,5121,5153,5121,5153,5121,5153,5121,5153,5121,5153,5121,3578,5121,5153,5121,5153,5121,5153,5121,5153,5121,5153,5121,5153,5121,5153,5121,5153,5121,5153,5121,5153,5121,3562,3578,3562,3578,3562,5121,5153,5121,3578,5121,5153,5121,5153,5121,5153,5121,5153,5121,5153,5121,5153,3562,5153,3578,5153,3562,5153,5121,5153,5121,3578,5121,3562,5121,3570,5121,5153,5121,5153,5121,5153,5121,5153,5121,5153,5121,5153,5121,5153,5121,5153,5121,5153,5121,5153,5121,3578,5121,5153,5121,5153,5121,5153,5121,5153,5121,5153,5121,5153,5121,5153,5121,5153,5121,5121,3562,5153,3578,5153,5121,5153,5121,5153,5121,5153,5121,5153,5121,5153,5121,5153,5121,5153,5121,5153,5121,5153,5121,5153,5121,5153,5121,5153,5121,5153,5121,5153,5121,5153,5121,5153,3562,5121,5153,5121,5153,5121,5153,5121,5121,3578,5121,5153,5121,3562,5121,5153,5121,3578,5121,5153,5121,5162,1,1,1,1,5129,5153,5121,5153,5121,5153,5121,5153,5121,5162,1,3554,3578,3562,3578,3562,3578,3562,3570,1,5129,5153,5121,5153,5121,5153,5121,5162,1,3554,3578,3562,3578,3554,3570,3554,3570,3554,3554,3554,3570,3562,3578,3562,3578,3554,1,1,1,1,1,1,1,1,3570,3562,3578,3562,3578,3562,3578,3562,3578,3562,3578,3562,3578,3562,3578,3562,3578,3562,3578,1,5121,5153,5121,1,5121,5153,5121,1,3562,3578,3562,3578,1,5153,5121,5153,5121,1,3569,1,5121,5153,5121,5153,5121,1,3562,3578,1,5153,5121,5153,5121,5153,1,3562,3578,1,5121,5153,5121,5153,5121,5153,5121,5153,5121,5153,5121,5153,5121,5153,5121,5153,5121,5478,5121,5153,5121,5478,5121,5153,5121,5478,5121,5153,3683,3684,3709,273,273,273,3709,3683,3684,1,1,1,1,1,1,1,1,1,1,1,1,1,1,1,1,1,1,1,1,1,1,1,1,1,1,1,1,1,1,1,1,1,1,1,1,1,1,1,1,1,1,1,1,1,1,1,1,1,1,1,1,1,1,1,1,1,1,1,1,1,1,1,1,1,1,1,1,1,1,1,1,1,1,1,1,1,1,1,1,1,1,1,1,1,1,1,1,1,1,1,1,1,1,1,1,1,1,1,1,1,1,1,1,1,1,1,1,1,1,1,1,1,1,1,1,1,1,1,1,1,1,1,1,1,1,1,1,1,1,1,1,1,1,1,1,1,1,1,1,1,1,1,1,1,3683,3684,126,3683,3684,5121,5153,5121,5153,5121,5153,5121,5153,5121,5153,5130,1,3697,3713,3712,3712,3712,3712,3712,3712,3714,3698,1,5161,5121,5153,5130,1,3697,3713,3712,3712,3712,3712,3714,3698,1,5161,5121,5153,5121,5153,5121,5153,5130,1,3697,3698,1,5161,5121,5153,5130,1,3697,3713,3712,3712,3712,3712,3712,3712,3714,3698,1,5161,5121,5153,5121,5153,5121,5153,5121,5162,1,3697,3713,3712,3712,3712,3712,3712,3712,3714,3698,1,5129,5153,5130,1,3697,3713,3712,3712,3712,3712,3714,3698,1,5161,5121,5153,5121,5153,5130,1,3697,3713,3712,3712,3712,3712,3712,3712,3714,3698,1,5161,5121,5153,5121,5153,5121,5153,5121,5153,5121,5162,1,3697,3713,3712,3712,3712,3712,3712,3712,3712,3712,3712,3712,3712,3714,3698,1,5161,5121,5153,5121,5153,5121,5153,5121,5153,5121,5162,1,3697,3713,3712,3712,3712,3712,3712,3712,3712,3712,3712,3712,3712,3712,3712,3712,3712,3712,3712,3712,3712,3712,3712,3712,3712,3712,3712,3714,3698,1,5161,5121,5153,5121,5153,5121,5153,5121,5153,5121,5162,1,3697,3713,3712,3712,3712,3712,3712,3712,3712,3714,3681,3681,3713,3712,3712,3712,3712,3712,3712,3712,3714,3698,1,1,1,1,3697,3713,3712,3712,3712,3712,3712,3712,3712,3712,3712,3712,3712,3684,1,5121,5153,5121,5153,1,3747,3748,1,5121,5153,5121,5153,5121,5153,5121,5153,5121,5153,5121,1,3683,3712,3712,3684,1,5153,5121,5153,5121,5153,5121,5153,5121,5153,5121,5153,5121,5153,5121,5153,5121,5153,1,5153,5121,5153,1,5153,5121,5153,1,5153,5130,1,1,1,1,1,1,1,1,5129,5153,5121,3562,5121,3578,5121,5153,3562,5153,3578,5153,3554,5153,5121,5153,5121,3578,5121,3562,5121,5153,3578,5153,3562,5153,3570,5153,5121,5153,5121,5153,5121,5153,5121,5153,3562,5153,5121,5153,3578,5153,5121,3562,5121,5153,3578,5153,5121,5153,5121,5153,5121,5153,5121,0,0,0,0,0,0,0,0,0,0,0,0,0,0,0,0,0,0,0,0,0,0,0,0,0,0,0,0,0,0,0,0,0,0,0,0,0,0,0,0,0,0,0,0,0,0,0,0,0,0,0,0,0,0,0,0,0,0,0,0,0,0,0,0,0,0,0,0,0,0,0,0,0,0,0,0,0,0,0,0,0,0,0,0,0,0,0,0,0,0,0,0,0,0,0,0,0,0,0,0,0,0,0,0,0,0,0,0,0,0,0,0,0,0,0,0,0,0,0,0,0,0,0,0,0,0,0,0,0,0,0,0,0,0,0,0,0,0,0,0,0,0,0,0,0,0,0,0,0,0,0,0,0,0,0,0,0,0,0,0,0,0,0,0,0,0,0,0,0,0,0,0,0,0,0,0,0,0,0,0,0,0,0,0,0,0,0,0,0,0,0,0,0,0,0,0,0,0,0,0,0,0,0,0,0,0,0,0,0,0,0,0,0,0,0,0,0,0,0,0,0,0,0,0,0,0,0,0,0,0,0,0,0,0,0,0,0,0,0,0,0,0,0,0,0,0,0,0,0,0,0,0,0,0,0,0,0,0,0,0,0,0,0,0,0,0,0,0,0,0,0,0,1,1,1,1476,0,0,0,0,0,0,0,0,0,0,0,0,0,0,0,0,0,0,0,0,0,0,0,0,0,0,0,0,0,0,0,0,0,0,0,0,0,0,0,0,0,0,0,0,0,0,0,0,0,0,0,0,0,0,0,0,0,0,0,0,0,0,0,0,0,0,0,0,0,0,0,0,0,0,0,0,0,0,0,0,0,0,0,0,0,0,0,0,0,0,0,0,0,0,0,0,0,0,0,0,0,0,0,0,0,0,0,0,0,0,0,0,0,0,0,0,0,0,0,0,0,0,0,0,0,0,0,0,0,0,0,0,0,0,0,0,5121,5153,5121,3562,5121,3578,5121,3554,5121,5153,3578,5153,3562,5153,3570,5153,5121,5153,5121,5153,5121,5153,5121,3562,5121,3578,5121,3554,5121,5153,5121,5153,3578,5121,3562,5121,5153,5121,5153,5121,5153,5121,5153,5121,5153,5121,5153,5121,5153,5121,5153,5121,5153,5121,5153,5130,0,5129,5153,5121,3562,5121,3570,5121,5153,5121,5153,5121,5153,5121,5153,5121,5153,5121,5153,5121,5153,5121,5153,5121,3570,0,0,5129,5153,5121,5153,5121,5153,5121,5153,5121,5162,5129,5153,5121,5153,3578,5153,5121,3562,5121,5153,3578,5153,5121,5153,5121,5153,5121,5153,5121,0,0,0,0,0,0,0,0,0,0,0,0,0,0,0,0,0,0,0,0,0,0,0,0,0,0,0,0,0,0,0,0,0,0,0,0,0,0,0,0,0,0,0,0,0,0,0,0,0,0,0,0,0,0,0,0,0,0,0,0,0,0,0,0,0,0,0,0,0,0,0,0,0,0,0,0,0,0,0,0,0,0,0,0,0,0,0,0,0,0,0,0,0,0,0,0,0,0,0,0,0,0,0,0,0,0,0,0,0,0,0,0,0,0,0,0,0,0,0,0,0,0,0,0,0,0,0,0,0,0,0,0,0,0,0,0,0,0,0,0,0,0,0,0,0,0,0,0,0,0,0,0,0,0,0,0,0,0,0,0,0,0,0,0,0,0,0,0,0,0,0,0,0,0,0,0,0,0,0,0,0,0,0,0,0,0,0,0,0,0,0,0,0,0,0,0,0,0,0,0,0,0,0,0,0,0,0,0,0,0,0,0,0,0,0,0,0,0,0,0,0,0,0,0,0,0,0,0,0,0,0,0,0,0,0,0,0,0,0,0,0,0,0,0,0,0,0,0,0,0,0,0,0,0,0,0,0,0,0,0,0,0,0,0,0,0,0,0,0,0,0,0,0,0,0,0,0,0,0,0,0,0,0,0,0,0,0,0,0,0,0,0,0,0,0,0,0,0,0,0,0,0,0,0,0,0,0,0,0,0,0,0,0,0,0,0,0,0,0,0,0,0,0,0,0,0,0,0,0,0,0,0,0,0,0,0,0,0,3683,3712,3684,0,5153,5121,5153,3562,5153,3578,5153,3562,5153,5121,5153,5121,3562,5121,3570,5130,0,5129,5153,5121,5153,3562,5153,3578,5153,3554,5153,5121,5153,5121,5153,5121,5153,5121,5153,5121,5153,5121,5153,5121,5153,5121,5153,5121,5153,5121,5153,5121,5153,5121,5153,3562,5153,5121,5153,3578,5153,5121,5153,3562,5153,5121,5153,5130,0,0,0,0,0,0,5129,5153,5121,5153,3578,5153,3562,5153,5121,5153,3578,5153,5121,5153,5121,5153,5121,5153,5121,5153,5121,5153,5121,3578,5121,5153,5121,3562,5121,3578,5121,3562,5121,5153,5121,5153,5121,5153,5121,5153,5121,5153,5121,5153,5121,3578,5121,5153,5121,5153,5121,5153,5121,5153,5121,5153,5121,5153,5121,5153,5121,5162,0,0,0,0,0,0,0,0,0,0
</data>
 </layer>
 <layer id="1" name="l1" width="1939" height="27">
  <data encoding="csv">
1,1,1,1,1,1,1,1,1,1,1,1,1,1,1,1,1,1,1,1,1,1,1,1,1,1,1,1,1,1,1,1,1,1,1,1,1,1,1,1,1,1,1,1,1,1,1,1,1,1,1,1,1,1,1,1,1,1,1,1,1,1,1,1,1,1,1,1,1,1,1,1,1,1,1,1,1,1,1,1,1,1,1,1,1,1,1,1,1,1,1,1,1,1,1,1,1,1,1,1,1,1,1,1,1,1,1,1,1,1,1,1,1,1,1,1,1,1,1,1,1,1,1,1,1,1,1,1,1,1,1,1,1,1,1,1,1,1,1,1,1,1,1,1,1,1,1,1,1,1,1,1,1,1,1,1,1,1,1,1,1,1,1,1,1,1,1,1,1,1,1,1,1,1,1,1,1,1,1,1,1,1,1,1,1,1,1,1,1,1,1,1,1,1,1,1,1,1,1,1,1,1,1,1,1,1,1,1,1,1,1,1,1,1,1,1,1,1,1,1,1,1,1,1,1,1,1,1,1,1,1,1,1,1,1,1,1,1,1,1,1,1,1,1,1,1,1,1,1,1,1,1,1,1,1,1,1,1,1,1,1,1,1,1,1,1,1,1,1,1,1,1,1,1,1,1,1,1,1,1,1,1,1,1,1,1,1,1,1,1,1,1,1,1,1,1,1,1,1,1,1,1,1,1,1,1,1,1,1,1,1,1,1,1,1,1,1,1,1,1,1,1,1,1,1,1,1,1,1,1,1,1,1,1,1,1,1,1,1,1,1,1,1,1,1,1,1,1,1,1,1,1,1,1,1,1,1,1,1,1,1,1,1,1,1,1,1,1,1,1,1,1,1,1,1,1,1,1,1,1,1,1,1,1,1,1,1,1,1,1,1,1,1,1,1,1,1,1,1,1,1,1,1,1,1,1,1,1,1,1,1,1,1,1,1,1,1,1,1,1,1,1,1,1,1,1,1,1,1,1,1,1,1,1,1,1,1,1,1,1,1,1,1,1,1,1,1,1,1,1,1,1,1,1,1,1,1,1,1,1,1,1,1,1,1,1,1,1,1,1,1,1,1,1,1,1,1,1,1,1,1,1,1,1,1,1,1,1,1,1,1,1,1,1,1,1,1,1,1,1,1,1,1,1,1,1,1,1,1,1,1,1,1,1,1,1,1,1,1,1,1,1,1,1,1,1,1,1,1,1,1,1,1,1,1,1,1,1,1,1,1,1,1,1,1,1,1,1,1,1,1,1,1,1,1,1,1,1,1,1,1,1,1,1,1,1,1,1,1,1,1,1,1,1,1,1,1,1,1,1,1,1,1,1,1,1,1,1,1,1,1,1,1,1,1,1,1,1,1,1,1,1,1,1,1,1,1,1,1,1,1,1,1,1,1,1,1,1,1,1,1,1,1,1,1,1,1,1,1,1,1,1,1,1,1,1,1,1,1,1,1,1,1,1,1,1,1,1,1,1,1,1,1,1,1,1,1,1,1,1,1,1,1,1,1,1,1,1,1,1,1,1,1,1,1,1,1,1,1,1,1,1,1,1,1,1,1,1,1,1,1,1,1,1,1,1,1,1,1,1,1,1,1,1,1,1,1,1,1,1,1,1,1,1,1,1,1,1,1,1,1,1,1,1,1,1,1,1,1,1,1,1,1,1,1,1,1,1,1,1,1,1,1,1,1,1,1,1,1,1,1,1,1,1,1,1,1,1,1,1,1,1,1,1,1,1,1,1,1,1,1,1,1,1,1,1,1,1,1,1,1,1,1,1,1,1,1,1,1,1,1,1,1,1,1,1,1,1,1,1,1,1,1,1,1,1,1,1,1,1,1,1,1,1,1,1,1,1,1,1,1,1,1,1,1,1,1,1,1,1,1,1,1,1,1,1,1,1,1,1,1,1,1,1,1,1,1,1,1,1,1,1,1,1,1,1,1,1,1,1,1,1,1,1,1,1,1,1,1,1,1,1,1,1,1,1,1,1,1,1,1,1,1,1,1,1,1,1,1,1,1,1,1,1,1,0,0,0,0,0,0,0,0,0,0,0,0,0,0,0,0,0,0,0,0,0,0,0,0,0,0,0,625,0,1,0,0,0,0,0,0,1,1,1,1,1,1,1,1,1,1,1,1,1,1,1,1,1,1,1,1,1,1,1,1,1,1,1,1,1,1,1,1,1,1,1,1,1,1,1,1,1,1,1,1,1,1,1,1,1,1,1,1,1,1,1,1,1,1,1,1,1,1,1,1,1,1,1,1,1,1,1,1,1,1,1,1,1,1,1,1,1,1,1,1,1,1,1,1,1,1,1,1,1,1,1,1,1,1,1,1,1,1,1,1,1,1,1,1,1,1,1,1,1,1,1,1,1,1,1,1,1,1,1,1,1,1,1,1,1,1,1,1,1,1,1,1,1,1,1,1,1,1,1,1,1,1,1,1,1,1,1,1,1,1,1,1,1,1,1,1,1,1,1,1,1,1,1,1,1,1,1,1,1,1,1,1,1,1,1,1,1,1,1,1,1,1,1,1,1,1,1,1,1,1,1,1,1,1,1,1,1,1,1,1,1,1,1,1,1,1,1,1,1,1,1,1,1,1,1,1,1,1,1,1,1,1,1,1,1,1,1,1,1,1,1,1,1,1,1,1,1,1,1,1,1,1,1,1,1,1,1,1,1,1,1,1,1,1,1,1,1,1,1,1,1,1,1,1,1,1,1,1,1,1,1,1,1,1,1,1,1,1,1,1,1,1,1,1,1,1,1,1,1,1,1,1,1,1,1,1,1,1,1,1,1,1,1,1,1,1,1,1,1,1,1,1,1,1,1,1,1,1,1,1,1,1,1,1,1,1,1,1,1,1,1,1,1,1,1,1,1,1,1,1,1,1,1,1,1,1,1,1,1,1,1,1,1,1,1,1,1,1,1,1,1,1,1,1,1,1,1,1,1,1,1,1,1,1,1,1,1,1,1,1,1,1,1,1,1,1,1,1,1,1,1,1,1,1,1,1,1,1,1,1,1,1,1,1,1,1,1,1,1,1,1,1,1,1,1,1,1,1,1,1,1,1,1,1,1,1,1,1,1,1,1,1,1,1,1,1,1,1,1,1,1,1,1,1,1,1,1,1,1,1,1,1,1,1,1,1,1,1,1,1,1,1,1,1,1,1,1,1,1,1,1,1,1,1,1,1,1,1,1,1,1,1,1,1,1,1,1,1,1,1,1,1,1,1,1,1,1,1,1,1,1,1,1,1,1,1,1,1,1,1,1,1,1,1,1,1,1,1,1,1,1,1,1,1,1,1,1,1,1,1,1,1,1,1,1,1,1,1,1,1,1,1,1,1,1,1,1,1,1,1,1,1,1,1,1,1,1,1,1,1,1,1,1,1,1,1,1,1,1,1,1,1,1,1,1,1,1,1,1,1,1,1,1,1,1,1,1,1,1,1,1,1,1,1,1,1,1,1,1,1,1,1,1,1,1,1,1,1,1,1,1,1,1,1,1,1,1,1,1,1,1,1,1,1,1,1,1,1,1,1,1,1,1,1,1,1,1,1,1,1,1,1,1,1,1,1,1,1,1,1,1,1,1,1,1,1,1,1,1,1,1,1,1,1,1,1,1,1,1,1,1,1,1,1,1,1,1,1,1,1,1,1,1,1,1,1,1,1,1,1,1,1,1,1,1,1,1,1,1,1,1,1,1,1,1,1,1,1,1,1,1,1,1,1,1,1,1,1,1,1,1,1,1,1,1,1,1,1,1,1,1,1,1,1,1,1,1,1,1,1,1,1,1,1,1,1,1,1,1,1,1,1,1,1,1,1,1,1,1,1,1,1,1,1,1,1,1,1,1,1,1,1,1,1,1,1,1,1,1,1,1,1,1,1,1,1,1,1,1,1,1,1,1,1,1,1,1,1,1,1,1,1,1,1,1,1,1,1,1,1,1,1,1,1,1,1,1,1,1,1,1,1,1,1,1,1,1,1,1,1,1,1,1,1,1,1,1,1,1,1,1,1,1,1,1,1,1,1,1,1,1,1,1,1,1,1,1,1,1,1,1,1,1,1,1,1,1,1,1,1,1,1,1,1,1,1,1,1,1,1,1,1,1,1,1,1,1,1,1,1,1,1,1,1,1,1,1,1,1,1,1,1,1,1,1,1,1,1,1,1,1,1,1,1,1,1,1,1,1,1,1,1,1,1,1,1,1,1,1,1,1,1,1,1,1,1,1,1,1,1,1,1,1,1,1,1,1,1,1,1,1,1,1,1,1,1,1,1,1,1,1,1,1,1,1,1,1,1,1,1,1,1,1,1,1,1,1,1,1,1,1,1,1,1,1,1,1,1,1,1,1,1,1,0,0,0,0,0,0,0,0,0,0,58,
1,1,1,1,1,1,1,1,1,1,1,1,1,1,1,1,1,1,1,1,1,1,1,1,1,1,1,1,1,1,1,1,1,1,1,1,1,1,1,1,1,1,1,1,1,1,1,1,1,1,1,1,1,1,1,1,1,1,1,1,1,1,1,1,1,1,1,1,1,1,1,1,1,1,1,1,1,1,1,1,1,1,1,1,1,1,1,1,1,1,1,1,1,1,1,1,1,1,1,1,1,1,1,1,1,1,1,1,1,1,1,1,1,1,1,1,1,1,1,1,1,1,1,1,1,1,1,1,1,1,1,1,1,1,1,1,1,1,1,1,1,1,1,1,1,1,1,1,1,1,1,1,1,1,1,1,1,1,1,1,1,1,1,1,1,1,1,1,1,1,1,1,1,1,1,1,1,1,1,1,1,1,1,1,1,1,1,1,1,1,1,1,1,1,1,1,1,1,1,1,1,1,1,1,1,1,1,1,1,1,1,1,1,1,1,1,1,1,1,1,1,1,1,1,1,1,1,1,1,1,1,1,1,1,1,1,1,1,1,1,1,1,1,1,1,1,1,1,1,1,1,1,1,1,1,1,1,1,1,1,1,1,1,1,1,1,1,1,1,1,1,1,1,1,1,1,1,1,1,1,1,1,1,1,1,1,1,1,1,1,1,1,1,1,1,1,1,1,1,1,1,1,1,1,1,1,1,1,1,1,1,1,1,1,1,1,1,1,1,1,1,1,1,1,1,1,1,1,1,1,1,1,1,1,1,1,1,1,1,1,1,1,1,1,1,1,1,1,1,1,1,1,1,1,1,1,1,1,1,1,1,1,1,1,1,1,1,1,1,1,1,1,1,1,1,1,1,1,1,1,1,1,1,1,1,1,1,1,1,1,1,1,1,1,1,1,1,1,1,1,1,1,1,1,1,1,1,1,1,1,1,1,1,1,1,1,1,1,1,1,1,1,1,1,1,1,1,1,1,1,1,1,1,1,1,1,1,1,1,1,1,1,1,1,1,1,1,1,1,1,1,1,1,1,1,1,1,1,1,1,1,1,1,1,1,1,1,1,1,1,1,1,1,1,1,1,1,1,1,1,1,1,1,1,1,1,1,1,1,1,1,1,1,1,1,1,1,1,1,1,1,1,1,1,1,1,1,1,1,1,1,1,1,1,1,1,1,1,1,1,1,1,1,1,1,1,1,1,1,1,1,1,1,1,1,1,1,1,1,1,1,1,1,1,1,1,1,1,1,1,1,1,1,1,1,1,1,1,1,1,1,1,1,1,1,1,1,1,1,1,1,1,1,1,1,1,1,1,1,1,1,1,1,1,1,1,1,1,1,1,1,1,1,1,1,1,1,1,1,1,1,1,1,1,1,1,1,1,1,1,1,1,1,1,1,1,1,1,1,1,1,1,1,1,1,1,1,1,1,1,1,1,1,1,1,1,1,1,1,1,1,1,1,1,1,1,1,1,1,1,1,1,1,1,1,1,1,1,1,1,1,1,1,1,1,1,1,1,1,1,1,1,1,1,1,1,1,1,1,1,1,1,1,1,1,1,1,1,1,1,1,1,1,1,1,1,1,1,1,1,1,1,1,1,1,1,1,1,1,1,1,1,1,1,1,1,1,1,1,1,1,1,1,1,1,1,1,1,1,1,1,1,1,1,1,1,1,1,1,1,1,1,1,1,1,1,1,1,1,1,1,1,1,1,1,1,1,1,1,1,1,1,1,1,1,1,1,1,1,1,1,1,1,1,1,1,1,1,1,1,1,1,1,1,1,1,1,1,1,1,1,1,1,1,1,1,1,1,1,1,1,1,1,1,1,1,1,1,1,1,1,1,1,1,1,1,1,1,1,1,1,1,1,1,1,1,1,1,1,1,1,1,1,1,1,1,1,1,1,1,1,1,1,1,1,1,1,1,1,1,1,1,1,1,1,1,1,1,1,1,1,1,1,1,1,1,1,1,1,1,1,1,1,1,1,1,1,1,1,1,1,1,1,1,1,1,1,1,1,1,1,1,1,1,1,0,0,0,0,0,0,0,0,0,0,0,0,0,0,0,0,0,0,0,0,0,0,0,0,0,0,0,758,0,0,0,0,0,0,0,0,1,1,1,1,1,1,1,1,1,1,1,1,1,1,1,1,1,1,1,1,1,1,1,1,1,1,1,1,1,1,1,1,1,1,1,1,1,1,1,1,1,1,1,1,1,1,1,1,1,1,1,1,1,1,1,1,1,1,1,1,1,1,1,1,1,1,1,1,1,1,1,1,1,1,1,1,1,1,1,1,1,1,1,1,1,1,1,1,1,1,1,1,1,1,1,1,1,1,1,1,1,1,1,1,1,1,1,1,1,1,1,1,1,1,1,1,1,1,1,1,1,1,1,1,1,1,1,1,1,1,1,1,1,1,1,1,1,1,1,1,1,1,1,1,1,1,1,1,1,1,1,1,1,1,1,1,1,1,1,1,1,1,1,1,1,1,1,1,1,1,1,1,1,1,1,1,1,1,1,1,1,1,1,1,1,1,1,1,1,1,1,1,1,1,1,1,1,1,1,1,1,1,1,1,1,1,1,1,1,1,1,1,1,1,1,1,1,1,1,1,1,1,1,1,1,1,1,1,1,1,1,1,1,1,1,1,1,1,1,1,1,1,1,1,1,1,1,1,1,1,1,1,1,1,1,1,1,1,1,1,1,1,1,1,1,1,1,1,1,1,1,1,1,1,1,1,1,1,1,1,1,1,1,1,1,1,1,1,1,1,1,1,1,1,1,1,1,1,1,1,1,1,1,1,1,1,1,1,1,1,1,1,1,1,1,1,1,1,1,1,1,1,1,1,1,1,1,1,1,1,1,1,1,1,1,1,1,1,1,1,1,1,1,1,1,1,1,1,1,1,1,1,1,1,1,1,1,1,1,1,1,1,1,1,1,1,1,1,1,1,1,1,1,1,1,1,1,1,1,1,1,1,1,1,1,1,1,1,1,1,1,1,1,1,1,1,1,1,1,1,1,1,1,1,1,1,1,1,1,1,1,1,1,1,1,1,1,1,1,1,1,1,1,1,1,1,1,1,1,1,1,1,1,1,1,1,1,1,1,1,1,1,1,1,1,1,1,1,1,1,1,1,1,1,1,1,1,1,1,1,1,1,1,1,1,1,1,1,1,1,1,1,1,1,1,1,1,1,1,1,1,1,1,1,1,1,1,1,1,1,1,1,1,1,1,1,1,1,1,1,1,1,1,1,1,1,1,1,1,1,1,1,1,1,1,1,1,1,1,1,1,1,1,1,1,1,1,1,1,1,1,1,1,1,1,1,1,1,1,1,1,1,1,1,1,1,1,1,1,1,1,1,1,1,1,1,1,1,1,1,1,1,1,1,1,1,1,1,1,1,1,1,1,1,1,1,1,1,1,1,1,1,1,1,1,1,1,1,1,1,1,1,1,1,1,1,1,1,1,1,1,1,1,1,1,1,1,1,1,1,1,1,1,1,1,1,1,1,1,1,1,1,1,1,1,1,1,1,1,1,1,1,1,1,1,1,1,1,1,1,1,1,1,1,1,1,1,1,1,1,1,1,1,1,1,1,1,1,1,1,1,1,1,1,1,1,1,1,1,1,1,1,1,1,1,1,1,1,1,1,1,1,1,1,1,1,1,1,1,1,1,1,1,1,1,1,1,1,1,1,1,1,1,1,1,1,1,1,1,1,1,1,1,1,1,1,1,1,1,1,1,1,1,1,1,1,1,1,1,1,1,1,1,1,1,1,1,1,1,1,1,1,1,1,1,1,1,1,1,1,1,1,1,1,1,1,1,1,1,1,1,1,1,1,1,1,1,1,1,1,1,1,1,1,1,1,1,1,1,1,1,1,1,1,1,1,1,1,1,1,1,1,1,1,1,1,1,1,1,1,1,1,1,1,1,1,1,1,1,1,1,1,1,1,1,1,1,1,1,1,1,1,1,1,1,1,1,1,1,1,1,1,1,1,1,1,1,1,1,1,1,1,1,1,1,1,1,1,1,1,1,1,1,1,1,1,1,1,1,1,1,1,1,1,1,1,1,1,1,1,1,1,1,1,1,1,1,1,1,1,1,1,1,1,1,1,1,1,1,1,1,1,1,1,1,1,1,1,1,1,1,1,1,1,1,1,1,1,1,1,1,1,1,1,1,1,1,1,1,1,1,1,1,1,1,1,1,1,1,1,1,1,1,1,1,1,1,1,1,1,1,1,1,1,1,1,1,1,1,1,1,1,1,1,1,1,1,1,1,1,1,1,1,1,1,1,1,1,1,1,1,1,1,1,1,1,1,1,1,1,1,1,1,1,1,1,1,1,1,1,1,1,1,1,1,1,1,0,0,0,0,0,0,0,0,0,0,58,
1,1,1,1,1,1,1,1,1,1,1,1,1,1,1,1,1,1,1,1,1,1,1,1,1,1,1,1,1,1,1,1,1,1,1,1,1,1,1,1,1,1,1,1,1,1,1,1,1,1,1,1,1,1,1,1,1,1,1,1,1,1,1,1,1,1,1,1,1,1,1,1,1,1,1,1,1,1,1,1,1,1,1,1,1,1,1,1,1,1,1,1,1,1,1,1,1,1,1,1,1,1,1,1,1,1,1,1,1,1,1,1,1,1,1,1,1,1,1,1,1,1,1,1,1,1,1,1,1,1,1,1,1,1,1,1,1,1,1,1,1,1,1,1,1,1,1,1,1,1,1,1,1,1,1,1,1,1,1,1,1,1,1,1,1,1,1,1,1,1,1,1,1,1,1,1,1,1,1,1,1,1,1,1,1,1,1,1,1,1,1,1,1,1,1,1,1,1,1,1,1,1,1,1,1,1,1,1,1,1,1,1,1,1,1,1,1,1,1,1,1,1,1,1,1,1,1,1,1,1,1,1,1,1,1,1,1,1,1,1,1,1,1,1,1,1,1,1,1,1,1,1,1,1,1,1,1,1,1,1,1,1,1,1,1,1,1,1,1,1,1,1,1,1,1,1,1,1,1,1,1,1,1,1,1,1,1,1,1,1,1,1,1,1,1,1,1,1,1,1,1,1,1,1,1,1,1,1,1,1,1,1,1,1,1,1,1,1,1,1,1,1,1,1,1,1,1,1,1,1,1,1,1,1,1,1,1,1,1,1,1,1,1,1,1,1,1,1,1,1,1,1,1,1,1,1,1,1,1,1,1,1,1,1,1,1,1,1,1,1,1,1,1,1,1,1,1,1,1,1,1,1,1,1,1,1,1,1,1,1,1,1,1,1,1,1,1,1,1,1,1,1,1,1,1,1,1,1,1,1,1,1,1,1,1,1,1,1,1,1,1,1,1,1,1,1,1,1,1,1,1,1,1,1,1,1,1,1,1,1,1,1,1,1,1,1,1,1,1,1,1,1,1,1,1,1,1,1,1,1,1,1,1,1,1,1,1,1,1,1,1,1,1,1,1,1,1,1,1,1,1,1,1,1,1,1,1,1,1,1,1,1,1,1,1,1,1,1,1,1,1,1,1,1,1,1,1,1,1,1,1,1,1,1,1,1,1,1,1,1,1,1,1,1,1,1,1,1,1,1,1,1,1,1,1,1,1,1,1,1,1,1,1,1,1,1,1,1,1,1,1,1,1,1,1,1,1,1,1,1,1,1,1,1,1,1,1,1,1,1,1,1,1,1,1,1,1,1,1,1,1,1,1,1,1,1,1,1,1,1,1,1,1,1,1,1,1,1,1,1,1,1,1,1,1,1,1,1,1,1,1,1,1,1,1,1,1,1,1,1,1,1,1,1,1,1,1,1,1,1,1,1,1,1,1,1,1,1,1,1,1,1,1,1,1,1,1,1,1,1,1,1,1,1,1,1,1,1,1,1,1,1,1,1,1,1,1,1,1,1,1,1,1,1,1,1,1,1,1,1,1,1,1,1,1,1,1,1,1,1,1,1,1,1,1,1,1,1,1,1,1,1,1,1,1,1,1,1,1,1,1,1,1,1,1,1,1,1,1,1,1,1,1,1,1,1,1,1,1,1,1,1,1,1,1,1,1,1,1,1,1,1,1,1,1,1,1,1,1,1,1,1,1,1,1,1,1,1,1,1,1,1,1,1,1,1,1,1,1,1,1,1,1,1,1,1,1,1,1,1,1,1,1,1,1,1,1,1,1,1,1,1,1,1,1,1,1,1,1,1,1,1,1,1,1,1,1,1,1,1,1,1,1,1,1,1,1,1,1,1,1,1,1,1,1,1,1,1,1,1,1,1,1,1,1,1,1,1,1,1,1,1,1,1,1,1,1,1,1,1,1,1,1,1,1,1,1,1,1,1,1,1,1,1,1,1,1,1,1,1,1,1,1,1,1,1,1,1,1,1,1,1,1,1,1,1,1,1,1,1,1,1,1,1,1,0,0,0,0,0,0,0,0,0,0,0,0,0,0,0,0,0,0,0,0,0,0,0,0,0,0,0,0,1,0,0,0,0,0,0,0,1,1,1,1,1,1,1,1,1,1,1,1,1,1,1,1,1,1,1,1,1,1,1,1,1,1,1,1,1,1,1,1,1,1,1,1,1,1,1,1,1,1,1,1,1,1,1,1,1,1,1,1,1,1,1,1,1,1,1,1,1,1,1,1,1,1,1,1,1,1,1,1,1,1,1,1,1,1,1,1,1,1,1,1,1,1,1,1,1,1,1,1,1,1,1,1,1,1,1,1,1,1,1,1,1,1,1,1,1,1,1,1,1,1,1,1,1,1,1,1,1,1,1,1,1,1,1,1,1,1,1,1,1,1,1,1,1,1,1,1,1,1,1,1,1,1,1,1,1,1,1,1,1,1,1,1,1,1,1,1,1329,114,114,1330,1,1,1,1,1,1,1,1,1,1,1,1,1,1,1,1,1,1,1,1,1,1,1,1,1,1,1,1,1,1,1,1,1,1,1,1,1,1,1,1,1,1,1,1,1,1,1,1,1,1,1,1,1,1,1,1,1,1,1,1,1,1,1,1,1,1,1,1,1,1,1,1,1,1,1,1,1,1,1,1,1,1,1,1,1,1,1,1,1,1,1,1,1,1,1,1,1,1,1,1,1,1,1,1,1,1,1,1,1,1,1,1,1,1,1,1,1,1,1,1,1,1,1,1,1,1,1,1,1,1,1,1,1,1,1,1,1,1,1,1,1,1,1,1,1,1,1,1,1,1,1,1,1,1,1,1,1,1,1,1,1,1,1,1,1,1,1,1,1,1,1,1,1,1,1,1,1,1,1,1,1,1,1,1,1,1,1,1,1,1,1,1,1,1,1,1,1,1,1,1,1,1,1,1,1,1,1,1,1,1,1,1,1,1,1,1,1,1,1,1,1,1,1,1,1,1,1,1,1,1,1,1,1,1,1,1,1,1,1,1,1,1,1,1,1,1,1,1,1,1,1,1,1,1,1,1,1,1,1,1,1,1,1,1,1,1,1,1,1,1,1,1,1,1,1,1,1,1,1,1,1,1,1,1,1,1,1,1,1,1,1,1,1,1,1,1,1,1,1,1,1,1,1,1,1,1,1,1,1,1,1,1,1,1,1,1,1,1,1,1,1,1,1,1,1,1,1,1,1,1,1,1,1,1,1,1,1,1,1,1,1,1,1,1,1,1,1,1,1,1,1,1,1,1,1,1,1,1,1,1,1,1,1,1,1,1,1,1,1,1,1,1,1,1,1,1,1,1,1,1,1,1,1,1,1,1,1,1,1,1,1,1,1,1,1,1,1,1,1,1,1,1,1,1,1,1,1,1,1,1,1,1,1,1,1,1,1,1,1,1,1,1,1,1,1,1,1,1,1,1,1,1,1,1,1,1,1,1,1,1,1,1,1,1,1,1,1,1,1,1,1,1,1,1,1,1,1,1,1,1,1,1,1,1,1,1,1,1,1,1,1,1,1,1,1,1,1,1,1,1,1,1,1,1,1,1,1,1,1,1,1,1,1,1,1,1,1,1,1,1,1,1,1,1,1,1,1,1,1,1,1,1,1,1,1,1,1,1,1,1,1,1,1,1,1,1,1,1,1,1,1,1,1,1,1,1,1,1,1,1,1,1,1,1,1,1,1,1,1,1,1,1,1,1,1,1,1,1,1,1,1,1,1,1,1,1,1,1,1,1,1,1,1,1,1,1,1,1,1,1,1,1,1,1,1,1,1,1,1,1,1,1,1,1,1,1,1,1,1,1,1,1,1,1,1,1,1,1,1,1,1,1,1,1,1,1,1,1,1,1,1,1,1,1,1,1,1,1,1,1,1,1,1,1,1,1,1,1,1,1,1,1,1,1,1,1,1,1,1,1,1,1,1,1,1,1,1,1,1,1,1,1,1,1,1,1,1,1,1,1,1,1,1,1,1,1,1,1,1,1,1,1,1,1,1,1,1,1,1,1,1,1,1,1,1,1,1,1,1,1,1,1,1,1,1,1,1,1,1,1,1,1,1,1,1,1,1,1,1,1,1,1,1,1,1,1,1,1,1,1,1,1,1,1,1,1,1,1,1,1,1,1,1,1,1,1,1,1,1,1,1,1,1,1,1,1,1,1,1,1,1,1,1,1,1,1,1,1,1,1,1,1,1,1,1,1,1,1,1,1,1,1,1,1,1,1,1,1,1,1,1,1,1,1,1,1,1,1,1,1,1,1,1,1,1,1,1,1,1,1,1,1,1,1,1,1,1,1,1,1,1,1,1,1,1,1,1,1,1,1,1,1,1,0,0,0,0,0,0,0,0,0,0,58,
1,1,1,1,1,1,1,1,1,1,1,1,1,1,1,1,1,1,1,1,1,1,1,1,1,1,1,1,1,1,1,1,1,1,1,1,1,1,1,1,1,1,1,1,1,1,1,1,1,1,1,1,1,1,1,1,1,1,1,1,1,1,1,1,1,1,1,1,1,1,1,1,1,1,1,1,1,1,1,1,1,1,1,1,1,1,1,1,1,1,1,1,1,1,1,1,1,1,1,1,1,1,1,1,1,1,1,1,1,1,1,1,1,1,1,1,1,1,1,1,1,1,1,1,1,1,1,1,1,1,1,1,1,1,1,1,1,1,1,1,1,1,1,1,1,1,1,1,1,1,1,1,1,1,1,1,1,1,1,1,1,1,1,1,1,1,1,1,1,1,1,1,1,1,1,1,1,1,1,1,1,1,1,1,1,1,1,1,1,1,1,1,1,1,1,1,1,1,1,1,1,1,1,1,1,1,1,1,1,1,1,1,1,1,1,1,1,1,1,1,1,1,1,1,1,1,1,1,1,1,1,1,1,1,1,1,1,1,1,1,1,1,1,1,1,1,1,1,1,1,1,1,1,1,1,1,1,1,1,1,1,1,1,1,1,1,1,1,1,1,1,1,1,1,1,1,1,1,1,1,1,1,1,1,1,1,1,1,1,1,1,1,1,1,1,1,1,1,1,1,1,1,1,1,1,1,1,1,1,1,1,1,1,1,1,1,1,1,1,1,1,1,1,1,1,1,1,1,1,1,1,1,1,1,1,1,1,1,1,1,1,1,1,1,1,1,1,1,1,1,1,1,1,1,1,1,1,1,1,1,1,1,1,1,1,1,1,1,1,1,1,1,1,1,1,1,1,1,1,1,1,1,1,1,1,1,1,1,1,1,1,1,1,1,1,1,1,1,1,1,1,1,1,1,1,1,1,1,1,1,1,1,1,1,1,1,1,1,1,1,1,1,1,1,1,1,1,1,1,1,1,1,1,1,1,1,1,1,1,1,1,1,1,1,1,1,1,1,1,1,1,1,1,1,1,1,1,1,1,1,1,1,1,1,1,1,1,1,1,1,1,1,1,1,1,1,1,1,1,1,1,1,1,1,1,1,1,1,1,1,1,1,1,1,1,1,1,1,1,1,1,1,1,1,1,1,1,1,1,1,1,1,1,1,1,1,1,1,1,1,1,1,1,1,1,1,1,1,1,1,1,1,1,1,1,1,1,1,1,1,1,1,1,1,1,1,1,1,1,1,1,1,1,1,1,1,1,1,1,1,1,1,1,1,1,1,1,1,1,1,1,1,1,1,1,1,1,1,1,1,1,1,1,1,1,1,1,1,1,1,1,1,1,1,1,1,1,1,1,1,1,1,1,1,1,1,1,1,1,1,1,1,1,1,1,1,1,1,1,1,1,1,1,1,1,1,1,1,1,1,1,1,1,1,1,1,1,1,1,1,1,1,1,1,1,1,1,1,1,1,1,1,1,1,1,1,1,1,1,1,1,1,1,1,1,1,1,1,1,1,1,1,1,1,1,1,1,1,1,1,1,1,1,1,1,1,1,1,1,1,1,1,1,1,1,1,1,1,1,1,1,1,1,1,1,1,1,1,1,1,1,1,1,1,1,1,1,1,1,1,1,1,1,1,1,1,1,1,1,1,1,1,1,1,1,1,1,1,1,1,1,1,1,1,1,1,1,1,1,1,1,1,1,1,1,1,1,1,1,1,1,1,1,1,1,1,1,1,1,1,1,1,1,1,1,1,1,1,1,1,1,1,1,1,1,1,1,1,1,1,1,1,1,1,1,1,1,1,1,1,1,1,1,1,1,1,1,1,1,1,1,1,1,1,1,1,1,1,1,1,1,1,1,1,1,1,1,1,1,1,1,1,1,1,1,1,1,1,1,1,1,1,1,1,1,1,1,1,1,1,1,1,1,1,1,1,1,1,1,1,1,1,1,1,1,1,1,1,1,1,1,1,1,1,1,1,1,1,1,1,1,1,1,1,1,1,1,1,1,1,1,1,1,1,1,0,0,0,0,0,0,0,0,0,0,0,0,0,0,0,0,0,0,0,0,0,0,0,0,0,0,0,0,0,933,0,0,0,0,0,0,1,1,1,1,1,1,1,1,1,1,1,1,1,1,1,1,1,1,1,1,1,1,1,1,1,1,1,1,1,1,1,1,1,1,1,1,1,1,1,1,1,1,1,1,1,1,1,1,1,1,1,1,1,1,1,1,1,1,1,1,1,1,1,1,1,1,1,1,1,1,1,1,1,1,1,1,1,1,1,1,1,1,1,1,1,1,1,1,1,1,1,1,1,1,1,1,1,1,1,1,1,1,1,1,1,1,1,1,1,1,1,1,1,1,1,1,1,1,1,1,1,1,1,1,1,1,1,1,1,1,1,1,1,1,1,1,1,1,1,1,1,1,1,1,1,1,1,1,1,1,1,1,1,1,1,1,1,1,1,1329,126,0,0,126,1330,1,1,1,1,1,1,1,1,1,1,1,1,1,1,1,1,1,1,1,1,1,1,1,1,1,1,1,1,1,1,1,1,1,1,1,1,1,1,1,1,1,1,1,1,1,1,1,1,1,1,1,1,1,1,1,1,1,1,1,1,1,1,1,1,1,1,1,1,1,1,1,1,1,1,1,1,1,1,1,1,1,1,1,1,1,1,1,1,1,1,1,1,1,1,1,1,1,1,1,1,1,1,1,1,1,1,1,1,1,1,1,1,1,1,1,1,1,1,1,1,1,1,1,1,1,1,1,1,1,1,1,1,1,1,1,1,1,1,1,1,1,1,1,1,1,1,1,1,1,1,1,1,1,1,1,1,1,1,1,1,1,1,1,1,1,1,1,1,1,1,1,1,1,1,1,1,1,1,1,1,1,1,1,1,1,1,1,1,1,1,1,1,1,1,1,1,1,1,1,1,1,1,1,1,1,1,1,1,1,1,1,1,1,1,1,1,1,1,1,1,1,1,1,1,1,1,1,1,1,1,1,1,1,1,1,1,1,1,1,1,1,1,1,1,1,1,1,1,1,1,1,1,1,1,1,1,1,1,1,1,1,1,1,1,1,1,1,1,1,1,1,1,1,1,1,1,1,1,1,1,1,1,1,1,1,1,1,1,1,1,1,1,1,1,1,1,1,1,1,1,1,1,1,1,1,1,1,1,1,1,1,1,1,1,1,1,1,1,1,1,1,1,1,1,1,1,1,1,1,1,1,1,1,1,1,1,1,1,1,1,1,1,1,1,1,1,1,1,1,1,1,1,1,1,1,1,1,1,1,1,1,1,1,1,1,1,1,1,1,1,1,1,1,1,1,1,1,1,1,1,1,1,1,1,1,1,1,1,1,1,1,1,1,1,1,1,1,1,1,1,1,1,1,1,1,1,1,1,1,1,1,1,1,1,1,1,1,1,1,1,1,1,1,1,1,1,1,1,1,1,1,1,1,1,1,1,1,1,1,1,1,1,1,1,1,1,1,1,1,1,1,1,1,1,1,1,1,1,1,1,1,1,1,1,1,1,1,1,1,1,1,1,1,1,1,1,1,1,1,1,1,1,1,1,1,1,1,1,1,1,1,1,1,1,1,1,1,1,1,1,1,1,1,1,1,1,1,1,1,1,1,1,1,1,1,1,1,1,1,1,1,1,1,1,1,1,1,1,1,1,1,1,1,1,1,1,1,1,1,1,1,1,1,1,1,1,1,1,1,1,1,1,1,1,1,1,1,1,1,1,1,1,1,1,1,1,1,1,1,1,1,1,1,1,1,1,1,1,1,1,1,1,1,1,1,1,1,1,1,1,1,1,1,1,1,1,1,1,1,1,1,1,1,1,1,1,1,1,1,1,1,1,1,1,1,1,1,1,1,1,1,1,1,1,1,1,1,1,1,1,1,1,1,1,1,1,1,1,1,1,1,1,1,1,1,1,1,1,1,1,1,1,1,1,1,1,1,1,1,1,1,1,1,1,1,1,1,1,1,1,1,1,1,1,1,1,1,1,1,1,1,1,1,1,1,1,1,1,1,1,1,1,1,1,1,1,1,1,1,1,1,1,1,1,1,1,1,1,1,1,1,1,1,1,1,1,1,1,1,1,1,1,1,1,1,1,1,1,1,1,1,1,1,1,1,1,1,1,1,1,1,1,1,1,1,1,1,1,1,1,1,1,1,1,1,1,1,1,1,1,1,1,1,1,1,1,1,1,1,1,1,1,1,1,1,1,1,1,1,1,1,1,1,1,1,1,1,1,1,1,1,1,1,1,1,1,1,1,1,1,1,1,1,1,1,1,1,1,1,1,1,1,1,1,1,1,1,1,1,1,1,1,1,1,1,1,1,1,1,1,1,1,0,0,0,0,0,0,0,0,0,0,58,
1,1,1,1,1,1,1,1,1,1,1,1,1,1,1,1,1,1,1,1,1,1,1,1,1,1,1,1,1,1,1,1,1,1,1,1,1,1,1,1,1,1,1,1,1,1,1,1,1,1,1,1,1,1,1,1,1,1,1,1,1,1,1,1,1,1,1,1,1,1,1,1,1,1,1,1,1,1,1,1,1,1,1,1,1,1,1,1,1,1,1,1,1,1,1,1,1,1,1,1,1,1,1,1,1,1,1,1,1,1,1,1,1,1,1,1,1,1,1,1,1,1,1,1,1,1,1,1,1,1,1,1,1,1,1,1,1,1,1,1,1,1,1,1,1,1,1,1,1,1,1,1,1,1,1,1,1,1,1,1,1,1,1,1,1,1,1,1,1,1,1,1,1,1,1,1,1,1,1,1,1,1,1,1,1,1,1,1,1,1,1,1,1,1,1,1,1,1,1,1,1,1,1,1,1,1,1,1,1,1,1,1,1,1,1,1,1,1,1,1,1,1,1,1,1,1,1,1,1,1,1,1,1,1,1,1,1,1,1,1,1,1,1,1,1,1,1,1,1,1,1,1,1,1,1,1,1,1,1,1,1,1,1,1,1,1,1,1,1,1,1,1,1,1,1,1,1,1,1,1,1,1,1,1,1,1,1,1,1,1,1,1,1,1,1,1,1,1,1,1,1,1,1,1,1,1,1,1,1,1,1,1,1,1,1,1,1,1,1,1,1,1,1,1,1,1,1,1,1,1,1,1,1,1,1,1,1,1,1,1,1,1,1,1,1,1,1,1,1,1,1,1,1,1,1,1,1,1,1,1,1,1,1,1,1,1,1,1,1,1,1,1,1,1,1,1,1,1,1,1,1,1,1,1,1,1,1,1,1,1,1,1,1,1,1,1,1,1,1,1,1,1,1,1,1,1,1,1,1,1,1,1,1,1,1,1,1,1,1,1,1,1,1,1,1,1,1,1,1,1,1,1,1,1,1,1,1,1,1,1,1,1,1,1,1,1,1,1,1,1,1,1,1,1,1,1,1,1,1,1,1,1,1,1,1,1,1,1,1,1,1,1,1,1,1,1,1,1,1,1,1,1,1,1,1,1,1,1,1,1,1,1,1,1,1,1,1,1,1,1,1,1,1,1,1,1,1,1,1,1,1,1,1,1,1,1,1,1,1,1,1,1,1,1,1,1,1,1,1,1,1,1,1,1,1,1,1,1,1,1,1,1,1,1,1,1,1,1,1,1,1,1,1,1,1,1,1,1,1,1,1,1,1,1,1,1,1,1,1,1,1,1,1,1,1,1,1,1,1,1,1,1,1,1,1,1,1,1,1,1,1,1,1,1,1,1,1,1,1,1,1,1,1,1,1,1,1,1,1,1,1,1,1,1,1,1,1,1,1,1,1,1,1,1,1,1,1,1,1,1,1,1,1,1,1,1,1,1,1,1,1,1,1,1,1,1,1,1,1,1,1,1,1,1,1,1,1,1,1,1,1,1,1,1,1,1,1,1,1,1,1,1,1,1,1,1,1,1,1,1,1,1,1,1,1,1,1,1,1,1,1,1,1,1,1,1,1,1,1,1,1,1,1,1,1,1,1,1,1,1,1,1,1,1,1,1,1,1,1,1,1,1,1,1,1,1,1,1,1,1,1,1,1,1,1,1,1,1,1,1,1,1,1,1,1,1,1,1,1,1,1,1,1,1,1,1,1,1,1,1,1,1,1,1,1,1,1,1,1,1,1,1,1,1,1,1,1,1,1,1,1,1,1,1,1,1,1,1,1,1,1,1,1,1,1,1,1,1,1,1,1,1,1,1,1,1,1,1,1,1,1,1,1,1,1,1,1,1,1,1,1,1,1,1,1,1,1,1,1,1,1,1,1,1,1,1,1,1,1,1,1,1,1,1,1,1,1,1,1,1,1,1,1,1,1,1,1,1,1,1,1,1,1,1,1,1,1,1,1,1,1,1,1,1,1,1,1,1,1,1,1,1,1,1,1,1,1,1,1,1,1,1,1,1,1,0,0,0,0,0,0,0,0,0,0,0,0,0,0,0,0,0,0,0,0,0,0,0,0,0,0,0,3478,3474,3481,0,0,0,0,0,0,1,1,1,1,1,1,1,1,1,1,1,1,1,1,1,1,1,1,1,1,1,1,1,1,1,1,1,1,1,1,1,1,1,1,1,1,1,1,1,1,1,1,1,1,1,1,1,1,1,1,1,1,1,1,1,1,1,1,1,1,1,1,1,1,1,1,1,1,1,1,1,1,1,1,1,1,1,1,1,1,1,1,1,1,1,1,1,1,1,1,1,1,1,1,1,1,1,1,1,1,1,1,1,1,1,1,1,1,1,1,1,1,1,1,1,1,1,1,1,1,1,1,1,1,1,1,1,1,1,1,1,1,1,1,1,1,1,1,1,1,1,1,1,1,1,1,1,1,1,1,1,1,1,1,1,1,1,1,1,1331,126,0,0,126,1332,1,1,1,1,1,1,1,1,1,1,1,1,1,1,1,1,1,1,1,1,1,1,1,1,1,1,1,1,1,1,1,1,1,1,1,1,1,1,1,1,1,1,1,1,1,1,1,1,1,1,1,1,1,1,1,1,1,1,1,1,1,1,1,1,1,1,1,1,1,1,1,1,1,1,1,1,1,1,1,1,1,1,1,1,1,1,1,1,1,1,1,1,1,1,1,1,1,1,1,1,1,1,1,1,1,1,1,1,1,1,1,1,1,1,1,1,1,1,1,1,1,1,1,1,1,1,1,1,1,1,1,1,1,1,1,1,1,1,1,1,1,1,1,1,1,1,1,1,1,1,1,1,1,1,1,1,1,1,1,1,1,1,1,1,1,1,1,1,1,1,1,1,1,1,1,1,1,1,1,1,1,1,1,1,1,1,1,1,1,1,1,1,1,1,1,1,1,1,1,1,1,1,1,1,1,1,1,1,1,1,1,1,1,1,1,1,1,1,1,1,1,1,1,1,1,1,1,1,1,1,1,1,1,1,1,1,1,1,1,1,1,1,1,1,1,1,1,1,1,1,1,1,1,1,1,1,1,1,1,1,1,1,1,1,1,1,1,1,1,1,1,1,1,1,1,1,1,1,1,1,1,1,1,1,1,1,1,1,1,1,1,1,1,1,1,1,1,1,1,1,1,1,1,1,1,1,1,1,1,1,1,1,1,1,1,1,1,1,1,1,1,1,1,1,1,1,1,1,1,1,1,1,1,1,1,1,1,1,1,1,1,1,1,1,1,1,1,1,1,1,1,1,1,1,1,1,1,1,1,1,1,1,1,1,1,1,1,1,1,1,1,1,1,1,1,1,1,1,1,1,1,1,1,1,1,1,1,1,1,1,1,1,1,1,1,1,1,1,1,1,1,1,1,1,1,1,1,1,1,1,1,1,1,1,1,1,1,1,1,1,1,1,1,1,1,1,1,1,1,1,1,1,1,1,1,1,1,1,1,1,1,1,1,1,1,1,1,1,1,1,1,1,1,1,1,1,1,1,1,1,1,1,1,1,1,1,1,1,1,1,1,1,1,1,1,1,1,1,1,1,1,1,1,1,1,1,1,1,1,1,1,1,1,1,1,1,1,1,1,1,1,1,1,1,1,1,1,1,1,1,1,1,1,1,1,1,1,1,1,1,1,1,1,1,1,1,1,1,1,1,1,1,1,1,1,1,1,1,1,1,1,1,1,1,1,1,1,1,1,1,1,1,1,1,1,1,1,1,1,1,1,1,1,1,1,1,1,1,1,1,1,1,1,1,1,1,1,1,1,1,1,1,1,1,1,1,1,1,1,1,1,1,1,1,1,1,1,1,1,1,1,1,1,1,1,1,1,1,1,1,1,1,1,1,1,1,1,1,1,1,1,1,1,1,1,1,1,1,1,1,1,1,1,1,1,1,1,1,1,1,1,1,1,1,1,1,1,1,1,1,1,1,1,1,1,1,1,1,1,1,1,1,1,1,1,1,1,1,1,1,1,1,1,1,1,1,1,1,1,1,1,1,1,1,1,1,1,1,1,1,1,1,1,1,1,1,1,1,1,1,1,1,1,1,1,1,1,1,1,1,1,1,1,1,1,1,1,1,1,1,1,1,1,1,1,1,1,1,1,1,1,1,1,1,1,1,1,1,1,1,1,1,1,1,1,1,1,1,1,1,1,1,1,1,1,1,1,1,1,1,1,1,1,1,1,1,1,1,1,1,1,1,1,1,1,1,1,1,1,1,1,1,1,1,1,1,1,1,1,1,1,1,1,1,1,1,1,1,1,1,1,1,1,1,1,1,1,1,1,1,1,1,1,1,1,1,1,1,1,1,1,1,1,1,1,1,1,1,1,1,1,1,0,0,0,0,0,0,0,0,0,0,58,
1,1,1,1,1,1,1,1,1,1,1,1,1,1,1,1,1,1,1,1,1,1,1,1,1,1,1,1,1,1,1,1,1,1,1,1,1,1,1,1,1,1,1,1,1,1,1,1,1,1,1,1,1,1,1,1,1,1,1,1,1,1,1,1,1,1,1,1,1,1,1,1,1,1,1,1,1,1,1,1,1,1,1,1,1,1,1,1,1,1,1,1,1,1,1,1,1,1,1,1,1,1,1,1,1,1,1,1,1,1,1,1,1,1,1,1,1,1,1,1,1,1,1,1,1,1,1,1,1,1,1,1,1,1,1,1,1,1,1,1,1,1,1,1,1,1,1,1,1,1,1,1,1,1,1,1,1,1,1,1,1,1,1,1,1,1,1,1,1,1,1,1,1,1,1,1,1,1,1,1,1,1,1,1,1,1,1,1,1,1,1,1,1,1,1,1,1,1,1,1,1,1,1,1,1,1,1,1,1,1,1,1,1,1,1,1,1,1,1,1,1,1,1,1,1,1,1,1,1,1,1,1,1,1,1,1,1,1,1,1,1,1,1,1,1,1,1,1,1,1,1,1,1,1,1,1,1,1,1,1,1,1,1,1,1,1,1,1,1,1,1,1,1,1,1,1,1,1,1,1,1,1,1,1,1,1,1,1,1,1,1,1,1,1,1,1,1,1,1,1,1,1,1,1,1,1,1,1,1,1,1,1,1,1,1,1,1,1,1,1,1,1,1,1,1,1,1,1,1,1,1,1,1,1,1,1,1,1,1,1,1,1,1,1,1,1,1,1,1,1,1,1,1,1,1,1,1,1,1,1,1,1,1,1,1,1,1,1,1,1,1,1,1,1,1,1,1,1,1,1,1,1,1,1,1,1,1,1,1,1,1,1,1,1,1,1,1,1,1,1,1,1,1,1,1,1,1,1,1,1,1,1,1,1,1,1,1,1,1,1,1,1,1,1,1,1,1,1,1,1,1,1,1,1,1,1,1,1,1,1,1,1,1,1,1,1,1,1,1,1,1,1,1,1,1,1,1,1,1,1,1,1,1,1,1,1,1,1,1,1,1,1,1,1,1,1,1,1,1,1,1,1,1,1,1,1,1,1,1,1,1,1,1,1,1,1,1,1,1,1,1,1,1,1,1,1,1,1,1,1,1,1,1,1,1,1,1,1,1,1,1,1,1,1,1,1,1,1,1,1,1,1,1,1,1,1,1,1,1,1,1,1,1,1,1,1,1,1,1,1,1,1,1,1,1,1,1,1,1,1,1,1,1,1,1,1,1,1,1,1,1,1,1,1,1,1,1,1,1,1,1,1,1,1,1,1,1,1,1,1,1,1,1,1,1,1,1,1,1,1,1,1,1,1,1,1,1,1,1,1,1,1,1,1,1,1,1,1,1,1,1,1,1,1,1,1,1,1,1,1,1,1,1,1,1,1,1,1,1,1,1,1,1,1,1,1,1,1,1,1,1,1,1,1,1,1,1,1,1,1,1,1,1,1,1,1,1,1,1,1,1,1,1,1,1,1,1,1,1,1,1,1,1,1,1,1,1,1,1,1,1,1,1,1,1,1,1,1,1,1,1,1,1,1,1,1,1,1,1,1,1,1,1,1,1,1,1,1,1,1,1,1,1,1,1,1,1,1,1,1,1,1,1,1,1,1,1,1,1,1,1,1,1,1,1,1,1,1,1,1,1,1,1,1,1,1,1,1,1,1,1,1,1,1,1,1,1,1,1,1,1,1,1,1,1,1,1,1,1,1,1,1,1,1,1,1,1,1,1,1,1,1,1,1,1,1,1,1,1,1,1,1,1,1,1,1,1,1,1,1,1,1,1,1,1,1,1,1,1,1,1,1,1,1,1,1,1,1,1,1,1,1,1,1,1,1,1,1,1,1,1,1,1,1,1,1,1,1,1,1,1,1,1,1,1,1,1,1,1,1,1,1,1,1,1,1,1,1,1,1,1,1,1,1,1,1,1,1,1,1,1,1,1,1,1,1,1,1,1,1,1,1,1,1,1,0,0,0,0,0,0,0,0,0,0,0,0,0,0,0,0,0,0,0,0,0,0,0,0,0,0,0,3475,0,3477,0,0,0,0,0,0,1,1,1,1,1,1,1,1,1,1,1,1,1,1,1,1,1,1,1,1,1,1,1,1,1,1,1,1,1,1,1,1,1,1,1,1,1,1,1,1,1,1,1,1,1,1,1,1,1,1,1,1,1,1,1,1,1,1,1,1,1,1,1,1,1,1,1,1,1,1,1,1,1,1,1,1,1,1,1,1,1,1,1,1,1,1,1,1,1,1,1,1,1,1,1,1,1,1,1,1,1,1,1,1,1,1,1,1,1,1,1,1,1,1,1,1,1,1,1,1,1,1,1,1,1,1,1,1,1,1,1,1,1,1,1,1,1,1,1,1,1,1,1,1,1,1,1,1,1,1,1,1,1,1,1,1,1,1,1,1,1331,115,115,1332,1,1,1,1,1,1,1,1,1,1,1,1,1,1,1,1,1,1,1,1,1,1,1,1,1,1,1,1,1,1,1,1,1,1,1,1,1,1,1,1,1,1,1,1,1,1,1,1,1,1,1,1,1,1,1,1,1,1,1,1,1,1,1,1,1,1,1,1,1,1,1,1,1,1,1,1,1,1,1,1,1,1,1,1,1,1,1,1,1,1,1,1,1,1,1,1,1,1,1,1,1,1,1,1,1,1,1,1,1,1,1,1,1,1,1,1,1,1,1,1,1,1,1,1,1,1,1,1,1,1,1,1,1,1,1,1,1,1,1,1,1,1,1,1,1,1,1,1,1,1,1,1,1,1,1,1,1,1,1,1,1,1,1,1,1,1,1,1,1,1,1,1,1,1,1,1,1,1,1,1,1,1,1,1,1,1,1,1,1,1,1,1,1,1,1,1,1,1,1,1,1,1,1,1,1,1,1,1,1,1,1,1,1,1,1,1,1,1,1,1,1,1,1,1,1,1,1,1,1,1,1,1,1,1,1,1,1,1,1,1,1,1,1,1,1,1,1,1,1,1,1,1,1,1,1,1,1,1,1,1,1,1,1,1,1,1,1,1,1,1,1,1,1,1,1,1,1,1,1,1,1,1,1,1,1,1,1,1,1,1,1,1,1,1,1,1,1,1,1,1,1,1,1,1,1,1,1,1,1,1,1,1,1,1,1,1,1,1,1,1,1,1,1,1,1,1,1,1,1,1,1,1,1,1,1,1,1,1,1,1,1,1,1,1,1,1,1,1,1,1,1,1,1,1,1,1,1,1,1,1,1,1,1,1,1,1,1,1,1,1,1,1,1,1,1,1,1,1,1,1,1,1,1,1,1,1,1,1,1,1,1,1,1,1,1,1,1,1,1,1,1,1,1,1,1,1,1,1,1,1,1,1,1,1,1,1,1,1,1,1,1,1,1,1,1,1,1,1,1,1,1,1,1,1,1,1,1,1,1,1,1,1,1,1,1,1,1,1,1,1,1,1,1,1,1,1,1,1,1,1,1,1,1,1,1,1,1,1,1,1,1,1,1,1,1,1,1,1,1,1,1,1,1,1,1,1,1,1,1,1,1,1,1,1,1,1,1,1,1,1,1,1,1,1,1,1,1,1,1,1,1,1,1,1,1,1,1,1,1,1,1,1,1,1,1,1,1,1,1,1,1,1,1,1,1,1,1,1,1,1,1,1,1,1,1,1,1,1,1,1,1,1,1,1,1,1,1,1,1,1,1,1,1,1,1,1,1,1,1,1,1,1,1,1,1,1,1,1,1,1,1,1,1,1,1,1,1,1,1,1,1,1,1,1,1,1,1,1,1,1,1,1,1,1,1,1,1,1,1,1,1,1,1,1,1,1,1,1,1,1,1,1,1,1,1,1,1,1,1,1,1,1,1,1,1,1,1,1,1,1,1,1,1,1,1,1,1,1,1,1,1,1,1,1,1,1,1,1,1,1,1,1,1,1,1,1,1,1,1,1,1,1,1,1,1,1,1,1,1,1,1,1,1,1,1,1,1,1,1,1,1,1,1,1,1,1,1,1,1,1,1,1,1,1,1,1,1,1,1,1,1,1,1,1,1,1,1,1,1,1,1,1,1,1,1,1,1,1,1,1,1,1,1,1,1,1,1,1,1,1,1,1,1,1,1,1,1,1,1,1,1,1,1,1,1,1,1,1,1,1,1,1,1,1,1,1,1,1,1,1,1,1,1,1,1,1,1,1,1,1,1,1,1,1,1,1,1,1,1,1,1,1,1,1,1,1,1,1,1,1,1,1,1,1,1,1,1,1,1,1,1,1,1,1,1,1,1,1,1,1,1,1,1,1,1,1,1,1,1,1,1,1,1,0,0,0,0,0,0,0,0,0,0,58,
1,1,1,1,1,1,1,1,1,1,1,1,1,1,1,1,1,1,1,1,1,1,1,1,1,1,1,1,1,1,1,1,1,1,1,1,1,1,1,1,1,1,1,1,1,1,1,1,1,1,1,1,1,1,1,1,1,1,1,1,1,1,1,1,1,1,1,1,1,1,1,1,1,1,1,1,1,1,1,1,1,1,1,1,1,1,1,1,1,1,1,1,1,1,1,1,1,1,1,1,1,1,1,1,1,1,1,1,1,1,1,1,1,1,1,1,1,1,1,1,1,1,1,1,1,1,1,1,1,1,1,1,1,1,1,1,1,1,1,1,1,1,1,1,1,1,1,1,1,1,1,1,1,1,1,1,1,1,1,1,1,1,1,1,1,1,1,1,1,1,1,1,1,1,1,1,1,1,1,1,1,1,1,1,1,1,1,1,1,1,1,1,1,1,1,1,1,1,1,1,1,1,1,1,1,1,1,1,1,1,1,1,1,1,1,1,1,1,1,1,1,1,1,1,1,1,1,1,1,1,1,1,1,1,1,1,1,1,1,1,1,1,1,1,1,1,1,1,1,1,1,1,1,1,1,1,1,1,1,1,1,1,1,1,1,1,1,1,1,1,1,1,1,1,1,1,1,1,1,1,1,1,1,1,1,1,1,1,1,1,1,1,1,1,1,1,1,1,1,1,1,1,1,1,1,1,1,1,1,1,1,1,1,1,1,1,1,1,1,1,1,1,1,1,1,1,1,1,1,1,1,1,1,1,1,1,1,1,1,1,1,1,1,1,1,1,1,1,1,1,1,1,1,1,1,1,1,1,1,1,1,1,1,1,1,1,1,1,1,1,1,1,1,1,1,1,1,1,1,1,1,1,1,1,1,1,1,1,1,1,1,1,1,1,1,1,1,1,1,1,1,1,1,1,1,1,1,1,1,1,1,1,1,1,1,1,1,1,1,1,1,1,1,1,1,1,1,1,1,1,1,1,1,1,1,1,1,1,1,1,1,1,1,1,1,1,1,1,1,1,1,1,1,1,1,1,1,1,1,1,1,1,1,1,1,1,1,1,1,1,1,1,1,1,1,1,1,1,1,1,1,1,1,1,1,1,1,1,1,1,1,1,1,1,1,1,1,1,1,1,1,1,1,1,1,1,1,1,1,1,1,1,1,1,1,1,1,1,1,1,1,1,1,1,1,1,1,1,1,1,1,1,1,1,1,1,1,1,1,1,1,1,1,1,1,1,1,1,1,1,1,1,1,1,1,1,1,1,1,1,1,1,1,1,1,1,1,1,1,1,1,1,1,1,1,1,1,1,1,1,1,1,1,1,1,1,1,1,1,1,1,1,1,1,1,1,1,1,1,1,1,1,1,1,1,1,1,1,1,1,1,1,1,1,1,1,1,1,1,1,1,1,1,1,1,1,1,1,1,1,1,1,1,1,1,1,1,1,1,1,1,1,1,1,1,1,1,1,1,1,1,1,1,1,1,1,1,1,1,1,1,1,1,1,1,1,1,1,1,1,1,1,1,1,1,1,1,1,1,1,1,1,1,1,1,1,1,1,1,1,1,1,1,1,1,1,1,1,1,1,1,1,1,1,1,1,1,1,1,1,1,1,1,1,1,1,1,1,1,1,1,1,1,1,1,1,1,1,1,1,1,1,1,1,1,1,1,1,1,1,1,1,1,1,1,1,1,1,1,1,1,1,1,1,1,1,1,1,1,1,1,1,1,1,1,1,1,1,1,1,1,1,1,1,1,1,1,1,1,1,1,1,1,1,1,1,1,1,1,1,1,1,1,1,1,1,1,1,1,1,1,1,1,1,1,1,1,1,1,1,1,1,1,1,1,1,1,1,1,1,1,1,1,1,1,1,1,1,1,1,1,1,1,1,1,1,1,1,1,1,1,1,1,1,1,1,1,1,1,1,1,1,1,1,1,1,1,1,1,1,1,1,1,1,1,1,1,1,1,1,1,1,1,1,1,1,1,1,1,1,1,1,1,1,1,1,1,1,1,1,1,1,1,1,1,0,0,0,0,0,0,0,0,0,0,0,0,0,0,0,0,0,0,0,0,0,0,0,0,0,0,0,3475,0,3477,0,0,0,0,0,0,1,1,1,1,1,1,1,1,1,1,1,1,1,1,1,1,1,1,1,1,1,1,1,1,1,1,1,1,1,1,1,1,1,1,1,1,1,1,1,1,1,1,1,1,1,1,1,1,1,1,1,1,1,1,1,1,1,1,1,1,1,1,1,1,1,1,1,1,1,1,1,1,1,1,1,1,1,1,1,1,1,1,1,1,1,1,1,1,1,1,1,1,1,1,1,1,1,1,1,1,1,1,1,1,1,1,1,1,1,1,1,1,1,1,1,1,1,1,1,1,1,1,1,1,1,1,1,1,1,1,1,1432,1429,1430,1431,1432,1429,1430,1431,1432,1429,1430,1431,1432,1429,1430,1431,1432,1429,1430,1431,1432,1429,1430,1431,1432,1429,1430,1431,1432,1429,1430,1431,1432,1429,1430,1431,1432,1429,1430,1431,1432,1429,1430,1431,1432,1429,1430,1431,1432,1429,1430,1431,1432,1429,1430,1431,1432,1429,1430,1431,1432,1429,1430,1431,1432,1429,1430,1431,1432,1429,1430,1431,1432,1429,1430,1431,1432,1,1,1,1,1,1,1,1,1,1,1,1,1,1,1,1,1,1,1,1,1,1,1,1,1,1,1,1,1,1,1,1,1,1,1,1,1,1,1,1,1,1,1,1,1,1,1,1,1,1,1,1,1,1,1,1,1,1,1,1,1,1,1,1,1,1,1,1,1,1,1,1,1,1,1,1,1,1,1,1,1,1,1,1,1,1,1,1,1,1,1,1,1,1,1,1,1,1,1,1,1,1,1,1,1,1,1,1,1,1,1,1,1,1,1,1,1,1,1,1,1,1,1,1,1,1,1,1,1,1,1,1,1,1,1,1,1,1,1,1,1,1,1,1,1,1,1,1,1,1,1,1,1,1,1,1,1,1,1,1,1,1,1,1,1,1,1,1,1,1,1,1,1,1,1,1,1,1,1,1,1,1,1,1,1,1,1,1,1,1,1,1,1,1,1,1,1,1,1,1,1,1,1,1,1,1,1,1,1,1,1,1,1,1,1,1,1,1,1,1,1,1,1,1,1,1,1,1,1,1,1,1,1,1,1,1,1,1,1,1,1,1,1,1,1,1,1,1,1,1,1,1,1,1,1,1,1,1,1,1,1,1,1,1,1,1,1,1,1,1,1,1,1,1,1,1,1,1,1,1,1,1,1,1,1,1,1,1,1,1,1,1,1,1,1,1,1,1,1,1,1,1,1,1,1,1,1,1,1,1,1,1,1,1,1,1,1,1,1,1,1,1,1,1,1,1,1,1,1,1,1,1,1,1,1,1,1,1,1,1,1,1,1,1,1,1,1,1,1,1,1,1,1,1,1,1,1,1,1,1,1,1,1,1,1,1,1,1,1,1,1,1,1,1,1,1,1,1,1,1,1,1,1,1,1,1,1,1,1,1,1,1,1,1,1,1,1,1,1,1,1,1,1,1,1,1,1,1,1,1,1,1,1,1,1,1,1,1,1,1,1,1,1,1,1,1,1,1,1,1,1,1,1,1,1,1,1,1,1,1,1,1,1,1,1,1,1,1,1,1,1,1,1,1,1,1,1,1,1,1,1,1,1,1,1,1,1,1,1,1,1,1,1,1,1,1,1,1,1,1,1,1,1,1,1,1,1,1,1,1,1,1,1,1,1,1,1,1,1,1,1,1,1,1,1,1,1,1,1,1,1,1,1,1,1,1,1,1,1,1,1,1,1,1,1,1,1,1,1,1,1,1,1,1,1,1,1,1,1,1,1,1,1,1,1,1,1,1,1,1,1,1,1,1,1,1,1,1,1,1,1,1,1,1,1,1,1,1,1,1,1,1,1,1,1,1,1,1,1,1,1,1,1,1,1,1,1,1,1,1,1,1,1,1,1,1,1,1,1,1,1,1,1,1,1,1,1,1,1,1,1,1,1,1,1,1,1,1,1,1,1,1,1,1,1,1,1,1,1,1,1,1,1,1,1,1,1,1,1,1,1,1,1,1,1,1,1,1,1,1,1,1,1,1,1,1,1,1,1,1,1,1,1,1,1,1,1,1,1,1,1,1,1,1,1,1,1,1,1,1,1,1,1,1,1,1,1,1,1,1,1,1,1,1,1,1,1,1,1,1,1,1,1,1,1,1,1,1,1,1,1,1,1,1,1,1,1,1,1,1,1,1,1,1,1,1,1,1,1,1,1,1,1,1,1,1,1,1,1,1,1,1,1,1,1,1,1,1,1,1,1,1,1,1,1,1,1,1,1,1,1,1,1,1,1,1,1,1,1,1,1,1,1,1,1,1,1,1,1,1,1,1,1,1,1,1,1,1,1,0,0,0,0,0,0,0,0,0,0,58,
1,1,1,1,1,1,1,1,1,1,1,1,1,1,1,1,1,1,1,1,1,1,1,1,1,1,1,1,1,1,1,1,1,1,1,1,1,1,1,1,1,1,1,1,1,1,1,1,1,1,1,1,1,1,1,1,1,1,1,1,1,1,1,1,1,1,1,1,1,1,1,1,1,1,1,1,1,1,1,1,1,1,1,1,1,1,1,1,1,1,1,1,1,1,1,1,1,1,1,1,1,1,1,1,1,1,1,1,1,1,1,1,1,1,1,1,1,1,1,1,1,1,1,1,1,1,1,1,1,1,1,1,1,1,1,1,1,1,1,1,1,1,1,1,1,1,1,1,1,1,1,1,1,1,1,1,1,1,1,1,1,1,1,1,1,1,1,1,1,1,1,1,1,1,1,1,1,1,1,1,1,1,1,1,1,1,1,1,1,1,1,1,1,1,1,1,1,1,1,1,1,1,1,1,1,1,1,1,1,1,1,1,1,1,1,1,1,1,1,1,1,1,1,1,1,1,1,1,1,1,1,1,1,1,1,1,1,1,1,1,1,1,1,1,1,1,1,1,1,1,1,1,1,1,1,1,1,1,1,1,1,1,1,1,1,1,1,1,1,1,1,1,1,1,1,1,1,1,1,1,1,1,1,1,1,1,1,1,1,1,1,1,1,1,1,1,1,1,1,1,1,1,1,1,1,1,1,1,1,1,1,1,1,1,1,1,1,1,1,1,1,1,1,1,1,1,1,1,1,1,1,1,1,1,1,1,1,1,1,1,1,1,1,1,1,1,1,1,1,1,1,1,1,1,1,1,1,1,1,1,1,1,1,1,1,1,1,1,1,1,1,1,1,1,1,1,1,1,1,1,1,1,1,1,1,1,1,1,1,1,1,1,1,1,1,1,1,1,1,1,1,1,1,1,1,1,1,1,1,1,1,1,1,1,1,1,1,1,1,1,1,1,1,1,1,1,1,1,1,1,1,1,1,1,1,1,1,1,1,1,1,1,1,1,1,1,1,1,1,1,1,1,1,1,1,1,1,1,1,1,1,1,1,1,1,1,1,1,1,1,1,1,1,1,1,1,1,1,1,1,1,1,1,1,1,1,1,1,1,1,1,1,1,1,1,1,1,1,1,1,1,1,1,1,1,1,1,1,1,1,1,1,1,1,1,1,1,1,1,1,1,1,1,1,1,1,1,1,1,1,1,1,1,1,1,1,1,1,1,1,1,1,1,1,1,1,1,1,1,1,1,1,1,1,1,1,1,1,1,1,1,1,1,1,1,1,1,1,1,1,1,1,1,1,1,1,1,1,1,1,1,1,1,1,1,1,1,1,1,1,1,1,1,1,1,1,1,1,1,1,1,1,1,1,1,1,1,1,1,1,1,1,1,1,1,1,1,1,1,1,1,1,1,1,1,1,1,1,1,1,1,1,1,1,1,1,1,1,1,1,1,1,1,1,1,1,1,1,1,1,1,1,1,1,1,1,1,1,1,1,1,1,1,1,1,1,1,1,1,1,1,1,1,1,1,1,1,1,1,1,1,1,1,1,1,1,1,1,1,1,1,1,1,1,1,1,1,1,1,1,1,1,1,1,1,1,1,1,1,1,1,1,1,1,1,1,1,1,1,1,1,1,1,1,1,1,1,1,1,1,1,1,1,1,1,1,1,1,1,1,1,1,1,1,1,1,1,1,1,1,1,1,1,1,1,1,1,1,1,1,1,1,1,1,1,1,1,1,1,1,1,1,1,1,1,1,1,1,1,1,1,1,1,1,1,1,1,1,1,1,1,1,1,1,1,1,1,1,1,1,1,1,1,1,1,1,1,1,1,1,1,1,1,1,1,1,1,1,1,1,1,1,1,1,1,1,1,1,1,1,1,1,1,1,1,1,1,1,1,1,1,1,1,1,1,1,1,1,1,1,1,1,1,1,1,1,1,1,1,1,1,1,1,1,1,1,1,1,1,1,1,1,1,1,1,1,1,1,1,1,1,1,1,1,1,1,1,1,1,1,1,1,1,1,1,0,0,0,0,0,0,0,0,0,0,0,0,0,0,0,0,0,0,0,0,0,0,0,0,0,0,0,3475,0,3477,0,0,0,0,0,0,3475,1430,1431,1432,1429,1430,1431,1432,1429,1430,1431,1432,1429,1430,1431,1432,1429,1430,1431,1432,1429,1430,1431,1432,1429,1430,1431,1432,1429,1430,1431,1432,1429,1430,1431,1432,1429,1430,1431,1432,1429,1430,1431,1432,1429,1430,1431,1432,1429,1430,1431,1432,1429,1430,1431,1432,1429,1430,1431,1432,1429,1430,1431,1432,1429,1430,1431,1432,1429,1430,1431,1432,1429,1429,1430,1431,1432,1429,1430,1431,1432,1429,1430,1431,1432,1429,1430,1431,1432,1429,1430,1431,1429,1430,1431,1432,1429,1430,1431,1432,1429,1430,1431,1432,1429,1430,1431,1432,1429,1430,1431,1432,1429,1430,1431,1432,1429,1430,1431,1432,1429,1430,1431,1432,1429,1430,1431,1432,1429,1430,1431,1448,1445,1446,1447,1448,1445,1446,1447,1448,1445,1446,1447,1448,1445,1446,1447,1448,1445,1446,1447,1448,1445,1446,1447,1448,1445,1446,1447,1448,1445,1446,1447,1448,1445,1446,1447,1448,1445,1446,1447,1448,1445,1446,1447,1448,1445,1446,1447,1448,1445,1446,1447,1448,1445,1446,1447,1448,1445,1446,1447,1448,1445,1446,1447,1448,1445,1446,1447,1448,1445,1446,1447,1448,1445,1446,1447,1448,1429,1430,1431,1432,1429,1430,1431,1432,1429,1430,1431,1432,1429,1430,1431,1432,1429,1430,1431,1432,1429,1430,1431,1432,1429,1430,1431,1432,1429,1430,1431,1432,1429,1430,1431,1432,1429,1430,1431,1432,1429,1430,1431,1432,1429,1430,1431,1432,1429,1430,1431,1432,1429,1430,1431,1432,1429,1430,1431,1432,1429,1430,1431,1432,1,1,1,1,1,1,1,1,1,1,1,1,1,1,1,1,1,1,1,1,1,1,1,1,1,1,1,1,1,1,1,1,1,1,1,1,1,1,1,1,1,1,1,1,1,1,1,1,1,1,1,1,1,1,1,1,1,1,1,1,1,1,1,1,1,1,1,1,1,1,1,1,1,1,1,1,1,1,1,1,1,1,1,1,1,1,1,1,1,1,1,1,1,1,1,1,1,1,1,1,1,1,1,1,1,1,1,1,1,1,1,1,1,1,1,1,1,1,1,1,1,1,1,1,1,1,1,1,1,1,1,1,1,1,1,1,1,1,1,1,131,3464,1,1,1,1,1,1,1,1,1,1,1,1,1,1,1,1,1,1,1,1,1,1,1,1,1,1,1,1,1,1,1,1,1,1,1,1,1,1,1,1,1,1,1,1,1,1,1,1,1,1,1,1,1,1,1,1,1,1,1,1,1,1,1,1,1,1,1,1,1,1,1,1,1,1,1,1,1,1,1,1,1,1,1,1,1,1,1,1,1,1,1,1,1,1,1,1,1,1,1,1,1,1,1,1,1,1,1,1,1,1,1,1,1,1,1,1,1,1,1,1,1,1,1,1,1,1,1,1,1,1,1,1,1,1,1,1,1,1,1,1,1,1,1,1,1,1,1,1,1,1,1,1,1,1,1,1,1,1,1,1,1,1,1,1,1,1,1,1,1,1,1,1,1,1,1,1,1,1,1,1,1,1,1,1,1,1,1,1,1,1,1,1,1,1,1,1,1,1,1,1,1,1,1,1,1,1,1,1,1,1,1,1,1,1,1,1,1,1,1,1,1,1,1,1,1,1,1,1,1,1,1,1,1,1,1,1,1,1,1,1,1,1,1,1,1,1,1,1,1,1,1,1,1,1,1,1,1,1,1,1,1,1,1,1,1,1,1,1,1,1,1,1,1,1,1,1,1,1,1,1,1,1,1,1,1,1,1,1,1,1,1,1,1,1,1,1,1,1,1,1,1,1,1,1,1,1,1,1,1,1,1,1,1,1,1,1,1,1,1,1,1,1,1,1,1,1,1,1,1,1,1,1,1,1,1,1,1,1,1,1,1,1,1,1,1,1,1,1,1,1,1,1,1,1,1,1,1,1,1,1,1,1,1,1,1,1,1,1,1,1,1,1,1,1,1,1,1,1,1,1,1,1,1,1,1,1,1,1,1,1,1,1,1,1,1,1,1,1,1,1,1,1,1,1,1,1,1,1,1,1,1,1,1,1,1,1,1,1,1,1,1,1,1,1,1,1,1,1,1,1,1,1,1,1,1,1,1,1,1,1,1,1,1,1,1,1,1,0,0,0,0,0,0,1,1,1,1,1,1,1,1,1,1,1,1,1,1,1,1,1,1,1,1,1,1,1,1,1,1,1,1,1,1,1,1,1,1,1,1,1,1,1,1,1,1,1,1,1,1,1,1,1,1,1,1,1,1,1,1,1,1,1,1,1,1,1,1,1,1,1,1,1,1,1,1,1,1,1,1,1,1,1,1,1,1,1,1,1,1,1,1,1,1,1,1,1,1,1,1,1,1,1,1,1,1,1,1,1,1,1,1,1,1,1,1,1,1,1,1,1,1,1,1,1,1,1,1,1,1,1,1,1,1,0,0,0,0,0,0,0,0,0,0,58,
1,1,1,1,1,1,1,1,1,1,1,1,1,1,1,1,1,1,1,1,1,1,1,1,1,1,1,1,1,1,1,1,1,1,1,1,1,1,1,1,1,1,1,1,1,1,1,1,1,1,1,1,1,1,1,1,1,1,1,1,1,1,1,1,1,1,1,1,1,1,1,1,1,1,1,1,1,1,1,1,1,1,1,1,1,1,1,1,1,1,1,1,1,1,1,1,1,1,1,1,1,1,1,1,1,1,1,1,1,1,1,1,1,1,1,1,1,1,1,1,1,1,1,1,1,1,1,1,1,1,1,1,1,1,1,1,1,1,1,1,1,1,1,1,1,1,1,1,1,1,1,1,1,1,1,1,1,1,1,1,1,1,1,1,1,1,1,1,1,1,1,1,1,1,1,1,1,1,1,1,1,1,1,1,1,1,1,1,1,1,1,1,1,1,1,1,1,1,1,1,1,1,1,1,1,1,1,1,1,1,1,1,1,1,1,1,1,1,1,1,1,1,1,1,1,1,1,1,1,1,1,1,1,1,1,1,1,1,1,1,1,1,1,1,1,1,1,1,1,1,1,1,1,1,1,1,1,1,1,1,1,1,1,1,1,1,1,1,1,1,1,1,1,1,1,1,1,1,1,1,1,1,1,1,1,1,1,1,1,1,1,1,1,1,1,1,1,1,1,1,1,1,1,1,1,1,1,1,1,1,1,1,1,1,1,1,1,1,1,1,1,1,1,1,1,1,1,1,1,1,1,1,1,1,1,1,1,1,1,1,1,1,1,1,1,1,1,1,1,1,1,1,1,1,1,1,1,1,1,1,1,1,1,1,1,1,1,1,1,1,1,1,1,1,1,1,1,1,1,1,1,1,1,1,1,1,1,1,1,1,1,1,1,1,1,1,1,1,1,1,1,1,1,1,1,1,1,1,1,1,1,1,1,1,1,1,1,1,1,1,1,1,1,1,1,1,1,1,1,1,1,1,1,1,1,1,1,1,1,1,1,1,1,1,1,1,1,1,1,1,1,1,1,1,1,1,1,1,1,1,1,1,1,1,1,1,1,1,1,1,1,1,1,1,1,1,1,1,1,1,1,1,1,1,1,1,1,1,1,1,1,1,1,1,1,1,1,1,1,1,1,1,1,1,1,1,1,1,1,1,1,1,1,1,1,1,1,1,1,1,1,1,1,1,1,1,1,1,1,1,1,1,1,1,1,1,1,1,1,1,1,1,1,1,1,1,1,1,1,1,1,1,1,1,1,1,1,1,1,1,1,1,1,1,1,1,1,1,1,1,1,1,1,1,1,1,1,1,1,1,1,1,1,1,1,1,1,1,1,1,1,1,1,1,1,1,1,1,1,1,1,1,1,1,1,1,1,1,1,1,1,1,1,1,1,1,1,1,1,1,1,1,1,1,1,1,1,1,1,1,1,1,1,1,1,1,1,1,1,1,1,1,1,1,1,1,1,1,1,1,1,1,1,1,1,1,1,1,1,1,1,1,1,1,1,1,1,1,1,1,1,1,1,1,1,1,1,1,1,1,1,1,1,1,1,1,1,1,1,1,1,1,1,1,1,1,1,1,1,1,1,1,1,1,1,1,1,1,1,1,1,1,1,1,1,1,1,1,1,1,1,1,1,1,1,1,1,1,1,1,1,1,1,1,1,1,1,1,1,1,1,1,1,1,1,1,1,1,1,1,1,1,1,1,1,1,1,1,1,1,1,1,1,1,1,1,1,1,1,1,1,1,1,1,1,1,1,1,1,1,1,1,1,1,1,1,1,1,1,1,1,1,1,1,1,1,1,1,1,1,1,1,1,1,1,1,1,1,1,1,1,1,1,1,1,1,1,1,1,1,1,1,1,1,1,1,1,1,1,1,1,1,1,1,1,1,1,1,1,1,1,1,1,1,1,1,1,1,1,1,1,1,1,1,1,1,1,1,1,1,1,1,1,1,1,1,1,1,1,1,1,1,1,1,1,1,1,1,1,1,1,1,1,1,1,1,1,1,1,1,1,1,1,1,1,0,0,0,0,0,0,0,0,0,0,0,0,0,0,0,0,0,0,0,0,0,0,0,0,0,0,0,0,0,0,0,0,0,0,0,0,3475,1446,1447,1448,1445,1446,1447,1448,1445,1446,1447,1448,1445,1446,1447,1448,1445,1446,1447,1448,1445,1446,1447,1448,1445,1446,1447,1448,1445,1446,1447,1448,1445,1446,1447,1448,1445,1446,1447,1448,1445,1446,1447,1448,1445,1446,1447,1448,1445,1446,1447,1448,1445,1446,1447,1448,1445,1446,1447,1448,1445,1446,1447,1448,1445,1446,1447,1448,1445,1446,1447,1448,1445,1445,1446,1447,1448,1445,1446,1447,1448,1445,1446,1447,1448,1445,1446,1447,1448,1445,1446,1447,1445,1446,1447,1448,1445,1446,1447,1448,1445,1446,1447,1448,1445,1446,1447,1448,1445,1446,1447,1448,1445,1446,1447,1448,1445,1446,1447,1448,1445,1446,1447,1448,1445,1446,1447,1448,1445,1446,1447,1464,1461,1462,1463,1464,1461,1462,1463,1464,1461,1462,1463,1464,1461,1462,1463,1464,1461,1462,1463,1464,1461,1462,1463,1464,1461,1462,1463,1464,1461,1462,1463,1464,1461,1462,1463,1464,1461,1462,1463,1464,1461,1462,1463,1464,1461,1462,1463,1464,1461,1462,1463,1464,1461,1462,1463,1464,1461,1462,1463,1464,1461,1462,1463,1464,1461,1462,1463,1464,1461,1462,1463,1464,1461,1462,1463,1464,1445,1446,1447,1448,1445,1446,1447,1448,1445,1446,1447,1448,1445,1446,1447,1448,1445,1446,1447,1448,1445,1446,1447,1448,1445,1446,1447,1448,1445,1446,1447,1448,1445,1446,1447,1448,1445,1446,1447,1448,1445,1446,1447,1448,1445,1446,1447,1448,1445,1446,1447,1448,1445,1446,1447,1448,1445,1446,1447,1448,1445,1446,1447,1448,1429,1430,1431,1432,1,1,1,1,1,1,1,1,1,1,1,1,1,1,1,1,1,1,1,1,1,1,1,1,1,1,1,1,1,1,1,1,1,1,1,1,1,1,1,1,1,1,1,1,1,1,1,1,1,1,1,1,1,1,1,1,1,1,1,1,1,1,1,1,1,1,1,1,1,1,1,1,1,1,1,1,1,1,1,1,1,1,1,1,1,1,1,1,1,1,1,1,1,1,1,1,1,1,1,1,1,1,1,1,1,1,1,1,1,1,1,1,1,1,1,1,1,1,1,1,1,1,1,1,1,1,1,1,1,1,1,1,1,1,1,1,131,3464,1,1,1,1,1,1,1,1,1,1,1,1,1,1,1,1,1,1,1,1,1,1,1,1,1,1,1,1,1,1,1,1,1,1,1,1,1,1,1,1,1,1,1,1,1,1,1,1,1,1,1,1,1,1,1,1,1,1,1,1,1,1,1,1,1,1,1,1,1,1,1,1,1,1,1,1,1,1,1,1,1,1,1,1,1,1,1,1,1,1,1,1,1,1,1,1,1,1,1,1,1,1,1,1,1,1,1,1,1,1,1429,1430,1431,1432,1429,1430,1431,1432,1429,1430,1431,1432,1429,1430,1431,1432,1429,1430,1431,1432,1429,1430,1431,1432,1429,1430,1431,1432,1429,1430,1431,1432,1429,1430,1431,1432,1429,1430,1431,1432,1429,1430,1431,1432,1429,1430,1431,1432,1429,1430,1431,1432,1429,1430,1431,1432,1429,1430,1431,1432,1429,1430,1431,1432,1429,1430,1431,1432,1429,1430,1431,1432,1429,1430,1431,1432,1429,1430,1431,1432,1429,1430,1431,1432,1429,1430,1431,1432,1429,1430,1431,1432,1429,1430,1431,1432,1429,1430,1431,1432,1429,1430,1431,1432,1429,1430,1431,1432,1429,1430,1431,1432,1429,1430,1431,1432,1429,1430,1431,1432,1429,1430,1431,1432,1429,1430,1431,1432,1429,1430,1431,1432,1429,1430,1431,1432,1429,1430,1431,1432,1429,1430,1431,1432,1429,1430,1431,1432,1429,1430,1431,1432,1429,1430,1431,1432,1429,1430,1431,1432,1429,1430,1431,1432,1429,1430,1431,1432,1429,1430,1431,1432,1429,1430,1431,1432,1429,1430,1431,1432,1429,1430,1431,1432,1429,1430,1431,1432,1429,1430,1431,1432,1429,1430,1431,1432,1429,1430,1431,1432,1429,1430,1431,1432,1429,1430,1431,1432,1429,1430,1431,1432,1429,1430,1431,1432,1429,1430,1431,1432,1429,1430,1431,1432,1429,1430,1431,1432,1429,1430,1431,1432,1429,1430,1431,1432,1429,1430,1431,1432,1429,1430,1431,1432,1429,1430,1431,1432,1429,1430,1431,1432,1429,1430,1431,1432,1429,1430,1431,1432,1429,1430,1431,1432,1429,1430,1431,1432,1429,1430,1431,1432,1429,1430,1431,1432,1429,1430,1431,1432,1429,1430,1431,1432,1429,1430,1431,1432,1429,1430,1431,1432,1429,1430,1431,1432,1429,1430,1431,1432,1429,1430,1431,1432,1429,1430,1431,1432,1429,1430,1431,1432,1429,1430,1431,1432,1429,1430,1431,1432,1429,1430,1431,1432,1429,1430,1431,1432,1429,1430,1431,1432,1429,1430,1431,1432,1429,247,0,0,0,248,0,1,1,1,1,1,1,1,1,1,1,1,1,1,1,1,1,1,1,1,1,1,1,1,1,1,1,1,1,1,1,1,1,1,1,1,1,1,1,1,1,1,1,1,1,1,1,1,1,1,1,1,1,1,1,1,1,1,1,1,1,1,1,1,1,1,1,1,1,1,1,1,1,1,1,1,1,1,1,1,1,1,1,1,1,1,1,1,1,1,1,1,1,1,1,1,1,1,1,1,1,1,1,1,1,1,1,1,1,1,1,1,1,1,1,1,1,1,1,1,1,1,1,1,1,1,1,1,1,1,1,0,0,0,0,0,0,0,0,0,0,58,
1,1,1,1,1,1,1,1,1,1,1,1,1,1,1,1,1,1,1,1,1,1,1,1,1,1,1,1,1,1,1,1,1,1,1,1,1,1,1,1,1,1,1,1,1,1,1,1,1,1,1,1,1,1,1,1,1,1,1,1,1,1,1,1,1,1,1,1,1,1,1,1,1,1,1,1,1,1,1,1,1,1,1,1,1,1,1,1,1,1,1,1,1,1,1,1,1,1,1,1,1,1,1,1,1,1,1,1,1,1,1,1,1,1,1,1,1,0,0,0,0,0,0,0,1,1,1,1,1,1,1,1,1,1,1,1,1,1,1,1,1,1,1,1,1,1,1,1,1,1,1,1,1,1,1,1,1,1,1,1,1,1,1,1,1,1,1,1,1,1,1,1,1,1,1,1,1,1,1,1,1,1,1,1,1,1,1,1,1,1,1,1,1,1,1,1,1,1,1,1,1,1,1,1,1,1,1,1,1,1,1,1,1,1,1,1,1,1,1,1,1,1,1,1,1,1,1,1,1,1,1,1,1,1,1,1,1,1,1,1,1,1,1,1,1,1,1,1,1,1,1,1,1,1,1,1,1,1,1,1,1,1,1,1,1,1,1,1,1,1,1,1,1,1,1,1,1,1,1,1,1,1,1,1,1,1,1,1,1,1,1,1,1,1,1,1,1,1,1,1,1,1,1,1,1,1,1,1,1,1,1,1,1,1,1,1,1,1,1,1,1,1,1,1,1,1,1,1,1,1,1,1,1,1,1,1,1,1,1,1,1,1,1,1,1,1,1,1,1,1,1,1,1,1,1,1,1,1,1,1,1,1,1,1,1,1,1,1,1,1,1,1,1,1,1,1,1,1,1,1,1,1,1,1,1,1,1,1,1,1,1,1,1,1,1,1,1,1,1,1,1,1,1,1,1,1,1,1,1,1,1,1,1,1,1,1,1,1,1,1,1,1,1,1,1,1,1,1,1,1,1,1,1,1,1,1,1,1,1,1,1,1,1,1,1,1,1,1,1,1,1,1,1,1,1,1,1,1,1,1,1,1,1,1,1,1,1,1,1,1,1,1,1,1,1,1,1,1,1,1,1,1,1,1,1,1,1,1,1,1,1,1,1,1,1,1,1,1,1,1,1,1,1,1,1,1,1,1,1,1,1,1,1,1,1,1,1,1,1,1,1,1,1,1,1,1,1,1,1,1,1,1,1,1,1,1,1,1,1,1,1,1,1,1,1,1,1,1,1,1,1,1,1,1,1,1,1,1,1,1,1,1,1,1,1,1,1,1,1,1,1,1,1,1,1,1,1,1,1,1,1,1,1,1,1,1,1,1,1,1,1,1,1,1,1,1,1,1,1,1,1,1,1,1,1,1,1,1,1,1,1,1,1,1,1,1,1,1,1,1,1,1,1,1,1,1,1,1,1,1,1,1,1,1,1,1,1,1,1,1,1,1,1,1,1,1,1,1,1,1,1,1,1,1,1,1,1,1,1,1,1,1,1,1,1,1,1,1,1,1,1,1,1,1,1,1,1,1,1,1,1,1,1,1,1,1,1,1,1,1,1,1,1,1,1,1,1,1,1,1,1,1,1,1,1,1,1,1,1,1,1,1,1,1,1,1,1,1,1,1,1,1,1,1,1,1,1,1,1,1,1,1,1,1,1,1,1,1,1,1,1,1,1,1,1,1,1,1,1,1,1,1,1,1,1,1,1,1,1,1,1,1,1,1,1,1,1,1,1,1,1,1,1,1,1,1,1,1,1,1,1,1,1,1,1,1,1,1,1,1,1,1,1,1,1,1,1,1,1,1,1,1,1,1,1,1,1,1,1,1,1,1,1,1,1,1,1,1,1,1,1,1,1,1,1,1,1,1,1,1,1,1,1,1,1,1,1,1,1,1,1,1,1,1,1,1,1,1,1,1,1,1,1,1,1,1,1,1,1,1,1,1,1,1,1,1,1,1,1,1,1,1,1,1,1,1,1,1,1,1,1,1,1,1,1,1,1,1,1,1,1,1,1,1,1,0,0,0,0,0,0,0,0,0,0,0,0,0,0,0,0,0,0,0,0,0,0,0,0,0,0,0,0,0,0,0,0,0,0,0,0,3475,1462,1463,1464,1461,1462,1463,1464,1461,1462,1463,1464,1461,1462,1463,1464,1461,1462,1463,1464,1461,1462,1463,1464,1461,1462,1463,1464,1461,1462,1463,1464,1461,1462,1463,1464,1461,1462,1463,1464,1461,1462,1463,1464,1461,1462,1463,1464,1461,1462,1463,1464,1461,1462,1463,1464,1461,1462,1463,1464,1461,1462,1463,1464,1461,1462,1463,1464,1461,1462,1463,1464,1461,1461,1462,1463,1464,1461,1462,1463,1464,1461,1462,1463,1464,1461,1462,1463,1464,1461,1462,1463,1461,1462,1463,1464,1461,1462,1463,1464,1461,1462,1463,1464,1461,1462,1463,1464,1461,1462,1463,1464,1461,1462,1463,1464,1461,1462,1463,1464,1461,1462,1463,1464,1461,1462,1463,1464,1461,1462,1463,1480,1477,1478,1479,1480,1477,1478,1479,1480,1477,1478,1479,1480,1477,1478,1479,1480,1477,1478,1479,1480,1477,1478,1479,1480,1477,1478,1479,1480,1477,1478,1479,1480,1477,1478,1479,1480,1477,1478,1479,1480,1477,1478,1479,1480,1477,1478,1479,1480,1477,1478,1479,1480,1477,1478,1479,1480,1477,1478,1479,1480,1477,1478,1479,1480,1477,1478,1479,1480,1477,1478,1479,1480,1477,1478,1479,1480,1461,1462,1463,1464,1461,1462,1463,1464,1461,1462,1463,1464,1461,1462,1463,1464,1461,1462,1463,1464,1461,1462,1463,1464,1461,1462,1463,1464,1461,1462,1463,1464,1461,1462,1463,1464,1461,1462,1463,1464,1461,1462,1463,1464,1461,1462,1463,1464,1461,1462,1463,1464,1461,1462,1463,1464,1461,1462,1463,1464,1461,1462,1463,1464,1445,1446,1447,1448,1429,1430,1431,1432,1,1,1,1,1,1,1,1,1,1,1,1,1,1,1,1,1,1,1,1,1,1,1,1,1,1,1,1,1,1,1,1,1,1,1,1,1,1,1,1,1,1,1,1,1,1,1,1,1,1,1,1,1,1,1,1,1,1,1,1,1,1,1,1,1,1,1,1,1,1,1,1,1,1,1,1,1,1,1,1,1,1,1,1,1,1,1,1,1,1,1,1,1,1,1,1,1,1,1,1,1,1,1,1,1,1,1,1,1,1,1,1,1,1,1,1,1,1,1,1,1,1,1,1,1,1,1,1,1,1,1,1,131,3464,1,1,1,1,1,1,1,1,1,1,1,1,1,1,1,1,1,1,1,1,1,1,1,1,1,1,1,1,1,1,1,1,1,1,1,1,1,1,1,1,1,1,1,1,1,1,1,1,1,1,1,1,1,1,1,1,1,1,1,1,1,1,1,1,1,1,1,1,1,1,1,1,1,1,1,1,1,1,1,1,1,1,1,1,1,1,1,1,1,1,1,1,1,1,1,1,1,1,1,1,1,1,1,1,1,1,1,1,1,1,1445,1446,1447,1448,1445,1446,1447,1448,1445,1446,1447,1448,1445,1446,1447,1448,1445,1446,1447,1448,1445,1446,1447,1448,1445,1446,1447,1448,1445,1446,1447,1448,1445,1446,1447,1448,1445,1446,1447,1448,1445,1446,1447,1448,1445,1446,1447,1448,1445,1446,1447,1448,1445,1446,1447,1448,1445,1446,1447,1448,1445,1446,1447,1448,1445,1446,1447,1448,1445,1446,1447,1448,1445,1446,1447,1448,1445,1446,1447,1448,1445,1446,1447,1448,1445,1446,1447,1448,1445,1446,1447,1448,1445,1446,1447,1448,1445,1446,1447,1448,1445,1446,1447,1448,1445,1446,1447,1448,1445,1446,1447,1448,1445,1446,1447,1448,1445,1446,1447,1448,1445,1446,1447,1448,1445,1446,1447,1448,1445,1446,1447,1448,1445,1446,1447,1448,1445,1446,1447,1448,1445,1446,1447,1448,1445,1446,1447,1448,1445,1446,1447,1448,1445,1446,1447,1448,1445,1446,1447,1448,1445,1446,1447,1448,1445,1446,1447,1448,1445,1446,1447,1448,1445,1446,1447,1448,1445,1446,1447,1448,1445,1446,1447,1448,1445,1446,1447,1448,1445,1446,1447,1448,1445,1446,1447,1448,1445,1446,1447,1448,1445,1446,1447,1448,1445,1446,1447,1448,1445,1446,1447,1448,1445,1446,1447,1448,1445,1446,1447,1448,1445,1446,1447,1448,1445,1446,1447,1448,1445,1446,1447,1448,1445,1446,1447,1448,1445,1446,1447,1448,1445,1446,1447,1448,1445,1446,1447,1448,1445,1446,1447,1448,1445,1446,1447,1448,1445,1446,1447,1448,1445,1446,1447,1448,1445,1446,1447,1448,1445,1446,1447,1448,1445,1446,1447,1448,1445,1446,1447,1448,1445,1446,1447,1448,1445,1446,1447,1448,1445,1446,1447,1448,1445,1446,1447,1448,1445,1446,1447,1448,1445,1446,1447,1448,1445,1446,1447,1448,1445,1446,1447,1448,1445,1446,1447,1448,1445,1446,1447,1448,1445,1446,1447,1448,1445,1446,1447,1448,1445,1446,1447,1448,1445,1446,1447,1448,1445,247,0,0,0,248,0,1,1,1,1,1,1,1,1,0,1,1,1,1,1,1,1,1,1,1,1,1,1,1,1,1,1,1,1,1,1,1,1,1,1,1,1,1,1,1,1,1,1,1,1,1,1,1,1,1,1,1,1,1,1,1,1,1,1,1,1,1,1,1,1,1,1,1,1,1,1,1,1,1,1,1,1,1,1,1,1,1,1,1,1,1,1,1,1,1,1,1,1,1,1,1,1,1,1,1,1,1,1,1,1,1,1,1,1,1,1,1,1,1,1,1,1,1,1,1,1,1,1,1,1,1,1,1,1,1,1,0,0,0,0,0,0,0,0,0,0,58,
1,1,1,1,1,1,1,1,1,1,1,1,1,1,1,1,1,1,1,1,1,1,1,1,1,1,1,1,1,1,1,1,1,1,1,1,1,1,1,1,1,1,1,1,1,1,1,1,1,1,1,1,1,1,1,1,1,1,1,1,1,1,1,1,1,1,1,1,1,1,1,1,1,1,1,1,1,1,1,1,1,1,1,1,1,1,1,1,1,1,1,1,1,1,1,1,1,1,1,1,1,1,1,1,1,1,1,1,1,1,1,1,1,1,1,1,1,0,0,0,0,0,0,0,1,1,1,1,1,1,1,1,1,1,1,1,1,1,1,1,1,1,1,1,1,1,1,1,1,1,1,1,1,1,1,1,1,1,1,1,1,1,1,1,1,1,1,1,1,1,1,1,1,1,1,1,1,1,1,1,1,1,1,1,1,1,1,1,1,1,1,1,1,1,1,1,1,1,1,1,1,1,1,1,1,1,1,1,1,1,1,1,1,1,1,1,1,1,1,1,1,1,1,1,1,1,1,1,1,1,1,1,1,1,1,1,1,1,1,1,1,1,1,1,1,1,1,1,1,1,1,1,1,1,1,1,1,1,1,1,1,1,1,1,1,1,1,1,1,1,1,1,1,1,1,1,1,1,1,1,1,1,1,1,1,1,1,1,1,1,1,1,1,1,1,1,1,1,1,1,1,1,1,1,1,1,1,1,1,1,1,1,1,1,1,1,1,1,1,1,1,1,1,1,1,1,1,1,1,1,1,1,1,1,1,1,1,1,1,1,1,1,1,1,1,1,1,1,1,1,1,1,1,1,1,1,1,1,1,1,1,1,1,1,1,1,1,1,1,1,1,1,1,1,1,1,1,1,1,1,1,1,1,1,1,1,1,1,1,1,1,1,1,1,1,1,1,1,1,1,1,1,1,1,1,1,1,1,1,1,1,1,1,1,1,1,1,1,1,1,1,1,1,1,1,1,1,1,1,1,1,1,1,1,1,1,1,1,1,1,1,1,1,1,1,1,1,1,1,1,1,1,1,1,1,1,1,1,1,1,1,1,1,1,1,1,1,1,1,1,1,1,1,1,1,1,1,1,1,1,1,1,1,1,1,1,1,1,1,1,1,1,1,1,1,1,1,1,1,1,1,1,1,1,1,1,1,1,1,1,1,1,1,1,1,1,1,1,1,1,1,1,1,1,1,1,1,1,1,1,1,1,1,1,1,1,1,1,1,1,1,1,1,1,1,1,1,1,1,1,1,1,1,1,1,1,1,1,1,1,1,1,1,1,1,1,1,1,1,1,1,1,1,1,1,1,1,1,1,1,1,1,1,1,1,1,1,1,1,1,1,1,1,1,1,1,1,1,1,1,1,1,1,1,1,1,1,1,1,1,1,1,1,1,1,1,1,1,1,1,1,1,1,1,1,1,1,1,1,1,1,1,1,1,1,1,1,1,1,1,1,1,1,1,1,1,1,1,1,1,1,1,1,1,1,1,1,1,1,1,1,1,1,1,1,1,1,1,1,1,1,1,1,1,1,1,1,1,1,1,1,1,1,1,1,1,1,1,1,1,1,1,1,1,1,1,1,1,1,1,1,1,1,1,1,1,1,1,1,1,1,1,1,1,1,1,1,1,1,1,1,1,1,1,1,1,1,1,1,1,1,1,1,1,1,1,1,1,1,1,1,1,1,1,1,1,1,1,1,1,1,1,1,1,1,1,1,1,1,1,1,1,1,1,1,1,1,1,1,1,1,1,1,1,1,1,1,1,1,1,1,1,1,1,1,1,1,1,1,1,1,1,1,1,1,1,1,1,1,1,1,1,1,1,1,1,1,1,1,1,1,1,1,1,1,1,1,1,1,1,1,1,1,1,1,1,1,1,1,1,1,1,1,1,1,1,1,1,1,1,1,1,1,1,1,1,1,1,1,1,1,1,1,1,1,1,1,1,1,1,1,1,1,1,1,1,1,1,1,1,1,1,1,1,1,1,1,1,1,1,1,1,1,1,1,1,1,1,1,1,1,1,1,1,1,1,1,1,1,1,1,1,1,1,1,1,1,1,1,1,1,1,1,1,1,1,1,1,1,1,1,1,1,1,1,1,1,1,1,1,1,3479,1478,1479,1480,1477,1478,1479,1480,1477,1478,1479,1480,1477,1478,1479,1480,1477,1478,1479,1480,1477,1478,1479,1480,1477,1478,1479,1480,1477,1478,1479,1480,1477,1478,1479,1480,1477,1478,1479,1480,1477,1478,1479,1480,1477,1478,1479,1480,1477,1478,1479,1480,1477,1478,1479,1480,1477,1478,1479,1480,1477,1478,1479,1480,1477,1478,1479,1480,1477,1478,1479,1480,1477,1477,1478,1479,1480,1477,1478,1479,1480,1477,1478,1479,1480,1477,1478,1479,1480,1477,1478,1479,1477,1478,1479,1480,1477,1478,1479,1480,1477,1478,1479,1480,1477,1478,1479,1480,1477,1478,1479,1480,1477,1478,1479,1480,1477,1478,1479,1480,1477,1478,1479,1480,1477,1478,1479,1480,1477,1478,1556,1,1,1,1,1,1,1,1,1,1,1,1,1,1331,126,1330,1329,126,1332,3462,3462,3462,1331,126,1330,1,1,1,1329,126,1332,3462,3462,3462,3462,3462,1331,126,1330,1,1,1,1329,126,1332,3462,3462,3462,1331,126,1330,1,1,1,1,1,1,1,1,1,1,1,1,1,1,1,1,1,1,1,1329,126,1332,1,1,1,1,1555,1478,1479,1480,1477,1478,1479,1480,1477,1478,1479,1480,1477,1478,1479,1480,1477,1478,1479,1480,1477,1478,1479,1480,1477,1478,1479,1480,1477,1478,1479,1480,1477,1478,1479,1480,1477,1478,1479,1480,1477,1478,1479,1480,1477,1478,1479,1480,1477,1478,1479,1480,1477,1478,1479,1480,1477,1478,1479,1480,1477,1478,1479,1480,1461,1462,1463,1464,1445,1446,1447,1448,1429,1430,1431,1432,1429,1430,1431,1432,1429,1430,1431,1432,1429,1430,1431,1432,1429,1430,1431,1432,1429,1430,1431,1432,1429,1430,1431,1432,1429,1430,1431,1432,1429,1430,1431,1432,1429,1430,1431,1432,1429,1430,1431,1432,1429,1429,1429,1430,1431,1432,1429,1430,1431,1432,1429,1430,1431,1432,1429,1430,1431,1432,1429,1430,1431,1432,1429,1430,1431,1432,1429,1430,1431,1432,1429,1430,1431,1432,1429,1430,1429,1430,1431,1432,1429,1430,1431,1432,1429,1430,1431,1432,1429,1430,1431,1432,1429,1430,1431,1432,1429,1430,1431,1432,1429,1430,1431,1432,1429,1430,1431,1432,1429,1430,1431,1432,1429,1430,1431,1432,1429,1430,1431,1432,1429,1430,1,1,1,1,1,1,131,3464,1,1,1,1,1,1,1,1,1,1,1,1,1,1,1,1,1,1,1,1,1,1,1,1,1,1,1,1,1,1,1,1,1,1,1,1,1,1,1,1,1,1,1,1,1,1,1,1,1,1,1,1,1,1,1,1,1,1,1,1,1,1,1,1,1,1,1,1,1,1,1,1,1,1,1,1,1,1,1,1,1,1,1,1,1,1,1,1,1,1,1,1,1,1,1,1,1,1,1,1,1,1,1,1,1,1,1,1,1,1,1461,1462,1463,1464,1461,1462,1463,1464,1461,1462,1463,1464,1461,1462,1463,1464,1461,1462,1463,1464,1461,1462,1463,1464,1461,1462,1463,1464,1461,1462,1463,1464,1461,1462,1463,1464,1461,1462,1463,1464,1461,1462,1463,1464,1461,1462,1463,1464,1461,1462,1463,1464,1461,1462,1463,1464,1461,1462,1463,1464,1461,1462,1463,1464,1461,1462,1463,1464,1461,1462,1463,1464,1461,1462,1463,1464,1461,1462,1463,1464,1461,1462,1463,1464,1461,1462,1463,1464,1461,1462,3490,3476,3476,3476,3476,3476,3476,3476,3476,3476,3476,3489,1463,1464,1461,1462,1463,1464,1461,1462,1463,1464,1461,1462,1463,1464,1461,1462,1463,1464,1461,1462,1463,1464,1461,1462,1463,1464,1461,1462,1463,1464,1461,1462,1463,1464,1461,1462,1463,1464,1461,1462,1463,1464,1461,1462,1463,1464,1461,1462,1463,1464,1461,1462,1463,1464,1461,1462,1463,1464,1461,1462,1463,1464,1461,1462,1463,1464,1461,1462,1463,1464,1461,1462,1463,1464,1461,1462,1463,1464,1461,1462,1463,1464,1461,1462,1463,1464,1461,1462,1463,1464,1461,1462,1463,1464,1461,1462,1463,1464,1461,1462,1463,1464,1461,1462,1463,1464,1461,1462,1463,1464,1461,1462,1463,1464,1461,1462,1463,1464,1461,1462,1463,1464,1461,1462,1463,1464,1461,1462,1463,1464,1461,1462,1463,1464,1461,1462,1463,1464,1461,1462,1463,1464,1461,1462,1463,1464,1461,1462,1463,1464,1461,1462,1463,1464,1461,1462,1463,1464,1461,1462,1463,1464,1461,1462,1463,1464,1461,1462,1463,1464,1461,1462,1463,1464,1461,1462,1463,1464,1461,1462,1463,1464,1461,1462,1463,1464,1461,1462,1463,1464,1461,1462,1463,1464,1461,1462,1463,1464,1461,1462,1463,1464,1461,1462,1463,1464,1461,1462,1463,1464,1461,1462,1463,1464,1461,1462,1463,1464,1461,1462,1463,1464,1461,1462,1463,1464,1461,1462,1463,1464,1461,1462,1463,1464,1461,247,0,0,0,248,0,1,1,1,1,127,1,1329,127,114,132,1330,127,127,1,1329,127,1,1329,3475,0,0,0,1,1,1,1,1,1,1,1,1,1,1,1,1,1,1,1,1,3486,1,3486,1,1,1,1,1,1,1,1,1,1,1,1,1,1,1,1,1,1,1,1,1,1,1,1,1,1,1,1,1,1,1,1,1,1,1,1,1,1,1,3486,1,1,3486,1,1,1,1,1,3486,1,1,1,1,1,1,1,1,1,1,1,1,1,1,1,0,1,1,1,1,1,1,1,1,3475,1,1,1,3477,1,1,1,3486,1,1,1,3486,1,1,0,0,0,0,0,0,0,0,0,0,58,
1,1,1,1,1,1,1,1,1,1,1,1,1,1,1,1,1,1,1,1,1,1,1,1,1,1,1,1,1,1,1,1,1,1,1,1,1,1,1,1,1,1,3486,1,3486,1,1,1,1,1,1,1,1,1,1,1,1,1,1,1,1,1,1,1,1,1,1,1,1,1,1,1,1,1,1,1,1,1,1,1,1,1,1,1,1,1,1,1,1,1,1,1,1,1,1,1,1,1,1,1,1,1,1,1,1,1,1,1,1,1,1,1,1,1,1,1,1,0,0,0,0,0,0,0,1,1,1,1,1,1,1,1,1,1,1,1,1,1,1,1,1,1,1,1,1,1,1,1,1,1,1,1,1,1,1,1,1,1,1,1,1,1,1,1,1,1,1,1,1,1,1,1,1,1,1,1,1,1,1,1,1,1,1,1,1,1,1,1,1,1,1,1,1,1,1,1,1,1,1,1,1,1,1,1,1,1,1,1,1,1,1,1,1,1,1,1,1,1,1,1,1,1,1,1,1,1,1,1,1,1,1,1,1,1,1,1,1,1,1,1,1,1,1,1,1,1,1,1,1,1,1,1,1,1,1,1,1,1,1,1,1,1,1,1,1,1,1,1,1,1,1,1,1,1,1,1,1,1,1,1,1,1,1,1,1,1,1,1,1,1,1,1,1,1,1,1,1,1,1,1,1,1,1,1,1,1,1,1,1,1,1,1,1,1,1,1,1,1,1,1,1,1,1,1,1,1,1,1,1,1,1,1,1,1,1,1,1,1,1,1,1,1,1,1,1,131,1,1,1,1,1,1,1,1,1,1,1,1,1,1,1,1,1,1,1,1,1,1,1,1,1,1,1,1,1,1,1,1,1,1,1,1,1,1,1,1,1,1,1,1,1,1,1,1,1,1,1,1,1,1,1,1,1,1,1,1,1,1,1,1,1,1,1,1,1,1,1,1,1,1,1,1,1,1,1,1,1,1,1,1,1,1,1,1,1,1,1,1,1,1,1,1,1,1,1,1,1,1,1,1,1,1,1,1,1,1,1,1,1,1,1,1,1,1,1,1,1,1,1,1,1,1,1,1,1,1,1,1,1,1,1,1,1,1,1,1,1,1,1,1,1,1,1,1,1,1,1,1,1,1,1,1,1,1,1,1,1,1,1,1,1,1,1,1,1,1,1,1,1,1,1,1,1,1,1,1,1,1,1,1,1,1,1,1,1,1,1,1,1,1,1,1,1,1,1,1,1,1,1,1,1,1,1,1,1,1,1,1,1,1,1,1,1,1,1,1,1,1,1,1,1,1,1,1,1,1,1,1,1,1,1,1,1,1,1,1,1,1,1,1,1,1,1,1,1,1,1,1,1,1,1,1,1,1,1,1,1,1,1,1,1,1,1,1,1,1,1,1,1,1,1,1,1,1,1,1,1,1,1,1,1,1,1,1,1,1,1,1,1,1,1,1,1,1,1,1,1,1,1,1,1,1,1,1,1,1,1,1,1,1,1,1,1,1,1,1,1,1,1,1,1,1,1,1,1,1,1,1,1,1,1,1,1,1,1,1,1,1,1,1,1,1,1,1,1,1,1,1,1,1,1,1,1,1,1,1,1,1,1,1,1,1,1,1,1,1,1,1,1,1,1,1,1,1,1,1,1,1,1,1,1,1,1,1,1,1,1,1,1,1,1,1,1,1,1,1,1,1,1,1,1,1,1,1,1,1,1,1,1,1,1,1,1,1,1,1,1,1,1,1,1,1,1,1,1,1,1,1,1,1,1,1,1,1,1,1,1,1,1,1,1,1,1,1,1,1,1,1,1,1,1,1,1,1,1,1,1,1,1,1,1,1,1,1,1,1,1,1,1,1,1,1,1,1,1,1,1,1,1,1,1,1,1,1,1,1,1,1,1,1,1,1,1,1,1,1,1,1,1,1,1,1,1,1,1,1,1,1,1,1,1,1,1,1,1,1,1,1,1,1,1,1,1,1,1,1,1,1,1,1,1,1,1,1,1,1,1,1,1,1,1,1,1,1,1,1,1,1,1,1,1,1,1,1,1,1,1,1,1,1,1,1,1,1,1,1,1,1,1,1,1,1,1,1,1,1,1,1,1,1,1,1,1,1,1,1,1,3466,3462,3462,3462,3462,3486,3462,3484,3462,3462,3486,3462,3462,3462,3462,3462,3462,3462,3462,3462,3486,3462,3486,3462,3462,3462,3462,3462,3462,3462,3462,3462,3462,3462,3462,3462,3462,3462,3462,3462,3462,3462,3462,3462,3462,3486,3462,3484,3462,3462,3486,3462,3486,3462,3462,3467,1,3466,3462,3462,3462,3462,3462,3462,3462,3462,3462,3462,3462,3462,3462,3462,3462,3462,3462,3462,3462,3462,3462,3462,3462,3462,3462,3462,3462,3462,3462,3462,3462,3462,3484,3462,3486,3462,3486,3462,3484,3462,3462,3462,3486,3462,3462,3462,3462,3462,3462,3475,3477,3462,3462,3486,3462,3486,3462,3462,3462,3462,3462,3462,3462,3462,3462,3486,1,1,1,1,1,1,1,1,1,1,1,1,1,1,1,1331,126,126,1332,1,1,1,1,1,1331,126,1330,1,1329,126,1332,1,1,1,1,1,1,1,1331,126,1330,1,1329,126,1332,1,1,1,1,1,1331,126,1330,1,1,1,1,1,1,1,1,1,1,1,1,1,1,1,1,1,1329,126,1332,1,1,1,1,1,1,1,1,1331,126,1330,1,1,1,1,1,1,1,1,1,1,1,1,1,1,1,1,1,1,1,1,1,1,1,1,1,1,1,1,1,1,1,1,1,1,1,1,1,1,1,1,1,1,1,1,1,1,1,1329,114,132,132,132,132,132,132,132,114,1330,1555,1478,1479,1480,1461,1462,1463,1464,1445,1446,1447,1448,1445,1446,1447,1448,1445,1446,1447,1448,1445,1446,1447,1448,1445,1446,1447,1448,1445,1446,1447,1448,1445,1446,1447,1448,1445,1446,1447,1448,1445,1446,1447,1448,1445,1446,1447,1448,1445,1446,1447,1448,1445,1445,1445,1446,1447,1448,1445,1446,1447,1448,1445,1446,1447,1448,1445,1446,1447,1448,1445,1446,1447,1448,1445,1446,1447,1448,1445,1446,1447,1448,1445,1446,1447,1448,1445,1446,1445,1446,1447,1448,1445,1446,1447,1448,1445,1446,1447,1448,1445,1446,1447,1448,1445,1446,1447,1448,1445,1446,1447,1448,1445,1446,1447,1448,1445,1446,1447,1448,1445,1446,1447,1448,1445,1446,1447,1448,1445,1446,1447,1448,1445,1446,1,1,1,1,1,1,131,3464,1,1,1,1,1,1,1,1,1,1,1,1,1,1,1,1,1,1,1,1,1,1,1,1,1,1,1,1,1,1,1,1,1,1,1,1,1,1,1,1,1,1,1,1,1,1,1,1,1,1,1,1,1,1,1,1,1,1,1,1,1,1,1,1,1,1,1,1,1,1,1,1,1,1,1,1,1,1,1,1,1,1,1,1,1,1,1,1,1,1,1,1,1,1,1,1,1,1,1,1,1,1,1,1,1,1,1,1,1,1,1477,1478,1479,1480,1477,1478,1479,1480,1477,1478,1479,1480,1477,1478,1479,1480,1477,1478,1479,1480,1477,1478,1479,1480,1477,1478,1479,1480,1477,1478,1479,1480,1477,1478,1479,1480,1477,1478,1479,1480,1477,1478,1479,1480,1477,1478,1479,1480,1477,1478,1479,1480,1477,1478,1479,1480,1477,1478,1479,1480,1477,1478,1479,1480,1477,1478,1479,1480,1477,1478,1479,1480,1477,1478,1479,1480,1477,1478,1479,1809,0,0,0,0,0,0,0,0,0,1800,1780,1,1,1,1,1,1,1,1,1,1,1779,1799,0,0,0,0,0,1810,1478,1479,1480,1477,1478,1479,1480,1477,1478,1479,1480,1477,1478,1479,1480,1477,1478,1479,1480,1477,1478,1479,1480,1477,1478,1479,1480,1477,1478,1479,1480,1477,1478,1479,1480,1477,1478,1479,1480,1477,1478,1479,1480,1477,1478,1479,1480,1477,1478,1479,1480,1477,1478,1479,1480,1477,1478,1479,1480,1477,1478,1479,1480,1477,1478,1479,1480,1477,1478,1479,1480,1477,1478,1479,1480,1477,1478,1479,1480,1477,1478,1479,1480,1477,1478,1479,1480,1477,1478,1479,1480,1477,1478,1479,1480,1477,1478,1479,1480,1477,1478,1479,1480,1477,1478,1479,1480,1477,1478,1479,1480,1477,1478,1479,1480,1477,1478,1479,1480,1477,1478,1479,1480,1477,1478,1479,1480,1477,1478,1479,1480,1477,1478,1479,1480,1477,1478,1479,1480,1477,1478,1479,1480,1477,1478,1479,1480,1477,1478,1479,1480,1477,1478,1479,1480,1477,1478,1479,1480,1477,1478,1479,1480,1477,1478,1479,1480,1477,1478,1479,1480,1477,1478,1479,1480,1477,1478,1479,1480,1477,1478,1479,1480,1477,1478,1479,1480,1477,1478,1479,1480,1477,1478,1479,1480,1477,1478,1479,1480,1477,1478,1479,1480,1477,1478,1479,1480,1477,1478,1479,1480,1477,1478,1479,1480,1477,1478,1479,1480,1477,1478,1479,1480,1477,1478,1479,1480,1477,247,0,0,0,248,0,1,1,1,0,131,1329,1332,131,117,0,116,131,131,1329,1332,131,1329,1332,0,0,0,0,1,1,1,1,1,1,1,1,1,1,1,1,1,1,1,1,1,3486,1,3486,1,1,1,1,1,1,1,1,1,1,1,1,1,1,1,1,1,1,1,1,1,1,1,1,1,1,1,1,1,1,1,1,1,1,1,1,1,1,1,3486,1,1,3486,1,1,1,1,1,3486,1,1,1,1,1,1,1,1,1,1,1,1,1,1,1,1,1,1,1,1,1,1,1,1,3475,1,1,1,3477,1,1,1,3486,1,1,1,3486,1,1,0,0,0,0,0,0,0,0,0,0,58,
1,1,1,1,1,1,1,1,1,1,1,1,1,1,1,1,1,1,1,1,1,1,1,1,1,1,1,1,1,1,1,1,1,1,1,1,1,1,1,1,1,1,3486,1,3486,1,1,1,1,1,1,1,1,1,1,1,1,1,1,1,1,1,1,1,1,1,1,1,1,1,1,1,1,1,1,1,1,1,1,1,1,1,1,1,1,1,1,1,1,1,1,1,1,1,1,1,1,1,1,1,1,1,1,1,1,1,1,1,1,1,1,1,1,1,1,1,1,0,0,0,0,0,0,0,1,1,1,1,1,1,1,1,1,1,1,1,1,1,1,1,1,1,1,1,1,1,1,1,1,1,1,1,1,1,1,1,1,1,1,1,1,1,1,1,1,1,1,1,1,1,1,1,1,1,1,1,1,1,1,1,1,1,1,1,1,1,1,1,1,1,1,1,1,1,1,1,1,1,1,1,1,1,1,1,1,1,1,1,1,1,1,1,1,1,1,1,1,1,1,1,1,1,1,1,1,1,1,1,1,1,1,1,1,1,1,1,1,1,1,1,1,1,1,1,1,1,1,1,1,1,1,1,1,1,1,1,1,1,1,1,1,1,1,1,1,1,1,1,1,1,1,1,1,1,1,1,1,1,1,1,1,1,1,1,1,1,1,1,1,1,1,1,1,1,1,1,1,1,1,1,1,1,1,1,1,1,1,1,1,1,1,1,1,1,1,1,1,1,1,1,1,1,1,1,1,1,1,1,1,1,1,1,1,1,1,1,1,1,1,1,1,1,1,1,1,131,1,1,1,1,1,1,1,1,1,1,1,1,1,1,1,1,1,1,1,1,1,1,1,1,1,1,1,1,1,1,1,1,1,1,1,1,1,1,1,1,1,1,1,1,1,1,1,1,1,1,1,1,1,1,1,1,1,1,1,1,1,1,1,1,1,1,1,1,1,1,1,1,1,1,1,1,1,1,1,1,1,1,1,1,1,1,1,1,1,1,1,1,1,1,1,1,1,1,1,1,1,1,1,1,1,1,1,1,1,1,1,1,1,1,1,1,1,1,1,1,1,1,1,1,1,1,1,1,1,1,1,1,1,1,1,1,1,1,1,1,1,1,1,1,1,1,1,1,1,1,1,1,1,1,1,1,1,1,1,1,1,1,1,1,1,1,1,1,1,1,1,1,1,1,1,1,1,1,1,1,1,1,1,1,1,1,1,1,1,1,1,1,1,1,1,1,1,1,1,1,1,1,1,1,1,1,1,1,1,1,1,1,1,1,1,1,1,1,1,1,1,1,1,1,1,1,1,1,1,1,1,1,1,1,1,1,1,1,1,1,1,1,1,1,1,1,1,1,1,1,1,1,1,1,1,1,1,1,1,1,1,1,1,1,1,1,1,1,1,1,1,1,1,1,1,1,1,1,1,1,1,1,1,1,1,1,1,1,1,1,1,1,1,1,1,1,1,1,1,1,1,1,1,1,1,1,1,1,1,1,1,1,1,1,1,1,1,1,1,1,1,1,1,1,1,1,1,1,1,1,1,1,1,1,1,1,1,1,1,1,1,1,1,1,1,1,1,1,1,1,1,1,1,1,1,1,1,1,1,1,1,1,1,1,1,1,1,1,1,1,1,1,1,1,1,1,1,1,1,1,1,1,1,1,1,1,1,1,1,1,1,1,1,1,1,1,1,1,1,1,1,1,1,1,1,1,1,1,1,1,1,1,1,1,1,1,1,1,1,1,1,1,1,1,1,1,1,1,1,1,1,1,1,1,1,1,1,1,1,1,1,1,1,1,1,1,1,1,1,1,1,1,1,1,1,1,1,1,1,1,1,1,1,1,1,1,1,1,1,1,1,1,1,1,1,1,1,1,1,1,1,1,1,1,1,1,1,1,1,1,1,1,1,1,1,1,1,1,1,1,1,1,1,1,1,1,1,1,1,1,1,1,1,1,1,1,1,1,1,1,1,1,1,1,1,1,1,1,1,1,1,1,1,1,1,1,1,1,1,1,1,1,1,1,1,1,1,1,1,1,1,1,1,1,1,1,1,1,1,1,1,1,1,1,1,1,1,1,1,1,1,1,1,1,1,1,1,1,1,1,1,1,1,1,1,1,1,1,1,1,1,1,1,1,1,1,3484,1,1,1,1,3486,1,1,1,1,1,1,1,1,1,3486,1,3484,1,1,1,1,1,1,1,1,1,1,1,1,1,1,1,1,1,1,1,1,1,1,3484,1,1,1,1,3486,1,3484,1,1,1,1,1,1,1,1,1,1,1,1,1,1,1,1,1,1,1,1,1,1,1,1,1,1,1,1,1,1,1,1,1,1,1,1,1,1,1,3486,1,3484,1,1,1,1,1,3484,1,1,1,1,1,1,3479,3480,1,1,3486,1,3486,1,1,1,1,1,1,1,1,1,3484,1,1,1,1,1,1,1,1,1,1,1,1,1,1,1,1,1331,1332,1,1,1,1,1,1,1,1331,115,132,115,1332,1,1,1,1,1,1,1,1,1,1331,115,132,115,1332,1,1,1,1,1,1,1,1331,115,132,132,132,132,132,132,132,132,132,132,132,132,132,132,132,132,132,115,1332,1,1,1,1,1,1,1,1,1,1,1331,115,132,132,132,132,132,114,114,114,132,132,132,132,132,132,114,1330,1,1,1,1,1,1,1,1329,114,132,132,132,132,132,132,132,114,1330,1,1,1,1,1,1,1,1,1329,114,132,132,132,115,1332,32,32,32,32,32,32,32,1331,126,1330,1,1,1,1555,1478,1479,1480,1461,1462,1463,1464,1461,1462,1463,1464,1461,1462,1463,1464,1461,1462,1463,1464,1461,1462,1463,1464,1461,1462,1463,1464,1461,1462,1463,1464,1461,1462,1463,1464,1461,1462,1463,1464,1461,1462,1463,1464,1461,1462,1463,1464,1461,1461,1461,1462,1463,1464,1461,1462,1463,1464,1461,1462,1463,1464,1461,1462,1463,1464,1461,1462,1463,1464,1461,1462,1463,1464,1461,1462,1463,1464,1461,1462,1463,1464,1461,1462,1461,1462,1463,1464,1461,1462,1463,1464,1461,1462,1463,1464,1461,1462,1463,1464,1461,1462,1463,1464,1461,1462,1463,1464,1461,1462,1463,1464,1461,1462,1463,1464,1461,1462,1463,1464,1461,1462,1463,1464,1461,1462,1463,1464,1461,1462,1,1,1,1,1,1,131,3464,1,1,1,1,1,1,1,1,1,1,1,1,1,1,1,1,1,1,1,1,1,1,1,1,1,1,1,1,1,1,1,1,1,1,1,1,1,1,1,1,1,1,1,1,1,1,1,1,1,1,1,1,1,1,1,1,1,1,1,1,1,1,1,1,1,1,1,1,1,1,1,1,1,1,1,1,1,1,1,1,1,1,1,1,1,1,1,1,1,1,1,1,1,1,1,1,1,1,1,1,1,1,1,1,1,1,1,1,1,1,1,1,3466,3462,3462,3462,3462,3462,3462,3462,3462,3462,3462,3462,3462,1779,1799,0,0,0,0,0,0,0,0,0,1800,1780,3462,3462,3462,3462,3462,3462,3462,3462,3462,3462,3462,3462,3462,3462,3462,3462,3462,3462,3462,3462,3462,3462,3462,3462,3462,3462,3462,3462,3462,3462,3462,3462,3462,3462,3462,3462,3462,3462,3462,3462,3462,3462,3462,3462,3462,3462,3462,3462,3462,3462,3462,1779,1803,1831,0,0,0,0,0,1832,1804,1780,1,1,1,1,1,1,1,1,1,1,1,1,1779,1799,0,0,0,1800,1780,3462,3462,3462,3462,3462,3462,3462,3462,3462,3462,3462,3462,3462,3462,3462,3462,3462,3462,3462,3462,3462,3462,3462,3462,3462,3462,3462,3462,3462,3462,3462,3462,3462,3462,247,3770,248,3462,3462,3462,3462,3462,3462,3462,3462,3462,3462,3462,3462,3462,3462,3462,3462,3462,3462,3462,3462,1779,1799,0,0,0,0,0,1800,1780,3462,3462,3462,3462,3462,3462,3462,3462,3462,3462,3462,3462,3462,3462,3462,3462,3462,3462,3462,3462,3462,3462,3462,3462,3462,3462,3462,3462,3462,3462,3462,3462,247,3773,248,3462,3462,3462,3462,3462,3462,3462,3462,3462,3462,3462,3462,3462,3462,3462,3462,3462,3462,247,3773,248,3462,3462,3462,3462,3462,3462,3462,3462,3462,3462,3462,3462,3462,3462,3462,3462,3462,3462,3462,3462,3462,1779,1799,0,0,0,0,0,1800,1780,3462,3462,3462,3462,3462,3462,3462,3462,3462,3462,3462,3462,3462,3462,3462,3462,3462,3462,3462,3462,3462,3462,3462,3462,3462,3462,3462,3462,3462,3462,3462,3462,3462,3462,3462,3462,3462,3462,3462,3462,3462,3462,3462,3462,3462,3462,3462,3462,3462,3462,3462,3462,3462,3462,3462,3462,3462,3462,3462,3462,3462,3462,3462,3462,3462,3462,3462,3462,3462,3462,3462,3462,3462,3462,3462,3462,1779,1799,0,0,248,0,1,1,1,0,116,117,0,131,123,114,1332,131,116,117,0,116,117,0,0,0,0,0,1,1,1,1,1,1,1,1,1,1,1,1,1,1,1,1,1,3486,1,3486,1,1,1,1,1,1,1,1,1,1,1,1,1,1,1,1,1,1,1,1,1,1,1,1,1,1,1,1,1,1,1,1,1,1,1,1,1,1,1,3486,1,1,3486,1,1,1,1,1,3486,1,1,1,1,1,1,1,1,1,1,1,1,1,1,1,1,1,1,1,1,1,1,1,1,3475,1,1,1,3477,1,1,1,3486,1,1,1,3486,1,1,0,0,0,0,0,0,0,0,0,0,58,
1,1,1,1,1,1,1,1,1,1,1,1,1,1,1,1,1,1,1,1,1,1,1,1,1,1,1,1,1,1,1,1,1,1,1,1,1,1,1,1,1,1,3486,1,3486,1,1,1,1,1,1,1,1,1,1,1,1,1,1,1,1,1,1,1,1,1,1,1,1,1,1,1,1,1,1,1,1,1,1,1,1,1,1,1,3486,1,1,3486,1,1,1,1,1,3486,1,1,1,1,1,1,1,1,1,1,1,1,1,1,1,1,1,1,1,1,1,1,1,0,3475,0,0,0,3477,0,1,1,3486,1,1,1,3486,1,1,1,1,1,1,1,1,1,1,1,1,1,1,1,1,1,1,1,1,1,1,1,1,1,1,1,1,1,1,1,1,1,1,1,1,1,1,1,1,1,1,1,1,1,1,1,1,3486,1,3486,1,1,1,1,1,1,1,1,3486,1,1,1,1,1,1,1,1,1,1,1,1,1,1,1,1,1,1,1,1,1,1,1,1,1,1,1,1,1,1,1,1,1,1,1,1,1,1,1,1,3486,1,3486,1,1,1,1,1,1,1,1,1,1,1,1,3486,1,1,3486,1,1,1,1,1,1,1,1,1,1,1,1,1,1,1,1,1,1,1,1,1,1,1,1,1,1,1429,1430,1431,1432,1429,1430,1431,1432,1429,1430,1431,1432,1429,1430,1431,1432,1429,1430,1431,1432,1429,1430,1431,1432,1429,1430,1431,1432,1429,1430,1431,1432,1429,1430,1431,1432,1429,1430,1431,1432,1429,1430,1431,1432,1429,1430,1431,1432,1429,1430,1431,1432,1429,1430,1431,1432,1429,1430,1431,1432,1429,1430,1431,1432,1429,1430,1431,1432,1429,131,1,1,1,1,1,1,1,1,1,1,1,1,1,1,1,1,1,1,1,1,1,1,1,1,1,1,1,1,1,1,1,1,1,1,1,1,1,1,1,1,1,1,1,1,1,1,1,1,1,1,1,1,1,1,1,1,1,1,1,1,1,1,1,1,1,1,1,1,1,1,3463,1430,1431,1432,1429,1430,1431,1432,1429,1430,1431,1432,1429,1430,1431,1432,1429,1430,1431,1432,1429,1430,1431,1432,1429,1430,1431,1432,1429,1430,1431,1432,1429,1430,1431,1432,1429,1430,1431,1432,1429,1430,1431,1432,1429,1430,1431,1432,1429,1430,1431,1432,1429,1430,1431,1432,1429,1430,1431,1432,1429,1430,1431,1432,1429,1430,1431,1432,1429,1430,1431,1432,1429,1430,1431,1432,1429,1430,1431,1432,1429,1430,1431,1432,1429,1430,1431,1432,1429,1430,1431,1432,1429,1430,1431,1432,1429,1430,1431,1432,1429,1430,1431,1432,1429,1430,1431,1432,1429,1430,1431,1432,1429,1430,1431,1432,1429,1430,1431,1432,1429,1430,1431,1432,1429,1430,1431,1432,1429,1430,1431,1432,1429,1430,1431,1432,1429,1430,1431,1432,1429,1430,1431,1432,1429,1430,1431,1432,1429,1430,1431,1432,1429,1430,1431,1432,1429,1430,1431,1432,1429,1430,1431,1432,1429,1430,1431,1432,1429,1430,1431,1432,1429,1430,1431,1432,1429,1430,1431,1432,1429,1430,1431,1432,1429,1430,1431,1432,1429,1430,1431,1432,1429,1430,1431,1432,1429,1430,1431,1432,1429,1430,1431,1432,1429,1430,1431,1432,1429,1430,1431,1432,1429,1430,1431,1432,1429,1430,1431,1432,1429,1430,1431,1432,1429,1430,1431,1432,1429,1430,1431,1432,1429,1430,1431,1432,1429,1430,1431,1432,1429,1430,1431,1432,1429,1430,1431,1432,1429,1430,1431,1432,1429,1430,1431,1432,1429,1430,1431,1432,1429,1430,1431,1432,1429,1430,1431,1432,1429,1430,1431,1432,1429,1430,1431,1432,1429,1430,1431,1432,1429,1430,1431,1432,1429,1430,1431,1432,1429,1430,1431,1432,1429,1430,1431,1432,1429,1430,1431,1432,1429,1430,1431,1432,1429,1430,1431,1432,1429,1430,1431,1432,1429,1430,1431,1432,1429,1430,1431,1432,1429,1430,1431,1432,1429,1430,1431,1432,1429,1430,1431,1432,1429,1430,1431,1432,1429,1430,1431,1432,1429,1430,1431,1432,1429,1430,1431,1432,1429,1430,1431,1432,1429,1430,1431,1432,1429,1430,1431,1432,1429,1430,1431,1432,1429,1430,1431,1432,1429,1430,1431,1432,1429,1430,1431,1432,1429,1430,1431,1432,1429,1430,1431,1432,1429,1430,1431,1432,1429,1430,1431,131,3464,1,1,1,1,1,1,1,1,1,1,1,1,1,1,1,1,1,1,1,1,1,1,1,1,1,1,1,1,1,1,1,1,1,1,1,1,1,1,1,1,1,1,1,1,1,1,1,1,1,1,1,1,1,1,1,1,1,1,1,1,1,1,1,1,1,1,1,1,1,1,1,1,1,1,1,1,1,1,1,1,1,1,1,1,1,1,1,1,1,1,1,1,1,1,1,1,1,1,1,1,1,1,1,1,1,1,1,1,1,1,1,1,1,1,1,1,1,1,1,1,1,1,1,1,1,1,1,1,1,1,1,1,1,1,1,1,1,1,3484,1,1,1,1,1,1,1,1,1,3484,1,1,1,1,1,1,1,1,1,1,1,1,1,1,1,1,1,1,1,1,1,1,1,1,1,1,1,1,1,3484,1,7861,1,1,1,1,1,1,1,1,1,1,1,1,1,1,1,1,1,1,1,1,1,1,1,1,1,1,1,1,1,1,1,1,1,1,1,1,1,1,1,3484,1,1,1,1,1,1,1,1,1,1,1,1,1,1,0,0,1,1,3486,1,3484,1,1,1,1,1,1,1,1,1,1,1,1,1,1,1,1,1,1,1,1,1,1,1,1,1,1,1,1,1,1,1,1,1,1,1,1,1,1,1,1,1,1,1,1,1,1,1,1,1,1,1,1,1,1,1,1,1,1,1,1,1,1,32,32,32,32,32,32,32,32,32,32,32,32,32,32,32,32,32,32,32,1,1,1,1,1,1,1,1,1,1,1,1,1,1,1,1,1,1,1331,115,1332,32,32,32,32,32,32,1331,126,1330,1,1,1,1,1,1329,126,1332,1,1,1,1,1,1,1,1331,126,1330,1,1,1,1329,114,132,132,115,1332,32,32,32,32,1,1,1,1,1,1,1,1,1,1331,126,1330,1,1,1,1,1,1,1555,1478,1479,1480,1477,1478,1479,1480,1477,1478,1479,1480,1477,1478,1479,1480,1477,1478,1479,1480,1477,1478,1479,1480,1477,1478,1479,1480,1477,1478,1479,1480,1477,1478,1479,1480,1477,1478,1479,1480,1477,1478,1479,1480,1477,1477,1477,1478,1479,1480,1477,1478,1479,1480,1477,1478,1479,1480,1477,1478,1479,1480,1477,1478,1479,1480,1477,1478,1479,1480,1477,1478,1479,1480,1477,1478,1479,1480,1477,1478,1477,1478,1479,1480,1477,1478,1479,1480,1477,1478,1479,1480,1477,1478,1479,1480,1477,1478,1479,1480,1477,1478,1479,1480,1477,1478,1479,1480,1477,1478,1479,1480,1477,1478,1479,1480,1477,1478,1479,1480,1477,1478,1479,1480,1477,1478,1329,114,132,132,132,132,121,3464,1,1,1,1,1,1,1,1,1,1,1,1,1,1,1,1,1,1,1,1,1,1,1,1,1,1,1,1,1,1,1,1,0,0,0,0,0,1,1,1,1,1,1,1,1,1,1,1,1,1,1,1,1,1,1,1,1,1,1,1,1,1,1,1,1,1,1,1,1,1,1,1,3486,1,3486,1,1,3486,1,1,1,1,1,1,1,1,1,1,1,1,1,1,1,1,1,1,1,1,1,1,1,1,1,1,1,1,1,1,1,1,1,1,1,1,1,1,1,1,1,1,1,1,1,1,1,1,1779,1803,1831,0,0,0,0,0,1832,1804,1780,1,1,1,1,1,1,1,1,1,1,1,1,1,1,1,1,1,1,1,1,1,1,1,1,1,1,1,1,1,1,1,1,1,1,1,1,1,1,1,1,1,1,1,1,1,1,1,1,1,1,1,1,1,1785,1786,246,246,246,246,246,1787,1788,1,1,1,1,1,1,1,1,1,1,1,1,1,1,1779,246,246,246,1780,1,1,1,1,1,1,1,1,1,1,1,1,1,1,1,1,1,1,1,1,1,1,1,1,1,1,1,1,1,1,1,1,1,1,1,251,246,252,1,1,1,1,1,1,1,1,1,1,1,1,1,1,1,1,1,1,1,1,1,1779,1799,0,0,0,1800,1780,1,1,1,1,1,1,1,1,1,1,1,1,1,1,1,1,1,1,1,1,1,1,1,1,1,1,1,1,1,1,1,1,1,247,3773,248,1,1,1,1,1,1,1,1,1,1,1,1,1,1,1,1,1,1,247,3773,248,1,1,1,1,1,1,1,1,1,1,1,1,1,1,1,1,1,1,1,1,1,1,1779,1799,0,0,0,1800,1780,1,1,1,1,1,1,1,1,1,1,1,1,1,1,1,1,1,1,1,1,1,1,1,1,1,1,1,1,1,1,1,1,1,1,1,1,1,1,1,1,1,1,1,1,1,1,1,1,1,1,1,1,1,1,1,1,1,1,1,1,1,1,1,1,1,1,1,1,1,1,1,1,1,1,1,1,1,0,1779,1799,0,248,0,1,1,1,0,131,1331,1330,131,117,1331,1330,131,131,1331,1330,131,1331,1330,0,0,0,0,1,1,1,1,1,1,1,1,1,1,1,1,1,1,1,1,1,3486,1,3486,1,1,1,1,1,1,1,1,1,1,1,1,1,1,1,1,1,1,1,1,1,1,1,1,1,1,1,1,1,1,1,1,1,1,1,1,1,1,1,3486,1,1,3486,1,1,1,1,1,3486,1,1,1,1,1,1,1,1,1,1,1,1,1,1,1,1,1,1,1,1,1,1,1,1,3475,1,1,1,3477,1,1,1,3486,1,1,1,3486,1,1,0,0,0,0,0,0,0,0,0,0,58,
1,1,1,1,1,1,1,1,1,1,1,1,1,1,1,1,1,1,1,1,1,1,1,1,1,1,1,1,1,1,1,1,1,1,1,1,1,1,1,1,1,1,3486,1,3486,1,1,1,1,1,1,1,1,1,1,1,1,1,1,1,1,1,1,1,1,1,1,1,1,1,1,1,1,1,1,1,1,1,1,1,1,1,1,1,3486,1,1,3486,1,1,1,1,1,3486,1,1,1,1,1,1,1,1,1,1,1,1,1,1,1,1,1,1,1,1,1,1,1,0,3475,0,0,0,3477,0,1,1,3486,1,1,1,3486,1,1,1,1,1,1,1,1,1,1,1,1,1,1,1,1,1,1,1,1,1,1,1,1,1,1,1,1,1,1,1,1,1,1,1,1,1,1,1,1,1,1,1,1,1,1,1,1,3486,1,3486,1,1,1,1,1,1,1,1,3486,1,1,1,1,1,1,1,1,1,1,1,1,1,1,1,1,1,1,1,1,1,1,1,1,1,1,1,1,1,1,1,1,1,1,1,1,1,1,1,1,3486,1,3486,1,1,1,1,1,1,1,1,1,1,1,1,3486,1,1,3486,1,1,1,1,1,1,1,1,1,1,1,1,1,1,1,1,1,1,1,1,1,1,1,1,1,1,1445,1446,1447,1448,1445,1446,1447,1448,1445,1446,1447,1448,1445,1446,1447,1448,1445,1446,1447,1448,1445,1446,1447,1448,1445,1446,1447,1448,1445,1446,1447,1448,1445,1446,1447,1448,1445,1446,1447,1448,1445,1446,1447,1448,1445,1446,1447,1448,1445,1446,1447,1448,1445,1446,1447,1448,1445,1446,1447,1448,1445,1446,1447,1448,1445,1446,1447,1448,1445,131,1,1,1,1,1,1,1,1,1,1,1,1,1,1,1,1,1,1,1,1,1,1,1,1,1,1,1,1,1,1,1,1,1,1,1,1,1,1,1,1,1,1,1,1,1,1,1,1,1,1,1,1,1,1,1,1,1,1,1,1,1,1,1,1,1,1,1,1,1,1,3463,1446,1447,1448,1445,1446,1447,1448,1445,1446,1447,1448,1445,1446,1447,1448,1445,1446,1447,1448,1445,1446,1447,1448,1445,1446,1447,1448,1445,1446,1447,1448,1445,1446,1447,1448,1445,1446,1447,1448,1445,1446,1447,1448,1445,1446,1447,1448,1445,1446,1447,1448,1445,1446,1447,1448,1445,1446,1447,1448,1445,1446,1447,1448,1445,1446,1447,1448,1445,1446,1447,1448,1445,1446,1447,1448,1445,1446,1447,1448,1445,1446,1447,1448,1445,1446,1447,1448,1445,1446,1447,1448,1445,1446,1447,1448,1445,1446,1447,1448,1445,1446,1447,1448,1445,1446,1447,1448,1445,1446,1447,1448,1445,1446,1447,1448,1445,1446,1447,1448,1445,1446,1447,1448,1445,1446,1447,1448,1445,1446,1447,1448,1445,1446,1447,1448,1445,1446,1447,1448,1445,1446,1447,1448,1445,1446,1447,1448,1445,1446,1447,1448,1445,1446,1447,1448,1445,1446,1447,1448,1445,1446,1447,1448,1445,1446,1447,1448,1445,1446,1447,1448,1445,1446,1447,1448,1445,1446,1447,1448,1445,1446,1447,1448,1445,1446,1447,1448,1445,1446,1447,1448,1445,1446,1447,1448,1445,1446,1447,1448,1445,1446,1447,1448,1445,1446,1447,1448,1445,1446,1447,1448,1445,1446,1447,1448,1445,1446,1447,1448,1445,1446,1447,1448,1445,1446,1447,1448,1445,1446,1447,1448,1445,1446,1447,1448,1445,1446,1447,1448,1445,1446,1447,1448,1445,1446,1447,1448,1445,1446,1447,1448,1445,1446,1447,1448,1445,1446,1447,1448,1445,1446,1447,1448,1445,1446,1447,1448,1445,1446,1447,1448,1445,1446,1447,1448,1445,1446,1447,1448,1445,1446,1447,1448,1445,1446,1447,1448,1445,1446,1447,1448,1445,1446,1447,1448,1445,1446,1447,1448,1445,1446,1447,1448,1445,1446,1447,1448,1445,1446,1447,1448,1445,1446,1447,1448,1445,1446,1447,1448,1445,1446,1447,1448,1445,1446,1447,1448,1445,1446,1447,1448,1445,1446,1447,1448,1445,1446,1447,1448,1445,1446,1447,1448,1445,1446,1447,1448,1445,1446,1447,1448,1445,1446,1447,1448,1445,1446,1447,1448,1445,1446,1447,1448,1445,1446,1447,1448,1445,1446,1447,1448,1445,1446,1447,1448,1445,1446,1447,1448,1445,1446,1447,1448,1445,1446,1447,1448,1445,1446,1447,131,3464,1,1,1,1,1,1,1,1,1,1,1,1,1,1,1,1,1,1,1,1,1,1,1,1,1,1,1,1,1,1,1,1,1,1,1,1,1,1,131,5981,131,5981,1,1,131,5981,1,1,1,1,1,1,1,1,1,1,1,1,1,1,1,1,1,1,1,1,1,1,1,1,1,1,1,1,1,1,1,1,1,1,1,1,1,1,1,1,1,1,1,1,1,1,1,1,1,1,1,1,1,1,1,1,1,1,1,1,1,1,1,1,1,1,1,1,1,1,1,1,1,1,1,1,1,1,1,1,1,1,1,1,1,1,1,1,1,1,1,1,1,1,1,1,1,1,1,1,1,1,1,1,1,1,1,1,1,1,1,1,757,757,3482,5977,5977,1,1,1,1,1,1,1,1,1,1,1,1,1,1,1,1,1,1,1,1,1,1,1,1,1,1,1,1,1,1,3482,5981,1,1,1,1,1,1,1,1,1,3482,5981,1,1,1,1,1,1,1,1,1,1,1,1,1,1,1,1,1,1,1,1,1,1,1,1,1,1,1,1,1,0,0,1,1,3484,1,1,1,1,1,1,1,1,1,1,1,1,1,1,1,1,1,1,1,1,1,1,1,1,1,1,1,1,1,1,1,1,1,1,1,1,1,1,1,1,1,1,1,1,1,1,1,1,1,1,1,1,1,1,1,1,1,1,1,1,1,1,1,1,1,1,1,1,1,1,1,1,1,1,1,1,1,1,1,1,1,1,1,1,1,1,1,1,1,1,1,1,1,1,1,1,1,1,1,1,1,1,1,1,1,1,1,1,1,1,1,1331,115,132,132,132,132,132,115,1332,1,1,1,1,1,1,1,1,1,1331,115,132,132,132,115,1332,32,32,32,1,1,1,1,1,1,1,1,1,1,1,1,1,1,1,1331,126,1330,1,1,1,1,1,1,1,1,1,1,1,1329,126,1332,3462,3462,3462,3462,3462,3462,3462,3462,3462,3462,3462,1331,126,1330,1,1,1,1,1,1,1,1,1,1,1,1,1,1,1,1,1,1329,126,1332,3462,3462,3462,3462,3462,3462,3462,3462,3462,3462,3462,3462,3462,3462,3462,3462,3462,3462,3462,3462,3462,3462,3462,3462,3462,3462,3462,3462,3462,1331,126,1330,1,1,1,1,1,1,1,1,1,1,1,1,1,1,1,1,1329,126,1332,3462,3462,3462,3462,3462,3462,3462,3462,1331,126,1330,1,1,1,1,1329,126,1332,3462,3462,3462,1331,126,1330,1,1,1,1,1,1,1,1329,126,1332,3462,3462,3462,3462,3462,3467,1,1,1,1,1,1,1,1,1,1,1,1,1,1,1,1,1,1,1,1,1,1,1,1,1,1,1,1,1,1,1,1,3475,0,0,0,3477,1,1,1,3486,1,1,3486,1,1,3486,1,1,1,1,1,1,1,1,1,1,1,1,1,1,1,1,1,1,1,1,1,1,1,1,1,3486,1,3486,1,1,3486,1,1,1,1,1,1,1,1,1,1,1,1,1,1,1,1,1,1,1,1,1,1,1,1,1,1,3483,3487,3487,3487,3487,3487,3485,1,1,1,1,1,1,1,1,1,1,1,1,1,1,1,1,1785,1786,246,246,246,246,246,1787,1788,1,1,1,1,1,1,1,1,1,1,1,1,1,1,1,1,1,1,1,1,1,1,1,1,1,1,1,1,1,1,1,1,1,1,1,1,1,1,1,1,1,1,1,1,1,1,1,1,1,1,1,1,1,1,1,0,0,0,0,0,0,1,1,1,1,1,1,1,1,1,1,1,1,1,1,1,0,0,0,758,0,1,1,1,1,1,1,1,1,1,1,1,1,1,1,1,1,1,1,1,1,1,1,1,1,1,1,1,1,1,1,1,1,1,1,1,1,762,762,762,1,1,1,1,1,1,1,1,1,1,1,1,1,1,1,1,1,1,1,1,1,1,1779,246,246,246,1780,1,1,1,1,1,1,1,1,1,1,1,1,1,1,1,1,1,1,1,1,1,1,1,1,1,1,1,1,1,1,1,1,1,1,247,3773,248,1,1,1,1,1,1,1,1,1,1,1,1,1,1,1,1,1,1,247,3773,248,1,1,1,1,1,1,1,1,1,1,1,1,1,1,1,1,1,1,1,1,1,1,1,1779,246,246,246,1780,1,1,1,1,1,1,1,1,1,1,1,1,1,1,1,1,1,1,1,1,1,1,1,1,1,1,1,1,1,1,1,1,1,1,1,1,1,1,1,1,1,1,1,1,1,1,1,1,1,1,1,1,1,1,1,1,1,1,1,1,1,1,1,1,1,1,1,1,1,1,1,1,1,1,1,1,1,1,0,0,1779,1799,248,1,1,1,1,1,128,1,1331,128,121,1,1331,128,128,1,1331,128,1,1331,3475,0,0,0,1,1,1,1,1,1,1,1,1,1,1,1,1,1,1,1,1,3486,1,3486,1,1,1,1,1,1,1,1,1,1,1,1,1,1,1,1,1,1,1,1,1,1,1,1,1,1,1,1,1,1,1,1,1,1,1,1,1,1,1,3486,1,1,3486,1,1,1,1,1,3486,1,1,1,1,1,1,1,1,1,1,1,1,1,1,1,1,1,1,1,1,1,1,1,1,3475,1,1,1,3477,1,1,1,3486,1,1,1,3486,1,1,0,0,0,0,0,0,0,0,0,0,58,
1,1,1,1,1,1,1,1,1,1,1,1,1,1,1,1,1,1,1,1,1,1,1,1,1,1,1,1,1,1,1,1,1,1,1,1,1,1,1,1,1,1,3486,1,3486,1,1,1,1,1,1,1,1,1,1,1,1,1,1,1,1,1,1,1,1,1,1,1,1,1,1,1,1,1,1,1,1,1,1,1,1,1,1,1,3486,1,1,3486,1,1,1,1,1,3486,1,1,1,1,1,1,1,1,1,1,1,1,1,1,1,1,1,1,1,1,1,1,1,0,3475,0,0,0,3477,0,1,1,3486,1,1,1,3486,1,1,1,1,1,1,1,1,1,1,1,1,1,1,1,1,1,1,1,1,1,1,1,1,1,1,1,1,1,1,1,1,1,1,1,1,1,1,1,1,1,1,1,1,1,1,1,1,3486,1,3486,1,1,1,1,1,1,1,1,3486,1,1,1,1,1,1,1,1,1,1,1,1,1,1,1,1,1,1,1,1,1,1,1,1,1,1,1,1,1,1,1,1,1,1,1,1,1,1,1,1,3486,1,3486,1,1,1,1,1,1,1,1,1,1,1,1,3486,1,1,3486,1,1,1,1,1,1,1,1,1,1,1,1,1,1,1,1,1,1,1,1,1,1,1,1,1,1,1461,1462,1463,1464,1461,1462,1463,1464,1461,1462,1463,1464,1461,1462,1463,1464,1461,1462,1463,1464,1461,1462,1463,1464,1461,1462,1463,1464,1461,1462,1463,1464,1461,1462,1463,1464,1461,1462,1463,1464,1461,1462,1463,1464,1461,1462,1463,1464,1461,1462,1463,1464,1461,1462,1463,1464,1461,1462,1463,1464,1461,1462,1463,1464,1461,1462,1463,1464,1461,131,1,1,1,1,1,1,1,1,1,1,1,1,1,1,1,1,1,1,1,1,1,1,1,1,1,1,1,1,1,1,1,1,1,1,1,1,1,1,1,1,1,1,1,1,1,1,1,1,1,1,1,1,1,1,1,1,1,1,1,1,1,1,1,1,1,1,1,1,1,1,3463,1462,1463,1464,1461,1462,1463,1464,1461,1462,1463,1464,1461,1462,1463,1464,1461,1462,1463,1464,1461,1462,1463,1464,1461,1462,1463,1464,1461,1462,1463,1464,1461,1462,1463,1464,1461,1462,1463,1464,1461,1462,1463,1464,1461,1462,1463,1464,1461,1462,1463,1464,1461,1462,1463,1464,1461,1462,1463,1464,1461,1462,1463,1464,1461,1462,1463,1464,1461,1462,1463,1464,1461,1462,1463,1464,1461,1462,1463,1464,1461,1462,1463,1464,1461,1462,1463,1464,1461,1462,1463,1464,1461,1462,1463,1464,1461,1462,1463,1464,1461,1462,1463,1464,1461,1462,1463,1464,1461,1462,1463,1464,1461,1462,1463,1464,1461,1462,1463,1464,1461,1462,1463,1464,1461,1462,1463,1464,1461,1462,1463,1464,1461,1462,1463,1464,1461,1462,1463,1464,1461,1462,1463,1464,1461,1462,1463,1464,1461,1462,1463,1464,1461,1462,1463,1464,1461,1462,1463,1464,1461,1462,1463,1464,1461,1462,1463,1464,1461,1462,1463,1464,1461,1462,1463,1464,1461,1462,1463,1464,1461,1462,1463,1464,1461,1462,1463,1464,1461,1462,1463,1464,1461,1462,1463,1464,1461,1462,1463,1464,1461,1462,1463,1464,1461,1462,1463,1464,1461,1462,1463,1464,1461,1462,1463,1464,1461,1462,1463,1464,1461,1462,1463,1464,1461,1462,1463,1464,1461,1462,1463,1464,1461,1462,1463,1464,1461,1462,1463,1464,1461,1462,1463,1464,1461,1462,1463,1464,1461,1462,1463,1464,1461,1462,1463,1464,1461,1462,1463,1464,1461,1462,1463,1464,1461,1462,1463,1464,1461,1462,1463,1464,1461,1462,1463,1464,1461,1462,1463,1464,1461,1462,1463,1464,1461,1462,1463,1464,1461,1462,1463,1464,1461,1462,1463,1464,1461,1462,1463,1464,1461,1462,1463,1464,1461,1462,1463,1464,1461,1462,1463,1464,1461,1462,1463,1464,1461,1462,1463,1464,1461,1462,1463,1464,1461,1462,1463,1464,1461,1462,1463,1464,1461,1462,1463,1464,1461,1462,1463,1464,1461,1462,1463,1464,1461,1462,1463,1464,1461,1462,1463,1464,1461,1462,1463,1464,1461,1462,1463,1464,1461,1462,1463,1464,1461,1462,1463,1464,1461,1462,1463,1464,1461,1462,1463,1464,1461,1462,1463,1464,1461,1462,1463,1464,1461,1462,1463,1464,1461,1462,1463,131,3464,1,1,1,1,1,1,1,1,1,1,1,1,1,1,1,1,1,1,1,1,1,1,1,1,1,1,1,1,1,1,1,1,1,1,1,1,1,1,131,5981,131,5981,1,1,131,5981,1,1,1,1,1,1,1,1,1,1,1,1,1,1,1,1,1,1,1,1,1,1,1,1,1,1,1,1,1,1,1,1,1,1,1,1,1,1,1,1,1,1,1,1,1,1,1,1,1,1,1,1,1,1,1,1,1,1,1,1,1,1,1,1,1,1,1,1,1,1,1,1,1,1,1,1,1,1,1,1,1,1,1,1,1,1,1,1,1,1,1,1,1,1,1,1,1,1,1,1,1,1,1,1,1,1,1,1,1,1,3483,3487,3487,3487,3486,3487,3485,1,1,1,1,1,1,1,1,1,1,1,1,1,1,1,1,1,1,1,1,1,1,1,1,1,1,1,1,1,1,3486,3487,3485,1,1,1,1,1,1,1,1,3486,3487,3485,1,1,1,1,1,1,1,1,1,1,1,1,1,1,1,1,1,1,1,1,1,1,1,1,1,1,1,1,0,0,1,1,1,1,1,1,1,1,1,1,1,1,1,1,1,1,1,1,1,1,1,1,1,1,1,1,1,1,1,1,1,1,1,1,1,1,1,1,1,1,1,1,1,1,1,1,1,1,1,1,1,1,1,1,1,1,1,1,1,1,1,1,1,1,1,1,1,1,1,1,1,1,1,1,1,1,1,1,1,1,1,1,1,1,1,1,1,1,1,1,1,1,1,1,1,1,1,1,1,1,1,1,1,1,1,1,1,1,1,1,1,1,1,1,1,1,1,1,1,1,1,1,1,1,1,1,1,1,1,1,1,1,1,32,32,32,32,32,1,1,1,1,1,1,1,1,1,1,31,31,31,1329,114,114,1330,1,1,1,1331,126,1330,1,1,1,1,1,1,1,1,1,1329,126,1332,1,1,1,1,1,1,1,1,1,1,1,1,1,1331,126,1330,1,1,1,1,1,1,1,1,1,1,1,1,1,1,1,1329,126,1332,1,1,1,1,1,1,1,1,1,1,1,1,1,1,1,1,1,1,1,1,1,1,1,1,1,1,1,1,1,1,1,1331,126,1330,1,1,1,1,1,1,1,1,1,1,1,1,1,1,1329,126,1332,1,1,1,1,1,1,1,1,1,1,1331,126,1330,1,1,1329,126,1332,1,1,1,1,1,1331,126,1330,1,1,1,1,1,1329,126,1332,1,1,1,1,1,1,1,1,1,1,1,1,1,1,1,1,1,1,1,1,1,1,1,1,1,1,1,1,1,1,1,1,1,1,1,1,1,1,1,3475,0,0,0,3477,1,1,1,3486,1,1,3486,1,1,3486,1,1,1,1,1,1,1,1,1,1,1,1,1,1,1,1,1,1,1,1,1,1,1,1,1,3486,1,3486,1,1,3486,1,1,1,1,1,1,1,1,1,1,1,1,1,1,1,1,1,1,1,1,1,1,1,1,1,1,1,1,1,1,1,1,1,1,1,1,1,1,1,1,1,1,1,1,1,1,1,1,1,1,1,0,0,0,0,0,1,1,1,1,1,1,1,1,1,1,1,1,1,1,1,1,1,1,1,1,1,1,1,1,1,1,1,1,1,1,1,1,1,1,1,1,1,1,1,1,1,1,1,1,1,1,1,1,1,1,1,1,1,1,1,1,1,1,1,1,1,1,0,0,1,1,1,1,1,1,1,1,1,1,1,1,1,1,1,1,1,1,0,0,1,1,1,1,1,1,1,1,1,1,1,1,1,1,1,1,1,1,1,1,1,1,1,1,1,1,1,1,1,1,1,1,1,1,1,1,1,1,1,1,1,1,1,1,1,1,1,1,1,1,1,1,1,1,1,1,1,1,1,1,1,0,758,0,1,1,1,1,1,1,1,1,1,1,1,1,1,1,1,1,1,1,1,1,1,1,1,1,1,1,1,1,1,1,1,1,1,1,1,247,3773,248,1,1,1,1,1,1,1,1,1,1,1,1,1,1,1,1,1,1,247,3770,248,1,1,1,1,1,1,1,1,1,1,1,1,1,1,1,1,1,1,1,1,1,1,1,1,0,758,0,1,1,1,1,1,1,1,1,1,1,1,1,1,1,1,1,1,1,1,1,1,1,1,1,1,1,1,1,1,1,1,1,1,1,1,1,1,1,1,1,1,1,1,1,1,1,1,1,1,1,1,1,1,1,1,1,1,1,1,1,1,1,1,1,1,1,1,1,1,1,1,1,1,1,1,1,1,1,1,0,0,0,1779,252,1,1,1,1,1,1,1,1,1,1,1,1,1,1,1,1,1,1,1,1,1,1,1,1,1,1,1,1,1,1,1,1,1,1,1,1,1,1,1,1,3486,1,3486,1,1,1,1,1,1,1,1,1,1,1,1,1,1,1,1,1,1,1,1,1,1,1,1,1,1,1,1,1,1,1,1,1,1,1,1,1,1,1,3486,1,1,3486,1,1,1,1,1,3486,1,1,1,1,1,1,1,1,1,1,1,1,1,1,1,1,1,1,1,1,1,1,1,1,3475,1,1,1,3477,1,1,1,3486,1,1,1,3486,1,1,0,0,0,0,0,0,0,0,0,0,58,
1,1,1,1,1,1,1,1,1,1,1,1,1,1,1,1,1,1,1,1,1,1,1,1,1,1,1,1,1,1,1,1,1,1,1,1,1,1,1,1,1,1,3486,1,3486,1,1,1,1,1,1,1,1,1,1,1,1,1,1,1,1,1,1,1,1,1,1,1,1,1,1,1,1,1,1,1,1,1,1,1,1,0,0,0,3486,1,1,3486,1,1,1,1,1,3486,1,1,1,1,1,1,1,1,1,1,1,1,1,1,1,1,1,1,1,1,1,1,1,0,3475,0,0,0,3477,0,1,1,3486,1,1,1,3486,1,1,1,1,1,1,1,1,1,1,1,1,1,1,1,1,1,1,1,1,1,1,1,1,1,1,1,1,1,1,1,1,1,1,1,1,1,1,1,1,1,1,1,1,1,1,1,1,3486,1,3486,1,1,1,1,1,1,1,1,3486,1,1,1,1,1,1,1,1,1,1,1,1,1,1,1,1,1,1,1,1,1,1,1,1,1,1,1,1,1,1,1,1,1,1,1,1,1,1,1,1,3486,1,3486,1,1,1,1,1,1,1,1,1,1,1,1,3486,1,1,3486,1,1,1,1,1,1,1,1,1,1,1,1,1,1,1,1,1,1,1,1,1,1,1,1,1,1,1477,1478,1479,1480,1477,1478,1479,1480,1477,1478,1479,1480,1477,1478,1479,1480,1477,1478,1479,1480,1477,1478,1479,1480,1477,1478,1479,1480,1477,1478,1479,1480,1477,1478,1479,1480,1477,1478,1479,1480,1477,1478,1479,1480,1477,1478,1479,1480,1477,1478,1479,1480,1477,1478,1479,1480,1477,1478,1479,1480,1477,1478,1479,1480,1477,1478,1479,1480,1477,131,1,1,1,1,1,1,1,1,1,1,1,1,1,1,1,1,1,1,1,1,1,1,1,1,1,1,1,1,1,1,1,1,1,1,1,1,1,1,1,1,1,1,1,1,1,1,1,1,1,1,1,1,1,1,1,1,1,1,1,1,1,5478,1,1,1,5478,1,1,1,1,3463,1478,1479,1480,1477,1478,1479,1480,1477,1478,1479,1480,1477,1478,1479,1480,1477,1478,1479,1480,1477,1478,1479,1480,1477,1478,1479,1480,1477,1478,1479,1480,1477,1478,1479,1480,1477,1478,1479,1480,1477,1478,1479,1480,1477,1478,1479,1480,1477,1478,1479,1480,1477,1478,1479,1480,1477,1478,1479,1480,1477,1478,1479,1480,1477,1478,1479,1480,1477,1478,1479,1480,1477,1478,1479,1480,1477,1478,1479,1480,1477,1478,1479,1480,1477,1478,1479,1480,1477,1478,1479,1480,1477,1478,1479,1480,1477,1478,1479,1480,1477,1478,1479,1480,1477,1478,1479,1480,1477,1478,1479,1480,1477,1478,1479,1480,1477,1478,1479,1480,1477,1478,1479,1480,1477,1478,1479,1480,1477,1478,1479,1480,1477,1478,1479,1480,1477,1478,1479,1480,1477,1478,1479,1480,1477,1478,1479,1480,1477,1478,1479,1480,1477,1478,1479,1480,1477,1478,1479,1480,1477,1478,1479,1480,1477,1478,1479,1480,1477,1478,1479,1480,1477,1478,1479,1480,1477,1478,1479,1480,1477,1478,1479,1480,1477,1478,1479,1480,1477,1478,1479,1480,1477,1478,1479,1480,1477,1478,1479,1480,1477,1478,1479,1480,1477,1478,1479,1480,1477,1478,1479,1480,1477,1478,1479,1480,1477,1478,1479,1480,1477,1478,1479,1480,1477,1478,1479,1480,1477,1478,1479,1480,1477,1478,1479,1480,1477,1478,1479,1480,1477,1478,1479,1480,1477,1478,1479,1480,1477,1478,1479,1480,1477,1478,1479,1480,1477,1478,1479,1480,1477,1478,1479,1480,1477,1478,1479,1480,1477,1478,1479,1480,1477,1478,1479,1480,1477,1478,1479,1480,1477,1478,1479,1480,1477,1478,1479,1480,1477,1478,1479,1480,1477,1478,1479,1480,1477,1478,1479,1480,1477,1478,1479,1480,1477,1478,1479,1480,1477,1478,1479,1480,1477,1478,1479,1480,1477,1478,1479,1480,1477,1478,1479,1480,1477,1478,1479,1480,1477,1478,1479,1480,1477,1478,1479,1480,1477,1478,1479,1480,1477,1478,1479,1480,1477,1478,1479,1480,1477,1478,1479,1480,1477,1478,1479,1480,1477,1478,1479,1480,1477,1478,1479,1480,1477,1478,1479,1480,1477,1478,1479,1480,1477,1478,1479,1480,1477,1478,1479,1480,1477,1478,1479,1480,1477,1329,114,132,132,132,132,121,3464,1,1,1,1,1,1,1,1,1,1,1,1,1,1,1,1,1,1,1,1,1,1,1,1,1,1,1,1,1,1,1,1,1,1,1,1,1,1,131,5981,131,5981,1,1,131,5981,1,1,1,1,1,1,1,1,1,1,1,1,1,1,1,1,1,1,1,1,1,1,1,1,1,1,1,1,1,1,1,1,1,1,1,1,1,1,1,1,1,1,1,1,1,1,1,1,1,1,1,1,1,1,1,1,1,1,1,1,1,1,1,1,1,1,1,1,1,1,1,1,1,1,1,1,1,1,1,1,1,1,1,1,1,1,1,1,1,1,1,1,1,1,1,1,1,1,1,1,1,1,1,1,1,1,1,1,1,1,1,1,758,758,3484,1,1,1,1,1,1,1,1,1,1,1,1,1,1,1,1,1,1,1,1,1,1,1,1,1,1,1,1,1,1,1,1,3484,1,1,1,1,1,1,1,1,1,1,3484,1,1,1,1,1,1,1,1,1,1,1,1,1,1,1,1,1,1,1,1,1,1,1,1,1,1,1,1,1,1,0,0,1,1,3482,1,1,1,1,1,1,1,1,1,1,1,1,1,1,1,1,1,1,1,1,1,1,1,1,1,1,1,1,1,1,1,1,1,1,1,1,1,1,1,1,1,1,1,1,1,1,1,1,1,1,1,1,1,1,1,1,1,1,1,1,1,1,1,1,1,1,1,1,1,1,1,1,1,1,1,1,1,1,1,1,1,1,1,1,1,1,1,1,1,1,1,1,1,1,1,1,1329,114,114,1330,1,1,1,1,1,1329,114,114,1330,1,1,1,1,1,1,1,1,1,1,1,1,1,1329,114,132,114,1330,1,1,1,1,1,1,1,1,1,1,1,1,1,31,31,31,31,1329,114,132,132,115,1332,1331,126,1330,1,1,1,1331,126,1330,1,1,1,1,1,1,1,1329,126,1332,1,1,1,1,1,1,1,1,1,1,1,1,1,1,1,1331,126,1330,1,1,1,1,1,1,1,1,1,1,1,1,1,1329,126,1332,1,1,1,1,1,1,1,1,1,1,1,1,1,1,1,1,1,1,1,1,1,1,1,1,1,1,1,1,1,1,1,1,1,1331,126,1330,1,1,1,1,1,1,1,1,1,1,1,1,1329,126,1332,1,1,1,1,1,1,1,1,1,1,1,1,1331,126,1330,1329,126,1332,1,1,1,1,1,1,1,1331,126,1330,1,1,1,1329,126,1332,1,1,1,1,1,1,1,1,1,1,1,1,1,1,1,1,1,1,1,1,1,1,1,1,1,1,1,1,1,1,1,1,1,1,1,1,1,1,1,1,3475,0,0,0,3477,1,1,1,3486,1,1,3486,1,1,3486,1,1,1,1,1,1,1,1,1,1,1,1,1,1,1,1,1,1,1,1,1,1,1,1,1,3486,1,3486,1,1,3486,1,1,1,1,1,1,1,1,1,1,1,1,1,1,1,1,1,1,1,1,1,1,1,1,1,1,1,1,1,1,1,1,1,1,1,1,1,1,1,1,1,1,1,1,1,1,1,1,1,1,0,0,1,1,1,0,0,1,1,1,1,1,1,1,1,1,1,1,1,1,1,1,1,1,1,1,1,1,1,1,1,1,1,1,1,1,1,1,1,1,1,1,1,1,1,1,1,1,1,1,1,1,1,1,1,1,1,1,1,1,1,1,1,1,1,1,0,1,1,0,1,1,1,1,1,1,1,1,1,1,1,1,1,1,1,1,1,1,1,0,0,1,1,1,1,1,1,1,1,1,1,1,1,1,1,1,1,1,1,1,1,1,1,1,1,1,1,1,1,1,1,1,1,1,1,1,1,1,1,1,1,1,1,1,1,1,1,1,1,1,1,1,1,1,1,1,1,1,1,1,1,1,1,1,1,1,1,1,1,1,1,1,1,1,1,1,1,1,249,245,250,1,1,1,1,1,1,1,1,1,1,1,1,1,1,1,1,1,1,247,3770,248,1,1,1,1,1,1,1,1,1,1,1,1,1,1,0,1,1,1,251,246,252,1,1,1,1,1,1,1,1,1,1,1,1,1,1,1,1,1,1,1,1,1,1,1,1,1,1,1,1,1,1,1,1,1,1,1,1,1,1,1,1,1,1,1,1,1,1,1,1,1,1,1,1,1,1,1,1,1,1,1,1,1,1,1,1,1,1,1,1,1,1,1,1,1,1,1,1,1,1,1,1,1,1,1,1,1,1,1,1,1,1,1,1,1,1,1,1,1,1,1,1,1,1,1,1,1,1,0,0,0,0,0,1,1,1,1,1,1,1,1,1,1,1,1,1,1,1,1,1,1,1,1,1,1,1,1,1,1,1,1,1,1,1,1,1,1,1,1,1,1,1,1,3486,1,3486,1,1,1,1,1,1,1,1,1,1,1,1,1,1,1,1,1,1,1,1,1,1,1,1,1,1,1,1,1,1,1,1,1,1,1,1,1,1,1,3486,1,1,3486,1,1,1,1,1,3486,1,1,1,1,1,1,1,1,1,1,1,1,1,1,1,1,1,0,1,1,1,1,1,1,3475,1,1,1,3477,1,1,1,3486,1,1,1,3486,1,1,0,0,0,0,0,0,0,0,0,0,58,
1,1,1,1,1,1,1,1,1,1,1,1,1,1,1,1,1,1,1,1,1,1,1,1,1,1,1,1,1,1,1,1,1,1,1,1,1,1,1,1,1,1,3486,1,3486,1,1,1,1,1,1,1,1,1,1,1,1,1,1,1,1,1,1,1,1,1,1,1,1,1,1,1,1,1,1,1,1,1,1,1,1,0,1,1,3486,1,1,3486,1,1,1,1,1,3486,1,1,1,1,1,1,1,1,1,1,1,1,1,1,1,1,1,1,1,1,1,1,1,0,3475,0,0,0,3477,0,1,1,3486,1,1,1,3486,1,1,1,1,1,1,1,1,1,1,1,1,1,1,1,1,1,1,1,1,1,1,1,1,1,1,1,1,1,1,1,1,1,1,1,1,1,1,1,1,1,1,1,1,1,1,1,1,3486,1,3486,1,1,1,1,1,1,1,1,3486,1,1,1,1,1,1,1,1,1,1,1,1,1,1,1,1,1,1,1,1,1,1,1,1,1,1,1,1,1,1,1,1,1,1,1,1,1,1,1,1,3486,1,3486,1,1,1,1,1,1,1,1,1,1,1,1,3486,1,1,3486,1,1,1,1,1,1,1,1,1,1,1,1,1,1,1,1,1,1,1,1,1,1,1,1,1,1,1331,126,1330,1,1,1,1,1,1,1329,126,1332,3462,3462,3462,3462,3462,3462,1331,126,1330,1,1,1,1,1,1,1329,126,1332,3462,3462,3462,1331,126,1330,1,1,1329,126,115,115,115,115,115,115,126,1330,1,1,1,1,1,1,1,1329,126,115,115,115,115,115,115,126,1330,1,1,1,1,131,1,1,1,1,1,1,1,1,1,1,1,1,1,1,1,1,1,1,1,1,1,1,1,1,1,1,1,1,1,1,1,1,1,1,1,1,1,1,1,1,1,1,1,1,1,1,1,1,1,1,1,1,1,1,1,1,1,1,1,1,1,3473,1,1,1,3473,1,1,1,1,3466,3462,3462,3462,3462,3462,3462,3462,3462,3462,3475,3778,3745,3777,3477,3462,3462,3462,3462,3462,3462,3462,3462,3462,3462,3462,3467,0,3466,3462,3462,3467,0,273,273,0,3462,3462,3462,3467,0,3466,3462,3462,3462,3462,3462,3462,3475,3477,3462,3475,3477,3462,3462,3462,3462,3462,3475,0,0,0,3477,3462,3462,3462,3462,3462,3475,0,0,0,3477,3462,3462,3462,3462,3462,3462,3462,3462,3462,3462,3462,3462,3462,3462,3462,3462,3462,3462,3462,3462,3462,3462,3462,3475,0,0,3477,3462,3462,3462,3462,3462,3462,3462,3462,3462,3462,3462,3462,3462,3462,3462,3462,3462,3462,3475,0,0,3477,3462,3462,3462,3475,3477,3462,3462,3462,3462,3462,3462,3462,3462,3462,3462,3462,3462,3462,3462,3475,0,3477,3462,3462,3462,3462,3462,3462,3475,0,0,3477,3462,3462,3462,3462,3462,3462,3462,3462,3462,3462,3462,3462,3462,3462,3462,3462,3462,3462,3462,3462,3462,3462,3462,3462,3462,1331,126,1330,1,1,1329,126,1332,3462,3462,3462,1331,1332,3462,3462,3462,1331,126,1330,1,1,1,1,1,1,1329,126,1332,3462,3462,3462,3462,3462,1331,126,126,1332,3462,3462,3462,3462,3462,3462,3462,1331,126,1330,1,1,1,1,1329,126,1332,3462,3462,3462,3462,3462,3462,3462,3462,3462,3462,1331,126,1330,1,1,1329,126,1332,3462,3462,3462,3462,3462,3462,1331,126,1330,1329,126,1332,3462,3462,3462,3462,3462,3462,3462,3462,3462,3462,1331,126,1330,1,1,1,1,1,1,1,1,1,1,1,1,1329,126,1332,3462,3462,3462,3462,3462,3462,3462,3462,3462,1331,126,1330,1,1,1,1,1,1,1,1,1,1,1,1,1,1329,126,1332,3462,3462,3462,3462,3462,3462,3462,3462,3462,3462,3462,3462,3462,3462,3462,3462,3462,3462,3462,3462,3462,3462,3462,1331,126,1330,1,1,1,1,1,1,1,1,1,1,1,1,1,1329,126,1332,3462,3462,3462,3462,3462,1331,126,1330,1329,126,1332,3462,3462,3462,3462,3462,1331,126,1330,1,1,1,1,1329,126,1332,3462,3462,3462,3462,3462,3467,1,1,1,1,1,1,1,1,1,1,1,1,1,1,1,1,1,1,1,1,1,1,1,1,1,1,1,1,1,1,1,1,1,1,1,1,1,1,131,5981,131,5981,1,1,131,5981,1,1,1,1,1,1,1,1,1,1,1,1,1,1,1,1,1,1,1,1,1,1,1,1,1,1,1,1,1,1,1,1,1,1,1,1,1,1,1,1,1,1,1,1,1,1,1,1,1,1,1,1,1,1,1,1,1,1,1,1,1,1,1,1,1,1,1,1,1,1,1,1,1,1,1,1,1,1,1,1,1,1,1,1,1,1,1,1,1,1,1,1,3482,1,1,1,1,1,1,1,1,1,3482,1,1,1,1,1,1,1,1,1,1,1,1,1,1,1,1,1,1,1,1,1,1,1,1,1,1,1,1,1,3482,1,7858,1,1,1,1,1,1,1,1,1,1,1,1,1,1,1,1,1,1,1,1,1,1,1,1,1,1,1,1,1,1,1,1,1,1,1,1,1,1,1,3482,1,1,1,1,1,1,1,1,1,1,1,1,1,1,0,0,1,1,3486,1,3482,1,1,1,1,1,1,1,1,1,1,1,1,1,1,1,1,1,1,1,1,1,1,1,1,1,1,1,1,1,1,1,1,1,1,1,1,1,1,1,1,1,1,1,1,1,1,1,1,1,1,1,1,1,1,1,1,1,1,1,1,1,1,31,31,31,31,31,31,31,31,31,31,31,31,31,31,31,31,31,31,31,1,1,1,1,1,1,1,1,1,1,1,1,1329,126,115,115,126,1330,1,1,1,1329,126,115,115,126,1330,1,1,1,1,1,1,1,1,1,1,1,1329,126,1332,1,1331,126,1330,1,1,1,1,1,1,1,1,31,31,31,1329,114,132,132,132,115,1332,1,1,1,1,1,1331,126,1330,1,1,1,1331,126,1330,1,1,1,1,1,1329,126,1332,1,1,1,1,1,1,1,1,1,1,1,1,1,1,1,1,1,1331,126,1330,1,1,1,1,1,1,1,1,1,1,1,1329,126,1332,1,1,1,1,1,1,1,1,1,1,1,1,1,1,1,1,1,1,1,1,1,1,1,1,1,1,1,1,1,1,1,1,1,1,1,1331,126,1330,1,1,1,1,1,1,1,1,1,1,1329,126,1332,1,1,1,1,1,1,1,1,1,1,1,1,1,1,1331,126,126,1332,1,1,1,1,1,1,1,1,1,1331,126,1330,1,1329,126,1332,1,1,1,1,1,1,1,1,1,1,1,1,1,1,1,1,1,1,1,1,1,1,1,1,1,1,1,1,1,1,1,1,1,1,1,1,1,1,1,1,1,3475,0,0,0,3477,1,1,1,3486,1,1,3486,1,1,3486,1,1,1,1,1,1,1,1,1,1,1,1,1,1,1,1,1,1,1,1,1,1,1,1,1,3486,1,3486,1,1,3486,1,1,1,1,1,1,1,1,1,1,1,1,1,1,1,1,1,1,1,1,1,1,1,1,1,1,1,1,1,1,1,1,1,1,1,1,1,1,1,1,1,1,1,1,1,1,1,1,1,1,1,1,1,1,1,1,0,1,1,1,1,1,1,1,1,1,1,1,1,1,1,1,1,1,1,1,1,1,1,1,1,1,1,1,1,1,1,1,1,1,1,1,1,1,1,1,1,1,1,1,1,1,1,1,1,1,1,1,1,1,1,1,1,1,1,1,1,1,1,0,1,1,1,1,1,1,1,1,1,1,1,1,1,1,1,1,1,1,1,1,0,1,1,1,1,1,1,1,1,1,1,1,1,1,1,1,1,1,1,1,1,1,1,1,1,1,1,1,1,1,1,1,1,1,1,1,1,1,1,1,1,1,1,1,1,1,1,1,1,1,1,1,1,1,1,1,1,1,1,1,1,1,1,1,1,1,1,1,1,1,1,1,1,1,1,1,1,1,247,3705,248,1,1,1,1,1,1,1,1,1,1,1,1,1,1,1,1,1,1,251,246,252,1,1,1,1,1,1,1,1,249,245,250,0,1,1,1,1,1,1,1,1,1,1,1,1,1,1,1,1,1,1,1,1,1,1,1,1,1,1,1,1,1,1,1,1,1,1,1,1,1,1,1,1,1,1,1,1,1,1,1,1,1,1,1,1,1,1,1,1,1,1,1,1,1,1,1,1,1,1,1,1,1,1,1,1,1,1,1,1,1,1,1,1,1,1,1,1,1,1,1,1,1,1,1,1,1,1,1,1,1,1,1,1,1,1,1,1,1,1,1,1,1,1,1,1,1,1,1,0,0,0,0,0,1,1,1,1,1,1,0,0,0,0,0,0,0,0,0,0,0,0,0,0,0,0,1,1,1,1,1,1,1,1,1,1,1,1,1,1,1,1,1,1,3486,1,3486,1,1,1,1,1,1,1,1,1,1,1,1,1,1,1,1,1,1,1,1,1,1,1,1,1,1,1,1,1,1,1,1,1,1,1,1,1,1,1,3486,1,1,3486,1,1,1,1,1,3486,1,1,1,1,1,1,1,0,0,1,0,0,0,0,0,0,0,0,0,1,1,1,1,1,3475,1,1,1,3477,1,1,1,3486,1,1,1,3486,1,1,0,0,0,0,0,0,0,0,0,0,58,
1,1,1,1,1,1,1,1,1,1,1,1,1,1,1,1,1,1,1,1,1,1,1,1,1,1,1,1,1,1,1,1,1,1,1,1,1,1,1,1,1,1,3486,1,3486,1,1,1,1,1,1,1,1,1,1,1,1,1,1,1,1,1,1,1,1,1,1,1,1,1,1,1,1,1,1,1,1,1,1,1,1,0,1,1,3484,1,1,3486,5090,1,1,1,1,3486,1,1,1,1,1,1,1,1,1,1,1,1,1,1,1,1,1,1,1,1,1,1,1,0,3475,0,0,0,3477,0,1,1,3486,1,1,1,3486,1,1,1,1,1,1,1,1,1,1,1,1,1,1,1,1,1,1,1,1,1,1,1,1,1,1,1,1,1,1,1,1,1,1,1,1,1,1,1,1,1,1,1,1,1,1,1,1,3486,1,3486,1,1,1,1,1,1,1,1,3486,1,1,1,1,1,1,1,1,1,1,1,1,1,1,1,1,1,1,1,1,1,1,1,1,1,1,1,1,1,1,1,1,1,1,1,1,1,1,1,1,3486,1,3486,1,1,1,1,1,1,1,1,1,1,1,1,3486,1,1,3486,1,1,1,1,1,1,1,1,1,1,1,1,1,1,1,1,1,1,1,1,1,1,1,1,1,1,1,1331,126,1330,1,1,1,1,1329,126,1332,1,1,1,1,1,1,1,1,1331,126,1330,1,1,1,1,1329,126,1332,1,1,1,1,1,1331,126,1330,1329,126,1332,3462,3462,3462,3462,3462,3462,1331,126,1330,1,1,1,1,1,1329,126,1332,3462,3462,3462,3462,3462,3462,1331,126,1330,1,1,1,131,1,1,1,1,1,1,1,1,1,1,1,1,1,1,1,1,1,1,1,1,1,1,1,1,1,1,1,1,1,1,1,1,1,1,1,1,1,1,1,1,1,1,1,1,1,1,1,1,1,1,1,1,1,1,1,1,1,1,1,1,1,1,1,1,1,1,1,1,1,1,0,0,0,0,0,0,0,0,0,0,3479,3476,3476,3476,3480,0,0,0,0,0,0,0,0,0,0,0,0,0,0,0,0,0,0,0,0,0,0,0,0,0,0,0,0,0,0,0,0,0,3475,3477,0,3479,3480,0,0,0,0,0,3479,3476,3476,3476,3480,0,0,0,0,0,3475,0,0,0,3477,0,0,0,0,0,0,0,0,0,0,0,0,0,0,0,0,0,0,0,0,0,0,0,3479,3476,3476,3480,0,0,0,0,0,0,0,0,0,0,0,0,0,0,0,0,0,0,3479,3476,3476,3480,0,0,0,3479,3480,0,0,0,0,0,0,0,0,0,0,0,0,0,0,3479,3476,3480,0,0,0,0,0,0,3475,0,0,3477,1,1,1,1,1,1,1,1,1,1,1,1,1,1,1,1,1,1,1,1,1,1,1,1,1,1,1331,126,1330,1329,126,1332,1,1,1,1,1,1,1,1,1,1,1331,126,1330,1,1,1,1,1329,126,1332,1,1,1,1,1,1,1,1331,1332,1,1,1,1,1,1,1,1,1,1331,126,1330,1,1,1329,126,1332,1,1,1,1,1,1,1,1,1,1,1,1,1331,126,1330,1329,126,1332,1,1,1,1,1,1,1,1,1331,126,126,1332,1,1,1,1,1,1,1,1,1,1,1,1,1331,126,1330,1,1,1,1,1,1,1,1,1,1,1329,126,1332,1,1,1,1,1,1,1,1,1,1,1,1331,126,1330,1,1,1,1,1,1,1,1,1,1,1,1329,126,1332,1,1,1,1,1,1,1,1,1,1,1,1,1,1,1,1,1,1,1,1,1,1,1,1,1,1331,126,1330,1,1,1,1,1,1,1,1,1,1,1,1329,126,1332,1,1,1,1,1,1,1,1331,126,126,1332,1,1,1,1,1,1,1,1331,126,1330,1,1,1329,126,1332,1,1,1,1,1,1,1,1,1,1,1,1,1,1,1,1,1,1,1,1,1,1,1,1,1,1,1,1,1,1,1,1,1,1,1,1,1,1,1,1,1,1,1,1,1,131,5981,131,5981,1,1,131,5981,1,1,1,1,1,1,1,1,1,1,1,1,1,1,1,1,1,1,1,1,1,1,1,1,1,1,1,1,1,1,1,1,1,1,1,1,1,1,1,1,1,1,1,1,1,1,1,1,1,1,1,1,1,1,1,1,1,1,1,1,1,1,1,1,1,1,1,1,0,1,1,1,1,1,1,1,1,1,1,1,1,1,1,1,1,1,1,3482,1,1,1,1,3486,1,1,1,1,1,1,1,1,1,3486,1,3482,1,1,1,1,1,1,1,1,1,1,1,1,1,1,1,1,1,1,1,1,1,1,3482,1,1,1,1,3486,1,3482,1,1,1,1,1,1,1,1,1,1,1,1,1,1,1,1,1,1,1,1,1,1,1,1,1,1,1,1,1,1,1,1,1,1,1,1,1,1,1,3486,1,3482,1,1,1,1,1,3482,1,1,1,1,1,1,3478,3481,1,1,3486,1,3486,1,1,1,1,1,1,1,1,1,3482,1,1,1,1,1,1,1,1,1,1,1,1,1,1,1,1,1329,1330,1,1,1,1,1,1,1,1329,114,132,114,1330,1,1,1,1,1,1,1,1,1,1329,114,132,114,1330,1,1,1,1,1,1,1,1329,114,132,132,132,132,132,132,132,132,132,132,132,132,132,132,132,132,132,114,1330,1,1,1,1,1,1,1,1,1,1,1329,126,1332,1,1,1331,115,132,132,132,115,1332,1,1,1331,126,1330,1,1,1,1,1,1,1,1,1,1329,126,1332,1,1,1,1331,126,1330,1,1,1,31,31,31,1329,114,132,132,115,1332,1,1,1,1,1,1,1,1,1,1,1,1331,126,1330,1,1,1,1331,126,1330,1,1,1,1329,126,1332,1,1,1,1,1329,114,132,132,132,132,132,132,132,114,1330,1,1,1,1,1331,126,1330,1,1,1,1,1,1,1,1,1,1329,126,1332,1,1,1,1,1329,114,132,132,132,132,132,132,132,132,132,132,132,132,132,132,132,132,132,132,132,132,132,132,132,132,132,114,1330,1,1,1,1,1331,126,1330,1,1,1,1,1,1,1,1,1329,126,1332,1,1,1,1,1329,114,132,132,132,132,114,1330,1,1,1,1,1331,1332,1,1,1,1,1329,114,1330,1,1,1,1,1331,126,114,126,1332,1,1,1,1,1329,114,132,119,1,1,1,1,1,1,1,1,1,1,1,1,1,1,1,1,1,1,1,1,1,1,1,1,1,1,1,1,1,1,1,1,1,1,3479,3476,3476,3476,3480,1,1,1,3486,1,1,3486,1,1,3486,1,1,1,1,1,1,1,1,1,1,1,1,1,1,1,1,1,1,1,1,1,1,1,1,1,3486,1,3486,1,1,3486,1,1,1,1,1,1,1,1,1,1,1,1,1,1,1,1,1,1,1,1,1,1,1,1,1,1,3483,3487,3487,3487,3485,1,1,1,1,1,1,1,1,1,1,1,1,1,1,1,1,1,1,1,0,0,0,0,0,0,0,1,1,1,1,1,1,1,1,1,1,1,1,1,1,1,1,1,1,1,1,1,1,1,1,1,1,1,1,1,1,1,1,1,1,1,1,1,1,1,1,1,1,1,1,1,1,1,1,1,1,1,1,1,1,1,1,1,1,1,0,0,0,0,1,1,1,1,1,1,1,1,1,1,1,1,1,1,1,1,1,1,1,1,0,1,1,1,1,1,1,1,1,1,1,1,1,1,1,1,1,1,1,1,1,1,1,1,1,1,1,1,1,1,1,1,1,1,1,1,1,1,1,1,1,1,1,1,1,1,1,1,1,1,1,1,1,1,1,1,1,1,1,1,1,0,933,0,1,1,1,1,1,1,1,1,1,1,1,1,1,1,247,3709,248,1,1,1,1,1,1,1,1,1,1,1,1,1,1,0,1,1,1,1,1,1,1,1,1,1,1,1,1,1,247,3705,248,0,1,1,1,1,1,1,1,1,1,1,1,1,1,1,1,1,1,1,1,1,1,1,1,1,1,1,1,1,1,1,1,1,1,0,933,0,1,1,1,1,1,1,1,1,1,1,1,1,1,1,1,1,1,1,1,1,1,1,1,1,1,1,1,1,1,1,1,1,1,1,1,1,1,1,1,1,1,1,1,1,1,1,1,1,1,1,1,1,1,1,1,1,1,1,1,1,1,1,1,1,1,1,1,1,1,1,1,1,1,1,1,1,1,1,1,0,0,0,1777,250,1,1,1,1,1,127,114,119,114,119,114,130,114,119,114,1330,127,119,119,114,114,119,1,1,1,1,1,1,1,1,1,1,1,1,1,1,1,1,1,1,3486,1,3486,1,1,1,1,1,1,1,1,1,1,1,1,1,1,1,1,1,1,1,1,1,1,1,1,1,1,1,1,1,1,1,1,1,1,1,1,1,1,1,3484,1,1,3486,1,1,1,1,1,3486,1,1,1,1,1,1,1,0,0,0,0,1,1,1,1,0,0,0,0,0,1,1,1,1,3475,1,1,1,3477,1,1,1,3486,1,1,1,3486,1,1,0,0,0,0,0,0,0,0,0,0,58,
1,1,1,1,1,1,1,1,1,1,1,1,1,1,1,1,1,1,1,1,1,1,1,1,1,1,1,1,1,1,1,1,1,1,1,1,1,1,1,1,1,1,3486,1,3484,1,1,1,1,1,1,1,1,1,1,1,1,1,1,1,1,1,1,1,1,1,1,1,1,1,1,1,1,1,1,1,1,1,1,1,1,1,1,1,1,1,1,3486,1,1,1,1,1,3484,1,1,1,1,1,1,1,1,1,1,1,1,1,1,1,1,1,1,1,1,1,1,1,0,3475,0,0,0,3477,0,1,1,3486,1,1,1,3486,1,1,1,1,1,1,1,1,1,1,1,1,1,1,1,1,1,1,1,1,1,1,1,1,1,1,1,1,1,1,1,1,1,1,1,1,1,1,1,1,1,1,1,1,1,1,1,1,3486,1,3486,1,1,1,1,1,1,1,1,3486,1,1,1,1,1,1,1,1,1,1,1,1,1,1,1,1,1,1,1,1,1,1,1,1,1,1,1,1,1,1,1,1,1,1,1,1,1,1,1,1,3486,1,3484,1,1,1,1,1,1,1,1,1,1,1,1,3484,1,1,3486,1,1,1,1,1,1,1,1,1,1,1,1,1,1,1,1,1,1,1,1,1,1,1,1,1,1,1,1,1331,126,1330,1,1,1329,126,1332,1,1,1,1,1,1,1,1,1,1,1331,126,1330,1,1,1329,126,1332,1,1,1,1,1,1,1,1331,126,126,1332,1,1,1,1,1,1,1,1,1331,126,1330,1329,114,132,132,115,1332,1,1,1,1,1,1,1,1,1331,115,132,132,132,121,1,1,1,1,1,1,1,1,1,1,1,1,1,1,1,1,1,1,1,1,1,1,1,1,1,1,1,1,1,1,1,1,1,1,1,1,1,1,1,1,1,1,1,1,1,1,1,1,1,1,1,1,1,1,1,1,1,1,1,1,1,1,1,1,1,1,1,1,1,1,0,0,0,0,0,0,0,0,0,0,0,0,0,0,0,0,0,0,0,0,0,0,0,0,0,0,0,0,0,0,0,0,0,0,0,0,0,0,0,0,0,0,0,0,0,0,0,0,3479,3480,0,0,0,0,0,0,0,0,0,0,0,0,0,0,0,0,0,0,3479,3476,3476,3476,3480,0,0,0,0,0,0,0,0,0,0,0,0,0,0,0,0,0,0,0,0,0,0,0,0,0,0,0,0,0,0,0,0,0,0,0,0,0,0,0,0,0,0,0,0,0,0,0,0,0,0,0,0,0,0,0,0,0,0,0,0,0,0,0,0,0,0,0,0,0,0,0,0,0,0,0,0,0,3479,3476,3476,3480,1,1,1,1,1,1,1,1,1,1,1,1,1,1,1,1,1,1,1,1,1,1,1,1,1,1,1,1331,126,126,1332,1,1,1,1,1,1,1,1,1,1,1,1,1331,126,1330,1,1,1329,126,1332,1,1,1,1,1,1,1,1,1,1,1,1,1,1,1,1,1,1,1,1,1331,126,1330,1329,126,1332,1,1,1,1,1,1,1,1,1,1,1,1,1,1,1331,126,126,1332,1,1,1,1,1,1,1,1,1,1,1331,1332,1,1,1,1,1,1,1,1,1,1,1,1,1,1,1331,126,1330,1,1,1,1,1,1,1,1,1329,126,1332,1,1,1,1,1,1,1,1,1,1,1,1,1,1331,126,1330,1,1,1,1,1,1,1,1,1,1329,126,1332,1,1,1,1,1,1,1,1,1,1,1,1,1,1,1,1,1,1,1,1,1,1,1,1,1,1,1,1331,126,1330,1,1,1,1,1,1,1,1,1,1329,126,1332,1,1,1,1,1,1,1,1,1,1331,1332,1,1,1,1,1,1,1,1,1,1331,126,1330,1329,126,1332,1,1,1,1,1,1,1,1,1,1,1,1,1333,5733,1,1,1,1,1335,1336,1,1,1,1,1,1,1,1,1,1,1,1,1,1,1,1,1,1,1,1,1,1,1,1,1,1,131,5981,131,5981,1,1,131,5981,1,1,1,1,1,1,1,1,1,1,1,1,1,1,1,1,1,1,1,1,1,1,1,1,1,1,1,1,1,1,1,1,1,1,1,1,1,1,1,1,1,1,1,1,1,1,1,1,1,1,1,1,1,1,1,1,1,1,1,1,1,1,1,1,1,1,1,0,0,1,1,1,1,1,1,1,1,1,1,1,1,1,3468,3461,3461,3461,3461,3486,3461,3482,3461,3461,3486,3461,3461,3461,3461,3461,3461,3461,3461,3461,3486,3461,3486,3461,3461,3461,3461,3461,3461,3461,3461,3461,3461,3461,3461,3461,3461,3461,3461,3461,3461,3461,3461,3461,3461,3486,3461,3482,3461,3461,3486,3461,3486,3461,3461,3465,1,3468,3461,3461,3461,3461,3461,3461,3461,3461,3461,3461,3461,3461,3461,3461,3461,3461,3461,3461,3461,3461,3461,3461,3461,3461,3461,3461,3461,3461,3461,3461,3461,3461,3482,3461,3486,3461,3486,3461,3482,3461,3461,3461,3486,3461,3461,3461,3461,3461,3461,3475,3477,3461,3461,3486,3461,3486,3461,3461,3461,3461,3461,3461,3461,3461,3461,3486,1,1,1,1,1,1,1,1,1,1,1,1,1,1,1,1329,126,126,1330,1,1,1,1,1,1329,126,1332,1,1331,126,1330,1,1,1,1,1,1,1,1329,126,1332,1,1331,126,1330,1,1,1,1,1,1329,126,1332,1,1,1,1,1,1,1,1,1,1,1,1,1,1,1,1,1,1331,126,1330,1,1,1,1,1,1,1,1,1329,126,1332,1,1,1,1,1,1,1,1,1,1,1,1,1,1331,126,1330,1,1,1329,114,132,132,132,132,115,1332,1,1,1,1,1,1331,126,1330,31,1329,114,132,132,115,1332,1,1,1,1,1,1,1,1,1,1,1,1,1,1,1,1,1331,126,1330,1,1,1,1331,115,132,132,132,115,1332,1,1,1,1,1329,126,1332,1,1,1,1,1,1,1,1331,126,1330,1,1,1,1,1331,115,132,132,132,132,132,132,132,132,132,115,1332,1,1,1,1,1329,126,1332,1,1,1,1,1,1,1,1,1,1,1,1,1,1,1,1,1,1,1,1,1,1,1,1,1,1331,126,1330,1,1,1,1,1331,115,132,132,132,132,132,132,132,132,115,1332,1,1,1,1,1329,126,1332,1,1,1,1,1331,126,1330,1,1,1,1,1,1,1,1,1329,126,115,126,1330,1,1,1,1,1331,115,1332,1,1,1,1,1329,126,1332,1,131,1,1,1,1,1,1,1,1,1,1,1,1,1,1,1,1,1,1,1,1,1,1,1,1,1,1,1,1,1,1,1,1,1,1,1,1,1,1,1,1,1,1,3486,1,1,3486,1,1,3486,1,1,1,1,1,1,1,1,1,1,1,1,1,1,1,1,1,1,1,1,1,1,1,1,1,3486,1,3486,1,1,3486,1,1,1,1,1,1,1,1,1,1,1,1,1,1,1,1,1,1,1,1,1,1,1,1,1,1,1,1,1,1,1,1,1,1,1,1,1,1,1,1,1,1,1,1,1,1,1,1,1,1781,1782,245,245,245,245,245,1783,1784,1,1,1,1,1,1,1,1,1,1,1,1,1,1,1,1,1,1,1,1,1,1,1,1,1,1,1,1,1,1,1,1,1,1,1,1,1,1,1,1,1,1,1,1,1,1,1,1,1,1,1,1,1,1,1,1,0,0,0,0,0,0,1,1,1,1,1,1,1,1,1,1,1,1,1,1,1,0,0,933,0,0,0,1,1,1,1,1,1,1,1,1,1,1,1,937,937,937,1,1,1,1,1,1,1,1,1,1,1,1,1,1,1,1,1,1,1,1,1,1,1,1,1,1,1,1,1,1,1,1,1,1,1,1,1,1,1,1,1,1,1,1,1777,245,245,245,1778,1,1,1,1,1,1,1,1,1,1,1,1,1,247,3709,248,1,1,1,1,1,1,1,1,1,1,1,1,1,1,1,1,1,1,1,1,1,1,1,1,1,1,1,1,1,247,3709,248,1,1,1,0,1,1,1,1,1,1,1,1,1,1,1,1,1,1,1,1,1,1,1,1,1,1,1,1,1,1,1,1,1,1777,245,245,245,1778,1,1,1,1,1,1,1,1,1,1,1,1,1,1,1,1,1,1,1,1,1,1,1,1,1,1,1,1,1,1,1,1,1,1,1,1,1,1,1,1,1,1,1,1,1,1,1,1,1,1,1,1,1,1,1,1,1,1,1,1,1,1,1,1,1,1,1,1,1,1,1,1,1,1,1,1,1,1,0,0,1777,1797,248,1,1,1,1,1,131,117,117,115,119,126,117,117,117,117,117,117,117,117,117,117,117,1,1,1,1,1,1,1,1,1,1,1,1,1,1,1,1,1,1,3486,1,3484,1,1,1,1,1,1,1,1,1,1,1,1,1,1,1,1,1,1,1,1,1,1,1,1,1,1,1,1,1,1,1,1,1,1,1,1,1,1,1,1,1,1,3486,1,1,1,1,1,3484,1,1,1,1,1,1,1,0,0,0,1,1,1,1,1,1,0,0,0,0,1,1,1,1,3475,1,1,1,3477,1,1,1,3486,1,1,1,3486,1,1,0,0,0,0,0,0,0,0,0,0,58,
1,1,1,1,1,1,1,1,1,1,1,1,1,1,1,1,1,1,1,1,1,1,1,1,1,1,1,1,1,1,1,1,1,1,1,1,1,1,1,1,1,1,3484,1,1,1,1,1,1,1,1,1,1,1,1,0,1,1,1,1,1,1,1,1,1,1,1,1,1,1,1,1,1,1,0,1,1,1,1,1,1,1,1,1,1,1,1,3484,1,1,1,1,1,1,1,1,1,1,1,1,1,1,1,1,1,1,1,1,1,1,1,1,1,1,1,1,1,1,3479,3476,3476,3476,3480,0,1,1,3486,1,1,1,3486,1,1,1,1,1,1,1,1,1,1,1,1,1,1,1,1,1,1,1,1,1,1,1,1,1,1,1,1,1,1,1,1,1,1,1,1,1,1,1,1,1,1,1,1,1,1,1,1,3486,1,3486,1,1,1,1,1,1,1,1,3484,1,1,1,1,1,1,1,1,1,1,1,1,1,1,1,1,1,1,1,1,1,1,1,1,1,1,1,1,1,1,1,1,1,1,1,1,1,1,1,1,3484,1,1,1,1,1,1,1,1,1,1,1,1,1,1,1,1,1,3486,1,1,1,1,1,1,1,1,1,1,1,1,1,1,1,1,1,1,1,1,1,1,1,1,1,1,1,1,1,1331,126,1330,1329,126,1332,1,1,1,1,1,1,1,1,1,1,1,1,1331,126,1330,1329,126,1332,1,1,1,1,1,1,1,1,1,1331,1332,1,1,1,1,1,1,1,1,1,1,1331,126,126,1332,32,32,32,1,1,1,1,1,1,1,1,1,6048,1,1,1,1,1,1,1,1,1,1,1,1,1,1,1,1,1335,1336,1,1,1,0,1,1,1,1,1,1,1,1,1,1,1,1,1,1,1,1,1,1,1,1,1,1,1,1,1,1,1,1,1,1,1,1,1,1,1,1,1,1,1,1,1,1,1,1,1,1,1,1,1,1,1,1,1,0,0,0,0,0,0,0,0,0,0,0,0,0,0,0,0,0,0,0,0,0,0,0,0,0,0,0,0,0,0,0,0,0,0,0,0,0,0,0,0,0,0,0,0,0,0,0,0,0,0,0,0,0,0,0,0,0,0,0,0,0,0,0,0,0,0,0,0,0,0,0,0,0,0,0,0,0,6042,5857,0,0,0,0,0,0,0,0,0,0,0,0,0,0,0,0,0,0,0,0,0,0,0,0,0,0,0,0,0,0,0,0,0,0,0,0,0,0,0,0,0,0,0,0,0,0,0,0,0,0,0,0,0,0,0,0,0,0,0,0,0,0,0,0,0,0,0,0,0,0,0,0,0,0,0,1,1,1,0,1,1,1,1,1,1,1,1,1,1,1,1,1,1,1,1,1,1329,1330,1,1,1,1,1,1331,1332,1,1,1,1,1,1,1,1,1,1,1,1,1,1,1331,126,1330,1329,126,1332,1,1,1,1,1,1,1,1,1,1,1,1,1,1329,1330,1,1,1,1,1,1,1,1331,126,126,1332,1,1,1,1,1,1,1,1,1329,1330,1,1,1,1,1,1,1331,1332,1,1,1,1,1,1,1,1,1,1,1,1,1,1,1,1,1,1,1,1,1,1329,1330,1,1,1,1,1,1331,126,1330,1,1,1,1,1,1,1329,126,1332,1,1,1,1,1,1,1,1,1,1,1,1,1,1,1,1331,126,1330,1,1,1,1,1,1,1,1329,126,1332,1,1,1,1,1,1,1,1,1,1,1,1,1,1,1,1,1,1,1,1,1,1,1,1,1,1,1,1,1,1331,126,1330,1,1,1,1,1,1,1,1329,126,1332,1,1,1,1,1,1,1,1,1,1,1,1,1,1,1,1,1,1,1,1,1,1,1331,126,126,1332,1,1,1,1,1,1,1,1,1,1,1,1333,1334,126,117,1,1,1,1,116,126,1335,1336,6077,1,1,1,1,1,1,1,1,1,1,1,1,1,1,1,1,1,1,1,1,1,1,1,131,5981,131,5981,1,1,131,5981,1,1,1,1,1,1,1,1,1,1,1,1,1,1,1,1,1,1,1,1,1,1,1,1,1,1,1,1,1,1,1,1,1,1,1,1,1,1,1,1,1,1,1,1,1,1,1,1,1,1,1,1,1,1,1,1,1,1,1,1,1,1,1,1,1,1,1,0,0,0,1,1,1,1,1,1,3478,1426,1427,1428,1425,1426,1427,1428,1425,1426,1427,1428,1425,1426,1427,1428,1425,1426,1427,1428,1425,1426,1427,1428,1425,1426,1427,1428,1425,1426,1427,1428,1425,1426,1427,1428,1425,1426,1427,1428,1425,1426,1427,1428,1425,1426,1427,1428,1425,1426,1427,1428,1425,1426,1427,1428,1425,1426,1427,1428,1425,1426,1427,1428,1425,1426,1427,1428,1425,1426,1427,1428,1425,1426,1427,1428,1425,1426,1427,1428,1425,1426,1427,1428,1425,1426,1427,1428,1425,1426,1427,1428,1425,1426,1427,1428,1425,1426,1427,1428,1425,1426,1427,1428,1425,1426,1427,1428,1425,1426,1427,1428,1425,1426,1427,1428,1425,1426,1427,1428,1425,1426,1427,1428,1425,1426,1427,1428,1425,1426,1554,1,1,1,1,1,1,1,1,1,1,1,1,1,1329,126,1332,1331,126,1330,3461,3461,3461,1329,126,1332,1,1,1,1331,126,1330,3461,3461,3461,3461,3461,1329,126,1332,1,1,1,1331,126,1330,3461,3461,3461,1329,126,1332,1,1,1,1,1,1,1,1,1,1,1,1,1,1,1,1,1,1,1,1331,126,1330,1,1,1,1,1,1,1329,126,1332,1,1,1,1,1,1,1,1,1,1,1,1,1,1,1,1331,115,132,132,115,1332,1,1,1,1,1,1,1,1,1,1,1,1,1331,115,132,115,1332,1,1,1,1,1,1,1,1,1,1,1,1,1,1,1,1,1,1,1,1,1,1331,126,1330,1,1,1,1,1,1,1,1,1,1,1,1,1329,126,1332,1,1,1,1,1,1,1,1,1,1331,126,1330,1,1,1,1,1,1,1,1,1,1,1,1,1,1,1,1,1,1,1,1329,126,1332,1,1,1,1,1,1,1,1,1,1,1,1,1,1,1,1,1,1,1,1,1,1,1,1,1,1,1,1331,126,1330,1,1,1,1,1,1,1,1,1,1,1,1,1,1,1,1,1,1,1329,126,1332,1,1,1,1,1,1,1331,126,1330,1,1,1,1,1,1,1329,126,1332,1,1331,126,1330,1,1,1,1,1,1,1,1,1,1329,126,1332,1,1,131,1,1,1,1,1,1,1,1,1,1,1,1,1,1,1,1,1,1,1,1,1,1,1,1,1,1,1,1,1,1,1,1,1,1,1,1,1,1,1,1,1,1,3484,1,1,3486,1,1,3486,1,1,1,1,1,1,1,1,1,1,1,1,1,1,1,1,1,1,1,1,1,1,1,1,1,3486,1,3486,1,1,3486,1,1,1,1,1,1,1,1,1,1,1,1,1,1,1,1,1,1,1,1,1,1,1,1,1,1,1,1,1,1,1,1,1,1,1,1,1,1,1,1,1,1,1,1,1,1,1,1,1777,1801,1829,0,0,0,0,0,1830,1802,1778,1,1,1,1,1,1,1,1,1,1,1,1,1,1,1,1,1,1,1,1,1,1,1,1,1,1,1,1,1,1,1,1,1,1,1,1,1,1,1,1,1,1,1,1,1,1,1,1,1,1,1,1,1,1781,1782,245,245,245,245,245,1783,1784,1,1,1,1,1,1,1,1,1,1,1,1,1,1,1777,245,245,245,1778,1,1,1,1,1,1,1,1,1,1,1,1,1,249,245,250,1,1,1,1,1,1,1,1,1,1,1,1,1,1,1,1,1,1,1,1,1,1,1,1,1,1,1,1,1,1,1,1,1,1,1,1,1,1,1,1,1,1,1,1777,1797,0,0,0,1798,1778,1,1,1,1,1,1,1,1,1,1,1,1,247,3709,248,1,1,1,1,1,1,1,1,1,1,1,1,1,1,1,1,1,1,1,1,1,1,1,1,1,1,1,1,1,247,3709,248,1,1,1,1,1,1,1,1,1,1,1,1,1,1,1,1,1,1,1,1,1,1,1,1,1,1,1,1,1,1,1,1,1777,1797,0,0,0,1798,1778,1,1,1,1,1,1,1,1,1,1,1,1,1,1,1,1,1,1,1,1,1,1,1,1,1,1,1,1,1,1,1,1,1,1,1,1,1,1,1,1,1,1,1,1,1,1,1,1,1,1,1,1,1,1,1,1,1,1,1,1,1,1,1,1,1,1,1,1,1,1,1,1,1,1,1,1,1,0,1777,1797,0,248,1,1,1,1,1,128,121,121,115,121,115,130,121,121,115,121,121,115,121,121,121,121,1,1,1,1,1,1,1,1,1,1,1,1,1,1,1,1,1,1,3484,1,1,1,1,1,1,1,1,1,1,1,1,1,1,1,1,1,1,1,1,1,1,1,1,1,1,1,1,1,1,1,1,1,1,1,1,1,1,1,1,1,1,1,1,3484,1,1,1,1,1,1,1,1,1,1,1,1,1,0,0,0,1,1,1,1,1,1,1,1,0,1,1,1,1,1,3479,3476,3476,3476,3480,1,1,1,3486,1,1,1,3486,1,1,0,0,0,0,0,0,0,0,0,0,58,
1,1,1,1,1,1,1,1,1,1,1,1,1,1,1,1,1,1,1,1,1,1,1,1,1,1,1,1,1,1,1,1,1,1,1,1,1,1,1,1,1,1,1,1,1,1,1,1,1,1,1,1,1,1,1,1,1,1,1,1,1,1,1,1,1,1,1,1,1,1,1,1,1,1,1,1,1,1,1,1,1,1,1,1,1,1,1,1,1,1,1,1,1,1,1,1,1,1,1,1,1,1,1,1,1,1,1,1,1,1,1,1,1,1,1,1,1,0,0,0,0,0,0,0,1,1,3484,1,1,1,3486,1,1,1,1,1,1,1,1,1,1,1,1,1,1,1,1,1,1,1,1,1,1,1,1,1,1,1,1,1,1,1,1,1,1,1,1,1,1,1,1,1,1,1,1,1,1,1,1,3486,1,3486,1,1,1,1,1,1,1,1,1,1,1,1,1,1,1,1,1,1,1,1,1,1,1,1,1,1,1,1,1,1,1,1,1,1,1,1,1,1,1,1,1,1,1,1,1,1,1,1,1,1,1,1,1,1,1,1,1,1,1,1,1,1,1,1,1,1,1,3484,1,1,1,1,1,1,1,1,1,1,1,1,1,1,1,1,1,1,1,1,1,1,1,1,1,1,1,1,1,1,1331,126,126,1332,1,1,1,1,1,1,1329,1330,1,1,1,1,1,1,1331,126,126,1332,1,1,1,1,1,1,1,1,1,1,1,1,1,1,1,1,1,1,1,1,1,1,1,1331,1332,1,1,1,1,1,1,1,1,1,1,1,1,1,1,1,1,1,1,1,1,1,1,1,1,1,1,1,1,1,1,116,126,1335,1336,1,1,1,1,1,1,1,1,1,1,1,1,1,1,1335,1336,1,1,1,1,1,1,1,1,1,1,1,1,1,1,1,1,1,1,1,1,1,1,1,1,1,1,1,1,1,1,1,1,1,1,1,1,1,1,1,0,0,0,0,0,0,0,0,0,0,0,0,0,0,0,0,0,0,0,0,0,0,0,0,0,0,0,0,0,0,0,0,0,0,0,0,0,0,0,0,0,0,0,0,0,0,0,0,0,0,0,0,0,0,0,0,0,0,0,0,0,0,0,0,0,0,0,0,0,0,0,0,0,0,0,0,8020,4449,0,0,0,0,0,0,0,0,0,0,0,0,0,0,0,0,0,0,0,0,0,0,0,0,0,0,0,0,0,0,0,0,0,0,0,0,0,0,0,0,0,0,0,0,0,0,0,0,0,0,0,0,0,0,0,0,0,0,0,0,0,0,0,0,0,0,0,0,0,0,0,0,0,0,0,0,0,0,0,0,0,1,1,1,1,1,1,1,1,1,1,1,1,1,1,1,1329,126,126,1330,1,1,1,1,1,1,1,1,1,1,1,1,1329,1330,1,1,1,1,1,1,1,1331,126,126,1332,1,1,1,1,1,1,1,1,1,1,1,1,1,1329,126,126,1330,1,1,1,1,1,1,1,1331,1332,1,1,1,1,1,1,1,1,1329,126,126,1330,1,1,1,1,1,1,1,1,1,1,1,1329,1330,1,1,1,1,1,1,1,1,1,1,1,1,1,1,1329,126,126,1330,1,1,1,1,1,1331,115,132,132,132,132,132,132,115,1332,1,1,1,1,1329,114,132,132,132,132,132,114,1330,1,1,1,1,1331,126,1330,1,1,1,1,1,1329,126,1332,1,1,1,1,1329,114,132,132,132,132,132,132,132,132,132,132,132,132,132,132,132,132,132,132,132,114,1330,1,1,1,1,1331,126,1330,1,1,1,1,1,1329,126,1332,1,1,1,1,1329,114,132,114,1330,1,1,1,1,1,1,1329,114,132,114,1330,1,1,1,1,1331,1332,1,1,1,1,1329,114,132,132,132,132,132,132,115,1339,1340,131,1,1,1,1,131,1337,1338,117,1,1,1,1,1,1,1,1,1,1,1,1335,1336,1,1,1,1,1,1,1,1,1,1,1,131,5981,128,5981,1,1,131,5981,1,1,1,1,1,1,1,1,1,1,1,1,1,1,1,1,1,1,1,1,1,1,1,1,1,1,1,1,1,1,1,1,1,1,1,1,1,1,1,1,1,1,1,1,1,1,1,1,1,1,1,1,1,1,1,1,1,1,1,1,1,1,1,1,1,1,1,0,0,0,1,1,1,1,1,1,3475,1442,1443,1444,1441,1442,1443,1444,1441,1442,1443,1444,1441,1442,1443,1444,1441,1442,1443,1444,1441,1442,1443,1444,1441,1442,1443,1444,1441,1442,1443,1444,1441,1442,1443,1444,1441,1442,1443,1444,1441,1442,1443,1444,1441,1442,1443,1444,1441,1442,1443,1444,1441,1442,1443,1444,1441,1442,1443,1444,1441,1442,1443,1444,1441,1442,1443,1444,1441,1442,1443,1444,1441,1442,1443,1444,1441,1442,1443,1444,1441,1442,1443,1444,1441,1442,1443,1444,1441,1442,1443,1444,1441,1442,1443,1444,1441,1442,1443,1444,1441,1442,1443,1444,1441,1442,1443,1444,1441,1442,1443,1444,1441,1442,1443,1444,1441,1442,1443,1444,1441,1442,1443,1444,1441,1442,1443,1444,1441,1442,1443,1428,1425,1426,1427,1428,1425,1426,1427,1428,1425,1426,1427,1428,1425,1426,1427,1428,1425,1426,1427,1428,1425,1426,1427,1428,1425,1426,1427,1428,1425,1426,1427,1428,1425,1426,1427,1428,1425,1426,1427,1428,1425,1426,1427,1428,1425,1426,1427,1428,1425,1426,1427,1428,1425,1426,1427,1428,1425,1426,1427,1428,1425,1426,1427,1428,1425,1426,1427,1428,1425,1426,1427,1428,1425,1426,1427,1428,1425,1426,1427,1428,1425,1426,1427,1428,1425,1426,1427,1428,1425,1426,1427,1428,1425,1426,1427,1428,1425,1426,1427,1428,1425,1426,1427,1428,1425,1426,1427,1428,1425,1426,1427,1428,1425,1426,1427,1428,1425,1426,1427,1428,1425,1426,1427,1428,1425,1426,1427,1428,1425,1426,1427,1428,1425,1426,1427,1428,1425,1426,1427,1428,0,1331,126,1330,1,1,1,1,1,1,1,1,1,1,1329,126,1332,1,1,1,1,1,1,1,1,1,1,1,1331,126,1330,1,1,1,1,1,1,1,1,1,1,1,1,1,1,1,1,1,1329,126,1332,1,1,1,1,1,1,1,1,1,1,1,1,1,1,1,1,1,1,1,1,1,1,1,1,1,1,1,1,1,1331,126,1330,1,1,1,1,1,1,1,1,1,1,1,1,1,1,1,1,1329,126,1332,1,1,1,1,1,1,1,1,1331,126,1330,1,1,1,1,1329,126,1332,1,1,1,1331,126,1330,1,1,1,1,1,1,1,1329,126,1332,1,1,1,131,1,1,1,1,1,1,1,1,1,1,1,1,1,1,1,1,1,1,1,1,1,1,1,1,1,1,1,1,1,1,1,1,1,1,1,1,1,1,1,1,1,1,1,1,1,3484,1,1,3486,1,1,1,1,1,1,1,1,1,1,1,1,1,1,1,1,1,1,1,1,1,1,1,1,1,3486,1,3484,1,1,3486,1,1,1,1,1,1,1,1,1,1,1,1,1,1,1,1,1,1,1,1,1,1,1,3482,1,1,1,1,1,1,1,1,1,1,3468,3461,3461,3461,3461,3461,3461,3461,3461,3461,3461,3461,3461,1777,1797,0,0,0,0,0,0,0,0,0,1798,1778,3461,3461,3461,3461,3461,3461,3461,3461,3461,3461,3461,3461,3461,3461,3461,3461,3461,3461,3461,3461,3461,3461,3461,3461,3461,3461,3461,3461,3461,3461,3461,3461,3461,3461,3461,3461,3461,3461,3461,3461,3461,3461,3461,3461,3461,3461,3461,3461,3461,3461,3461,1777,1801,1829,0,0,0,0,0,1830,1802,1778,1,1,1,1,1,1,1,1,1,1,1,1,1777,1797,0,0,0,1798,1778,3461,3461,3461,3461,3461,3461,3461,3461,3461,3461,3461,3461,247,3705,248,3461,3461,3461,3461,3461,3461,3461,3461,3461,3461,3461,3461,3461,3461,3461,3461,3461,3461,3461,3461,3461,3461,3461,3461,3461,3461,3461,3461,3461,3461,3461,3461,3461,3461,3461,3461,3461,3461,3461,3461,3461,3461,1777,1797,0,0,0,0,0,1798,1778,3461,3461,3461,3461,3461,3461,3461,3461,3461,3461,3461,247,3709,248,3461,3461,3461,3461,3461,3461,3461,3461,3461,3461,3461,3461,3461,3461,3461,3461,3461,3461,3461,3461,3461,3461,3461,3461,3461,3461,3461,3461,3461,247,3709,248,3461,3461,3461,3461,3461,3461,3461,3461,3461,3461,3461,3461,3461,3461,3461,3461,3461,3461,3461,3461,3461,3461,3461,3461,3461,3461,3461,3461,3461,3461,3461,1777,1797,0,0,0,0,0,1798,1778,3461,3461,3461,3461,3461,3461,3461,3461,3461,3461,3461,3461,3461,3461,3461,3461,3461,3461,3461,3461,3461,3461,3461,3461,3461,3461,3461,3461,3461,3461,3461,3461,3461,3461,3461,3461,3461,3461,3461,3461,3461,3461,3461,3461,3461,3461,3461,3461,3461,3461,3461,3461,3461,3461,3461,3461,3461,3461,3461,3461,3461,3461,3461,3461,3461,3461,3461,3461,3461,3461,3461,3461,3461,3461,3461,3461,1777,1797,0,0,248,1,1,1,1,1,1,1,1,1,1,1,1,1,1,1,1,1,1,1,1,1,1,1,1,1,1,1,1,1,1,1,1,1,1,1,1,1,1,1,1,1,1,1,1,1,1,1,1,1,1,1,1,1,1,1,1,1,1,1,1,1,1,1,1,1,1,1,1,1,1,1,1,1,1,1,1,1,1,1,1,1,1,1,1,1,1,1,1,1,1,1,1,1,1,1,1,1,1,1,1,1,1,1,1,1,1,1,1,1,1,1,1,1,1,1,1,1,1,1,1,1,1,1,1,3484,1,1,1,3486,1,1,0,0,0,0,0,0,0,0,0,0,58,
1,1,1,1,1,1,1,1,1,1,1,1,1,1,1,1,1,1,1,1,1,1,1,1,1,1,1,1,1,1,1,1,1,1,1,1,1,1,1,1,1,1,1,1,1,1,1,1,1,1,1,1,1,1,1,1,1,1,1,1,1,1,1,1,1,1,1,1,1,1,1,1,1,1,1,1,1,1,1,1,1,1,1,1,1,1,1,1,1,1,1,1,1,1,1,1,1,1,1,1,1,1,1,1,1,1,1,1,1,1,1,1,1,1,1,1,1,1,1,1,1,1,1,1,1,1,1,1,1,1,3484,1,1,1,1,1,1,1,1,1,1,1,1,1,1,1,1,1,1,1,1,1,1,1,1,1,1,1,1,1,1,1,1,1,1,1,1,1,1,1,1,1,1,1,1,1,1,1,1,3486,1,3484,1,1,1,1,1,1,1,1,1,1,1,1,1,1,1,1,1,1,1,1,1,1,1,1,1,1,1,1,1,1,1,1,1,1,1,1,1,1,1,1,1,1,1,1,1,1,1,1,1,1,1,1,1,1,1,1,1,1,1,1,1,1,1,1,1,1,1,1,1,1,1,1,1,1,1,1,1,1,1,1,1,1,1,1,1,1,1,1,1,1,1,1,1,1,1,1,1,1,1,1331,1332,1,1,1,1,1,1,1329,126,126,1330,1,1,1,1,1,1,1331,1332,1,1,1,1,1,1,1,1,1,1,1,1,1,1,1,1,1,1329,1330,1,1,1,1,1,1,1,1,1,1,1,1,1,1,1,1329,1330,1,1,1,1,1,1,1,1,1,1,1,1,1,1,1,1,1,1,1,1,131,1337,1338,126,1335,1336,6077,1,1,1,1,1,1,1,1,1,1,1,116,126,1335,1336,6077,1,1,1,1,1,1,1333,1334,1,1,1,1,1,1,1,1,1,1,1,1,1,1,1,1,1,1,1,1,1,1,1,1,1,1,1,1,0,0,0,0,0,0,0,0,0,0,0,0,0,0,0,0,0,0,0,0,0,0,0,0,0,0,0,0,0,0,0,0,0,0,0,0,0,0,0,0,0,0,0,0,0,0,0,0,0,0,0,0,0,0,0,0,0,0,0,0,0,0,0,3478,3474,3474,3474,3481,0,0,0,0,0,0,8017,4453,4454,3477,0,0,0,0,0,0,0,0,0,0,0,0,3478,3481,0,0,0,0,0,0,0,0,3478,3481,0,0,0,0,0,0,0,0,0,0,3478,3481,0,0,0,0,0,0,0,0,0,0,0,0,0,0,0,0,0,0,0,0,0,0,0,0,0,0,0,0,0,0,0,0,0,0,0,0,0,0,0,0,3478,3474,3474,3474,3481,1,1,1,1,1,1,1,1,1,1,1,1,1,1,1329,126,1332,1331,126,1330,1,1,1,1,1,1,1,1,1,1,1329,126,126,1330,1,1,1,1,1,1,1,1331,1332,1,1,1,1,1,1,1,1,1,1,1,1,1,1329,126,1332,1331,126,1330,1,1,1,1,1,1,1,1,1,1,1,1,1,1,1,1329,126,1332,1331,126,1330,1,1,1,1,1,1,1,1,1,1329,126,126,1330,1,1,1,1,1,1,1,1,1,1,1,1,1329,126,1332,1331,126,1330,1,1,1,1,1,1,1,1,1,1,1,1,1,1,1,1,1,1329,126,1332,1,1,1,1,1,1331,126,1330,1,1,1,1,1331,115,132,132,132,132,132,115,1332,1,1,1,1,1329,126,1332,1,1,1,1,1,1,1,1,1,1,1,1,1,1,1,1,1,1,1,1331,126,1330,1,1,1,1,1331,115,132,132,132,132,132,115,1332,1,1,1,1,1329,126,1332,1,1331,126,1330,1,1,1,1,1329,126,1332,1,1331,126,1330,1,1,1,1,1,1,1,1,1329,126,1332,1,1,1,1,1,1,1,1,1,131,1,1,1,1,131,1,1,131,1,1,1,1,1,1,1,1,1,1,1,116,126,1335,1336,1,1,1,1,1,1,1,1,1,128,5981,5827,5863,1,1,128,5981,1,1,1,1,1,1,1,1,1,1,1,1,1,1,1,1,1,1,1,1,1,1,1,1,1,1,1,1,1,1,1,1,1,1,1,1,1,1,1,1,1,1,1,1,1,1,1,1,1,1,1,1,1,1,1,1,1,1,1,1,1,1,1,1,1,1,1,0,0,0,1,1,1,1,1,1,3475,1458,1459,1460,1457,1458,1459,1460,1457,1458,1459,1460,1457,1458,1459,1460,1457,1458,1459,1460,1457,1458,1459,1460,1457,1458,1459,1460,1457,1458,1459,1460,1457,1458,1459,1460,1457,1458,1459,1460,1457,1458,1459,1460,1457,1458,1459,1460,1457,1458,1459,1460,1457,1458,1459,1460,1457,1458,1459,1460,1457,1458,1459,1460,1457,1458,1459,1460,1457,1458,1459,1460,1457,1458,1459,1460,1457,1458,1459,1460,1457,1458,1459,1460,1457,1458,1459,1460,1457,1458,1459,1460,1457,1458,1459,1460,1457,1458,1459,1460,1457,1458,1459,1460,1457,1458,1459,1460,1457,1458,1459,1460,1457,1458,1459,1460,1457,1458,1459,1460,1457,1458,1459,1460,1457,1458,1459,1460,1457,1458,1459,1444,1441,1442,1443,1444,1441,1442,1443,1444,1441,1442,1443,1444,1441,1442,1443,1444,1441,1442,1443,1444,1441,1442,1443,1444,1441,1442,1443,1444,1441,1442,1443,1444,1441,1442,1443,1444,1441,1442,1443,1444,1441,1442,1443,1444,1441,1442,1443,1444,1441,1442,1443,1444,1441,1442,1443,1444,1441,1442,1443,1444,1441,1442,1443,1444,1441,1442,1443,1444,1441,1442,1443,1444,1441,1442,1443,1444,1441,1442,1443,1444,1441,1442,1443,1444,1441,1442,1443,1444,1441,1442,1443,1444,1441,1442,1443,1444,1441,1442,1443,1444,1441,1442,1443,1444,1441,1442,1443,1444,1441,1442,1443,1444,1441,1442,1443,1444,1441,1442,1443,1444,1441,1442,1443,1444,1441,1442,1443,1444,1441,1442,1443,1444,1441,1442,1443,1444,1441,1442,1443,1444,0,0,1331,126,1330,1,1,1,1,1,1,1,1,1329,126,1332,1,1,1,1,1,1,1,1,1,1,1,1,1,1331,126,1330,1,1,1,1,1,1,1,1,1,1,1,1,1,1,1,1329,126,1332,1,1,1,1,1,1,1,1,1,1,1,1,1,1,1,1,1,1,1,1,1,1,1,1,1,1,1,1,1,1,1,1331,126,1330,1,1,1,1,1,1,1,1,1,1,1,1,1,1,1329,126,1332,1,1,1,1,1,1,1,1,1,1,1331,126,1330,1,1,1329,126,1332,1,1,1,1,1,1331,126,1330,1,1,1,1,1,1329,126,1332,1,1,1,1,131,1,1,1,1,1,1,1,1,1,1,1,1,1,1,1,1,1,1,1,1,1,1,1,1,1,1,1,1,1,1,1,1,1,1,1,1,1,1,1,1,1,1,1,1,1,1,1,1,3484,1,1,1,1,1,1,1,1,1,1,1,1,1,1,1,1,1,1,1,1,1,1,1,1,1,3484,1,1,1,1,3484,1,1,1,1,1,1,1,1,1,1,1,1,1,1,1,1,1,1,1,1,3482,1,1,3486,1,1,1,1,1,1,1,1,3475,1426,1427,1428,1425,1426,1427,1428,1425,1426,1427,1428,1425,1426,1427,1428,1425,1426,1427,1428,1425,1426,1427,1428,1425,1426,1427,1428,1425,1426,1427,1428,1425,1426,1427,1428,1425,1426,1427,1428,1425,1426,1427,1428,1425,1426,1427,1428,1425,1426,1427,1428,1425,1426,1427,1428,1425,1426,1427,1428,1425,1426,1427,1428,1425,1426,1427,1428,1425,1426,1427,1428,1425,1426,1427,1428,1425,1426,1427,1811,0,0,0,0,0,0,0,0,0,1798,1778,1,1,1,1,1,1,1,1,1,1,1777,1797,0,0,0,0,0,1812,1426,1427,1428,1425,1426,1427,1428,1425,1426,1427,1428,1425,1426,1427,1428,1425,1426,1427,1428,1425,1426,1427,1428,1425,1426,1427,1428,1425,1426,1427,1428,1425,1426,1427,1428,1425,1426,1427,1428,1425,1426,1427,1428,1425,1426,1427,1428,1425,1426,1427,1428,1425,1426,1427,1428,1425,1426,1427,1428,1425,1426,1427,1428,1425,1426,1427,1428,1425,1426,1427,1428,1425,1426,1427,1428,1425,1426,1427,1428,1425,1426,1427,1428,1425,1426,1427,1428,1425,1426,1427,1428,1425,1426,1427,1428,1425,1426,1427,1428,1425,1426,1427,1428,1425,1426,1427,1428,1425,1426,1427,1428,1425,1426,1427,1428,1425,1426,1427,1428,1425,1426,1427,1428,1425,1426,1427,1428,1425,1426,1427,1428,1425,1426,1427,1428,1425,1426,1427,1428,1425,1426,1427,1428,1425,1426,1427,1428,1425,1426,1427,1428,1425,1426,1427,1428,1425,1426,1427,1428,1425,1426,1427,1428,1425,1426,1427,1428,1425,1426,1427,1428,1425,1426,1427,1428,1425,1426,1427,1428,1425,1426,1427,1428,1425,1426,1427,1428,1425,1426,1427,1428,1425,1426,1427,1428,1425,1426,1427,1428,1425,1426,1427,1428,1425,1426,1427,1428,1425,1426,1427,1428,1425,1426,1427,1428,1425,1426,1427,1428,1425,1426,1427,1428,1425,1426,1427,1428,1425,247,0,0,0,248,1,1,1,1,1,1,1,1,1,1,1,1,1,1,1,1,1,1,1,1,1,1,1,1,1,1,1,1,1,1,1,1,1,1,1,1,1,1,1,1,1,1,1,1,1,1,1,1,1,1,1,1,1,1,1,1,1,1,1,1,1,1,1,1,1,1,1,1,1,1,1,1,1,1,1,1,1,1,1,1,1,1,1,1,1,1,1,1,1,1,1,1,1,1,1,1,1,1,1,1,1,1,1,1,1,1,1,1,1,1,1,1,1,1,1,1,1,1,1,1,1,1,1,1,1,1,1,1,3484,1,1,0,0,0,0,0,0,0,0,0,0,58,
1,1,1,1,1,1,1,1,1,1,1,1,1,1,1,1,1,1,1,1,1,1,1,1,1,1,1,1,1,1,1,1,1,1,1,1,1,1,1,1,1,1,1,1,1,1,1,1,1,1,1,1,1,1,1,1,1,1,1,1,1,3482,1,1,1,1,1,1,1,1,1,1,1,1,1,1,1,1,1,1,1,1,1,1,1,1,1,1,1,1,1,1,1,1,1,1,1,1,1,3482,1,1,1,1,1,1,1,1,1,1,1,1,1,1,1,1,1,1,1,1,1,1,1,1,1,1,1,1,1,1,1,1,1,1,1,1,1,1,1,0,0,0,0,1,1,1,1,3482,1,1,1,1,1,1,1,1,1,1,1,1,3482,1,1,1,1,1,1,1,1,1,1,1,1,1,1,1,1,1,1,3484,1,1,1,1,1,1,1,1,1,1,1,1,1,1,1,1,1,1,1,1,1,1,1,1,1,1,1,1,1,1,1,1,1,1,1,1,1,1,1,1,1,1,1,1,1,1,1,1,1,1,1,1,1,1,1,1,1,1,1,1,1,1,1,1,1,1,1,1,1,1,1,1,1,1,1,1,1,1,1,1,1,1,1,1,1,1,1,3482,1,1,1,1,1,1,1,1,1,1,1,1,1,1,1,1,1,0,1,1,1329,126,1332,1331,126,1330,1,1,1,1,1,1,1,1,1,1,1,1,31,31,31,1,1,1,1,1,1,1,1,1329,126,126,1330,1,1,1,1,1,1,1,1,1,1,31,31,31,1329,126,126,1330,1,1,1,1,1,1,1,1,1,1,1,1,1,1,1,127,1,1,1,131,1,1,1337,1338,117,1,1,1,1,1,1,1,1,1,1,1,1,131,1337,1338,117,1,1,1,1,6070,1333,1334,126,117,1,1,1,1,1,1,1,1,1,1,1,1,1,1,1,1,1,3473,1,1,1,3473,1,1,1,3473,1,1,3478,3474,3474,3474,3474,3474,3474,3474,3481,0,0,0,0,0,0,0,0,0,0,0,0,0,0,0,3478,3481,0,0,0,3478,3481,0,0,0,0,0,0,3478,3481,0,0,0,0,0,0,0,0,0,0,0,0,0,0,0,0,3478,3481,0,0,0,0,0,0,3475,0,0,0,3477,0,0,0,0,0,3478,3474,0,0,3477,0,0,0,0,0,0,0,0,0,0,0,0,3475,3477,0,3478,3481,0,0,0,0,0,3475,3477,0,3478,3481,0,0,0,0,0,0,0,3475,3477,0,3478,3481,0,0,0,0,0,0,0,0,0,0,0,0,0,0,0,0,0,0,0,0,0,0,0,0,0,0,0,0,3478,3474,3474,3481,0,0,0,0,0,3475,0,0,0,3477,1,1,1,1,1,1,1,1,1,1,1,1,1,1329,126,1332,1,1,1331,126,1330,1,1,1,1,1,1,1,1,1329,126,1332,1331,126,1330,1,1,1,1,1,1,1,1,1,1,1,1,1,1,1,1,1,1,1,1,1329,126,1332,1,1,1331,126,1330,1,1,1,1,1,1,1,1,1,1,1,1,1,1329,126,1332,1,1,1331,126,1330,1,1,1,1,1,1,1,1329,126,1332,1331,126,1330,1,1,1,1,1,1,1,1,1,1,1329,126,1332,1,1,1331,126,1330,1,1,1,1,1,1,1,1,1,1,1,1,1,1,1,1329,126,1332,1,1,1,1,1,1,1,1331,126,1330,1,1,1,1,1,1,1,1,1,1,1,1,1,1,1,1329,126,1332,1,1,1,1,1,1,1,1,1,1,1,1,1,1,1,1,1,1,1,1,1,1331,126,1330,1,1,1,1,1,1,1,1,1,1,1,1,1,1,1,1329,126,1332,1,1,1,1331,126,1330,1,1,1329,126,1332,1,1,1,1331,126,1330,1,1,1,1,1,1,1329,126,1332,1,1,1,1,1,1,1,1,1,1,131,1,1,1,1,131,1,1,131,1,1,1,1,1,1,1,1,1,1,1,131,1337,1338,126,1335,1336,6077,1,1,1,1,1,1,5827,5863,1,1,1,1,5827,5863,1,1,1,1,1,1,1,1,1,1,5825,5857,1,1,1,1,1,1,1,1,1,1,1,1,1,1,1,1,1,1,1,1,1,1,1,1,1,1,1,1,1,1,1,1,1,1,1,1,1,1,1,1,1,1,1,1,1,1,1,1,1,1,1,1,1,1,1,3482,0,0,1,1,1,1,1,1,3475,1474,1475,1476,1473,1474,1475,1476,1473,1474,1475,1476,1473,1474,1475,1476,1473,1474,1475,1476,1473,1474,1475,1476,1473,1474,1475,1476,1473,1474,1475,1476,1473,1474,1475,1476,1473,1474,1475,1476,1473,1474,1475,1476,1473,1474,1475,1476,1473,1474,1475,1476,1473,1474,1475,1476,1473,1474,1475,1476,1473,1474,1475,1476,1473,1474,1475,1476,1473,1474,1475,1476,1473,1474,1475,1476,1473,1474,1475,1476,1473,1474,1475,1476,1473,1474,1475,1476,1473,1474,1475,1476,1473,1474,1475,1476,1473,1474,1475,1476,1473,1474,1475,1476,1473,1474,1475,1476,1473,1474,1475,1476,1473,1474,1475,1476,1473,1474,1475,1476,1473,1474,1475,1476,1473,1474,1475,1476,1473,1474,1475,1460,1457,1458,1459,1460,1457,1458,1459,1460,1457,1458,1459,1460,1457,1458,1459,1460,1457,1458,1459,1460,1457,1458,1459,1460,1457,1458,1459,1460,1457,1458,1459,1460,1457,1458,1459,1460,1457,1458,1459,1460,1457,1458,1459,1460,1457,1458,1459,1460,1457,1458,1459,1460,1457,1458,1459,1460,1457,1458,1459,1460,1457,1458,1459,1460,1457,1458,1459,1460,1457,1458,1459,1460,1457,1458,1459,1460,1457,1458,1459,1460,1457,1458,1459,1460,1457,1458,1459,1460,1457,1458,1459,1460,1457,1458,1459,1460,1457,1458,1459,1460,1457,1458,1459,1460,1457,1458,1459,1460,1457,1458,1459,1460,1457,1458,1459,1460,1457,1458,1459,1460,1457,1458,1459,1460,1457,1458,1459,1460,1457,1458,1459,1460,1457,1458,1459,1460,1457,1458,1459,1460,0,0,0,1331,126,1330,3461,3461,3461,3461,3461,3461,1329,126,1332,1,1,1,1,1,1,1,1,1,1,1,1,1,1,1,1331,126,1330,3461,3461,3461,3461,3461,3461,3461,3461,3461,3461,3461,3461,3461,1329,126,1332,1,1,1,1,1,1,1,1,1,1,1,1,1,1,1,1,1,1,1,1,1,1,1,1,1,1,1,1,1,1,1,1,1,1331,126,1330,3461,3461,3461,3461,3461,3461,3461,3461,3461,3461,3461,3461,1329,126,1332,1,1,1,1,1,1,1,1,1,1,1,1,1331,126,1330,1329,126,1332,1,1,1,1,1,1,1,1331,126,1330,3461,3461,3461,1329,126,1332,1,1,1,1,1,131,1,1,1,1,1,1,1,1,1,1,1,1,1,1,1,1,1,1,1,1,1,1,1,1,1,1,1,1,1,1,1,1,1,1,3482,1,1,1,1,1,1,1,1,1,1,1,1,1,1,1,1,1,1,1,1,1,1,1,1,1,1,1,1,1,1,1,1,1,1,1,1,1,1,1,1,1,1,1,1,1,1,1,1,1,1,1,1,1,1,1,1,1,1,1,1,1,1,3482,1,1,3486,1,1,3486,1,1,1,1,1,1,1,1,3475,1442,1443,1444,1441,1442,1443,1444,1441,1442,1443,1444,1441,1442,1443,1444,1441,1442,1443,1444,1441,1442,1443,1444,1441,1442,1443,1444,1441,1442,1443,1444,1441,1442,1443,1444,1441,1442,1443,1444,1441,1442,1443,1444,1441,1442,1443,1444,1441,1442,1443,1444,1441,1442,1443,1444,1441,1442,1443,1444,1441,1442,1443,1444,1441,1442,1443,1444,1441,1442,1443,1444,1441,1442,1443,1444,1441,1442,1443,1444,1441,1442,1443,1444,1441,1442,1443,1444,1441,1442,3491,3474,3474,3474,3474,3474,3474,3474,3474,3474,3474,3488,1443,1444,1441,1442,1443,1444,1441,1442,1443,1444,1441,1442,1443,1444,1441,1442,1443,1444,1441,1442,1443,1444,1441,1442,1443,1444,1441,1442,1443,1444,1441,1442,1443,1444,1441,1442,1443,1444,1441,1442,1443,1444,1441,1442,1443,1444,1441,1442,1443,1444,1441,1442,1443,1444,1441,1442,1443,1444,1441,1442,1443,1444,1441,1442,1443,1444,1441,1442,1443,1444,1441,1442,1443,1444,1441,1442,1443,1444,1441,1442,1443,1444,1441,1442,1443,1444,1441,1442,1443,1444,1441,1442,1443,1444,1441,1442,1443,1444,1441,1442,1443,1444,1441,1442,1443,1444,1441,1442,1443,1444,1441,1442,1443,1444,1441,1442,1443,1444,1441,1442,1443,1444,1441,1442,1443,1444,1441,1442,1443,1444,1441,1442,1443,1444,1441,1442,1443,1444,1441,1442,1443,1444,1441,1442,1443,1444,1441,1442,1443,1444,1441,1442,1443,1444,1441,1442,1443,1444,1441,1442,1443,1444,1441,1442,1443,1444,1441,1442,1443,1444,1441,1442,1443,1444,1441,1442,1443,1444,1441,1442,1443,1444,1441,1442,1443,1444,1441,1442,1443,1444,1441,1442,1443,1444,1441,1442,1443,1444,1441,1442,1443,1444,1441,1442,1443,1444,1441,1442,1443,1444,1441,1442,1443,1444,1441,1442,1443,1444,1441,1442,1443,1444,1441,1442,1443,1444,1441,1442,1443,1444,1441,1442,1443,1444,1441,247,0,0,0,248,1,1,1,3482,1,1,1,1,1,1,1,1,1,1,1,1,1,1,1,1,1,1,1,1,1,1,1,1,1,1,1,1,1,1,1,1,1,1,1,1,1,1,1,1,1,1,1,1,1,1,1,1,1,1,1,1,1,1,1,3482,1,1,1,1,1,1,1,1,1,1,1,1,1,1,1,1,1,1,1,1,1,1,1,1,1,1,1,1,1,1,1,1,1,1,1,1,1,3482,1,1,1,1,1,1,1,1,1,1,1,1,1,1,1,1,1,1,1,1,1,1,1,1,1,1,1,1,1,1,1,1,1,0,0,0,0,0,0,0,0,0,0,58,
1,1,1,1,1,1,1,1,1,1,1,1,1,1,1,1,1,1,1,1,1,1,1,3482,1,1,1,1,1,1,1,1,1,1,1,1,1,1,1,1,1,1,1,1,1,1,1,1,1,1,1,1,1,1,1,1,1,3482,1,1,1,3486,1,1,1,1,1,1,1,1,1,1,1,1,1,1,3482,1,1,1,1,1,3482,1,1,1,1,1,1,1,1,1,1,1,1,3482,1,1,1,3486,1,3482,1,1,1,1,1,1,1,1,1,1,1,1,1,1,1,1,1,1,1,1,1,1,1,1,1,1,1,1,1,1,1,1,1,1,1,1,0,3478,3474,3474,3474,3481,1,1,1,3486,1,1,1,1,1,1,1,1,1,1,1,1,3486,1,3482,1,1,1,1,1,1,3482,1,1,1,1,1,1,1,1,1,1,1,1,1,1,1,1,1,1,1,1,1,1,1,1,1,3482,1,1,1,1,1,1,1,1,1,1,1,1,1,1,1,1,1,1,3482,1,1,1,1,1,1,1,1,1,1,1,1,1,1,1,1,1,1,1,1,1,1,1,1,1,1,1,1,1,1,1,1,1,1,1,1,1,1,1,1,1,1,1,1,1,1,1,1,3482,1,1,1,3486,1,1,1,1,1,1,1,1,1,1,1,1,1,1,1,1,1,1,1,1329,126,1332,1,1,1331,126,1330,1,1,1,1,1,1,1,1,1,1,1329,114,132,114,1330,3461,3461,3461,3461,3461,3461,1329,126,1332,1331,126,1330,1,1,1,1,1,1,1,1,1329,114,132,132,115,1332,1331,115,132,132,132,132,132,132,132,132,132,132,132,119,1,1,1,131,1,1,1,131,1,1,1,1,131,1,1,1,1,118,132,119,1,1,1,1,1,131,1,1,131,1,1,1,1,1,116,1339,1340,131,1,1,1,1,1,1,1,1,1,1,1,1,1,1,1,1,1,1,1,1,1,1,1,1,1,1,1,1,3475,0,0,0,0,0,0,0,3477,3461,3461,3461,3461,3461,3461,3461,3461,3478,3481,3461,3461,3461,3461,3461,3475,3477,3461,3461,3461,3475,3477,3461,3461,3461,3461,3461,3461,3475,3477,3461,3461,3461,3461,3461,3461,3461,3461,3461,3461,3461,3461,3461,3461,3461,3461,3475,3477,3461,3461,3461,3461,3461,3461,3475,0,0,0,3477,3461,3461,3461,3461,3461,3475,0,0,0,3477,3461,3461,3461,3461,3461,3461,3461,3461,3461,3461,3461,3461,3475,3477,3461,3475,3477,3461,3461,3461,3461,3461,3475,3477,3461,3475,3477,3461,3461,3461,3461,3461,3461,3461,3475,3477,3461,3475,3477,3461,3461,3461,3461,3461,3465,0,3468,3461,3461,3461,3461,3461,3461,3461,3461,3461,3461,3461,3461,3461,3461,3461,3461,3461,3461,3461,3461,3475,0,0,3477,3461,3461,3461,3461,3461,3475,0,273,0,3477,1,1,1,1,1,1,1,1,1,1,1,1,1329,126,1332,1,1,1,1,1331,126,1330,1,1,1,1,1,1,1329,126,1332,1,1,1331,126,1330,1,1,1,1,1,1,1,1,1,1,1329,1330,1,1,1,1,1,1,1329,126,1332,1,1,1,1,1331,126,1330,1,1,1,1,1,1,1,1,1,1,1,1329,126,1332,1,1,1,1,1331,126,1330,1,1,1,1,1,1329,126,1332,1,1,1331,126,1330,1,1,1,1,1,1,1,1,1329,126,1332,1,1,1,1,1331,126,1330,1,1,1,1,1,1,1,1,1,1,1,1,1,1329,126,1332,1,1,1,1,1,1,1,1,1,1331,126,1330,1,1,1,1,1,1,1,1,1,1,1,1,1,1329,126,1332,1,1,1,1,1,1,1,1,1,1,1,1,1,1,1,1,1,1,1,1,1,1,1,1331,126,1330,1,1,1,1,1,1,1,1,1,1,1,1,1,1329,126,1332,1,1,1,1,1,1331,126,1330,1329,126,1332,1,1,1,1,1,1331,126,1330,1,1,1,1,1329,126,1332,1,1,1,1,1,1,1,1,1,1,1,131,1,1,1,1,131,1,1,131,1,1,1,1,1,1,1,1,1,1,1,131,1,1,1337,1338,117,1,1,1,1,1,1,1,1,1,1,1,1,1,1,1,1,1,1,1,1,1,5825,5857,1,1,127,5981,1,1,1,1,1,1,1,1,1,1,1,1,3482,1,1,1,1,3482,1,1,1,1,1,1,1,1,3482,1,1,1,1,3482,1,1,1,1,1,1,1,1,1,1,1,1,1,1,1,1,1,1,1,1,3482,1,1,3486,0,0,1,1,1,1,1,1,116,126,126,126,126,126,126,126,126,126,126,126,126,126,126,126,126,126,126,126,126,126,126,126,126,126,126,126,126,126,126,126,126,126,126,126,126,126,126,126,126,126,126,126,126,126,126,126,126,126,126,126,126,126,126,126,126,126,126,126,126,126,126,126,126,126,126,126,126,126,126,126,126,126,126,126,126,126,126,126,126,126,126,126,126,126,126,126,126,126,126,126,126,126,126,126,126,126,126,126,126,126,126,126,126,126,126,126,126,126,126,126,126,126,126,126,126,126,126,126,126,126,126,126,126,126,126,126,126,126,126,1476,1473,1474,1475,1476,1473,1474,1475,1476,1473,1474,1475,1476,1473,1474,1475,1476,1473,1474,1475,1476,1473,1474,1475,1476,1473,1474,1475,1476,1473,1474,1475,1476,1473,1474,1475,1476,1473,1474,1475,1476,1473,1474,1475,1476,1473,1474,1475,1476,1473,1474,1475,1476,1473,1474,1475,1476,1473,1474,1475,1476,1473,1474,1475,1476,1473,1474,1475,1476,1473,1474,1475,1476,1473,1474,1475,1476,1473,1474,1475,1476,1473,1474,1475,1476,1473,1474,1475,1476,1473,1474,1475,1476,1473,1474,1475,1476,1473,1474,1475,1476,1473,1474,1475,1476,1473,1474,1475,1476,1473,1474,1475,1476,1473,1474,1475,1476,1473,1474,1475,1476,1473,1474,1475,1476,1473,1474,1475,1476,1473,1474,1475,1476,1473,1474,1475,1476,1473,1474,1475,1476,0,0,0,0,1425,1426,1427,1428,1425,1426,1427,1428,1425,1426,1427,1428,1425,1426,1427,1428,1425,1426,1427,1428,1425,1426,1427,1428,1425,1426,1427,1428,1425,1426,1427,1428,1425,1426,1427,1428,1425,1426,1427,1428,1425,1426,1427,1428,1425,1426,1427,1428,1425,1426,1427,1428,1425,1426,1427,1428,1425,1426,1427,1428,1425,1426,1427,1428,1425,1426,1427,1428,1425,1426,1427,1428,1425,1426,1427,1428,1425,1426,1427,1428,1425,1426,1427,1428,1425,1426,1427,1428,1425,1426,1427,1428,1425,1426,1427,1428,1425,1426,1427,1428,1425,1426,1427,1428,1425,1426,1427,1428,1425,1426,1427,1428,1425,1426,1427,1428,1425,1426,1427,1428,1425,1426,1427,1428,1425,1426,1427,1428,1425,1426,1427,1428,1425,1426,1427,131,1,1,1,3482,1,1,1,1,1,1,3482,1,1,1,1,1,1,1,1,1,1,1,1,3482,1,1,1,1,1,1,1,1,1,1,3486,1,1,1,1,1,1,1,1,1,1,1,1,1,1,1,1,1,1,1,1,1,1,1,1,1,1,1,1,1,1,1,1,1,1,1,1,1,1,1,1,1,1,1,1,1,1,1,1,1,1,1,1,1,1,1,1,1,1,1,1,1,1,3486,1,1,3486,1,1,3486,1,1,1,1,1,1,1,1,3475,1458,1459,1460,1457,1458,1459,1460,1457,1458,1459,1460,1457,1458,1459,1460,1457,1458,1459,1460,1457,1458,1459,1460,1457,1458,1459,1460,1457,1458,1459,1460,1457,1458,1459,1460,1457,1458,1459,1460,1457,1458,1459,1460,1457,1458,1459,1460,1457,1458,1459,1460,1457,1458,1459,1460,1457,1458,1459,1460,1457,1458,1459,1460,1457,1458,1459,1460,1457,1458,1459,1460,1457,1458,1459,1460,1457,1458,1459,1460,1457,1458,1459,1460,1457,1458,1459,1460,1457,1458,1459,1460,1457,1458,1459,1460,1457,1458,1459,1460,1457,1458,1459,1460,1457,1458,1459,1460,1457,1458,1459,1460,1457,1458,1459,1460,1457,1458,1459,1460,1457,1458,1459,1460,1457,1458,1459,1460,1457,1458,1459,1460,1457,1458,1459,1460,1457,1458,1459,1460,1457,1458,1459,1460,1457,1458,1459,1460,1457,1458,1459,1460,1457,1458,1459,1460,1457,1458,1459,1460,1457,1458,1459,1460,1457,1458,1459,1460,1457,1458,1459,1460,1457,1458,1459,1460,1457,1458,1459,1460,1457,1458,1459,1460,1457,1458,1459,1460,1457,1458,1459,1460,1457,1458,1459,1460,1457,1458,1459,1460,1457,1458,1459,1460,1457,1458,1459,1460,1457,1458,1459,1460,1457,1458,1459,1460,1457,1458,1459,1460,1457,1458,1459,1460,1457,1458,1459,1460,1457,1458,1459,1460,1457,1458,1459,1460,1457,1458,1459,1460,1457,1458,1459,1460,1457,1458,1459,1460,1457,1458,1459,1460,1457,1458,1459,1460,1457,1458,1459,1460,1457,1458,1459,1460,1457,1458,1459,1460,1457,1458,1459,1460,1457,1458,1459,1460,1457,1458,1459,1460,1457,1458,1459,1460,1457,1458,1459,1460,1457,1458,1459,1460,1457,1458,1459,1460,1457,1458,1459,1460,1457,1458,1459,1460,1457,1458,1459,1460,1457,1458,1459,1460,1457,1458,1459,1460,1457,1458,1459,1460,1457,1458,1459,1460,1457,1458,1459,1460,1457,1458,1459,1460,1457,1458,1459,1460,1457,247,0,0,0,248,1,1,1,3486,1,3482,1,1,1,1,1,1,1,1,1,1,1,1,1,1,1,3482,1,1,1,1,1,1,1,1,1,1,1,1,1,1,1,1,1,1,1,1,1,1,1,1,1,1,1,1,1,1,1,1,1,3482,1,1,1,3486,1,1,1,1,1,1,1,1,1,1,1,1,1,1,3482,1,1,1,1,1,3482,1,1,1,1,1,1,1,1,1,1,1,1,3482,1,1,1,3486,1,3482,1,1,1,1,1,1,1,1,1,1,1,1,1,1,1,1,1,1,1,1,1,1,1,1,1,1,1,1,1,1,1,0,0,0,0,0,0,0,0,0,0,58,
1,1,1,1,1,1,1,1,1,1,1,1,1,1,1,1,1,1,1,1,1,1,1,3486,1,3482,1,1,1,1,1,1,1,1,1,1,1,1,1,1,1,1,1,1,1,1,1,1,1,1,1,1,1,3482,1,1,1,3486,1,1,1,3486,1,1,1,1,1,1,1,1,1,1,1,1,1,1,3486,1,3482,1,1,1,3486,1,1,1,1,1,1,1,1,1,1,1,1,3486,1,1,1,3486,1,3486,1,3482,1,1,1,1,1,1,1,1,1,1,1,1,1,3482,1,1,1,1,1,1,1,1,1,1,1,1,1,1,1,1,1,1,1,1,1,3475,0,0,0,3477,1,1,1,3486,1,1,1,1,1,1,1,1,1,1,1,1,3486,1,3486,1,3482,1,1,1,1,3486,1,3482,3468,3461,3465,1,1,1,1,1,1,1,1,1,1,1,1,1,1,1,1,1,1,1,1,3486,1,1,1,1,1,1,1,1,1,1,1,1,1,1,1,1,1,1,3486,1,3482,1,1,1,1,1,1,1,1,1,1,1,1,1,1,1,1,1,1,1,1,1,1,1,1,1,1,1,1,1,1,1,1,1,3482,0,1,1,1,1,1,1,1,3482,1,1,1,3486,1,1,1,3486,1,1,1,1,1,1,1,1,1,1,1,1,1,1,1,1,1,1,1329,126,1332,1,1,1,1,1331,126,1330,1,1,1,1,1,1,1,1,1329,126,1332,1,1331,115,132,132,132,132,132,132,115,1332,1,1,1331,126,1330,3461,3461,3461,3461,3461,3461,1329,126,1332,1,1,1,1,1,1,1,1,1,1,1,1,1,1,1,1,1,131,1,1,1,131,1,1,1,131,1,1,1,1,131,1,1,1,1,131,1,131,1,1,1,1,1,131,1,1,131,1,1,1,1,1,131,1,1,131,1,1,1,1,1,1,1,1,1,1,1,1,1,1,1,1,1,1,1,1,1,1,1,1,1,1,1,1,3475,0,0,0,0,0,0,0,3491,1426,1427,1428,1425,1426,1427,1428,1425,1426,1427,1428,1425,1426,1427,1428,1425,1426,1427,1428,1425,1426,1427,1428,1425,1426,1427,1428,1425,1426,1427,1428,1425,1426,1427,1428,1425,1426,1427,1428,1425,1426,1427,1428,1425,1426,1427,1428,1425,1426,1427,1428,1425,1426,1427,1428,1425,1426,1427,1428,1425,1426,1427,1428,1425,1426,1427,1428,1425,1426,1427,1428,1425,1426,1427,1428,1425,1426,1427,1428,1425,1426,1427,1428,1425,1426,1427,1428,1425,1426,1427,1428,1425,1426,1427,1428,1425,1426,1427,1428,1425,1426,1427,1428,1425,1426,1427,1428,1425,1426,1427,1428,1425,1426,1427,1428,1425,1426,1427,1428,1425,1426,1427,1428,1425,1426,1427,1428,1425,1426,1427,1428,1425,1426,1427,1428,1425,1426,1427,1428,1425,1426,1427,1428,1425,1426,0,0,273,0,3477,1,1,1,1,1,1,1,1,1,1,1,1329,126,1332,1,1,1,1,1,1,1331,126,1330,1,1,1,1,1329,126,1332,1,1,1,1,1331,126,1330,1,1,1,1,1,1,1,1,1329,126,126,1330,1,1,1,1,1329,126,1332,1,1,1,1,1,1,1331,126,1330,1,1,1,1,1,1,1,1,1,1329,126,1332,1,1,1,1,1,1,1331,126,1330,1,1,1,1329,126,1332,1,1,1,1,1331,126,1330,1,1,1,1,1,1,1329,126,1332,1,1,1,1,1,1,1331,126,1330,1,1,1,1,1,1,1,1,1,1,1,1329,126,1332,1,1,1,1,1,1,1,1,1,1,1,1331,126,1330,1,1,1,1,1,1,1,1,1,1,1,1329,126,1332,1,1,1,1,1,1,1,1,1,1,1,1,1,1,1,1,1,1,1,1,1,1,1,1,1,1331,126,1330,1,1,1,1,1,1,1,1,1,1,1,1329,126,1332,1,1,1,1,1,1,1,1331,115,115,1332,1,1,1,1,1,1,1,1331,126,1330,1,1,1329,126,1332,1,1,1,1,1,1,1,1,1,1,1,1,131,1,1,1,1,131,1,1,131,1,1,1,1,1,1,1,1,1,1,1,131,1,1,1,1,131,1,1,1,1,1,1,1,1,1,1,1,1,1,1,1,1,1,5825,5857,1,1,127,5981,1,1,131,5981,1,1,1,1,1,1,1,1,1,1,1,1,3486,1,3482,1,1,3486,1,3482,1,1,1,1,1,1,3486,1,3482,1,1,3486,1,3482,1,1,1,1,1,1,1,1,1,1,1,3482,1,1,1,3482,1,1,3486,1,1,3486,0,0,1,1,1,1,1,1,116,126,126,126,126,126,126,126,126,126,126,126,126,126,126,126,126,126,126,126,126,126,126,126,126,126,126,126,126,126,126,126,126,126,126,126,126,126,126,126,126,126,126,126,126,126,126,126,126,126,126,126,126,126,126,126,126,126,126,126,126,126,126,126,126,126,126,126,126,126,126,126,126,126,126,126,126,126,126,126,126,126,126,126,126,126,126,126,126,126,126,126,126,126,126,126,126,126,126,126,126,126,126,126,126,126,126,126,126,126,126,126,126,126,126,126,126,126,126,126,126,126,126,126,126,126,126,126,126,126,126,126,126,126,126,126,126,126,126,126,126,126,126,126,126,126,126,126,126,126,126,126,126,126,126,126,126,126,126,126,126,126,126,126,126,126,126,126,126,126,126,126,126,126,126,126,126,126,126,126,126,126,126,126,126,126,126,126,126,126,126,126,126,126,126,126,126,126,126,126,126,126,126,126,126,126,126,126,126,126,126,126,126,126,126,126,126,126,126,126,126,126,126,126,126,126,126,126,126,126,126,126,126,126,126,126,126,126,126,126,126,126,126,126,126,126,126,126,126,126,126,126,126,126,126,126,126,126,126,126,126,126,126,126,126,126,126,126,126,126,126,126,126,126,0,0,1441,1442,1443,1444,1441,1442,1443,1444,1441,1442,1443,1444,1441,1442,1443,1444,1441,1442,1443,1444,1441,1442,1443,1444,1441,1442,1443,1444,1441,1442,1443,1444,1441,1442,1443,1444,1441,1442,1443,1444,1441,1442,1443,1444,1441,1442,1443,1444,1441,1442,1443,1444,1441,1442,1443,1444,1441,1442,1443,1444,1441,1442,1443,1444,1441,1442,1443,1444,1441,1442,1443,1444,1441,1442,1443,1444,1441,1442,1443,1444,1441,1442,1443,1444,1441,1442,1443,1444,1441,1442,1443,1444,1441,1442,1443,1444,1441,1442,1443,1444,1441,1442,1443,1444,1441,1442,1443,1444,1441,1442,1443,1444,1441,1442,1443,1444,1441,1442,1443,1444,1441,1442,1443,1444,1441,1442,1443,1444,1441,1442,1443,1444,1441,1442,1443,131,1,1,1,3486,1,3482,1,1,1,1,3486,1,3482,1,1,1,1,1,1,1,1,1,1,3486,1,3482,1,1,1,1,1,1,3482,1,3486,1,1,1,1,1,1,1,1,1,1,1,1,1,1,1,1,1,1,1,1,1,1,1,1,1,3482,1,1,1,1,1,1,1,1,1,1,1,1,1,1,1,1,1,1,1,1,1,1,1,1,1,1,1,1,1,1,1,1,1,1,1,1,3486,1,1,3486,1,1,3486,1,1,1,1,1,1,1,1,3475,1474,1475,1476,1473,1474,1475,1476,1473,1474,1475,1476,1473,1474,1475,1476,1473,1474,1475,1476,1473,1474,1475,1476,1473,1474,1475,1476,1473,1474,1475,1476,1473,1474,1475,1476,1473,1474,1475,1476,1473,1474,1475,1476,1473,1474,1475,1476,1473,1474,1475,1476,1473,1474,1475,1476,1473,1474,1475,1476,1473,1474,1475,1476,1473,1474,1475,1476,1473,1474,1475,1476,1473,1474,1475,1476,1473,1474,1475,1476,1473,1474,1475,1476,1473,1474,1475,1476,1473,1474,1475,1476,1473,1474,1475,1476,1473,1474,1475,1476,1473,1474,1475,1476,1473,1474,1475,1476,1473,1474,1475,1476,1473,1474,1475,1476,1473,1474,1475,1476,1473,1474,1475,1476,1473,1474,1475,1476,1473,1474,1475,1476,1473,1474,1475,1476,1473,1474,1475,1476,1473,1474,1475,1476,1473,1474,1475,1476,1473,1474,1475,1476,1473,1474,1475,1476,1473,1474,1475,1476,1473,1474,1475,1476,1473,1474,1475,1476,1473,1474,1475,1476,1473,1474,1475,1476,1473,1474,1475,1476,1473,1474,1475,1476,1473,1474,1475,1476,1473,1474,1475,1476,1473,1474,1475,1476,1473,1474,1475,1476,1473,1474,1475,1476,1473,1474,1475,1476,1473,1474,1475,1476,1473,1474,1475,1476,1473,1474,1475,1476,1473,1474,1475,1476,1473,1474,1475,1476,1473,1474,1475,1476,1473,1474,1475,1476,1473,1474,1475,1476,1473,1474,1475,1476,1473,1474,1475,1476,1473,1474,1475,1476,1473,1474,1475,1476,1473,1474,1475,1476,1473,1474,1475,1476,1473,1474,1475,1476,1473,1474,1475,1476,1473,1474,1475,1476,1473,1474,1475,1476,1473,1474,1475,1476,1473,1474,1475,1476,1473,1474,1475,1476,1473,1474,1475,1476,1473,1474,1475,1476,1473,1474,1475,1476,1473,1474,1475,1476,1473,1474,1475,1476,1473,1474,1475,1476,1473,1474,1475,1476,1473,1474,1475,1476,1473,1474,1475,1476,1473,1474,1475,1476,1473,1474,1475,1476,1473,247,0,0,0,248,1,1,1,3486,1,3486,1,3482,1,1,1,1,3482,1,1,1,1,1,1,1,1,3486,1,3482,1,1,1,1,1,1,1,1,1,1,1,1,1,1,1,1,1,1,1,1,1,1,1,1,1,1,1,3482,1,1,1,3486,1,1,1,3486,1,1,1,1,1,1,1,1,1,1,1,1,1,1,3486,1,3482,1,1,1,3486,1,1,1,1,1,1,1,1,1,1,1,1,3486,1,1,1,3486,1,3486,1,3482,1,1,1,1,1,1,1,1,1,1,1,1,1,3482,1,1,1,1,1,1,1,1,1,1,1,1,1,1,1,0,0,0,0,0,0,0,0,0,0,58,
1,1,1,1,1,1,1,1,1,1,1,1,1,1,1,1,1,1,1,3468,3461,3461,3461,3486,3461,3486,3461,3482,3461,3461,3461,3461,3461,3461,3461,3461,3461,3461,3461,3461,3461,3461,3461,3461,3461,3461,3461,3461,3461,3461,3461,3461,3461,3486,3461,3461,3461,3486,3461,3461,3461,3486,3461,3461,3461,3461,3465,1,1,1,1,1,3468,3461,3461,3461,3486,3461,3486,3461,3461,3461,3486,3461,3461,3461,3461,3461,3461,3461,3461,3461,3461,3461,3461,3486,3461,3461,3461,3486,3461,3486,3461,3486,3461,3461,3461,3461,3461,3461,3461,3461,3461,3461,3461,3461,3461,3486,3461,3461,3461,3461,3461,3461,3461,3461,3461,3461,3461,3461,3461,3461,3461,3461,3461,3461,3461,3461,3461,3475,0,0,0,3477,3461,3461,3461,3486,3461,3461,3461,3461,3461,3461,3461,3461,3461,3461,3461,3461,3486,3461,3486,3461,3486,3461,3461,3461,3461,3486,3461,3486,3463,3482,3464,3461,3461,3461,3461,3461,3461,3461,3461,3461,3461,3461,3461,3461,3461,3461,3461,3461,3461,3461,3461,3486,3461,3461,3461,3461,3461,3461,3461,3461,3461,3461,3461,3461,3461,3461,3461,3461,3461,3461,3486,3461,3486,3461,3461,3461,3461,3461,3461,3461,3461,3461,3461,3461,3461,3461,3461,3461,3461,3461,3461,3461,3461,3461,3461,3461,3461,3461,3461,3461,3461,3461,3461,3461,3461,3461,3486,3461,3461,3461,3461,3461,3461,3461,3461,3486,3461,3461,3461,3486,3461,3461,3461,3486,3461,3461,3461,3465,1,1,1,1,3468,3461,3461,3461,3461,3461,3461,3461,3461,1329,126,1332,1,1,1,1,1,1,1331,126,1330,3461,3461,3461,3461,3461,3461,1329,126,1332,1,1,1,1,1,1,1,1,1,1,1,1,1,1,1,1331,126,114,114,114,114,114,114,126,1332,1,1,1,1,1,1,1,1,1,1,1,1,1,1,1,1,1,1,131,3461,3461,3461,131,3461,3461,3461,131,1,1,1,1,131,3461,3461,3461,3461,131,1,131,3461,3461,3461,3461,3461,131,1,1,131,3461,3461,3461,3461,3461,131,1,1,131,3461,3461,3461,3461,3461,3461,3461,3461,3461,3461,3461,3461,3461,3461,3461,3461,3461,3461,3461,3461,3461,3461,3461,3461,3461,3461,3461,3461,3475,0,0,0,0,0,0,0,0,1442,1443,1444,1441,1442,1443,1444,1441,1442,1443,1444,1441,1442,1443,1444,1441,1442,1443,1444,1441,1442,1443,1444,1441,1442,1443,1444,1441,1442,1443,1444,1441,1442,1443,1444,1441,1442,1443,1444,1441,1442,1443,1444,1441,1442,1443,1444,1441,1442,1443,1444,1441,1442,1443,1444,1441,1442,1443,1444,1441,1442,1443,1444,1441,1442,1443,1444,1441,1442,1443,1444,1441,1442,1443,1444,1441,1442,1443,1444,1441,1442,1443,1444,1441,1442,1443,1444,1441,1442,1443,1444,1441,1442,1443,1444,1441,1442,1443,1444,1441,1442,1443,1444,1441,1442,1443,1444,1441,1442,1443,1444,1441,1442,1443,1444,1441,1442,1443,1444,1441,1442,1443,1444,1441,1442,1443,1444,1441,1442,1443,1444,1441,1442,1443,1444,1441,1442,1443,1444,1441,1442,1443,1444,1441,1442,0,0,273,0,3477,3461,3461,3461,3461,3461,3461,3461,3461,3461,3461,1329,126,1332,1,1,1,1,1,1,1,1,1331,126,1330,3461,3461,1329,126,1332,1,1,1,1,1,1,1331,126,1330,3461,3461,3461,3461,3461,3461,1329,126,1332,1331,126,1330,3461,3461,1329,126,1332,1,1,1,1,1,1,1,1,1331,126,1330,3461,3461,3461,3461,3461,3461,3461,1329,126,1332,1,1,1,1,1,1,1,1,1331,126,1330,3461,1329,126,1332,1,1,1,1,1,1,1331,126,1330,3461,3461,3461,3461,1329,126,1332,1,1,1,1,1,1,1,1,1331,126,1330,3461,3461,3461,3461,3461,3461,3461,3461,3461,1329,126,1332,1,1,1,1,1,1,1,1,1,1,1,1,1,1331,126,1330,3461,3461,3461,3461,3461,3461,3461,3461,3461,1329,126,1332,1,1,1,1,1,1,1,1,1,1,1,1,1,1,1,1,1,1,1,1,1,1,1,1,1,1,1,1331,126,1330,3461,3461,3461,3461,3461,3461,3461,3461,3461,1329,126,1332,1,1,1,1,1,1,1,1,1,1,1,1,1,1,1,1,1,1,1,1,1331,126,1330,1329,126,1332,1,1,1,1,1,1,1,1,1,1,1,1,1,131,3461,3461,3461,3461,131,1,1,131,3461,3461,3461,3461,3461,3461,3461,3461,3461,3461,3461,131,1,1,1,1,131,3461,3461,3461,3461,3461,3461,3461,3461,3461,3461,3461,3461,3461,3461,3461,3461,3461,127,3461,3461,3461,131,3461,3461,3461,131,3461,3465,1,1,1,1,1,1,1,1,3468,3461,3461,3486,3461,3486,3461,3461,3486,3461,3486,3461,3482,3461,3461,3461,3461,3486,3461,3486,3461,3461,3486,3461,3486,3461,3482,3461,3461,3461,3461,3461,3461,3461,3461,3461,3486,3461,3461,3461,3486,3461,3461,3486,3461,3461,3486,3461,3461,3461,3461,3461,3461,3461,3461,116,126,126,126,126,126,126,126,126,126,126,126,126,126,126,126,126,126,126,126,126,126,126,126,126,126,126,126,126,126,126,126,126,126,126,126,126,126,126,126,126,126,126,126,126,126,126,126,126,126,126,126,126,126,126,126,126,126,126,126,126,126,126,126,126,126,126,126,126,126,126,126,126,126,126,126,126,126,126,126,126,126,126,126,126,126,126,126,126,126,126,126,126,126,126,126,126,126,126,126,126,126,126,126,126,126,126,126,126,126,126,126,126,126,126,126,126,126,126,126,126,126,126,126,126,126,126,126,126,126,126,126,126,126,126,126,126,126,126,126,126,126,126,126,126,126,126,126,126,126,126,126,126,126,126,126,126,126,126,126,126,126,126,126,126,126,126,126,126,126,126,126,126,126,126,126,126,126,126,126,126,126,126,126,126,126,126,126,126,126,126,126,126,126,126,126,126,126,126,126,126,126,126,126,126,126,126,126,126,126,126,126,126,126,126,126,126,126,126,126,126,126,126,126,126,126,126,126,126,126,126,126,126,126,126,126,126,126,126,126,126,126,126,126,126,126,126,126,126,126,126,126,126,126,126,126,126,126,126,126,126,126,126,126,126,126,126,126,126,126,126,126,126,126,126,0,1457,1458,1459,1460,1457,1458,1459,1460,1457,1458,1459,1460,1457,1458,1459,1460,1457,1458,1459,1460,1457,1458,1459,1460,1457,1458,1459,1460,1457,1458,1459,1460,1457,1458,1459,1460,1457,1458,1459,1460,1457,1458,1459,1460,1457,1458,1459,1460,1457,1458,1459,1460,1457,1458,1459,1460,1457,1458,1459,1460,1457,1458,1459,1460,1457,1458,1459,1460,1457,1458,1459,1460,1457,1458,1459,1460,1457,1458,1459,1460,1457,1458,1459,1460,1457,1458,1459,1460,1457,1458,1459,1460,1457,1458,1459,1460,1457,1458,1459,1460,1457,1458,1459,1460,1457,1458,1459,1460,1457,1458,1459,1460,1457,1458,1459,1460,1457,1458,1459,1460,1457,1458,1459,1460,1457,1458,1459,1460,1457,1458,1459,1460,1457,1458,1459,131,3461,3461,3461,3486,3461,3486,3461,3482,3461,3461,3486,3461,3486,3461,3482,3461,3461,3461,3461,3461,3461,3461,3461,3486,3461,3486,3461,3482,3461,3461,3461,3461,3486,3461,3486,3461,3461,3461,3461,3461,3461,3461,3461,3461,3461,3461,3461,3461,3461,3461,3461,3461,3461,3461,3461,3465,1,3468,3461,3461,3486,3461,3482,3461,3461,3461,3461,3461,3461,3461,3461,3461,3461,3461,3461,3461,3461,3461,3461,3461,3482,1,1,3468,3461,3461,3461,3461,3461,3461,3461,3461,3465,3468,3461,3461,3461,3486,3461,3461,3486,3461,3461,3486,1,5089,1,1,5089,1,1,1,116,126,126,126,126,126,126,126,126,126,126,126,126,126,126,126,126,126,126,126,126,126,126,126,126,126,126,126,126,126,126,126,126,126,126,126,126,126,126,126,126,126,126,126,126,126,126,126,126,126,126,126,126,126,126,126,126,126,126,126,126,126,126,126,126,126,126,126,126,126,126,126,126,126,126,126,126,126,126,126,126,126,126,126,126,126,126,126,126,126,126,126,126,126,126,126,126,126,126,126,126,126,126,126,126,126,126,126,126,126,126,126,126,126,126,126,126,126,126,126,126,126,126,126,126,126,126,126,126,126,126,126,126,126,126,126,126,126,126,126,126,126,126,126,126,126,126,126,126,126,126,126,126,126,126,126,126,126,126,126,126,126,126,126,126,126,126,126,126,126,126,126,126,126,126,126,126,126,126,126,126,126,126,126,126,126,126,126,126,126,126,126,126,126,126,126,126,126,126,126,126,126,126,126,126,126,126,126,126,126,126,126,126,126,126,126,126,126,126,126,126,126,126,126,126,126,126,126,126,126,126,126,126,126,126,126,126,126,126,126,126,126,126,126,126,126,126,126,126,126,126,126,126,126,126,126,126,126,126,126,126,126,126,126,126,126,126,126,126,126,126,126,126,126,126,126,126,126,126,126,126,126,126,126,126,126,126,126,126,126,126,126,126,126,126,126,126,126,126,126,126,126,126,126,126,126,126,126,126,126,126,126,126,126,126,126,126,126,126,126,126,126,126,126,126,126,126,126,126,126,126,126,126,126,126,126,126,247,0,0,0,248,3461,3461,3461,3486,3461,3486,3461,3486,3461,3461,3461,3461,3486,3461,3482,3465,1,3468,3461,3461,3461,3486,3461,3486,3461,3482,3461,3461,3461,3461,3461,3461,3461,3461,3461,3461,3461,3461,3461,3461,3461,3461,3461,3461,3461,3461,3461,3461,3461,3461,3461,3486,3461,3461,3461,3486,3461,3461,3461,3486,3461,3461,3461,3465,1,1,1,1,1,1,3468,3461,3461,3461,3486,3461,3486,3461,3461,3461,3486,3461,3461,3461,3461,3461,3461,3461,3461,3461,3461,3461,3461,3486,3461,3461,3461,3486,3461,3486,3461,3486,3461,3461,3461,3461,3461,3461,3461,3461,3461,3461,3461,3461,3461,3486,3461,3461,3461,3461,3461,3461,3461,3461,3461,3461,3461,3461,3461,3461,3461,3465,0,0,0,0,0,0,0,0,0,58
</data>
 </layer>
 <objectgroup id="7" name="SP">
  <object id="422" gid="16504" x="432" y="336" width="16" height="16">
   <properties>
    <property name="bg layer" value="1"/>
    <property name="color channel" value="3"/>
   </properties>
  </object>
  <object id="1543" gid="16504" x="544" y="272" width="16" height="16">
   <properties>
    <property name="bg layer" value="1"/>
    <property name="color channel" value="3"/>
   </properties>
  </object>
  <object id="1544" gid="16504" x="624" y="320" width="16" height="16">
   <properties>
    <property name="bg layer" value="1"/>
    <property name="color channel" value="3"/>
   </properties>
  </object>
  <object id="1546" gid="16504" x="976" y="288" width="16" height="16">
   <properties>
    <property name="bg layer" value="1"/>
    <property name="color channel" value="3"/>
   </properties>
  </object>
  <object id="1552" gid="16504" x="1440" y="352" width="16" height="16">
   <properties>
    <property name="bg layer" value="1"/>
    <property name="color channel" value="3"/>
   </properties>
  </object>
  <object id="1556" gid="16504" x="1536" y="304" width="16" height="16">
   <properties>
    <property name="bg layer" value="1"/>
    <property name="color channel" value="3"/>
   </properties>
  </object>
  <object id="1558" gid="16504" x="1632" y="320" width="16" height="16">
   <properties>
    <property name="bg layer" value="1"/>
    <property name="color channel" value="3"/>
   </properties>
  </object>
  <object id="1560" gid="16504" x="1792" y="304" width="16" height="16">
   <properties>
    <property name="bg layer" value="1"/>
    <property name="color channel" value="3"/>
   </properties>
  </object>
  <object id="1562" gid="16504" x="1840" y="336" width="16" height="16">
   <properties>
    <property name="bg layer" value="1"/>
    <property name="color channel" value="3"/>
   </properties>
  </object>
  <object id="1564" gid="16504" x="1920" y="400" width="16" height="16">
   <properties>
    <property name="bg layer" value="1"/>
    <property name="color channel" value="3"/>
   </properties>
  </object>
  <object id="1554" gid="16504" x="1184" y="329" width="16" height="16">
   <properties>
    <property name="bg layer" value="1"/>
    <property name="color channel" value="3"/>
   </properties>
  </object>
  <object id="2879" gid="16504" x="1296" y="320" width="16" height="16">
   <properties>
    <property name="bg layer" value="1"/>
    <property name="color channel" value="3"/>
   </properties>
  </object>
  <object id="1548" gid="16504" x="800" y="288" width="16" height="16">
   <properties>
    <property name="bg layer" value="1"/>
    <property name="color channel" value="3"/>
   </properties>
  </object>
  <object id="1550" gid="16504" x="880" y="320" width="16" height="16">
   <properties>
    <property name="bg layer" value="1"/>
    <property name="color channel" value="3"/>
   </properties>
  </object>
  <object id="425" gid="16504" x="704" y="400" width="16" height="16">
   <properties>
    <property name="bg layer" value="1"/>
    <property name="color channel" value="3"/>
   </properties>
  </object>
  <object id="437" gid="16504" x="2128" y="320" width="16" height="16">
   <properties>
    <property name="bg layer" value="1"/>
    <property name="color channel" value="3"/>
   </properties>
  </object>
  <object id="438" gid="16504" x="2256" y="320" width="16" height="16">
   <properties>
    <property name="bg layer" value="1"/>
    <property name="color channel" value="3"/>
   </properties>
  </object>
  <object id="439" gid="16504" x="2384" y="400" width="16" height="16">
   <properties>
    <property name="bg layer" value="1"/>
    <property name="color channel" value="3"/>
   </properties>
  </object>
  <object id="440" gid="16504" x="2640" y="336" width="16" height="16">
   <properties>
    <property name="bg layer" value="1"/>
    <property name="color channel" value="3"/>
   </properties>
  </object>
  <object id="2883" gid="16504" x="2496" y="240" width="16" height="16">
   <properties>
    <property name="bg layer" value="1"/>
    <property name="color channel" value="3"/>
   </properties>
  </object>
  <object id="441" gid="16504" x="2816" y="352" width="16" height="16">
   <properties>
    <property name="bg layer" value="1"/>
    <property name="color channel" value="3"/>
   </properties>
  </object>
  <object id="442" gid="16504" x="2944" y="336" width="16" height="16">
   <properties>
    <property name="bg layer" value="1"/>
    <property name="color channel" value="3"/>
   </properties>
  </object>
  <object id="443" gid="16504" x="3008" y="320" width="16" height="16">
   <properties>
    <property name="bg layer" value="1"/>
    <property name="color channel" value="3"/>
   </properties>
  </object>
  <object id="444" gid="16504" x="3088" y="320" width="16" height="16">
   <properties>
    <property name="bg layer" value="1"/>
    <property name="color channel" value="3"/>
   </properties>
  </object>
  <object id="445" gid="16504" x="3184" y="408" width="16" height="16">
   <properties>
    <property name="bg layer" value="1"/>
    <property name="color channel" value="3"/>
   </properties>
  </object>
  <object id="446" gid="16504" x="3280" y="320" width="16" height="16">
   <properties>
    <property name="bg layer" value="1"/>
    <property name="color channel" value="3"/>
   </properties>
  </object>
  <object id="447" gid="16504" x="3360" y="288" width="16" height="16">
   <properties>
    <property name="bg layer" value="1"/>
    <property name="color channel" value="3"/>
   </properties>
  </object>
  <object id="448" gid="16504" x="3344" y="400" width="16" height="16">
   <properties>
    <property name="bg layer" value="1"/>
    <property name="color channel" value="3"/>
   </properties>
  </object>
  <object id="449" gid="16504" x="3472" y="336" width="16" height="16">
   <properties>
    <property name="bg layer" value="1"/>
    <property name="color channel" value="3"/>
   </properties>
  </object>
  <object id="450" gid="16504" x="3568" y="272" width="16" height="16">
   <properties>
    <property name="bg layer" value="1"/>
    <property name="color channel" value="3"/>
   </properties>
  </object>
  <object id="451" gid="16504" x="3648" y="336" width="16" height="16">
   <properties>
    <property name="bg layer" value="1"/>
    <property name="color channel" value="3"/>
   </properties>
  </object>
  <object id="452" gid="16504" x="3744" y="400" width="16" height="16">
   <properties>
    <property name="bg layer" value="1"/>
    <property name="color channel" value="3"/>
   </properties>
  </object>
  <object id="453" gid="16504" x="3760" y="304" width="16" height="16">
   <properties>
    <property name="bg layer" value="1"/>
    <property name="color channel" value="3"/>
   </properties>
  </object>
  <object id="454" gid="16504" x="3808" y="288" width="16" height="16">
   <properties>
    <property name="bg layer" value="1"/>
    <property name="color channel" value="3"/>
   </properties>
  </object>
  <object id="455" gid="16504" x="3872" y="304" width="16" height="16">
   <properties>
    <property name="bg layer" value="1"/>
    <property name="color channel" value="3"/>
   </properties>
  </object>
  <object id="456" gid="16504" x="4032" y="320" width="16" height="16">
   <properties>
    <property name="bg layer" value="1"/>
    <property name="color channel" value="3"/>
   </properties>
  </object>
  <object id="457" gid="16504" x="4160" y="336" width="16" height="16">
   <properties>
    <property name="bg layer" value="1"/>
    <property name="color channel" value="3"/>
   </properties>
  </object>
  <object id="458" gid="16504" x="4368" y="336" width="16" height="16">
   <properties>
    <property name="bg layer" value="1"/>
    <property name="color channel" value="3"/>
   </properties>
  </object>
  <object id="459" gid="16504" x="5600" y="320" width="16" height="16">
   <properties>
    <property name="bg layer" value="1"/>
    <property name="color channel" value="3"/>
   </properties>
  </object>
  <object id="460" gid="16504" x="5776" y="272" width="16" height="16">
   <properties>
    <property name="bg layer" value="1"/>
    <property name="color channel" value="3"/>
   </properties>
  </object>
  <object id="461" gid="16504" x="5832" y="392" width="16" height="16">
   <properties>
    <property name="bg layer" value="1"/>
    <property name="color channel" value="3"/>
   </properties>
  </object>
  <object id="462" gid="16504" x="5888" y="320" width="16" height="16">
   <properties>
    <property name="bg layer" value="1"/>
    <property name="color channel" value="3"/>
   </properties>
  </object>
  <object id="463" gid="16504" x="5952" y="400" width="16" height="16">
   <properties>
    <property name="bg layer" value="1"/>
    <property name="color channel" value="3"/>
   </properties>
  </object>
  <object id="464" gid="16504" x="6048" y="288" width="16" height="16">
   <properties>
    <property name="bg layer" value="1"/>
    <property name="color channel" value="3"/>
   </properties>
  </object>
  <object id="465" gid="16504" x="6096" y="384" width="16" height="16">
   <properties>
    <property name="bg layer" value="1"/>
    <property name="color channel" value="3"/>
   </properties>
  </object>
  <object id="466" gid="16504" x="6144" y="304" width="16" height="16">
   <properties>
    <property name="bg layer" value="1"/>
    <property name="color channel" value="3"/>
   </properties>
  </object>
  <object id="467" gid="16504" x="6272" y="272" width="16" height="16">
   <properties>
    <property name="bg layer" value="1"/>
    <property name="color channel" value="3"/>
   </properties>
  </object>
  <object id="468" gid="16504" x="6336" y="256" width="16" height="16">
   <properties>
    <property name="bg layer" value="1"/>
    <property name="color channel" value="3"/>
   </properties>
  </object>
  <object id="469" gid="16504" x="6400" y="272" width="16" height="16">
   <properties>
    <property name="bg layer" value="1"/>
    <property name="color channel" value="3"/>
   </properties>
  </object>
  <object id="470" gid="16504" x="6336" y="400" width="16" height="16">
   <properties>
    <property name="bg layer" value="1"/>
    <property name="color channel" value="3"/>
   </properties>
  </object>
  <object id="471" gid="16504" x="6848" y="368" width="16" height="16">
   <properties>
    <property name="bg layer" value="1"/>
    <property name="color channel" value="3"/>
   </properties>
  </object>
  <object id="472" gid="16504" x="6928" y="320" width="16" height="16">
   <properties>
    <property name="bg layer" value="1"/>
    <property name="color channel" value="3"/>
   </properties>
  </object>
  <object id="473" gid="16504" x="7024" y="304" width="16" height="16">
   <properties>
    <property name="bg layer" value="1"/>
    <property name="color channel" value="3"/>
   </properties>
  </object>
  <object id="474" gid="16504" x="7192" y="368" width="16" height="16">
   <properties>
    <property name="bg layer" value="1"/>
    <property name="color channel" value="3"/>
   </properties>
  </object>
  <object id="475" gid="16504" x="7368" y="320" width="16" height="16">
   <properties>
    <property name="bg layer" value="1"/>
    <property name="color channel" value="3"/>
   </properties>
  </object>
  <object id="476" gid="16504" x="7488" y="376" width="16" height="16">
   <properties>
    <property name="bg layer" value="1"/>
    <property name="color channel" value="3"/>
   </properties>
  </object>
  <object id="477" gid="16504" x="7608" y="368" width="16" height="16">
   <properties>
    <property name="bg layer" value="1"/>
    <property name="color channel" value="3"/>
   </properties>
  </object>
  <object id="478" gid="16504" x="7776" y="368" width="16" height="16">
   <properties>
    <property name="bg layer" value="1"/>
    <property name="color channel" value="3"/>
   </properties>
  </object>
  <object id="3038" gid="16504" x="7696" y="320" width="16" height="16">
   <properties>
    <property name="bg layer" value="1"/>
    <property name="color channel" value="3"/>
   </properties>
  </object>
  <object id="479" gid="16504" x="7936" y="368" width="16" height="16">
   <properties>
    <property name="bg layer" value="1"/>
    <property name="color channel" value="3"/>
   </properties>
  </object>
  <object id="480" gid="16504" x="8048" y="368" width="16" height="16">
   <properties>
    <property name="bg layer" value="1"/>
    <property name="color channel" value="3"/>
   </properties>
  </object>
  <object id="481" gid="16504" x="8144" y="320" width="16" height="16">
   <properties>
    <property name="bg layer" value="1"/>
    <property name="color channel" value="3"/>
   </properties>
  </object>
  <object id="482" gid="16504" x="8208" y="376" width="16" height="16">
   <properties>
    <property name="bg layer" value="1"/>
    <property name="color channel" value="3"/>
   </properties>
  </object>
  <object id="483" gid="16504" x="8304" y="320" width="16" height="16">
   <properties>
    <property name="bg layer" value="1"/>
    <property name="color channel" value="3"/>
   </properties>
  </object>
  <object id="484" gid="16504" x="8384" y="368" width="16" height="16">
   <properties>
    <property name="bg layer" value="1"/>
    <property name="color channel" value="3"/>
   </properties>
  </object>
  <object id="485" gid="16504" x="8496" y="320" width="16" height="16">
   <properties>
    <property name="bg layer" value="1"/>
    <property name="color channel" value="3"/>
   </properties>
  </object>
  <object id="486" gid="16504" x="8576" y="368" width="16" height="16">
   <properties>
    <property name="bg layer" value="1"/>
    <property name="color channel" value="3"/>
   </properties>
  </object>
  <object id="487" gid="16504" x="8720" y="304" width="16" height="16">
   <properties>
    <property name="bg layer" value="1"/>
    <property name="color channel" value="3"/>
   </properties>
  </object>
  <object id="488" gid="16504" x="8848" y="320" width="16" height="16">
   <properties>
    <property name="bg layer" value="1"/>
    <property name="color channel" value="3"/>
   </properties>
  </object>
  <object id="489" gid="16504" x="8928" y="368" width="16" height="16">
   <properties>
    <property name="bg layer" value="1"/>
    <property name="color channel" value="3"/>
   </properties>
  </object>
  <object id="490" gid="16504" x="9000" y="312" width="16" height="16">
   <properties>
    <property name="bg layer" value="1"/>
    <property name="color channel" value="3"/>
   </properties>
  </object>
  <object id="491" gid="16504" x="9072" y="376" width="16" height="16">
   <properties>
    <property name="bg layer" value="1"/>
    <property name="color channel" value="3"/>
   </properties>
  </object>
  <object id="492" gid="16504" x="9152" y="304" width="16" height="16">
   <properties>
    <property name="bg layer" value="1"/>
    <property name="color channel" value="3"/>
   </properties>
  </object>
  <object id="493" gid="16504" x="9248" y="368" width="16" height="16">
   <properties>
    <property name="bg layer" value="1"/>
    <property name="color channel" value="3"/>
   </properties>
  </object>
  <object id="494" gid="16504" x="9328" y="320" width="16" height="16">
   <properties>
    <property name="bg layer" value="1"/>
    <property name="color channel" value="3"/>
   </properties>
  </object>
  <object id="495" gid="16504" x="12976" y="256" width="16" height="16">
   <properties>
    <property name="bg layer" value="1"/>
    <property name="color channel" value="3"/>
   </properties>
  </object>
  <object id="496" gid="16504" x="13088" y="224" width="16" height="16">
   <properties>
    <property name="bg layer" value="1"/>
    <property name="color channel" value="3"/>
   </properties>
  </object>
  <object id="497" gid="16504" x="13064" y="320" width="16" height="16">
   <properties>
    <property name="bg layer" value="1"/>
    <property name="color channel" value="3"/>
   </properties>
  </object>
  <object id="498" gid="16504" x="13232" y="384" width="16" height="16">
   <properties>
    <property name="bg layer" value="1"/>
    <property name="color channel" value="3"/>
   </properties>
  </object>
  <object id="499" gid="16504" x="13264" y="224" width="16" height="16">
   <properties>
    <property name="bg layer" value="1"/>
    <property name="color channel" value="3"/>
   </properties>
  </object>
  <object id="500" gid="16504" x="13344" y="240" width="16" height="16">
   <properties>
    <property name="bg layer" value="1"/>
    <property name="color channel" value="3"/>
   </properties>
  </object>
  <object id="501" gid="16504" x="13456" y="304" width="16" height="16">
   <properties>
    <property name="bg layer" value="1"/>
    <property name="color channel" value="3"/>
   </properties>
  </object>
  <object id="502" gid="16504" x="13456" y="416" width="16" height="16">
   <properties>
    <property name="bg layer" value="1"/>
    <property name="color channel" value="3"/>
   </properties>
  </object>
  <object id="503" gid="16504" x="13616" y="336" width="16" height="16">
   <properties>
    <property name="bg layer" value="1"/>
    <property name="color channel" value="3"/>
   </properties>
  </object>
  <object id="504" gid="16504" x="13696" y="352" width="16" height="16">
   <properties>
    <property name="bg layer" value="1"/>
    <property name="color channel" value="3"/>
   </properties>
  </object>
  <object id="3100" gid="16504" x="13808" y="336" width="16" height="16">
   <properties>
    <property name="bg layer" value="1"/>
    <property name="color channel" value="3"/>
   </properties>
  </object>
  <object id="505" gid="16504" x="13952" y="384" width="16" height="16">
   <properties>
    <property name="bg layer" value="1"/>
    <property name="color channel" value="3"/>
   </properties>
  </object>
  <object id="506" gid="16504" x="14064" y="336" width="16" height="16">
   <properties>
    <property name="bg layer" value="1"/>
    <property name="color channel" value="3"/>
   </properties>
  </object>
  <object id="507" gid="16504" x="14192" y="352" width="16" height="16">
   <properties>
    <property name="bg layer" value="1"/>
    <property name="color channel" value="3"/>
   </properties>
  </object>
  <object id="508" gid="16504" x="14320" y="336" width="16" height="16">
   <properties>
    <property name="bg layer" value="1"/>
    <property name="color channel" value="3"/>
   </properties>
  </object>
  <object id="509" gid="16504" x="14416" y="352" width="16" height="16">
   <properties>
    <property name="bg layer" value="1"/>
    <property name="color channel" value="3"/>
   </properties>
  </object>
  <object id="510" gid="16504" x="14528" y="288" width="16" height="16">
   <properties>
    <property name="bg layer" value="1"/>
    <property name="color channel" value="3"/>
   </properties>
  </object>
  <object id="511" gid="16504" x="14608" y="336" width="16" height="16">
   <properties>
    <property name="bg layer" value="1"/>
    <property name="color channel" value="3"/>
   </properties>
  </object>
  <object id="512" gid="16504" x="14704" y="320" width="16" height="16">
   <properties>
    <property name="bg layer" value="1"/>
    <property name="color channel" value="3"/>
   </properties>
  </object>
  <object id="513" gid="16504" x="14816" y="304" width="16" height="16">
   <properties>
    <property name="bg layer" value="1"/>
    <property name="color channel" value="3"/>
   </properties>
  </object>
  <object id="514" gid="16504" x="17104" y="256" width="16" height="16">
   <properties>
    <property name="bg layer" value="1"/>
    <property name="color channel" value="3"/>
   </properties>
  </object>
  <object id="515" gid="16504" x="17136" y="224" width="16" height="16">
   <properties>
    <property name="bg layer" value="1"/>
    <property name="color channel" value="3"/>
   </properties>
  </object>
  <object id="516" gid="16504" x="17136" y="288" width="16" height="16">
   <properties>
    <property name="bg layer" value="1"/>
    <property name="color channel" value="3"/>
   </properties>
  </object>
  <object id="517" gid="16504" x="17312" y="256" width="16" height="16">
   <properties>
    <property name="bg layer" value="1"/>
    <property name="color channel" value="3"/>
   </properties>
  </object>
  <object id="518" gid="16504" x="17728" y="256" width="16" height="16">
   <properties>
    <property name="bg layer" value="1"/>
    <property name="color channel" value="3"/>
   </properties>
  </object>
  <object id="519" gid="16504" x="18208" y="200" width="16" height="16">
   <properties>
    <property name="bg layer" value="1"/>
    <property name="color channel" value="3"/>
   </properties>
  </object>
  <object id="520" gid="16504" x="18208" y="320" width="16" height="16">
   <properties>
    <property name="bg layer" value="1"/>
    <property name="color channel" value="3"/>
   </properties>
  </object>
  <object id="521" gid="16504" x="21600" y="352" width="16" height="16">
   <properties>
    <property name="bg layer" value="1"/>
    <property name="color channel" value="3"/>
   </properties>
  </object>
  <object id="522" gid="16504" x="21696" y="336" width="16" height="16">
   <properties>
    <property name="bg layer" value="1"/>
    <property name="color channel" value="3"/>
   </properties>
  </object>
  <object id="523" gid="16504" x="21808" y="288" width="16" height="16">
   <properties>
    <property name="bg layer" value="1"/>
    <property name="color channel" value="3"/>
   </properties>
  </object>
  <object id="524" gid="16504" x="21888" y="336" width="16" height="16">
   <properties>
    <property name="bg layer" value="1"/>
    <property name="color channel" value="3"/>
   </properties>
  </object>
  <object id="525" gid="16504" x="21984" y="304" width="16" height="16">
   <properties>
    <property name="bg layer" value="1"/>
    <property name="color channel" value="3"/>
   </properties>
  </object>
  <object id="526" gid="16504" x="22128" y="304" width="16" height="16">
   <properties>
    <property name="bg layer" value="1"/>
    <property name="color channel" value="3"/>
   </properties>
  </object>
  <object id="527" gid="16504" x="22072" y="384" width="16" height="16">
   <properties>
    <property name="bg layer" value="1"/>
    <property name="color channel" value="3"/>
   </properties>
  </object>
  <object id="528" gid="16504" x="22288" y="336" width="16" height="16">
   <properties>
    <property name="bg layer" value="1"/>
    <property name="color channel" value="3"/>
   </properties>
  </object>
  <object id="529" gid="16504" x="22400" y="304" width="16" height="16">
   <properties>
    <property name="bg layer" value="1"/>
    <property name="color channel" value="3"/>
   </properties>
  </object>
  <object id="530" gid="16504" x="22480" y="352" width="16" height="16">
   <properties>
    <property name="bg layer" value="1"/>
    <property name="color channel" value="3"/>
   </properties>
  </object>
  <object id="531" gid="16504" x="22576" y="272" width="16" height="16">
   <properties>
    <property name="bg layer" value="1"/>
    <property name="color channel" value="3"/>
   </properties>
  </object>
  <object id="532" gid="16504" x="22624" y="320" width="16" height="16">
   <properties>
    <property name="bg layer" value="1"/>
    <property name="color channel" value="3"/>
   </properties>
  </object>
  <object id="533" gid="16504" x="22800" y="368" width="16" height="16">
   <properties>
    <property name="bg layer" value="1"/>
    <property name="color channel" value="3"/>
   </properties>
  </object>
  <object id="534" gid="16504" x="22896" y="288" width="16" height="16">
   <properties>
    <property name="bg layer" value="1"/>
    <property name="color channel" value="3"/>
   </properties>
  </object>
  <object id="535" gid="16504" x="22960" y="320" width="16" height="16">
   <properties>
    <property name="bg layer" value="1"/>
    <property name="color channel" value="3"/>
   </properties>
  </object>
  <object id="536" gid="16504" x="23056" y="304" width="16" height="16">
   <properties>
    <property name="bg layer" value="1"/>
    <property name="color channel" value="3"/>
   </properties>
  </object>
  <object id="537" gid="16504" x="23168" y="352" width="16" height="16">
   <properties>
    <property name="bg layer" value="1"/>
    <property name="color channel" value="3"/>
   </properties>
  </object>
  <object id="538" gid="16504" x="23216" y="336" width="16" height="16">
   <properties>
    <property name="bg layer" value="1"/>
    <property name="color channel" value="3"/>
   </properties>
  </object>
  <object id="563" gid="16504" x="29152" y="336" width="16" height="16">
   <properties>
    <property name="bg layer" value="1"/>
    <property name="color channel" value="3"/>
   </properties>
  </object>
  <object id="564" gid="16504" x="29264" y="272" width="16" height="16">
   <properties>
    <property name="bg layer" value="1"/>
    <property name="color channel" value="3"/>
   </properties>
  </object>
  <object id="565" gid="16504" x="29344" y="320" width="16" height="16">
   <properties>
    <property name="bg layer" value="1"/>
    <property name="color channel" value="3"/>
   </properties>
  </object>
  <object id="566" gid="16504" x="29520" y="288" width="16" height="16">
   <properties>
    <property name="bg layer" value="1"/>
    <property name="color channel" value="3"/>
   </properties>
  </object>
  <object id="3354" gid="16504" x="29424" y="400" width="16" height="16">
   <properties>
    <property name="bg layer" value="1"/>
    <property name="color channel" value="3"/>
   </properties>
  </object>
  <object id="567" gid="16504" x="29600" y="320" width="16" height="16">
   <properties>
    <property name="bg layer" value="1"/>
    <property name="color channel" value="3"/>
   </properties>
  </object>
  <object id="568" gid="16504" x="29696" y="288" width="16" height="16">
   <properties>
    <property name="bg layer" value="1"/>
    <property name="color channel" value="3"/>
   </properties>
  </object>
  <object id="569" gid="16504" x="29904" y="320" width="16" height="16">
   <properties>
    <property name="bg layer" value="1"/>
    <property name="color channel" value="3"/>
   </properties>
  </object>
  <object id="570" gid="16504" x="30016" y="304" width="16" height="16">
   <properties>
    <property name="bg layer" value="1"/>
    <property name="color channel" value="3"/>
   </properties>
  </object>
  <object id="571" gid="16504" x="30160" y="352" width="16" height="16">
   <properties>
    <property name="bg layer" value="1"/>
    <property name="color channel" value="3"/>
   </properties>
  </object>
  <object id="572" gid="16504" x="30256" y="304" width="16" height="16">
   <properties>
    <property name="bg layer" value="1"/>
    <property name="color channel" value="3"/>
   </properties>
  </object>
  <object id="573" gid="16504" x="30352" y="320" width="16" height="16">
   <properties>
    <property name="bg layer" value="1"/>
    <property name="color channel" value="3"/>
   </properties>
  </object>
  <object id="574" gid="16504" x="30496" y="304" width="16" height="16">
   <properties>
    <property name="bg layer" value="1"/>
    <property name="color channel" value="3"/>
   </properties>
  </object>
  <object id="575" gid="16504" x="30560" y="336" width="16" height="16">
   <properties>
    <property name="bg layer" value="1"/>
    <property name="color channel" value="3"/>
   </properties>
  </object>
  <object id="576" gid="16504" x="30640" y="400" width="16" height="16">
   <properties>
    <property name="bg layer" value="1"/>
    <property name="color channel" value="3"/>
   </properties>
  </object>
  <object id="621" gid="16482" x="28496" y="272" width="16" height="16"/>
  <object id="622" gid="16482" x="28336" y="320" width="16" height="16"/>
  <object id="623" gid="16482" x="23760" y="256" width="16" height="16"/>
  <object id="624" gid="16482" x="23888" y="320" width="16" height="16"/>
  <object id="625" gid="16482" x="23920" y="240" width="16" height="16"/>
  <object id="626" gid="16482" x="24048" y="288" width="16" height="16"/>
  <object id="627" gid="16482" x="24176" y="320" width="16" height="16"/>
  <object id="628" gid="16482" x="24409" y="233.5" width="16" height="16"/>
  <object id="629" gid="16482" x="24496" y="320" width="16" height="16"/>
  <object id="630" gid="16482" x="24768" y="272" width="16" height="16"/>
  <object id="631" gid="16482" x="24800" y="240" width="16" height="16"/>
  <object id="632" gid="16482" x="24832" y="288" width="16" height="16"/>
  <object id="633" gid="16482" x="24800" y="320" width="16" height="16"/>
  <object id="634" gid="16482" x="25408.5" y="276" width="16" height="16"/>
  <object id="635" gid="16482" x="25712" y="280.5" width="16" height="16"/>
  <object id="636" gid="16482" x="25904" y="224" width="16" height="16"/>
  <object id="637" gid="16482" x="27088" y="336" width="16" height="16"/>
  <object id="638" gid="16482" x="27184" y="224" width="16" height="16"/>
  <object id="639" gid="16482" x="27520" y="320" width="16" height="16"/>
  <object id="640" gid="16482" x="27616" y="240" width="16" height="16"/>
  <object id="641" gid="16482" x="27745" y="277" width="16" height="16"/>
  <object id="642" gid="16482" x="27888.5" y="276.5" width="16" height="16"/>
  <object id="643" gid="16482" x="28032" y="336" width="16" height="16"/>
  <object id="644" gid="16482" x="28224" y="256" width="16" height="16"/>
  <object id="645" gid="16483" x="23792" y="240" width="16" height="16"/>
  <object id="646" gid="16483" x="23856" y="336" width="16" height="16"/>
  <object id="647" gid="16483" x="23968" y="240" width="16" height="16"/>
  <object id="648" gid="16484" x="23808" y="256" width="16" height="16"/>
  <object id="649" gid="16484" x="23840" y="320" width="16" height="16"/>
  <object id="650" gid="16484" x="23952" y="224" width="16" height="16"/>
  <object id="651" gid="16484" x="24080" y="304" width="16" height="16"/>
  <object id="652" gid="16483" x="24080" y="272" width="16" height="16"/>
  <object id="653" gid="16483" x="24208" y="304" width="16" height="16"/>
  <object id="654" gid="16483" x="24375.5" y="264" width="16" height="16"/>
  <object id="655" gid="16483" x="24464" y="304" width="16" height="16"/>
  <object id="656" gid="16484" x="24224" y="288" width="16" height="16"/>
  <object id="657" gid="16484" x="24352" y="272" width="16" height="16"/>
  <object id="658" gid="16484" x="24448" y="320" width="16" height="16"/>
  <object id="659" gid="16484" x="24800" y="288" width="16" height="16"/>
  <object id="660" gid="16484" x="24800" y="272" width="16" height="16"/>
  <object id="661" gid="16483" x="24832" y="256" width="16" height="16"/>
  <object id="662" gid="16483" x="24768" y="304" width="16" height="16"/>
  <object id="664" gid="16483" x="25448.5" y="278" width="16" height="16"/>
  <object id="665" gid="16484" x="25376.5" y="278" width="16" height="16"/>
  <object id="666" gid="16484" x="25680" y="288" width="16" height="16"/>
  <object id="667" gid="16484" x="25744" y="272" width="16" height="16"/>
  <object id="668" gid="16483" x="25865" y="215" width="16" height="16"/>
  <object id="669" gid="16483" x="25920" y="336" width="16" height="16"/>
  <object id="670" gid="16484" x="25888.5" y="344.5" width="16" height="16"/>
  <object id="671" gid="16484" x="26424" y="289" width="16" height="16"/>
  <object id="672" gid="16484" x="26472" y="271" width="16" height="16"/>
  <object id="673" gid="16483" x="26448" y="280" width="16" height="16"/>
  <object id="674" gid="16483" x="27120" y="320" width="16" height="16"/>
  <object id="675" gid="16483" x="27216" y="240" width="16" height="16"/>
  <object id="676" gid="16484" x="27136" y="304" width="16" height="16"/>
  <object id="677" gid="16484" x="27232" y="256" width="16" height="16"/>
  <object id="678" gid="16484" x="27584.5" y="326.5" width="16" height="16"/>
  <object id="679" gid="16484" x="27551.5" y="231" width="16" height="16"/>
  <object id="680" gid="16483" x="27552" y="336" width="16" height="16"/>
  <object id="681" gid="16483" x="27584" y="224" width="16" height="16"/>
  <object id="682" gid="16483" x="27784.5" y="296.5" width="16" height="16"/>
  <object id="683" gid="16483" x="27847.5" y="263" width="16" height="16"/>
  <object id="684" gid="16484" x="27808" y="288" width="16" height="16"/>
  <object id="685" gid="16484" x="27824" y="272" width="16" height="16"/>
  <object id="686" gid="16484" x="28080" y="336" width="16" height="16"/>
  <object id="687" gid="16484" x="28176" y="224" width="16" height="16"/>
  <object id="688" gid="16483" x="28192" y="240" width="16" height="16"/>
  <object id="689" gid="16483" x="28064" y="320" width="16" height="16"/>
  <object id="690" gid="16483" x="28528" y="256" width="16" height="16"/>
  <object id="691" gid="16483" x="28368" y="304" width="16" height="16"/>
  <object id="692" gid="16484" x="28560" y="264.5" width="16" height="16"/>
  <object id="693" gid="16484" x="28368" y="343" width="16" height="16"/>
  <object id="694" gid="16395" x="304" y="432" width="16" height="16"/>
  <object id="696" gid="16401" x="496" y="400" width="16" height="16"/>
  <object id="708" gid="16401" x="1728" y="416" width="16" height="16"/>
  <object id="712" gid="16401" x="2432" y="384" width="16" height="16"/>
  <object id="697" gid="16401" x="528" y="320" width="16" height="16"/>
  <object id="709" gid="16401" x="1760" y="336" width="16" height="16"/>
  <object id="714" gid="16401" x="2464" y="304" width="16" height="16"/>
  <object id="698" gid="16403" x="560" y="400" width="16" height="16"/>
  <object id="699" gid="16400" x="624" y="400" width="16" height="16">
   <properties>
    <property name="enable rotation" type="bool" value="true"/>
    <property name="rotation angle" type="int" value="51"/>
   </properties>
  </object>
  <object id="700" gid="16394" x="784" y="336" width="16" height="16"/>
  <object id="701" gid="16399" x="832" y="368" width="16" height="16"/>
  <object id="702" gid="16395" x="1152" y="432" width="16" height="16"/>
  <object id="703" gid="16402" x="1312" y="384" width="16" height="16"/>
  <object id="705" gid="16395" x="1392" y="352" width="16" height="16">
   <properties>
    <property name="vflip" type="bool" value="true"/>
   </properties>
  </object>
  <object id="706" gid="16402" x="1488" y="336" width="16" height="16">
   <properties>
    <property name="vflip" type="bool" value="true"/>
   </properties>
  </object>
  <object id="710" gid="16402" x="1872" y="400" width="16" height="16"/>
  <object id="711" gid="16399" x="2172" y="346" width="16" height="16">
   <properties>
    <property name="enable rotation" type="bool" value="true"/>
    <property name="rotation angle" type="int" value="314"/>
   </properties>
  </object>
  <object id="715" gid="16394" x="2496" y="384" width="16" height="16"/>
  <object id="716" gid="16400" x="2832" y="416" width="16" height="16">
   <properties>
    <property name="enable rotation" type="bool" value="true"/>
    <property name="rotation angle" type="int" value="56"/>
   </properties>
  </object>
  <object id="717" gid="16403" x="2976" y="368" width="16" height="16"/>
  <object id="718" gid="16399" x="3102" y="358.5" width="16" height="16"/>
  <object id="719" gid="16394" x="3184" y="368" width="16" height="16"/>
  <object id="722" gid="16388" x="289" y="336" width="16" height="16">
   <properties>
    <property name="Channel" value="2"/>
    <property name="Color" type="color" value="#ff000000"/>
    <property name="Frames" type="int" value="21"/>
   </properties>
  </object>
  <object id="747" gid="16388" x="545" y="368" width="16" height="16">
   <properties>
    <property name="Channel" value="2"/>
    <property name="Color" type="color" value="#ff000000"/>
    <property name="Frames" type="int" value="21"/>
   </properties>
  </object>
  <object id="752" gid="16388" x="689" y="368" width="16" height="16">
   <properties>
    <property name="Channel" value="2"/>
    <property name="Color" type="color" value="#ff000000"/>
    <property name="Frames" type="int" value="21"/>
   </properties>
  </object>
  <object id="756" gid="16388" x="797" y="368" width="16" height="16">
   <properties>
    <property name="Channel" value="2"/>
    <property name="Color" type="color" value="#ff000000"/>
    <property name="Frames" type="int" value="21"/>
   </properties>
  </object>
  <object id="760" gid="16388" x="933" y="336" width="16" height="16">
   <properties>
    <property name="Channel" value="2"/>
    <property name="Color" type="color" value="#ff000000"/>
    <property name="Frames" type="int" value="21"/>
   </properties>
  </object>
  <object id="762" gid="16388" x="997" y="176" width="16" height="16">
   <properties>
    <property name="Channel" value="2"/>
    <property name="Color" type="color" value="#ff000000"/>
    <property name="Frames" type="int" value="21"/>
   </properties>
  </object>
  <object id="990" gid="16388" x="1158" y="352" width="16" height="16">
   <properties>
    <property name="Channel" value="2"/>
    <property name="Color" type="color" value="#ff000000"/>
    <property name="Frames" type="int" value="21"/>
   </properties>
  </object>
  <object id="993" gid="16388" x="1237" y="336" width="16" height="16">
   <properties>
    <property name="Channel" value="2"/>
    <property name="Color" type="color" value="#ff000000"/>
    <property name="Frames" type="int" value="21"/>
   </properties>
  </object>
  <object id="997" gid="16388" x="1337" y="336" width="16" height="16">
   <properties>
    <property name="Channel" value="2"/>
    <property name="Color" type="color" value="#ff000000"/>
    <property name="Frames" type="int" value="21"/>
   </properties>
  </object>
  <object id="1001" gid="16388" x="1410" y="336" width="16" height="16">
   <properties>
    <property name="Channel" value="2"/>
    <property name="Color" type="color" value="#ff000000"/>
    <property name="Frames" type="int" value="21"/>
   </properties>
  </object>
  <object id="1072" gid="16388" x="1538" y="352" width="16" height="16">
   <properties>
    <property name="Channel" value="2"/>
    <property name="Color" type="color" value="#ff000000"/>
    <property name="Frames" type="int" value="21"/>
   </properties>
  </object>
  <object id="1075" gid="16388" x="1648" y="352" width="16" height="16">
   <properties>
    <property name="Channel" value="2"/>
    <property name="Color" type="color" value="#ff000000"/>
    <property name="Frames" type="int" value="21"/>
   </properties>
  </object>
  <object id="1079" gid="16388" x="1760" y="368" width="16" height="16">
   <properties>
    <property name="Channel" value="2"/>
    <property name="Color" type="color" value="#ff000000"/>
    <property name="Frames" type="int" value="21"/>
   </properties>
  </object>
  <object id="1083" gid="16388" x="1808" y="368" width="16" height="16">
   <properties>
    <property name="Channel" value="2"/>
    <property name="Color" type="color" value="#ff000000"/>
    <property name="Frames" type="int" value="21"/>
   </properties>
  </object>
  <object id="1089" gid="16388" x="1968" y="368" width="16" height="16">
   <properties>
    <property name="Channel" value="2"/>
    <property name="Color" type="color" value="#ff000000"/>
    <property name="Frames" type="int" value="21"/>
   </properties>
  </object>
  <object id="1101" gid="16388" x="2272" y="240" width="16" height="16">
   <properties>
    <property name="Channel" value="2"/>
    <property name="Color" type="color" value="#ff000000"/>
    <property name="Frames" type="int" value="21"/>
   </properties>
  </object>
  <object id="1102" gid="16388" x="2336" y="240" width="16" height="16">
   <properties>
    <property name="Channel" value="2"/>
    <property name="Color" type="color" value="#ff000000"/>
    <property name="Frames" type="int" value="21"/>
   </properties>
  </object>
  <object id="1110" gid="16388" x="2400" y="240" width="16" height="16">
   <properties>
    <property name="Channel" value="2"/>
    <property name="Color" type="color" value="#ff000000"/>
    <property name="Frames" type="int" value="21"/>
   </properties>
  </object>
  <object id="1114" gid="16388" x="2464" y="240" width="16" height="16">
   <properties>
    <property name="Channel" value="2"/>
    <property name="Color" type="color" value="#ff000000"/>
    <property name="Frames" type="int" value="21"/>
   </properties>
  </object>
  <object id="1118" gid="16388" x="2528" y="192" width="16" height="16">
   <properties>
    <property name="Channel" value="2"/>
    <property name="Color" type="color" value="#ff000000"/>
    <property name="Frames" type="int" value="21"/>
   </properties>
  </object>
  <object id="1122" gid="16388" x="2592" y="240" width="16" height="16">
   <properties>
    <property name="Channel" value="2"/>
    <property name="Color" type="color" value="#ff000000"/>
    <property name="Frames" type="int" value="21"/>
   </properties>
  </object>
  <object id="1142" gid="16388" x="2912" y="192" width="16" height="16">
   <properties>
    <property name="Channel" value="2"/>
    <property name="Color" type="color" value="#ff000000"/>
    <property name="Frames" type="int" value="21"/>
   </properties>
  </object>
  <object id="1150" gid="16388" x="2976" y="192" width="16" height="16">
   <properties>
    <property name="Channel" value="2"/>
    <property name="Color" type="color" value="#ff000000"/>
    <property name="Frames" type="int" value="21"/>
   </properties>
  </object>
  <object id="1154" gid="16388" x="3040" y="192" width="16" height="16">
   <properties>
    <property name="Channel" value="2"/>
    <property name="Color" type="color" value="#ff000000"/>
    <property name="Frames" type="int" value="21"/>
   </properties>
  </object>
  <object id="1162" gid="16388" x="3168" y="256" width="16" height="16">
   <properties>
    <property name="Channel" value="2"/>
    <property name="Color" type="color" value="#ff000000"/>
    <property name="Frames" type="int" value="21"/>
   </properties>
  </object>
  <object id="1166" gid="16388" x="3232" y="256" width="16" height="16">
   <properties>
    <property name="Channel" value="2"/>
    <property name="Color" type="color" value="#ff000000"/>
    <property name="Frames" type="int" value="21"/>
   </properties>
  </object>
  <object id="1170" gid="16388" x="3296" y="256" width="16" height="16">
   <properties>
    <property name="Channel" value="2"/>
    <property name="Color" type="color" value="#ff000000"/>
    <property name="Frames" type="int" value="21"/>
   </properties>
  </object>
  <object id="1174" gid="16388" x="3360" y="128" width="16" height="16">
   <properties>
    <property name="Channel" value="2"/>
    <property name="Color" type="color" value="#ff000000"/>
    <property name="Frames" type="int" value="21"/>
   </properties>
  </object>
  <object id="1178" gid="16388" x="3424" y="128" width="16" height="16">
   <properties>
    <property name="Channel" value="2"/>
    <property name="Color" type="color" value="#ff000000"/>
    <property name="Frames" type="int" value="21"/>
   </properties>
  </object>
  <object id="1182" gid="16388" x="3488" y="256" width="16" height="16">
   <properties>
    <property name="Channel" value="2"/>
    <property name="Color" type="color" value="#ff000000"/>
    <property name="Frames" type="int" value="21"/>
   </properties>
  </object>
  <object id="1186" gid="16388" x="3552" y="192" width="16" height="16">
   <properties>
    <property name="Channel" value="2"/>
    <property name="Color" type="color" value="#ff000000"/>
    <property name="Frames" type="int" value="21"/>
   </properties>
  </object>
  <object id="1981" gid="16388" x="14081" y="256" width="16" height="16">
   <properties>
    <property name="Channel" value="2"/>
    <property name="Color" type="color" value="#ff000000"/>
    <property name="Frames" type="int" value="21"/>
   </properties>
  </object>
  <object id="2356" gid="16388" x="21576" y="256" width="16" height="16">
   <properties>
    <property name="Channel" value="2"/>
    <property name="Color" type="color" value="#ff000000"/>
    <property name="Frames" type="int" value="18"/>
   </properties>
  </object>
  <object id="2368" gid="16388" x="21800" y="256" width="16" height="16">
   <properties>
    <property name="Channel" value="2"/>
    <property name="Color" type="color" value="#ff000000"/>
    <property name="Frames" type="int" value="18"/>
   </properties>
  </object>
  <object id="2376" gid="16388" x="21882" y="256" width="16" height="16">
   <properties>
    <property name="Channel" value="2"/>
    <property name="Color" type="color" value="#ff000000"/>
    <property name="Frames" type="int" value="18"/>
   </properties>
  </object>
  <object id="2380" gid="16388" x="21937" y="256" width="16" height="16">
   <properties>
    <property name="Channel" value="2"/>
    <property name="Color" type="color" value="#ff000000"/>
    <property name="Frames" type="int" value="18"/>
   </properties>
  </object>
  <object id="2384" gid="16388" x="22053" y="256" width="16" height="16">
   <properties>
    <property name="Channel" value="2"/>
    <property name="Color" type="color" value="#ff000000"/>
    <property name="Frames" type="int" value="18"/>
   </properties>
  </object>
  <object id="2390" gid="16388" x="22165" y="256" width="16" height="16">
   <properties>
    <property name="Channel" value="2"/>
    <property name="Color" type="color" value="#ff000000"/>
    <property name="Frames" type="int" value="18"/>
   </properties>
  </object>
  <object id="2396" gid="16388" x="22277" y="256" width="16" height="16">
   <properties>
    <property name="Channel" value="2"/>
    <property name="Color" type="color" value="#ff000000"/>
    <property name="Frames" type="int" value="18"/>
   </properties>
  </object>
  <object id="2400" gid="16388" x="22469" y="256" width="16" height="16">
   <properties>
    <property name="Channel" value="2"/>
    <property name="Color" type="color" value="#ff000000"/>
    <property name="Frames" type="int" value="18"/>
   </properties>
  </object>
  <object id="2740" gid="16388" x="28819" y="256" width="16" height="16">
   <properties>
    <property name="Channel" value="2"/>
    <property name="Color" type="color" value="#ff000000"/>
    <property name="Frames" type="int" value="21"/>
   </properties>
  </object>
  <object id="2744" gid="16388" x="28888" y="256" width="16" height="16">
   <properties>
    <property name="Channel" value="2"/>
    <property name="Color" type="color" value="#ff000000"/>
    <property name="Frames" type="int" value="21"/>
   </properties>
  </object>
  <object id="2750" gid="16388" x="28990" y="256" width="16" height="16">
   <properties>
    <property name="Channel" value="2"/>
    <property name="Color" type="color" value="#ff000000"/>
    <property name="Frames" type="int" value="21"/>
   </properties>
  </object>
  <object id="2754" gid="16388" x="29105" y="256" width="16" height="16">
   <properties>
    <property name="Channel" value="2"/>
    <property name="Color" type="color" value="#ff000000"/>
    <property name="Frames" type="int" value="21"/>
   </properties>
  </object>
  <object id="2758" gid="16388" x="29169" y="256" width="16" height="16">
   <properties>
    <property name="Channel" value="2"/>
    <property name="Color" type="color" value="#ff000000"/>
    <property name="Frames" type="int" value="21"/>
   </properties>
  </object>
  <object id="2762" gid="16388" x="29265" y="256" width="16" height="16">
   <properties>
    <property name="Channel" value="2"/>
    <property name="Color" type="color" value="#ff000000"/>
    <property name="Frames" type="int" value="21"/>
   </properties>
  </object>
  <object id="2766" gid="16388" x="29409" y="256" width="16" height="16">
   <properties>
    <property name="Channel" value="2"/>
    <property name="Color" type="color" value="#ff000000"/>
    <property name="Frames" type="int" value="21"/>
   </properties>
  </object>
  <object id="2770" gid="16388" x="29517" y="256" width="16" height="16">
   <properties>
    <property name="Channel" value="2"/>
    <property name="Color" type="color" value="#ff000000"/>
    <property name="Frames" type="int" value="21"/>
   </properties>
  </object>
  <object id="2774" gid="16388" x="29653" y="256" width="16" height="16">
   <properties>
    <property name="Channel" value="2"/>
    <property name="Color" type="color" value="#ff000000"/>
    <property name="Frames" type="int" value="21"/>
   </properties>
  </object>
  <object id="2778" gid="16388" x="29717" y="256" width="16" height="16">
   <properties>
    <property name="Channel" value="2"/>
    <property name="Color" type="color" value="#ff000000"/>
    <property name="Frames" type="int" value="21"/>
   </properties>
  </object>
  <object id="2780" gid="16388" x="29883" y="256" width="16" height="16">
   <properties>
    <property name="Channel" value="2"/>
    <property name="Color" type="color" value="#ff000000"/>
    <property name="Frames" type="int" value="21"/>
   </properties>
  </object>
  <object id="2784" gid="16388" x="29957" y="256" width="16" height="16">
   <properties>
    <property name="Channel" value="2"/>
    <property name="Color" type="color" value="#ff000000"/>
    <property name="Frames" type="int" value="21"/>
   </properties>
  </object>
  <object id="2788" gid="16388" x="30058" y="256" width="16" height="16">
   <properties>
    <property name="Channel" value="2"/>
    <property name="Color" type="color" value="#ff000000"/>
    <property name="Frames" type="int" value="21"/>
   </properties>
  </object>
  <object id="2792" gid="16388" x="30130" y="256" width="16" height="16">
   <properties>
    <property name="Channel" value="2"/>
    <property name="Color" type="color" value="#ff000000"/>
    <property name="Frames" type="int" value="21"/>
   </properties>
  </object>
  <object id="2796" gid="16388" x="30258" y="256" width="16" height="16">
   <properties>
    <property name="Channel" value="2"/>
    <property name="Color" type="color" value="#ff000000"/>
    <property name="Frames" type="int" value="21"/>
   </properties>
  </object>
  <object id="2800" gid="16388" x="30368" y="256" width="16" height="16">
   <properties>
    <property name="Channel" value="2"/>
    <property name="Color" type="color" value="#ff000000"/>
    <property name="Frames" type="int" value="21"/>
   </properties>
  </object>
  <object id="2806" gid="16388" x="30480" y="256" width="16" height="16">
   <properties>
    <property name="Channel" value="2"/>
    <property name="Color" type="color" value="#ff000000"/>
    <property name="Frames" type="int" value="21"/>
   </properties>
  </object>
  <object id="2810" gid="16388" x="30528" y="256" width="16" height="16">
   <properties>
    <property name="Channel" value="2"/>
    <property name="Color" type="color" value="#ff000000"/>
    <property name="Frames" type="int" value="21"/>
   </properties>
  </object>
  <object id="2814" gid="16388" x="30688" y="256" width="16" height="16">
   <properties>
    <property name="Channel" value="2"/>
    <property name="Color" type="color" value="#ff000000"/>
    <property name="Frames" type="int" value="21"/>
   </properties>
  </object>
  <object id="2404" gid="16388" x="22547" y="256" width="16" height="16">
   <properties>
    <property name="Channel" value="2"/>
    <property name="Color" type="color" value="#ff000000"/>
    <property name="Frames" type="int" value="18"/>
   </properties>
  </object>
  <object id="2408" gid="16388" x="22600" y="256" width="16" height="16">
   <properties>
    <property name="Channel" value="2"/>
    <property name="Color" type="color" value="#ff000000"/>
    <property name="Frames" type="int" value="18"/>
   </properties>
  </object>
  <object id="2412" gid="16388" x="22717" y="256" width="16" height="16">
   <properties>
    <property name="Channel" value="2"/>
    <property name="Color" type="color" value="#ff000000"/>
    <property name="Frames" type="int" value="18"/>
   </properties>
  </object>
  <object id="2416" gid="16388" x="22792" y="256" width="16" height="16">
   <properties>
    <property name="Channel" value="2"/>
    <property name="Color" type="color" value="#ff000000"/>
    <property name="Frames" type="int" value="18"/>
   </properties>
  </object>
  <object id="2420" gid="16388" x="22872" y="256" width="16" height="16">
   <properties>
    <property name="Channel" value="2"/>
    <property name="Color" type="color" value="#ff000000"/>
    <property name="Frames" type="int" value="18"/>
   </properties>
  </object>
  <object id="2424" gid="16388" x="22931" y="256" width="16" height="16">
   <properties>
    <property name="Channel" value="2"/>
    <property name="Color" type="color" value="#ff000000"/>
    <property name="Frames" type="int" value="18"/>
   </properties>
  </object>
  <object id="2428" gid="16388" x="23044" y="256" width="16" height="16">
   <properties>
    <property name="Channel" value="2"/>
    <property name="Color" type="color" value="#ff000000"/>
    <property name="Frames" type="int" value="18"/>
   </properties>
  </object>
  <object id="2434" gid="16388" x="23152" y="96" width="16" height="16">
   <properties>
    <property name="Channel" value="2"/>
    <property name="Color" type="color" value="#ff000000"/>
    <property name="Frames" type="int" value="18"/>
   </properties>
  </object>
  <object id="2456" gid="16388" x="23398" y="192" width="16" height="16">
   <properties>
    <property name="Channel" value="2"/>
    <property name="Color" type="color" value="#ffc2005f"/>
    <property name="Frames" type="int" value="21"/>
   </properties>
  </object>
  <object id="2476" gid="16388" x="23725" y="192" width="16" height="16">
   <properties>
    <property name="Channel" value="2"/>
    <property name="Color" type="color" value="#ffc2005f"/>
    <property name="Frames" type="int" value="21"/>
   </properties>
  </object>
  <object id="2500" gid="16388" x="24066" y="192" width="16" height="16">
   <properties>
    <property name="Channel" value="2"/>
    <property name="Color" type="color" value="#ffc2005f"/>
    <property name="Frames" type="int" value="21"/>
   </properties>
  </object>
  <object id="2516" gid="16388" x="24411" y="192" width="16" height="16">
   <properties>
    <property name="Channel" value="2"/>
    <property name="Color" type="color" value="#ffc2005f"/>
    <property name="Frames" type="int" value="21"/>
   </properties>
  </object>
  <object id="2532" gid="16388" x="24576" y="176" width="16" height="16">
   <properties>
    <property name="Channel" value="2"/>
    <property name="Color" type="color" value="#ffc2005f"/>
    <property name="Frames" type="int" value="21"/>
   </properties>
  </object>
  <object id="2548" gid="16388" x="24920" y="176" width="16" height="16">
   <properties>
    <property name="Channel" value="2"/>
    <property name="Color" type="color" value="#ffc2005f"/>
    <property name="Frames" type="int" value="21"/>
   </properties>
  </object>
  <object id="2564" gid="16388" x="25252" y="192" width="16" height="16">
   <properties>
    <property name="Channel" value="2"/>
    <property name="Color" type="color" value="#ffc2005f"/>
    <property name="Frames" type="int" value="21"/>
   </properties>
  </object>
  <object id="2580" gid="16388" x="25603" y="192" width="16" height="16">
   <properties>
    <property name="Channel" value="2"/>
    <property name="Color" type="color" value="#ffc2005f"/>
    <property name="Frames" type="int" value="21"/>
   </properties>
  </object>
  <object id="2596" gid="16388" x="25853" y="192" width="16" height="16">
   <properties>
    <property name="Channel" value="2"/>
    <property name="Color" type="color" value="#ffc2005f"/>
    <property name="Frames" type="int" value="21"/>
   </properties>
  </object>
  <object id="2612" gid="16388" x="26120" y="192" width="16" height="16">
   <properties>
    <property name="Channel" value="2"/>
    <property name="Color" type="color" value="#ffc2005f"/>
    <property name="Frames" type="int" value="21"/>
   </properties>
  </object>
  <object id="2628" gid="16388" x="26454" y="192" width="16" height="16">
   <properties>
    <property name="Channel" value="2"/>
    <property name="Color" type="color" value="#ffc2005f"/>
    <property name="Frames" type="int" value="21"/>
   </properties>
  </object>
  <object id="2644" gid="16388" x="26802" y="192" width="16" height="16">
   <properties>
    <property name="Channel" value="2"/>
    <property name="Color" type="color" value="#ffc2005f"/>
    <property name="Frames" type="int" value="21"/>
   </properties>
  </object>
  <object id="2660" gid="16388" x="27136" y="192" width="16" height="16">
   <properties>
    <property name="Channel" value="2"/>
    <property name="Color" type="color" value="#ffc2005f"/>
    <property name="Frames" type="int" value="21"/>
   </properties>
  </object>
  <object id="2676" gid="16388" x="27483" y="192" width="16" height="16">
   <properties>
    <property name="Channel" value="2"/>
    <property name="Color" type="color" value="#ffc2005f"/>
    <property name="Frames" type="int" value="21"/>
   </properties>
  </object>
  <object id="2692" gid="16388" x="27818" y="192" width="16" height="16">
   <properties>
    <property name="Channel" value="2"/>
    <property name="Color" type="color" value="#ffc2005f"/>
    <property name="Frames" type="int" value="21"/>
   </properties>
  </object>
  <object id="2708" gid="16388" x="28165" y="192" width="16" height="16">
   <properties>
    <property name="Channel" value="2"/>
    <property name="Color" type="color" value="#ffc2005f"/>
    <property name="Frames" type="int" value="21"/>
   </properties>
  </object>
  <object id="2724" gid="16388" x="28504" y="192" width="16" height="16">
   <properties>
    <property name="Channel" value="2"/>
    <property name="Color" type="color" value="#ffc2005f"/>
    <property name="Frames" type="int" value="21"/>
   </properties>
  </object>
  <object id="2468" gid="16388" x="23556" y="192" width="16" height="16">
   <properties>
    <property name="Channel" value="2"/>
    <property name="Color" type="color" value="#ff11c200"/>
    <property name="Frames" type="int" value="21"/>
   </properties>
  </object>
  <object id="2492" gid="16388" x="23894" y="192" width="16" height="16">
   <properties>
    <property name="Channel" value="2"/>
    <property name="Color" type="color" value="#ff11c200"/>
    <property name="Frames" type="int" value="21"/>
   </properties>
  </object>
  <object id="2508" gid="16388" x="24232" y="192" width="16" height="16">
   <properties>
    <property name="Channel" value="2"/>
    <property name="Color" type="color" value="#ff11c200"/>
    <property name="Frames" type="int" value="21"/>
   </properties>
  </object>
  <object id="2524" gid="16388" x="24494" y="192" width="16" height="16">
   <properties>
    <property name="Channel" value="2"/>
    <property name="Color" type="color" value="#ff11c200"/>
    <property name="Frames" type="int" value="21"/>
   </properties>
  </object>
  <object id="2540" gid="16388" x="24748" y="176" width="16" height="16">
   <properties>
    <property name="Channel" value="2"/>
    <property name="Color" type="color" value="#ff11c200"/>
    <property name="Frames" type="int" value="21"/>
   </properties>
  </object>
  <object id="2556" gid="16388" x="25089" y="192" width="16" height="16">
   <properties>
    <property name="Channel" value="2"/>
    <property name="Color" type="color" value="#ff11c200"/>
    <property name="Frames" type="int" value="21"/>
   </properties>
  </object>
  <object id="2572" gid="16388" x="25429" y="192" width="16" height="16">
   <properties>
    <property name="Channel" value="2"/>
    <property name="Color" type="color" value="#ff11c200"/>
    <property name="Frames" type="int" value="21"/>
   </properties>
  </object>
  <object id="2588" gid="16388" x="25775" y="192" width="16" height="16">
   <properties>
    <property name="Channel" value="2"/>
    <property name="Color" type="color" value="#ff11c200"/>
    <property name="Frames" type="int" value="21"/>
   </properties>
  </object>
  <object id="2604" gid="16388" x="25939" y="192" width="16" height="16">
   <properties>
    <property name="Channel" value="2"/>
    <property name="Color" type="color" value="#ff11c200"/>
    <property name="Frames" type="int" value="21"/>
   </properties>
  </object>
  <object id="2620" gid="16388" x="26285" y="192" width="16" height="16">
   <properties>
    <property name="Channel" value="2"/>
    <property name="Color" type="color" value="#ff11c200"/>
    <property name="Frames" type="int" value="21"/>
   </properties>
  </object>
  <object id="2636" gid="16388" x="26616" y="192" width="16" height="16">
   <properties>
    <property name="Channel" value="2"/>
    <property name="Color" type="color" value="#ff11c200"/>
    <property name="Frames" type="int" value="21"/>
   </properties>
  </object>
  <object id="2652" gid="16388" x="26962" y="192" width="16" height="16">
   <properties>
    <property name="Channel" value="2"/>
    <property name="Color" type="color" value="#ff11c200"/>
    <property name="Frames" type="int" value="21"/>
   </properties>
  </object>
  <object id="2668" gid="16388" x="27308" y="192" width="16" height="16">
   <properties>
    <property name="Channel" value="2"/>
    <property name="Color" type="color" value="#ff11c200"/>
    <property name="Frames" type="int" value="21"/>
   </properties>
  </object>
  <object id="2684" gid="16388" x="27648" y="192" width="16" height="16">
   <properties>
    <property name="Channel" value="2"/>
    <property name="Color" type="color" value="#ff11c200"/>
    <property name="Frames" type="int" value="21"/>
   </properties>
  </object>
  <object id="2700" gid="16388" x="27990" y="192" width="16" height="16">
   <properties>
    <property name="Channel" value="2"/>
    <property name="Color" type="color" value="#ff11c200"/>
    <property name="Frames" type="int" value="21"/>
   </properties>
  </object>
  <object id="2716" gid="16388" x="28334" y="192" width="16" height="16">
   <properties>
    <property name="Channel" value="2"/>
    <property name="Color" type="color" value="#ff11c200"/>
    <property name="Frames" type="int" value="21"/>
   </properties>
  </object>
  <object id="2732" gid="16388" x="28690" y="192" width="16" height="16">
   <properties>
    <property name="Channel" value="2"/>
    <property name="Color" type="color" value="#ff11c200"/>
    <property name="Frames" type="int" value="21"/>
   </properties>
  </object>
  <object id="2440" gid="16388" x="23216" y="96" width="16" height="16">
   <properties>
    <property name="Channel" value="2"/>
    <property name="Color" type="color" value="#ff000000"/>
    <property name="Frames" type="int" value="18"/>
   </properties>
  </object>
  <object id="2448" gid="16388" x="23248" y="96" width="16" height="16">
   <properties>
    <property name="Channel" value="2"/>
    <property name="Color" type="color" value="#ff000000"/>
    <property name="Frames" type="int" value="18"/>
   </properties>
  </object>
  <object id="2452" gid="16388" x="23280" y="96" width="16" height="16">
   <properties>
    <property name="Channel" value="2"/>
    <property name="Color" type="color" value="#ff000000"/>
    <property name="Frames" type="int" value="18"/>
   </properties>
  </object>
  <object id="2362" gid="16388" x="21663" y="256" width="16" height="16">
   <properties>
    <property name="Channel" value="2"/>
    <property name="Color" type="color" value="#ff000000"/>
    <property name="Frames" type="int" value="18"/>
   </properties>
  </object>
  <object id="2364" gid="16388" x="21714" y="256" width="16" height="16">
   <properties>
    <property name="Channel" value="2"/>
    <property name="Color" type="color" value="#ff000000"/>
    <property name="Frames" type="int" value="18"/>
   </properties>
  </object>
  <object id="1986" gid="16388" x="14160" y="256" width="16" height="16">
   <properties>
    <property name="Channel" value="2"/>
    <property name="Color" type="color" value="#ff000000"/>
    <property name="Frames" type="int" value="21"/>
   </properties>
  </object>
  <object id="1990" gid="16388" x="14221" y="256" width="16" height="16">
   <properties>
    <property name="Channel" value="2"/>
    <property name="Color" type="color" value="#ff000000"/>
    <property name="Frames" type="int" value="21"/>
   </properties>
  </object>
  <object id="1994" gid="16388" x="14338" y="256" width="16" height="16">
   <properties>
    <property name="Channel" value="2"/>
    <property name="Color" type="color" value="#ff000000"/>
    <property name="Frames" type="int" value="21"/>
   </properties>
  </object>
  <object id="2000" gid="16388" x="14418" y="256" width="16" height="16">
   <properties>
    <property name="Channel" value="2"/>
    <property name="Color" type="color" value="#ff000000"/>
    <property name="Frames" type="int" value="21"/>
   </properties>
  </object>
  <object id="2002" gid="16388" x="14498" y="256" width="16" height="16">
   <properties>
    <property name="Channel" value="2"/>
    <property name="Color" type="color" value="#ff000000"/>
    <property name="Frames" type="int" value="21"/>
   </properties>
  </object>
  <object id="2006" gid="16388" x="14556" y="256" width="16" height="16">
   <properties>
    <property name="Channel" value="2"/>
    <property name="Color" type="color" value="#ff000000"/>
    <property name="Frames" type="int" value="21"/>
   </properties>
  </object>
  <object id="2012" gid="16388" x="14668" y="256" width="16" height="16">
   <properties>
    <property name="Channel" value="2"/>
    <property name="Color" type="color" value="#ff000000"/>
    <property name="Frames" type="int" value="21"/>
   </properties>
  </object>
  <object id="2016" gid="16388" x="14764" y="256" width="16" height="16">
   <properties>
    <property name="Channel" value="2"/>
    <property name="Color" type="color" value="#ff000000"/>
    <property name="Frames" type="int" value="21"/>
   </properties>
  </object>
  <object id="2018" gid="16388" x="14897" y="176" width="16" height="16">
   <properties>
    <property name="Channel" value="2"/>
    <property name="Color" type="color" value="#ffc2005f"/>
    <property name="Frames" type="int" value="21"/>
   </properties>
  </object>
  <object id="2030" gid="16388" x="15105" y="176" width="16" height="16">
   <properties>
    <property name="Channel" value="2"/>
    <property name="Color" type="color" value="#ffc2005f"/>
    <property name="Frames" type="int" value="21"/>
   </properties>
  </object>
  <object id="2038" gid="16388" x="15379" y="176" width="16" height="16">
   <properties>
    <property name="Channel" value="2"/>
    <property name="Color" type="color" value="#ffc2005f"/>
    <property name="Frames" type="int" value="21"/>
   </properties>
  </object>
  <object id="2046" gid="16388" x="15645" y="176" width="16" height="16">
   <properties>
    <property name="Channel" value="2"/>
    <property name="Color" type="color" value="#ffc2005f"/>
    <property name="Frames" type="int" value="21"/>
   </properties>
  </object>
  <object id="2054" gid="16388" x="15931" y="176" width="16" height="16">
   <properties>
    <property name="Channel" value="2"/>
    <property name="Color" type="color" value="#ffc2005f"/>
    <property name="Frames" type="int" value="21"/>
   </properties>
  </object>
  <object id="2062" gid="16388" x="16202" y="176" width="16" height="16">
   <properties>
    <property name="Channel" value="2"/>
    <property name="Color" type="color" value="#ffc2005f"/>
    <property name="Frames" type="int" value="21"/>
   </properties>
  </object>
  <object id="2070" gid="16388" x="16482" y="176" width="16" height="16">
   <properties>
    <property name="Channel" value="2"/>
    <property name="Color" type="color" value="#ffc2005f"/>
    <property name="Frames" type="int" value="21"/>
   </properties>
  </object>
  <object id="2078" gid="16388" x="16756" y="176" width="16" height="16">
   <properties>
    <property name="Channel" value="2"/>
    <property name="Color" type="color" value="#ffc2005f"/>
    <property name="Frames" type="int" value="21"/>
   </properties>
  </object>
  <object id="2082" gid="16388" x="17184" y="160" width="16" height="16">
   <properties>
    <property name="Channel" value="2"/>
    <property name="Color" type="color" value="#ffc2005f"/>
    <property name="Frames" type="int" value="21"/>
   </properties>
  </object>
  <object id="2090" gid="16388" x="17457" y="160" width="16" height="16">
   <properties>
    <property name="Channel" value="2"/>
    <property name="Color" type="color" value="#ffc2005f"/>
    <property name="Frames" type="int" value="21"/>
   </properties>
  </object>
  <object id="2098" gid="16388" x="17727" y="160" width="16" height="16">
   <properties>
    <property name="Channel" value="2"/>
    <property name="Color" type="color" value="#ffc2005f"/>
    <property name="Frames" type="int" value="21"/>
   </properties>
  </object>
  <object id="2168" gid="16388" x="18001" y="160" width="16" height="16">
   <properties>
    <property name="Channel" value="2"/>
    <property name="Color" type="color" value="#ffc2005f"/>
    <property name="Frames" type="int" value="21"/>
   </properties>
  </object>
  <object id="2184" gid="16388" x="18273" y="176" width="16" height="16">
   <properties>
    <property name="Channel" value="2"/>
    <property name="Color" type="color" value="#ffc2005f"/>
    <property name="Frames" type="int" value="21"/>
   </properties>
  </object>
  <object id="2200" gid="16388" x="18544" y="176" width="16" height="16">
   <properties>
    <property name="Channel" value="2"/>
    <property name="Color" type="color" value="#ffc2005f"/>
    <property name="Frames" type="int" value="21"/>
   </properties>
  </object>
  <object id="2216" gid="16388" x="18815" y="176" width="16" height="16">
   <properties>
    <property name="Channel" value="2"/>
    <property name="Color" type="color" value="#ffc2005f"/>
    <property name="Frames" type="int" value="21"/>
   </properties>
  </object>
  <object id="2238" gid="16388" x="19296" y="192" width="16" height="16">
   <properties>
    <property name="Channel" value="2"/>
    <property name="Color" type="color" value="#ffc2005f"/>
    <property name="Frames" type="int" value="21"/>
   </properties>
  </object>
  <object id="2320" gid="16388" x="19717" y="224" width="16" height="16">
   <properties>
    <property name="Channel" value="2"/>
    <property name="Color" type="color" value="#ffc2005f"/>
    <property name="Frames" type="int" value="21"/>
   </properties>
  </object>
  <object id="2328" gid="16388" x="20546" y="224" width="16" height="16">
   <properties>
    <property name="Channel" value="2"/>
    <property name="Color" type="color" value="#ffc2005f"/>
    <property name="Frames" type="int" value="21"/>
   </properties>
  </object>
  <object id="2336" gid="16388" x="21019" y="224" width="16" height="16">
   <properties>
    <property name="Channel" value="2"/>
    <property name="Color" type="color" value="#ffc2005f"/>
    <property name="Frames" type="int" value="21"/>
   </properties>
  </object>
  <object id="2344" gid="16388" x="21226" y="224" width="16" height="16">
   <properties>
    <property name="Channel" value="2"/>
    <property name="Color" type="color" value="#ffc2005f"/>
    <property name="Frames" type="int" value="21"/>
   </properties>
  </object>
  <object id="2352" gid="16388" x="21488" y="224" width="16" height="16">
   <properties>
    <property name="Channel" value="2"/>
    <property name="Color" type="color" value="#ff000000"/>
    <property name="Frames" type="int" value="21"/>
   </properties>
  </object>
  <object id="2026" gid="16388" x="14975" y="176" width="16" height="16">
   <properties>
    <property name="Channel" value="2"/>
    <property name="Color" type="color" value="#ff16b900"/>
    <property name="Frames" type="int" value="21"/>
   </properties>
  </object>
  <object id="2034" gid="16388" x="15243" y="176" width="16" height="16">
   <properties>
    <property name="Channel" value="2"/>
    <property name="Color" type="color" value="#ff16b900"/>
    <property name="Frames" type="int" value="21"/>
   </properties>
  </object>
  <object id="2042" gid="16388" x="15523" y="176" width="16" height="16">
   <properties>
    <property name="Channel" value="2"/>
    <property name="Color" type="color" value="#ff16b900"/>
    <property name="Frames" type="int" value="21"/>
   </properties>
  </object>
  <object id="2050" gid="16388" x="15798" y="176" width="16" height="16">
   <properties>
    <property name="Channel" value="2"/>
    <property name="Color" type="color" value="#ff16b900"/>
    <property name="Frames" type="int" value="21"/>
   </properties>
  </object>
  <object id="2058" gid="16388" x="16069" y="176" width="16" height="16">
   <properties>
    <property name="Channel" value="2"/>
    <property name="Color" type="color" value="#ff16b900"/>
    <property name="Frames" type="int" value="21"/>
   </properties>
  </object>
  <object id="2066" gid="16388" x="16346" y="176" width="16" height="16">
   <properties>
    <property name="Channel" value="2"/>
    <property name="Color" type="color" value="#ff16b900"/>
    <property name="Frames" type="int" value="21"/>
   </properties>
  </object>
  <object id="2086" gid="16388" x="17324" y="160" width="16" height="16">
   <properties>
    <property name="Channel" value="2"/>
    <property name="Color" type="color" value="#ff16b900"/>
    <property name="Frames" type="int" value="21"/>
   </properties>
  </object>
  <object id="2094" gid="16388" x="17594" y="160" width="16" height="16">
   <properties>
    <property name="Channel" value="2"/>
    <property name="Color" type="color" value="#ff16b900"/>
    <property name="Frames" type="int" value="21"/>
   </properties>
  </object>
  <object id="2102" gid="16388" x="17860" y="160" width="16" height="16">
   <properties>
    <property name="Channel" value="2"/>
    <property name="Color" type="color" value="#ff16b900"/>
    <property name="Frames" type="int" value="21"/>
   </properties>
  </object>
  <object id="2176" gid="16388" x="18138" y="160" width="16" height="16">
   <properties>
    <property name="Channel" value="2"/>
    <property name="Color" type="color" value="#ff16b900"/>
    <property name="Frames" type="int" value="21"/>
   </properties>
  </object>
  <object id="2192" gid="16388" x="18408" y="176" width="16" height="16">
   <properties>
    <property name="Channel" value="2"/>
    <property name="Color" type="color" value="#ff16b900"/>
    <property name="Frames" type="int" value="21"/>
   </properties>
  </object>
  <object id="2208" gid="16388" x="18675" y="176" width="16" height="16">
   <properties>
    <property name="Channel" value="2"/>
    <property name="Color" type="color" value="#ff16b900"/>
    <property name="Frames" type="int" value="21"/>
   </properties>
  </object>
  <object id="2224" gid="16388" x="18957" y="176" width="16" height="16">
   <properties>
    <property name="Channel" value="2"/>
    <property name="Color" type="color" value="#ff16b900"/>
    <property name="Frames" type="int" value="21"/>
   </properties>
  </object>
  <object id="2256" gid="16388" x="19451" y="224" width="16" height="16">
   <properties>
    <property name="Channel" value="2"/>
    <property name="Color" type="color" value="#ff16b900"/>
    <property name="Frames" type="int" value="21"/>
   </properties>
  </object>
  <object id="2324" gid="16388" x="19992" y="224" width="16" height="16">
   <properties>
    <property name="Channel" value="2"/>
    <property name="Color" type="color" value="#ff16b900"/>
    <property name="Frames" type="int" value="21"/>
   </properties>
  </object>
  <object id="2332" gid="16388" x="20824" y="224" width="16" height="16">
   <properties>
    <property name="Channel" value="2"/>
    <property name="Color" type="color" value="#ff16b900"/>
    <property name="Frames" type="int" value="21"/>
   </properties>
  </object>
  <object id="2340" gid="16388" x="21092" y="224" width="16" height="16">
   <properties>
    <property name="Channel" value="2"/>
    <property name="Color" type="color" value="#ff16b900"/>
    <property name="Frames" type="int" value="21"/>
   </properties>
  </object>
  <object id="2348" gid="16388" x="21363" y="224" width="16" height="16">
   <properties>
    <property name="Channel" value="2"/>
    <property name="Color" type="color" value="#ff16b900"/>
    <property name="Frames" type="int" value="21"/>
   </properties>
  </object>
  <object id="1190" gid="16388" x="3616" y="192" width="16" height="16">
   <properties>
    <property name="Channel" value="2"/>
    <property name="Color" type="color" value="#ff000000"/>
    <property name="Frames" type="int" value="21"/>
   </properties>
  </object>
  <object id="1194" gid="16388" x="3680" y="256" width="16" height="16">
   <properties>
    <property name="Channel" value="2"/>
    <property name="Color" type="color" value="#ff000000"/>
    <property name="Frames" type="int" value="21"/>
   </properties>
  </object>
  <object id="1198" gid="16388" x="3744" y="192" width="16" height="16">
   <properties>
    <property name="Channel" value="2"/>
    <property name="Color" type="color" value="#ff000000"/>
    <property name="Frames" type="int" value="21"/>
   </properties>
  </object>
  <object id="1202" gid="16388" x="3808" y="192" width="16" height="16">
   <properties>
    <property name="Channel" value="2"/>
    <property name="Color" type="color" value="#ff000000"/>
    <property name="Frames" type="int" value="21"/>
   </properties>
  </object>
  <object id="1206" gid="16388" x="3872" y="192" width="16" height="16">
   <properties>
    <property name="Channel" value="2"/>
    <property name="Color" type="color" value="#ff000000"/>
    <property name="Frames" type="int" value="21"/>
   </properties>
  </object>
  <object id="1210" gid="16388" x="3936" y="192" width="16" height="16">
   <properties>
    <property name="Channel" value="2"/>
    <property name="Color" type="color" value="#ff000000"/>
    <property name="Frames" type="int" value="21"/>
   </properties>
  </object>
  <object id="1214" gid="16388" x="4000" y="192" width="16" height="16">
   <properties>
    <property name="Channel" value="2"/>
    <property name="Color" type="color" value="#ff000000"/>
    <property name="Frames" type="int" value="21"/>
   </properties>
  </object>
  <object id="1218" gid="16388" x="4064" y="256" width="16" height="16">
   <properties>
    <property name="Channel" value="2"/>
    <property name="Color" type="color" value="#ff000000"/>
    <property name="Frames" type="int" value="21"/>
   </properties>
  </object>
  <object id="1252" gid="16388" x="4448" y="256" width="16" height="16">
   <properties>
    <property name="Channel" value="2"/>
    <property name="Color" type="color" value="#ff000000"/>
    <property name="Frames" type="int" value="21"/>
   </properties>
  </object>
  <object id="1276" gid="16388" x="4832" y="256" width="16" height="16">
   <properties>
    <property name="Channel" value="2"/>
    <property name="Color" type="color" value="#ff000000"/>
    <property name="Frames" type="int" value="21"/>
   </properties>
  </object>
  <object id="1300" gid="16388" x="5216" y="256" width="16" height="16">
   <properties>
    <property name="Channel" value="2"/>
    <property name="Color" type="color" value="#ff000000"/>
    <property name="Frames" type="int" value="21"/>
   </properties>
  </object>
  <object id="1222" gid="16388" x="4128" y="256" width="16" height="16">
   <properties>
    <property name="Channel" value="2"/>
    <property name="Color" type="color" value="#ff000000"/>
    <property name="Frames" type="int" value="21"/>
   </properties>
  </object>
  <object id="1250" gid="16388" x="4512" y="256" width="16" height="16">
   <properties>
    <property name="Channel" value="2"/>
    <property name="Color" type="color" value="#ff000000"/>
    <property name="Frames" type="int" value="21"/>
   </properties>
  </object>
  <object id="1274" gid="16388" x="4896" y="256" width="16" height="16">
   <properties>
    <property name="Channel" value="2"/>
    <property name="Color" type="color" value="#ff000000"/>
    <property name="Frames" type="int" value="21"/>
   </properties>
  </object>
  <object id="1298" gid="16388" x="5280" y="256" width="16" height="16">
   <properties>
    <property name="Channel" value="2"/>
    <property name="Color" type="color" value="#ff000000"/>
    <property name="Frames" type="int" value="21"/>
   </properties>
  </object>
  <object id="1226" gid="16388" x="4192" y="256" width="16" height="16">
   <properties>
    <property name="Channel" value="2"/>
    <property name="Color" type="color" value="#ff000000"/>
    <property name="Frames" type="int" value="21"/>
   </properties>
  </object>
  <object id="1248" gid="16388" x="4576" y="256" width="16" height="16">
   <properties>
    <property name="Channel" value="2"/>
    <property name="Color" type="color" value="#ff000000"/>
    <property name="Frames" type="int" value="21"/>
   </properties>
  </object>
  <object id="1314" gid="16388" x="4430" y="192" width="16" height="16">
   <properties>
    <property name="Channel" value="GROUND"/>
    <property name="Color" type="color" value="#ff000000"/>
    <property name="Frames" type="int" value="20"/>
   </properties>
  </object>
  <object id="1318" gid="16388" x="4570" y="192" width="16" height="16">
   <properties>
    <property name="Channel" value="GROUND"/>
    <property name="Color" type="color" value="#ff000000"/>
    <property name="Frames" type="int" value="20"/>
   </properties>
  </object>
  <object id="1322" gid="16388" x="4707" y="192" width="16" height="16">
   <properties>
    <property name="Channel" value="GROUND"/>
    <property name="Color" type="color" value="#ff000000"/>
    <property name="Frames" type="int" value="20"/>
   </properties>
  </object>
  <object id="1326" gid="16388" x="4849" y="192" width="16" height="16">
   <properties>
    <property name="Channel" value="GROUND"/>
    <property name="Color" type="color" value="#ff000000"/>
    <property name="Frames" type="int" value="20"/>
   </properties>
  </object>
  <object id="1330" gid="16388" x="4984" y="192" width="16" height="16">
   <properties>
    <property name="Channel" value="GROUND"/>
    <property name="Color" type="color" value="#ff000000"/>
    <property name="Frames" type="int" value="20"/>
   </properties>
  </object>
  <object id="1334" gid="16388" x="5118" y="192" width="16" height="16">
   <properties>
    <property name="Channel" value="GROUND"/>
    <property name="Color" type="color" value="#ff000000"/>
    <property name="Frames" type="int" value="20"/>
   </properties>
  </object>
  <object id="1338" gid="16388" x="5251" y="192" width="16" height="16">
   <properties>
    <property name="Channel" value="GROUND"/>
    <property name="Color" type="color" value="#ff000000"/>
    <property name="Frames" type="int" value="20"/>
   </properties>
  </object>
  <object id="1342" gid="16388" x="5392" y="192" width="16" height="16">
   <properties>
    <property name="Channel" value="GROUND"/>
    <property name="Color" type="color" value="#ff000000"/>
    <property name="Frames" type="int" value="20"/>
   </properties>
  </object>
  <object id="1419" gid="16388" x="5650" y="144" width="16" height="16">
   <properties>
    <property name="Channel" value="GROUND"/>
    <property name="Color" type="color" value="#ff000000"/>
    <property name="Frames" type="int" value="60"/>
   </properties>
  </object>
  <object id="1423" gid="16388" x="5916" y="144" width="16" height="16">
   <properties>
    <property name="Channel" value="GROUND"/>
    <property name="Color" type="color" value="#ff000000"/>
    <property name="Frames" type="int" value="60"/>
   </properties>
  </object>
  <object id="1417" gid="16388" x="5522" y="192" width="16" height="16">
   <properties>
    <property name="Channel" value="GROUND"/>
    <property name="Color" type="color" value="#ff10001b"/>
    <property name="Frames" type="int" value="60"/>
   </properties>
  </object>
  <object id="1421" gid="16388" x="5788" y="144" width="16" height="16">
   <properties>
    <property name="Channel" value="GROUND"/>
    <property name="Color" type="color" value="#ff000040"/>
    <property name="Frames" type="int" value="60"/>
   </properties>
  </object>
  <object id="1425" gid="16388" x="6072" y="144" width="16" height="16">
   <properties>
    <property name="Channel" value="GROUND"/>
    <property name="Color" type="color" value="#ff36004a"/>
    <property name="Frames" type="int" value="18"/>
   </properties>
  </object>
  <object id="1434" gid="16388" x="6211" y="144" width="16" height="16">
   <properties>
    <property name="Channel" value="GROUND"/>
    <property name="Color" type="color" value="#ff00014a"/>
    <property name="Frames" type="int" value="18"/>
   </properties>
  </object>
  <object id="1437" gid="16388" x="6347" y="144" width="16" height="16">
   <properties>
    <property name="Channel" value="GROUND"/>
    <property name="Color" type="color" value="#ff37004a"/>
    <property name="Frames" type="int" value="18"/>
   </properties>
  </object>
  <object id="1448" gid="16388" x="6477" y="208" width="16" height="16">
   <properties>
    <property name="Channel" value="GROUND"/>
    <property name="Color" type="color" value="#ff34004a"/>
    <property name="Frames" type="int" value="18"/>
   </properties>
  </object>
  <object id="1442" gid="16388" x="6410" y="144" width="16" height="16">
   <properties>
    <property name="Channel" value="GROUND"/>
    <property name="Color" type="color" value="#ff00044a"/>
    <property name="Frames" type="int" value="18"/>
   </properties>
  </object>
  <object id="1445" gid="16388" x="6539" y="208" width="16" height="16">
   <properties>
    <property name="Channel" value="GROUND"/>
    <property name="Color" type="color" value="#ff00014a"/>
    <property name="Frames" type="int" value="18"/>
   </properties>
  </object>
  <object id="1427" gid="16388" x="6120" y="144" width="16" height="16">
   <properties>
    <property name="Channel" value="GROUND"/>
    <property name="Color" type="color" value="#ff000000"/>
    <property name="Frames" type="int" value="18"/>
   </properties>
  </object>
  <object id="1433" gid="16388" x="6259" y="144" width="16" height="16">
   <properties>
    <property name="Channel" value="GROUND"/>
    <property name="Color" type="color" value="#ff000000"/>
    <property name="Frames" type="int" value="18"/>
   </properties>
  </object>
  <object id="1439" gid="16388" x="6379" y="144" width="16" height="16">
   <properties>
    <property name="Channel" value="GROUND"/>
    <property name="Color" type="color" value="#ff000000"/>
    <property name="Frames" type="int" value="18"/>
   </properties>
  </object>
  <object id="1447" gid="16388" x="6509" y="208" width="16" height="16">
   <properties>
    <property name="Channel" value="GROUND"/>
    <property name="Color" type="color" value="#ff000000"/>
    <property name="Frames" type="int" value="18"/>
   </properties>
  </object>
  <object id="1441" gid="16388" x="6442" y="144" width="16" height="16">
   <properties>
    <property name="Channel" value="GROUND"/>
    <property name="Color" type="color" value="#ff000000"/>
    <property name="Frames" type="int" value="18"/>
   </properties>
  </object>
  <object id="1446" gid="16388" x="6571" y="208" width="16" height="16">
   <properties>
    <property name="Channel" value="GROUND"/>
    <property name="Color" type="color" value="#ff000000"/>
    <property name="Frames" type="int" value="18"/>
   </properties>
  </object>
  <object id="1566" gid="16388" x="6626" y="208" width="16" height="16">
   <properties>
    <property name="Channel" value="GROUND"/>
    <property name="Color" type="color" value="#ff10001b"/>
    <property name="Frames" type="int" value="60"/>
   </properties>
  </object>
  <object id="1582" gid="16388" x="7315" y="208" width="16" height="16">
   <properties>
    <property name="Channel" value="GROUND"/>
    <property name="Color" type="color" value="#ff10001b"/>
    <property name="Frames" type="int" value="60"/>
   </properties>
  </object>
  <object id="1590" gid="16388" x="7997" y="208" width="16" height="16">
   <properties>
    <property name="Channel" value="GROUND"/>
    <property name="Color" type="color" value="#ff10001b"/>
    <property name="Frames" type="int" value="60"/>
   </properties>
  </object>
  <object id="1600" gid="16388" x="8677" y="208" width="16" height="16">
   <properties>
    <property name="Channel" value="GROUND"/>
    <property name="Color" type="color" value="#ff10001b"/>
    <property name="Frames" type="int" value="60"/>
   </properties>
  </object>
  <object id="1609" gid="16388" x="9347" y="208" width="16" height="16">
   <properties>
    <property name="Channel" value="GROUND"/>
    <property name="Color" type="color" value="#ff10001b"/>
    <property name="Frames" type="int" value="60"/>
   </properties>
  </object>
  <object id="1616" gid="16388" x="9788" y="208" width="16" height="16">
   <properties>
    <property name="Channel" value="GROUND"/>
    <property name="Color" type="color" value="#ff10001b"/>
    <property name="Frames" type="int" value="60"/>
   </properties>
  </object>
  <object id="1624" gid="16388" x="10237" y="208" width="16" height="16">
   <properties>
    <property name="Channel" value="GROUND"/>
    <property name="Color" type="color" value="#ff10001b"/>
    <property name="Frames" type="int" value="60"/>
   </properties>
  </object>
  <object id="1632" gid="16388" x="10676" y="208" width="16" height="16">
   <properties>
    <property name="Channel" value="GROUND"/>
    <property name="Color" type="color" value="#ff10001b"/>
    <property name="Frames" type="int" value="27"/>
   </properties>
  </object>
  <object id="1640" gid="16388" x="10884" y="208" width="16" height="16">
   <properties>
    <property name="Channel" value="GROUND"/>
    <property name="Color" type="color" value="#ff10001b"/>
    <property name="Frames" type="int" value="27"/>
   </properties>
  </object>
  <object id="1578" gid="16388" x="6975" y="208" width="16" height="16">
   <properties>
    <property name="Channel" value="GROUND"/>
    <property name="Color" type="color" value="#ff00011b"/>
    <property name="Frames" type="int" value="63"/>
   </properties>
  </object>
  <object id="1586" gid="16388" x="7663" y="208" width="16" height="16">
   <properties>
    <property name="Channel" value="GROUND"/>
    <property name="Color" type="color" value="#ff00011b"/>
    <property name="Frames" type="int" value="63"/>
   </properties>
  </object>
  <object id="1594" gid="16388" x="8344" y="208" width="16" height="16">
   <properties>
    <property name="Channel" value="GROUND"/>
    <property name="Color" type="color" value="#ff00011b"/>
    <property name="Frames" type="int" value="63"/>
   </properties>
  </object>
  <object id="1604" gid="16388" x="9056" y="208" width="16" height="16">
   <properties>
    <property name="Channel" value="GROUND"/>
    <property name="Color" type="color" value="#ff00011b"/>
    <property name="Frames" type="int" value="63"/>
   </properties>
  </object>
  <object id="1613" gid="16388" x="9568" y="208" width="16" height="16">
   <properties>
    <property name="Channel" value="GROUND"/>
    <property name="Color" type="color" value="#ff00011b"/>
    <property name="Frames" type="int" value="63"/>
   </properties>
  </object>
  <object id="1620" gid="16388" x="10007" y="208" width="16" height="16">
   <properties>
    <property name="Channel" value="GROUND"/>
    <property name="Color" type="color" value="#ff00011b"/>
    <property name="Frames" type="int" value="63"/>
   </properties>
  </object>
  <object id="1628" gid="16388" x="10451" y="208" width="16" height="16">
   <properties>
    <property name="Channel" value="GROUND"/>
    <property name="Color" type="color" value="#ff00011b"/>
    <property name="Frames" type="int" value="63"/>
   </properties>
  </object>
  <object id="1636" gid="16388" x="10771" y="208" width="16" height="16">
   <properties>
    <property name="Channel" value="GROUND"/>
    <property name="Color" type="color" value="#ff00011b"/>
    <property name="Frames" type="int" value="27"/>
   </properties>
  </object>
  <object id="1644" gid="16388" x="10995" y="208" width="16" height="16">
   <properties>
    <property name="Channel" value="GROUND"/>
    <property name="Color" type="color" value="#ff00011b"/>
    <property name="Frames" type="int" value="27"/>
   </properties>
  </object>
  <object id="1272" gid="16388" x="4960" y="256" width="16" height="16">
   <properties>
    <property name="Channel" value="2"/>
    <property name="Color" type="color" value="#ff000000"/>
    <property name="Frames" type="int" value="21"/>
   </properties>
  </object>
  <object id="1296" gid="16388" x="5344" y="256" width="16" height="16">
   <properties>
    <property name="Channel" value="2"/>
    <property name="Color" type="color" value="#ff000000"/>
    <property name="Frames" type="int" value="21"/>
   </properties>
  </object>
  <object id="1354" gid="16388" x="5600" y="176" width="16" height="16">
   <properties>
    <property name="Channel" value="2"/>
    <property name="Color" type="color" value="#ff000000"/>
    <property name="Frames" type="int" value="21"/>
   </properties>
  </object>
  <object id="1370" gid="16388" x="5856" y="176" width="16" height="16">
   <properties>
    <property name="Channel" value="2"/>
    <property name="Color" type="color" value="#ff000000"/>
    <property name="Frames" type="int" value="21"/>
   </properties>
  </object>
  <object id="1386" gid="16388" x="6112" y="176" width="16" height="16">
   <properties>
    <property name="Channel" value="2"/>
    <property name="Color" type="color" value="#ff000000"/>
    <property name="Frames" type="int" value="21"/>
   </properties>
  </object>
  <object id="1395" gid="16388" x="6432" y="176" width="16" height="16">
   <properties>
    <property name="Channel" value="2"/>
    <property name="Color" type="color" value="#ff000000"/>
    <property name="Frames" type="int" value="21"/>
   </properties>
  </object>
  <object id="1230" gid="16388" x="4256" y="256" width="16" height="16">
   <properties>
    <property name="Channel" value="2"/>
    <property name="Color" type="color" value="#ff000000"/>
    <property name="Frames" type="int" value="21"/>
   </properties>
  </object>
  <object id="1246" gid="16388" x="4640" y="256" width="16" height="16">
   <properties>
    <property name="Channel" value="2"/>
    <property name="Color" type="color" value="#ff000000"/>
    <property name="Frames" type="int" value="21"/>
   </properties>
  </object>
  <object id="1270" gid="16388" x="5024" y="256" width="16" height="16">
   <properties>
    <property name="Channel" value="2"/>
    <property name="Color" type="color" value="#ff000000"/>
    <property name="Frames" type="int" value="21"/>
   </properties>
  </object>
  <object id="1294" gid="16388" x="5408" y="256" width="16" height="16">
   <properties>
    <property name="Channel" value="2"/>
    <property name="Color" type="color" value="#ff000000"/>
    <property name="Frames" type="int" value="21"/>
   </properties>
  </object>
  <object id="1353" gid="16388" x="5664" y="176" width="16" height="16">
   <properties>
    <property name="Channel" value="2"/>
    <property name="Color" type="color" value="#ff000000"/>
    <property name="Frames" type="int" value="21"/>
   </properties>
  </object>
  <object id="1369" gid="16388" x="5920" y="176" width="16" height="16">
   <properties>
    <property name="Channel" value="2"/>
    <property name="Color" type="color" value="#ff000000"/>
    <property name="Frames" type="int" value="21"/>
   </properties>
  </object>
  <object id="1385" gid="16388" x="6176" y="176" width="16" height="16">
   <properties>
    <property name="Channel" value="2"/>
    <property name="Color" type="color" value="#ff000000"/>
    <property name="Frames" type="int" value="21"/>
   </properties>
  </object>
  <object id="1396" gid="16388" x="6496" y="256" width="16" height="16">
   <properties>
    <property name="Channel" value="2"/>
    <property name="Color" type="color" value="#ff000000"/>
    <property name="Frames" type="int" value="21"/>
   </properties>
  </object>
  <object id="1234" gid="16388" x="4320" y="256" width="16" height="16">
   <properties>
    <property name="Channel" value="2"/>
    <property name="Color" type="color" value="#ff000000"/>
    <property name="Frames" type="int" value="21"/>
   </properties>
  </object>
  <object id="1244" gid="16388" x="4704" y="256" width="16" height="16">
   <properties>
    <property name="Channel" value="2"/>
    <property name="Color" type="color" value="#ff000000"/>
    <property name="Frames" type="int" value="21"/>
   </properties>
  </object>
  <object id="1268" gid="16388" x="5088" y="256" width="16" height="16">
   <properties>
    <property name="Channel" value="2"/>
    <property name="Color" type="color" value="#ff000000"/>
    <property name="Frames" type="int" value="21"/>
   </properties>
  </object>
  <object id="1292" gid="16388" x="5472" y="256" width="16" height="16">
   <properties>
    <property name="Channel" value="2"/>
    <property name="Color" type="color" value="#ff000000"/>
    <property name="Frames" type="int" value="21"/>
   </properties>
  </object>
  <object id="1352" gid="16388" x="5728" y="176" width="16" height="16">
   <properties>
    <property name="Channel" value="2"/>
    <property name="Color" type="color" value="#ff000000"/>
    <property name="Frames" type="int" value="21"/>
   </properties>
  </object>
  <object id="1368" gid="16388" x="5984" y="176" width="16" height="16">
   <properties>
    <property name="Channel" value="2"/>
    <property name="Color" type="color" value="#ff000000"/>
    <property name="Frames" type="int" value="21"/>
   </properties>
  </object>
  <object id="1384" gid="16388" x="6240" y="176" width="16" height="16">
   <properties>
    <property name="Channel" value="2"/>
    <property name="Color" type="color" value="#ff000000"/>
    <property name="Frames" type="int" value="21"/>
   </properties>
  </object>
  <object id="1397" gid="16388" x="6560" y="256" width="16" height="16">
   <properties>
    <property name="Channel" value="2"/>
    <property name="Color" type="color" value="#ff000000"/>
    <property name="Frames" type="int" value="21"/>
   </properties>
  </object>
  <object id="1238" gid="16388" x="4384" y="256" width="16" height="16">
   <properties>
    <property name="Channel" value="2"/>
    <property name="Color" type="color" value="#ff000000"/>
    <property name="Frames" type="int" value="21"/>
   </properties>
  </object>
  <object id="1242" gid="16388" x="4768" y="256" width="16" height="16">
   <properties>
    <property name="Channel" value="2"/>
    <property name="Color" type="color" value="#ff000000"/>
    <property name="Frames" type="int" value="21"/>
   </properties>
  </object>
  <object id="1266" gid="16388" x="5152" y="256" width="16" height="16">
   <properties>
    <property name="Channel" value="2"/>
    <property name="Color" type="color" value="#ff000000"/>
    <property name="Frames" type="int" value="21"/>
   </properties>
  </object>
  <object id="1290" gid="16388" x="5536" y="256" width="16" height="16">
   <properties>
    <property name="Channel" value="2"/>
    <property name="Color" type="color" value="#ff000000"/>
    <property name="Frames" type="int" value="21"/>
   </properties>
  </object>
  <object id="1351" gid="16388" x="5792" y="176" width="16" height="16">
   <properties>
    <property name="Channel" value="2"/>
    <property name="Color" type="color" value="#ff000000"/>
    <property name="Frames" type="int" value="21"/>
   </properties>
  </object>
  <object id="1367" gid="16388" x="6048" y="176" width="16" height="16">
   <properties>
    <property name="Channel" value="2"/>
    <property name="Color" type="color" value="#ff000000"/>
    <property name="Frames" type="int" value="21"/>
   </properties>
  </object>
  <object id="1403" gid="16388" x="6368" y="176" width="16" height="16">
   <properties>
    <property name="Channel" value="2"/>
    <property name="Color" type="color" value="#ff000000"/>
    <property name="Frames" type="int" value="21"/>
   </properties>
  </object>
  <object id="1383" gid="16388" x="6304" y="176" width="16" height="16">
   <properties>
    <property name="Channel" value="2"/>
    <property name="Color" type="color" value="#ff000000"/>
    <property name="Frames" type="int" value="21"/>
   </properties>
  </object>
  <object id="1158" gid="16388" x="3104" y="256" width="16" height="16">
   <properties>
    <property name="Channel" value="2"/>
    <property name="Color" type="color" value="#ff000000"/>
    <property name="Frames" type="int" value="21"/>
   </properties>
  </object>
  <object id="1126" gid="16388" x="2656" y="240" width="16" height="16">
   <properties>
    <property name="Channel" value="2"/>
    <property name="Color" type="color" value="#ff000000"/>
    <property name="Frames" type="int" value="21"/>
   </properties>
  </object>
  <object id="1130" gid="16388" x="2720" y="240" width="16" height="16">
   <properties>
    <property name="Channel" value="2"/>
    <property name="Color" type="color" value="#ff000000"/>
    <property name="Frames" type="int" value="21"/>
   </properties>
  </object>
  <object id="1134" gid="16388" x="2784" y="240" width="16" height="16">
   <properties>
    <property name="Channel" value="2"/>
    <property name="Color" type="color" value="#ff000000"/>
    <property name="Frames" type="int" value="21"/>
   </properties>
  </object>
  <object id="1138" gid="16388" x="2848" y="192" width="16" height="16">
   <properties>
    <property name="Channel" value="2"/>
    <property name="Color" type="color" value="#ff000000"/>
    <property name="Frames" type="int" value="21"/>
   </properties>
  </object>
  <object id="1093" gid="16388" x="2096" y="416" width="16" height="16">
   <properties>
    <property name="Channel" value="2"/>
    <property name="Color" type="color" value="#ff000000"/>
    <property name="Frames" type="int" value="21"/>
   </properties>
  </object>
  <object id="741" gid="16388" x="385" y="272" width="16" height="16">
   <properties>
    <property name="Channel" value="2"/>
    <property name="Color" type="color" value="#ff000000"/>
    <property name="Frames" type="int" value="21"/>
   </properties>
  </object>
  <object id="743" gid="16388" x="449" y="272" width="16" height="16">
   <properties>
    <property name="Channel" value="2"/>
    <property name="Color" type="color" value="#ff000000"/>
    <property name="Frames" type="int" value="21"/>
   </properties>
  </object>
  <object id="723" gid="16388" x="273" y="336" width="16" height="16">
   <properties>
    <property name="Channel" value="2"/>
    <property name="Color" type="color" value="#ff00328b"/>
   </properties>
  </object>
  <object id="746" gid="16388" x="529" y="368" width="16" height="16">
   <properties>
    <property name="Channel" value="2"/>
    <property name="Color" type="color" value="#ff00328b"/>
   </properties>
  </object>
  <object id="753" gid="16388" x="673" y="368" width="16" height="16">
   <properties>
    <property name="Channel" value="2"/>
    <property name="Color" type="color" value="#ff00328b"/>
   </properties>
  </object>
  <object id="757" gid="16388" x="781" y="368" width="16" height="16">
   <properties>
    <property name="Channel" value="2"/>
    <property name="Color" type="color" value="#ff00328b"/>
   </properties>
  </object>
  <object id="761" gid="16388" x="917" y="336" width="16" height="16">
   <properties>
    <property name="Channel" value="2"/>
    <property name="Color" type="color" value="#ff00328b"/>
   </properties>
  </object>
  <object id="763" gid="16388" x="981" y="176" width="16" height="16">
   <properties>
    <property name="Channel" value="2"/>
    <property name="Color" type="color" value="#ff00328b"/>
   </properties>
  </object>
  <object id="989" gid="16388" x="1142" y="352" width="16" height="16">
   <properties>
    <property name="Channel" value="2"/>
    <property name="Color" type="color" value="#ff00328b"/>
   </properties>
  </object>
  <object id="994" gid="16388" x="1221" y="336" width="16" height="16">
   <properties>
    <property name="Channel" value="2"/>
    <property name="Color" type="color" value="#ff00328b"/>
   </properties>
  </object>
  <object id="998" gid="16388" x="1321" y="336" width="16" height="16">
   <properties>
    <property name="Channel" value="2"/>
    <property name="Color" type="color" value="#ff00328b"/>
   </properties>
  </object>
  <object id="1002" gid="16388" x="1394" y="336" width="16" height="16">
   <properties>
    <property name="Channel" value="2"/>
    <property name="Color" type="color" value="#ff00328b"/>
   </properties>
  </object>
  <object id="1071" gid="16388" x="1522" y="352" width="16" height="16">
   <properties>
    <property name="Channel" value="2"/>
    <property name="Color" type="color" value="#ff00328b"/>
   </properties>
  </object>
  <object id="1076" gid="16388" x="1632" y="352" width="16" height="16">
   <properties>
    <property name="Channel" value="2"/>
    <property name="Color" type="color" value="#ff00328b"/>
   </properties>
  </object>
  <object id="1080" gid="16388" x="1744" y="368" width="16" height="16">
   <properties>
    <property name="Channel" value="2"/>
    <property name="Color" type="color" value="#ff00328b"/>
   </properties>
  </object>
  <object id="1084" gid="16388" x="1792" y="368" width="16" height="16">
   <properties>
    <property name="Channel" value="2"/>
    <property name="Color" type="color" value="#ff00328b"/>
   </properties>
  </object>
  <object id="1090" gid="16388" x="1952" y="368" width="16" height="16">
   <properties>
    <property name="Channel" value="2"/>
    <property name="Color" type="color" value="#ff00328b"/>
   </properties>
  </object>
  <object id="1100" gid="16388" x="2256" y="240" width="16" height="16">
   <properties>
    <property name="Channel" value="2"/>
    <property name="Color" type="color" value="#ff00328b"/>
   </properties>
  </object>
  <object id="1103" gid="16388" x="2320" y="240" width="16" height="16">
   <properties>
    <property name="Channel" value="2"/>
    <property name="Color" type="color" value="#ff00328b"/>
   </properties>
  </object>
  <object id="1111" gid="16388" x="2384" y="240" width="16" height="16">
   <properties>
    <property name="Channel" value="2"/>
    <property name="Color" type="color" value="#ff00328b"/>
   </properties>
  </object>
  <object id="1115" gid="16388" x="2448" y="240" width="16" height="16">
   <properties>
    <property name="Channel" value="2"/>
    <property name="Color" type="color" value="#ff00328b"/>
   </properties>
  </object>
  <object id="1119" gid="16388" x="2512" y="192" width="16" height="16">
   <properties>
    <property name="Channel" value="2"/>
    <property name="Color" type="color" value="#ff00328b"/>
   </properties>
  </object>
  <object id="1123" gid="16388" x="2576" y="240" width="16" height="16">
   <properties>
    <property name="Channel" value="2"/>
    <property name="Color" type="color" value="#ff00328b"/>
   </properties>
  </object>
  <object id="1143" gid="16388" x="2896" y="192" width="16" height="16">
   <properties>
    <property name="Channel" value="2"/>
    <property name="Color" type="color" value="#ff00328b"/>
   </properties>
  </object>
  <object id="1151" gid="16388" x="2960" y="192" width="16" height="16">
   <properties>
    <property name="Channel" value="2"/>
    <property name="Color" type="color" value="#ff00328b"/>
   </properties>
  </object>
  <object id="1155" gid="16388" x="3024" y="192" width="16" height="16">
   <properties>
    <property name="Channel" value="2"/>
    <property name="Color" type="color" value="#ff00328b"/>
   </properties>
  </object>
  <object id="1163" gid="16388" x="3152" y="256" width="16" height="16">
   <properties>
    <property name="Channel" value="2"/>
    <property name="Color" type="color" value="#ff00328b"/>
   </properties>
  </object>
  <object id="1167" gid="16388" x="3216" y="256" width="16" height="16">
   <properties>
    <property name="Channel" value="2"/>
    <property name="Color" type="color" value="#ff00328b"/>
   </properties>
  </object>
  <object id="1171" gid="16388" x="3280" y="256" width="16" height="16">
   <properties>
    <property name="Channel" value="2"/>
    <property name="Color" type="color" value="#ff00328b"/>
   </properties>
  </object>
  <object id="1175" gid="16388" x="3344" y="128" width="16" height="16">
   <properties>
    <property name="Channel" value="2"/>
    <property name="Color" type="color" value="#ff00328b"/>
   </properties>
  </object>
  <object id="1179" gid="16388" x="3408" y="128" width="16" height="16">
   <properties>
    <property name="Channel" value="2"/>
    <property name="Color" type="color" value="#ff00328b"/>
   </properties>
  </object>
  <object id="1183" gid="16388" x="3472" y="256" width="16" height="16">
   <properties>
    <property name="Channel" value="2"/>
    <property name="Color" type="color" value="#ff00328b"/>
   </properties>
  </object>
  <object id="1187" gid="16388" x="3536" y="192" width="16" height="16">
   <properties>
    <property name="Channel" value="2"/>
    <property name="Color" type="color" value="#ff00328b"/>
   </properties>
  </object>
  <object id="1980" gid="16388" x="14065" y="256" width="16" height="16">
   <properties>
    <property name="Channel" value="2"/>
    <property name="Color" type="color" value="#ff00328b"/>
   </properties>
  </object>
  <object id="2357" gid="16388" x="21560" y="256" width="16" height="16">
   <properties>
    <property name="Channel" value="2"/>
    <property name="Color" type="color" value="#ff003886"/>
   </properties>
  </object>
  <object id="2369" gid="16388" x="21784" y="256" width="16" height="16">
   <properties>
    <property name="Channel" value="2"/>
    <property name="Color" type="color" value="#ff003886"/>
   </properties>
  </object>
  <object id="2377" gid="16388" x="21866" y="256" width="16" height="16">
   <properties>
    <property name="Channel" value="2"/>
    <property name="Color" type="color" value="#ff003886"/>
   </properties>
  </object>
  <object id="2381" gid="16388" x="21921" y="256" width="16" height="16">
   <properties>
    <property name="Channel" value="2"/>
    <property name="Color" type="color" value="#ff003886"/>
   </properties>
  </object>
  <object id="2385" gid="16388" x="22037" y="256" width="16" height="16">
   <properties>
    <property name="Channel" value="2"/>
    <property name="Color" type="color" value="#ff003886"/>
   </properties>
  </object>
  <object id="2391" gid="16388" x="22149" y="256" width="16" height="16">
   <properties>
    <property name="Channel" value="2"/>
    <property name="Color" type="color" value="#ff003886"/>
   </properties>
  </object>
  <object id="2397" gid="16388" x="22261" y="256" width="16" height="16">
   <properties>
    <property name="Channel" value="2"/>
    <property name="Color" type="color" value="#ff003886"/>
   </properties>
  </object>
  <object id="2401" gid="16388" x="22453" y="256" width="16" height="16">
   <properties>
    <property name="Channel" value="2"/>
    <property name="Color" type="color" value="#ff003886"/>
   </properties>
  </object>
  <object id="2741" gid="16388" x="28803" y="256" width="16" height="16">
   <properties>
    <property name="Channel" value="2"/>
    <property name="Color" type="color" value="#ff00328b"/>
   </properties>
  </object>
  <object id="2745" gid="16388" x="28872" y="256" width="16" height="16">
   <properties>
    <property name="Channel" value="2"/>
    <property name="Color" type="color" value="#ff00328b"/>
   </properties>
  </object>
  <object id="2751" gid="16388" x="28974" y="256" width="16" height="16">
   <properties>
    <property name="Channel" value="2"/>
    <property name="Color" type="color" value="#ff00328b"/>
   </properties>
  </object>
  <object id="2755" gid="16388" x="29089" y="256" width="16" height="16">
   <properties>
    <property name="Channel" value="2"/>
    <property name="Color" type="color" value="#ff00328b"/>
   </properties>
  </object>
  <object id="2759" gid="16388" x="29153" y="256" width="16" height="16">
   <properties>
    <property name="Channel" value="2"/>
    <property name="Color" type="color" value="#ff00328b"/>
   </properties>
  </object>
  <object id="2763" gid="16388" x="29249" y="256" width="16" height="16">
   <properties>
    <property name="Channel" value="2"/>
    <property name="Color" type="color" value="#ff00328b"/>
   </properties>
  </object>
  <object id="2767" gid="16388" x="29393" y="256" width="16" height="16">
   <properties>
    <property name="Channel" value="2"/>
    <property name="Color" type="color" value="#ff00328b"/>
   </properties>
  </object>
  <object id="2771" gid="16388" x="29501" y="256" width="16" height="16">
   <properties>
    <property name="Channel" value="2"/>
    <property name="Color" type="color" value="#ff00328b"/>
   </properties>
  </object>
  <object id="2775" gid="16388" x="29637" y="256" width="16" height="16">
   <properties>
    <property name="Channel" value="2"/>
    <property name="Color" type="color" value="#ff00328b"/>
   </properties>
  </object>
  <object id="2779" gid="16388" x="29701" y="256" width="16" height="16">
   <properties>
    <property name="Channel" value="2"/>
    <property name="Color" type="color" value="#ff00328b"/>
   </properties>
  </object>
  <object id="2781" gid="16388" x="29867" y="256" width="16" height="16">
   <properties>
    <property name="Channel" value="2"/>
    <property name="Color" type="color" value="#ff00328b"/>
   </properties>
  </object>
  <object id="2785" gid="16388" x="29941" y="256" width="16" height="16">
   <properties>
    <property name="Channel" value="2"/>
    <property name="Color" type="color" value="#ff00328b"/>
   </properties>
  </object>
  <object id="2789" gid="16388" x="30042" y="256" width="16" height="16">
   <properties>
    <property name="Channel" value="2"/>
    <property name="Color" type="color" value="#ff00328b"/>
   </properties>
  </object>
  <object id="2793" gid="16388" x="30114" y="256" width="16" height="16">
   <properties>
    <property name="Channel" value="2"/>
    <property name="Color" type="color" value="#ff00328b"/>
   </properties>
  </object>
  <object id="2797" gid="16388" x="30242" y="256" width="16" height="16">
   <properties>
    <property name="Channel" value="2"/>
    <property name="Color" type="color" value="#ff00328b"/>
   </properties>
  </object>
  <object id="2801" gid="16388" x="30352" y="256" width="16" height="16">
   <properties>
    <property name="Channel" value="2"/>
    <property name="Color" type="color" value="#ff00328b"/>
   </properties>
  </object>
  <object id="2807" gid="16388" x="30464" y="256" width="16" height="16">
   <properties>
    <property name="Channel" value="2"/>
    <property name="Color" type="color" value="#ff00328b"/>
   </properties>
  </object>
  <object id="2811" gid="16388" x="30512" y="256" width="16" height="16">
   <properties>
    <property name="Channel" value="2"/>
    <property name="Color" type="color" value="#ff00328b"/>
   </properties>
  </object>
  <object id="2815" gid="16388" x="30672" y="256" width="16" height="16">
   <properties>
    <property name="Channel" value="2"/>
    <property name="Color" type="color" value="#ff00328b"/>
   </properties>
  </object>
  <object id="2819" gid="16388" x="30800" y="256" width="16" height="16">
   <properties>
    <property name="Channel" value="2"/>
    <property name="Color" type="color" value="#ff00328b"/>
   </properties>
  </object>
  <object id="2405" gid="16388" x="22531" y="256" width="16" height="16">
   <properties>
    <property name="Channel" value="2"/>
    <property name="Color" type="color" value="#ff003886"/>
   </properties>
  </object>
  <object id="2409" gid="16388" x="22584" y="256" width="16" height="16">
   <properties>
    <property name="Channel" value="2"/>
    <property name="Color" type="color" value="#ff003886"/>
   </properties>
  </object>
  <object id="2413" gid="16388" x="22701" y="256" width="16" height="16">
   <properties>
    <property name="Channel" value="2"/>
    <property name="Color" type="color" value="#ff003886"/>
   </properties>
  </object>
  <object id="2417" gid="16388" x="22776" y="256" width="16" height="16">
   <properties>
    <property name="Channel" value="2"/>
    <property name="Color" type="color" value="#ff003886"/>
   </properties>
  </object>
  <object id="2421" gid="16388" x="22856" y="256" width="16" height="16">
   <properties>
    <property name="Channel" value="2"/>
    <property name="Color" type="color" value="#ff003886"/>
   </properties>
  </object>
  <object id="2425" gid="16388" x="22915" y="256" width="16" height="16">
   <properties>
    <property name="Channel" value="2"/>
    <property name="Color" type="color" value="#ff003886"/>
   </properties>
  </object>
  <object id="2429" gid="16388" x="23028" y="256" width="16" height="16">
   <properties>
    <property name="Channel" value="2"/>
    <property name="Color" type="color" value="#ff003886"/>
   </properties>
  </object>
  <object id="2435" gid="16388" x="23136" y="96" width="16" height="16">
   <properties>
    <property name="Channel" value="2"/>
    <property name="Color" type="color" value="#ff003886"/>
   </properties>
  </object>
  <object id="2457" gid="16388" x="23382" y="192" width="16" height="16">
   <properties>
    <property name="Channel" value="2"/>
    <property name="Color" type="color" value="#ffff007d"/>
   </properties>
  </object>
  <object id="2477" gid="16388" x="23709" y="192" width="16" height="16">
   <properties>
    <property name="Channel" value="2"/>
    <property name="Color" type="color" value="#ffff007d"/>
   </properties>
  </object>
  <object id="2501" gid="16388" x="24050" y="192" width="16" height="16">
   <properties>
    <property name="Channel" value="2"/>
    <property name="Color" type="color" value="#ffff007d"/>
   </properties>
  </object>
  <object id="2517" gid="16388" x="24395" y="192" width="16" height="16">
   <properties>
    <property name="Channel" value="2"/>
    <property name="Color" type="color" value="#ffff007d"/>
   </properties>
  </object>
  <object id="2533" gid="16388" x="24560" y="176" width="16" height="16">
   <properties>
    <property name="Channel" value="2"/>
    <property name="Color" type="color" value="#ffff007d"/>
   </properties>
  </object>
  <object id="2549" gid="16388" x="24904" y="176" width="16" height="16">
   <properties>
    <property name="Channel" value="2"/>
    <property name="Color" type="color" value="#ffff007d"/>
   </properties>
  </object>
  <object id="2565" gid="16388" x="25236" y="192" width="16" height="16">
   <properties>
    <property name="Channel" value="2"/>
    <property name="Color" type="color" value="#ffff007d"/>
   </properties>
  </object>
  <object id="2581" gid="16388" x="25587" y="192" width="16" height="16">
   <properties>
    <property name="Channel" value="2"/>
    <property name="Color" type="color" value="#ffff007d"/>
   </properties>
  </object>
  <object id="2597" gid="16388" x="25837" y="192" width="16" height="16">
   <properties>
    <property name="Channel" value="2"/>
    <property name="Color" type="color" value="#ffff007d"/>
   </properties>
  </object>
  <object id="2613" gid="16388" x="26104" y="192" width="16" height="16">
   <properties>
    <property name="Channel" value="2"/>
    <property name="Color" type="color" value="#ffff007d"/>
   </properties>
  </object>
  <object id="2629" gid="16388" x="26438" y="192" width="16" height="16">
   <properties>
    <property name="Channel" value="2"/>
    <property name="Color" type="color" value="#ffff007d"/>
   </properties>
  </object>
  <object id="2645" gid="16388" x="26786" y="192" width="16" height="16">
   <properties>
    <property name="Channel" value="2"/>
    <property name="Color" type="color" value="#ffff007d"/>
   </properties>
  </object>
  <object id="2661" gid="16388" x="27120" y="192" width="16" height="16">
   <properties>
    <property name="Channel" value="2"/>
    <property name="Color" type="color" value="#ffff007d"/>
   </properties>
  </object>
  <object id="2677" gid="16388" x="27467" y="192" width="16" height="16">
   <properties>
    <property name="Channel" value="2"/>
    <property name="Color" type="color" value="#ffff007d"/>
   </properties>
  </object>
  <object id="2693" gid="16388" x="27802" y="192" width="16" height="16">
   <properties>
    <property name="Channel" value="2"/>
    <property name="Color" type="color" value="#ffff007d"/>
   </properties>
  </object>
  <object id="2709" gid="16388" x="28149" y="192" width="16" height="16">
   <properties>
    <property name="Channel" value="2"/>
    <property name="Color" type="color" value="#ffff007d"/>
   </properties>
  </object>
  <object id="2725" gid="16388" x="28488" y="192" width="16" height="16">
   <properties>
    <property name="Channel" value="2"/>
    <property name="Color" type="color" value="#ffff007d"/>
   </properties>
  </object>
  <object id="2469" gid="16388" x="23540" y="192" width="16" height="16">
   <properties>
    <property name="Channel" value="2"/>
    <property name="Color" type="color" value="#ff11ff00"/>
   </properties>
  </object>
  <object id="2493" gid="16388" x="23878" y="192" width="16" height="16">
   <properties>
    <property name="Channel" value="2"/>
    <property name="Color" type="color" value="#ff11ff00"/>
   </properties>
  </object>
  <object id="2509" gid="16388" x="24216" y="192" width="16" height="16">
   <properties>
    <property name="Channel" value="2"/>
    <property name="Color" type="color" value="#ff11ff00"/>
   </properties>
  </object>
  <object id="2525" gid="16388" x="24478" y="192" width="16" height="16">
   <properties>
    <property name="Channel" value="2"/>
    <property name="Color" type="color" value="#ff11ff00"/>
   </properties>
  </object>
  <object id="2541" gid="16388" x="24732" y="176" width="16" height="16">
   <properties>
    <property name="Channel" value="2"/>
    <property name="Color" type="color" value="#ff11ff00"/>
   </properties>
  </object>
  <object id="2557" gid="16388" x="25073" y="192" width="16" height="16">
   <properties>
    <property name="Channel" value="2"/>
    <property name="Color" type="color" value="#ff11ff00"/>
   </properties>
  </object>
  <object id="2573" gid="16388" x="25413" y="192" width="16" height="16">
   <properties>
    <property name="Channel" value="2"/>
    <property name="Color" type="color" value="#ff11ff00"/>
   </properties>
  </object>
  <object id="2589" gid="16388" x="25759" y="192" width="16" height="16">
   <properties>
    <property name="Channel" value="2"/>
    <property name="Color" type="color" value="#ff11ff00"/>
   </properties>
  </object>
  <object id="2605" gid="16388" x="25923" y="192" width="16" height="16">
   <properties>
    <property name="Channel" value="2"/>
    <property name="Color" type="color" value="#ff11ff00"/>
   </properties>
  </object>
  <object id="2621" gid="16388" x="26269" y="192" width="16" height="16">
   <properties>
    <property name="Channel" value="2"/>
    <property name="Color" type="color" value="#ff11ff00"/>
   </properties>
  </object>
  <object id="2637" gid="16388" x="26600" y="192" width="16" height="16">
   <properties>
    <property name="Channel" value="2"/>
    <property name="Color" type="color" value="#ff11ff00"/>
   </properties>
  </object>
  <object id="2653" gid="16388" x="26946" y="192" width="16" height="16">
   <properties>
    <property name="Channel" value="2"/>
    <property name="Color" type="color" value="#ff11ff00"/>
   </properties>
  </object>
  <object id="2669" gid="16388" x="27292" y="192" width="16" height="16">
   <properties>
    <property name="Channel" value="2"/>
    <property name="Color" type="color" value="#ff11ff00"/>
   </properties>
  </object>
  <object id="2685" gid="16388" x="27632" y="192" width="16" height="16">
   <properties>
    <property name="Channel" value="2"/>
    <property name="Color" type="color" value="#ff11ff00"/>
   </properties>
  </object>
  <object id="2701" gid="16388" x="27974" y="192" width="16" height="16">
   <properties>
    <property name="Channel" value="2"/>
    <property name="Color" type="color" value="#ff11ff00"/>
   </properties>
  </object>
  <object id="2717" gid="16388" x="28318" y="192" width="16" height="16">
   <properties>
    <property name="Channel" value="2"/>
    <property name="Color" type="color" value="#ff11ff00"/>
   </properties>
  </object>
  <object id="2733" gid="16388" x="28674" y="192" width="16" height="16">
   <properties>
    <property name="Channel" value="2"/>
    <property name="Color" type="color" value="#ff11ff00"/>
   </properties>
  </object>
  <object id="2441" gid="16388" x="23200" y="96" width="16" height="16">
   <properties>
    <property name="Channel" value="2"/>
    <property name="Color" type="color" value="#ff003886"/>
   </properties>
  </object>
  <object id="2449" gid="16388" x="23232" y="96" width="16" height="16">
   <properties>
    <property name="Channel" value="2"/>
    <property name="Color" type="color" value="#ff003886"/>
   </properties>
  </object>
  <object id="2453" gid="16388" x="23264" y="96" width="16" height="16">
   <properties>
    <property name="Channel" value="2"/>
    <property name="Color" type="color" value="#ff003886"/>
   </properties>
  </object>
  <object id="2363" gid="16388" x="21647" y="256" width="16" height="16">
   <properties>
    <property name="Channel" value="2"/>
    <property name="Color" type="color" value="#ff003886"/>
   </properties>
  </object>
  <object id="2365" gid="16388" x="21698" y="256" width="16" height="16">
   <properties>
    <property name="Channel" value="2"/>
    <property name="Color" type="color" value="#ff003886"/>
   </properties>
  </object>
  <object id="1987" gid="16388" x="14144" y="256" width="16" height="16">
   <properties>
    <property name="Channel" value="2"/>
    <property name="Color" type="color" value="#ff00328b"/>
   </properties>
  </object>
  <object id="1991" gid="16388" x="14205" y="256" width="16" height="16">
   <properties>
    <property name="Channel" value="2"/>
    <property name="Color" type="color" value="#ff00328b"/>
   </properties>
  </object>
  <object id="1995" gid="16388" x="14322" y="256" width="16" height="16">
   <properties>
    <property name="Channel" value="2"/>
    <property name="Color" type="color" value="#ff00328b"/>
   </properties>
  </object>
  <object id="2001" gid="16388" x="14402" y="256" width="16" height="16">
   <properties>
    <property name="Channel" value="2"/>
    <property name="Color" type="color" value="#ff00328b"/>
   </properties>
  </object>
  <object id="2003" gid="16388" x="14482" y="256" width="16" height="16">
   <properties>
    <property name="Channel" value="2"/>
    <property name="Color" type="color" value="#ff00328b"/>
   </properties>
  </object>
  <object id="2007" gid="16388" x="14540" y="256" width="16" height="16">
   <properties>
    <property name="Channel" value="2"/>
    <property name="Color" type="color" value="#ff00328b"/>
   </properties>
  </object>
  <object id="2013" gid="16388" x="14652" y="256" width="16" height="16">
   <properties>
    <property name="Channel" value="2"/>
    <property name="Color" type="color" value="#ff00328b"/>
   </properties>
  </object>
  <object id="2017" gid="16388" x="14748" y="256" width="16" height="16">
   <properties>
    <property name="Channel" value="2"/>
    <property name="Color" type="color" value="#ff00328b"/>
   </properties>
  </object>
  <object id="2019" gid="16388" x="14881" y="176" width="16" height="16">
   <properties>
    <property name="Channel" value="2"/>
    <property name="Color" type="color" value="#ffff007d"/>
   </properties>
  </object>
  <object id="2031" gid="16388" x="15089" y="176" width="16" height="16">
   <properties>
    <property name="Channel" value="2"/>
    <property name="Color" type="color" value="#ffff007d"/>
   </properties>
  </object>
  <object id="2039" gid="16388" x="15363" y="176" width="16" height="16">
   <properties>
    <property name="Channel" value="2"/>
    <property name="Color" type="color" value="#ffff007d"/>
   </properties>
  </object>
  <object id="2047" gid="16388" x="15629" y="176" width="16" height="16">
   <properties>
    <property name="Channel" value="2"/>
    <property name="Color" type="color" value="#ffff007d"/>
   </properties>
  </object>
  <object id="2055" gid="16388" x="15915" y="176" width="16" height="16">
   <properties>
    <property name="Channel" value="2"/>
    <property name="Color" type="color" value="#ffff007d"/>
   </properties>
  </object>
  <object id="2063" gid="16388" x="16186" y="176" width="16" height="16">
   <properties>
    <property name="Channel" value="2"/>
    <property name="Color" type="color" value="#ffff007d"/>
   </properties>
  </object>
  <object id="2071" gid="16388" x="16466" y="176" width="16" height="16">
   <properties>
    <property name="Channel" value="2"/>
    <property name="Color" type="color" value="#ffff007d"/>
   </properties>
  </object>
  <object id="2079" gid="16388" x="16740" y="176" width="16" height="16">
   <properties>
    <property name="Channel" value="2"/>
    <property name="Color" type="color" value="#ffff007d"/>
   </properties>
  </object>
  <object id="2083" gid="16388" x="17168" y="160" width="16" height="16">
   <properties>
    <property name="Channel" value="2"/>
    <property name="Color" type="color" value="#ffff007d"/>
   </properties>
  </object>
  <object id="2091" gid="16388" x="17441" y="160" width="16" height="16">
   <properties>
    <property name="Channel" value="2"/>
    <property name="Color" type="color" value="#ffff007d"/>
   </properties>
  </object>
  <object id="2099" gid="16388" x="17711" y="160" width="16" height="16">
   <properties>
    <property name="Channel" value="2"/>
    <property name="Color" type="color" value="#ffff007d"/>
   </properties>
  </object>
  <object id="2169" gid="16388" x="17985" y="160" width="16" height="16">
   <properties>
    <property name="Channel" value="2"/>
    <property name="Color" type="color" value="#ffff007d"/>
   </properties>
  </object>
  <object id="2185" gid="16388" x="18257" y="176" width="16" height="16">
   <properties>
    <property name="Channel" value="2"/>
    <property name="Color" type="color" value="#ffff007d"/>
   </properties>
  </object>
  <object id="2201" gid="16388" x="18528" y="176" width="16" height="16">
   <properties>
    <property name="Channel" value="2"/>
    <property name="Color" type="color" value="#ffff007d"/>
   </properties>
  </object>
  <object id="2217" gid="16388" x="18799" y="176" width="16" height="16">
   <properties>
    <property name="Channel" value="2"/>
    <property name="Color" type="color" value="#ffff007d"/>
   </properties>
  </object>
  <object id="2239" gid="16388" x="19280" y="192" width="16" height="16">
   <properties>
    <property name="Channel" value="2"/>
    <property name="Color" type="color" value="#ffff007d"/>
   </properties>
  </object>
  <object id="2321" gid="16388" x="19701" y="224" width="16" height="16">
   <properties>
    <property name="Channel" value="2"/>
    <property name="Color" type="color" value="#ffff007d"/>
   </properties>
  </object>
  <object id="2329" gid="16388" x="20530" y="224" width="16" height="16">
   <properties>
    <property name="Channel" value="2"/>
    <property name="Color" type="color" value="#ffff007d"/>
   </properties>
  </object>
  <object id="2337" gid="16388" x="21003" y="224" width="16" height="16">
   <properties>
    <property name="Channel" value="2"/>
    <property name="Color" type="color" value="#ffff007d"/>
   </properties>
  </object>
  <object id="2345" gid="16388" x="21210" y="224" width="16" height="16">
   <properties>
    <property name="Channel" value="2"/>
    <property name="Color" type="color" value="#ffff007d"/>
   </properties>
  </object>
  <object id="2353" gid="16388" x="21472" y="224" width="16" height="16">
   <properties>
    <property name="Channel" value="2"/>
    <property name="Color" type="color" value="#ff0600ec"/>
   </properties>
  </object>
  <object id="2027" gid="16388" x="14959" y="176" width="16" height="16">
   <properties>
    <property name="Channel" value="2"/>
    <property name="Color" type="color" value="#ff11ec00"/>
   </properties>
  </object>
  <object id="2035" gid="16388" x="15227" y="176" width="16" height="16">
   <properties>
    <property name="Channel" value="2"/>
    <property name="Color" type="color" value="#ff11ec00"/>
   </properties>
  </object>
  <object id="2043" gid="16388" x="15507" y="176" width="16" height="16">
   <properties>
    <property name="Channel" value="2"/>
    <property name="Color" type="color" value="#ff11ec00"/>
   </properties>
  </object>
  <object id="2051" gid="16388" x="15782" y="176" width="16" height="16">
   <properties>
    <property name="Channel" value="2"/>
    <property name="Color" type="color" value="#ff11ec00"/>
   </properties>
  </object>
  <object id="2059" gid="16388" x="16053" y="176" width="16" height="16">
   <properties>
    <property name="Channel" value="2"/>
    <property name="Color" type="color" value="#ff11ec00"/>
   </properties>
  </object>
  <object id="2067" gid="16388" x="16330" y="176" width="16" height="16">
   <properties>
    <property name="Channel" value="2"/>
    <property name="Color" type="color" value="#ff11ec00"/>
   </properties>
  </object>
  <object id="2087" gid="16388" x="17308" y="160" width="16" height="16">
   <properties>
    <property name="Channel" value="2"/>
    <property name="Color" type="color" value="#ff11ec00"/>
   </properties>
  </object>
  <object id="2095" gid="16388" x="17578" y="160" width="16" height="16">
   <properties>
    <property name="Channel" value="2"/>
    <property name="Color" type="color" value="#ff11ec00"/>
   </properties>
  </object>
  <object id="2103" gid="16388" x="17844" y="160" width="16" height="16">
   <properties>
    <property name="Channel" value="2"/>
    <property name="Color" type="color" value="#ff11ec00"/>
   </properties>
  </object>
  <object id="2177" gid="16388" x="18122" y="160" width="16" height="16">
   <properties>
    <property name="Channel" value="2"/>
    <property name="Color" type="color" value="#ff11ec00"/>
   </properties>
  </object>
  <object id="2193" gid="16388" x="18392" y="176" width="16" height="16">
   <properties>
    <property name="Channel" value="2"/>
    <property name="Color" type="color" value="#ff11ec00"/>
   </properties>
  </object>
  <object id="2209" gid="16388" x="18659" y="176" width="16" height="16">
   <properties>
    <property name="Channel" value="2"/>
    <property name="Color" type="color" value="#ff11ec00"/>
   </properties>
  </object>
  <object id="2225" gid="16388" x="18941" y="176" width="16" height="16">
   <properties>
    <property name="Channel" value="2"/>
    <property name="Color" type="color" value="#ff11ec00"/>
   </properties>
  </object>
  <object id="2257" gid="16388" x="19435" y="224" width="16" height="16">
   <properties>
    <property name="Channel" value="2"/>
    <property name="Color" type="color" value="#ff11ec00"/>
   </properties>
  </object>
  <object id="2325" gid="16388" x="19976" y="224" width="16" height="16">
   <properties>
    <property name="Channel" value="2"/>
    <property name="Color" type="color" value="#ff11ec00"/>
   </properties>
  </object>
  <object id="2333" gid="16388" x="20808" y="224" width="16" height="16">
   <properties>
    <property name="Channel" value="2"/>
    <property name="Color" type="color" value="#ff11ec00"/>
   </properties>
  </object>
  <object id="2341" gid="16388" x="21076" y="224" width="16" height="16">
   <properties>
    <property name="Channel" value="2"/>
    <property name="Color" type="color" value="#ff11ec00"/>
   </properties>
  </object>
  <object id="2349" gid="16388" x="21347" y="224" width="16" height="16">
   <properties>
    <property name="Channel" value="2"/>
    <property name="Color" type="color" value="#ff11ec00"/>
   </properties>
  </object>
  <object id="1191" gid="16388" x="3600" y="192" width="16" height="16">
   <properties>
    <property name="Channel" value="2"/>
    <property name="Color" type="color" value="#ff00328b"/>
   </properties>
  </object>
  <object id="1195" gid="16388" x="3664" y="256" width="16" height="16">
   <properties>
    <property name="Channel" value="2"/>
    <property name="Color" type="color" value="#ff00328b"/>
   </properties>
  </object>
  <object id="1199" gid="16388" x="3728" y="192" width="16" height="16">
   <properties>
    <property name="Channel" value="2"/>
    <property name="Color" type="color" value="#ff00328b"/>
   </properties>
  </object>
  <object id="1203" gid="16388" x="3792" y="192" width="16" height="16">
   <properties>
    <property name="Channel" value="2"/>
    <property name="Color" type="color" value="#ff00328b"/>
   </properties>
  </object>
  <object id="1207" gid="16388" x="3856" y="192" width="16" height="16">
   <properties>
    <property name="Channel" value="2"/>
    <property name="Color" type="color" value="#ff00328b"/>
   </properties>
  </object>
  <object id="1211" gid="16388" x="3920" y="192" width="16" height="16">
   <properties>
    <property name="Channel" value="2"/>
    <property name="Color" type="color" value="#ff00328b"/>
   </properties>
  </object>
  <object id="1215" gid="16388" x="3984" y="192" width="16" height="16">
   <properties>
    <property name="Channel" value="2"/>
    <property name="Color" type="color" value="#ff00328b"/>
   </properties>
  </object>
  <object id="1219" gid="16388" x="4048" y="256" width="16" height="16">
   <properties>
    <property name="Channel" value="2"/>
    <property name="Color" type="color" value="#ff00328b"/>
   </properties>
  </object>
  <object id="1253" gid="16388" x="4432" y="256" width="16" height="16">
   <properties>
    <property name="Channel" value="2"/>
    <property name="Color" type="color" value="#ff00328b"/>
   </properties>
  </object>
  <object id="1277" gid="16388" x="4816" y="256" width="16" height="16">
   <properties>
    <property name="Channel" value="2"/>
    <property name="Color" type="color" value="#ff00328b"/>
   </properties>
  </object>
  <object id="1301" gid="16388" x="5200" y="256" width="16" height="16">
   <properties>
    <property name="Channel" value="2"/>
    <property name="Color" type="color" value="#ff00328b"/>
   </properties>
  </object>
  <object id="1223" gid="16388" x="4112" y="256" width="16" height="16">
   <properties>
    <property name="Channel" value="2"/>
    <property name="Color" type="color" value="#ff00328b"/>
   </properties>
  </object>
  <object id="1251" gid="16388" x="4496" y="256" width="16" height="16">
   <properties>
    <property name="Channel" value="2"/>
    <property name="Color" type="color" value="#ff00328b"/>
   </properties>
  </object>
  <object id="1275" gid="16388" x="4880" y="256" width="16" height="16">
   <properties>
    <property name="Channel" value="2"/>
    <property name="Color" type="color" value="#ff00328b"/>
   </properties>
  </object>
  <object id="1299" gid="16388" x="5264" y="256" width="16" height="16">
   <properties>
    <property name="Channel" value="2"/>
    <property name="Color" type="color" value="#ff00328b"/>
   </properties>
  </object>
  <object id="1227" gid="16388" x="4176" y="256" width="16" height="16">
   <properties>
    <property name="Channel" value="2"/>
    <property name="Color" type="color" value="#ff00328b"/>
   </properties>
  </object>
  <object id="1249" gid="16388" x="4560" y="256" width="16" height="16">
   <properties>
    <property name="Channel" value="2"/>
    <property name="Color" type="color" value="#ff00328b"/>
   </properties>
  </object>
  <object id="1315" gid="16388" x="4414" y="192" width="16" height="16">
   <properties>
    <property name="Channel" value="GROUND"/>
    <property name="Color" type="color" value="#ff0d0d0d"/>
   </properties>
  </object>
  <object id="1319" gid="16388" x="4554" y="192" width="16" height="16">
   <properties>
    <property name="Channel" value="GROUND"/>
    <property name="Color" type="color" value="#ff0d0d0d"/>
   </properties>
  </object>
  <object id="1323" gid="16388" x="4691" y="192" width="16" height="16">
   <properties>
    <property name="Channel" value="GROUND"/>
    <property name="Color" type="color" value="#ff0d0d0d"/>
   </properties>
  </object>
  <object id="1327" gid="16388" x="4833" y="192" width="16" height="16">
   <properties>
    <property name="Channel" value="GROUND"/>
    <property name="Color" type="color" value="#ff0d0d0d"/>
   </properties>
  </object>
  <object id="1331" gid="16388" x="4968" y="192" width="16" height="16">
   <properties>
    <property name="Channel" value="GROUND"/>
    <property name="Color" type="color" value="#ff0d0d0d"/>
   </properties>
  </object>
  <object id="1335" gid="16388" x="5102" y="192" width="16" height="16">
   <properties>
    <property name="Channel" value="GROUND"/>
    <property name="Color" type="color" value="#ff0d0d0d"/>
   </properties>
  </object>
  <object id="1339" gid="16388" x="5235" y="192" width="16" height="16">
   <properties>
    <property name="Channel" value="GROUND"/>
    <property name="Color" type="color" value="#ff0d0d0d"/>
   </properties>
  </object>
  <object id="1343" gid="16388" x="5376" y="192" width="16" height="16">
   <properties>
    <property name="Channel" value="GROUND"/>
    <property name="Color" type="color" value="#ff0d0d0d"/>
   </properties>
  </object>
  <object id="1273" gid="16388" x="4944" y="256" width="16" height="16">
   <properties>
    <property name="Channel" value="2"/>
    <property name="Color" type="color" value="#ff00328b"/>
   </properties>
  </object>
  <object id="1297" gid="16388" x="5328" y="256" width="16" height="16">
   <properties>
    <property name="Channel" value="2"/>
    <property name="Color" type="color" value="#ff00328b"/>
   </properties>
  </object>
  <object id="1350" gid="16388" x="5584" y="176" width="16" height="16">
   <properties>
    <property name="Channel" value="2"/>
    <property name="Color" type="color" value="#ff00328b"/>
   </properties>
  </object>
  <object id="1366" gid="16388" x="5840" y="176" width="16" height="16">
   <properties>
    <property name="Channel" value="2"/>
    <property name="Color" type="color" value="#ff00328b"/>
   </properties>
  </object>
  <object id="1382" gid="16388" x="6096" y="176" width="16" height="16">
   <properties>
    <property name="Channel" value="2"/>
    <property name="Color" type="color" value="#ff00328b"/>
   </properties>
  </object>
  <object id="1399" gid="16388" x="6416" y="176" width="16" height="16">
   <properties>
    <property name="Channel" value="2"/>
    <property name="Color" type="color" value="#ff00328b"/>
   </properties>
  </object>
  <object id="1231" gid="16388" x="4240" y="256" width="16" height="16">
   <properties>
    <property name="Channel" value="2"/>
    <property name="Color" type="color" value="#ff00328b"/>
   </properties>
  </object>
  <object id="1247" gid="16388" x="4624" y="256" width="16" height="16">
   <properties>
    <property name="Channel" value="2"/>
    <property name="Color" type="color" value="#ff00328b"/>
   </properties>
  </object>
  <object id="1271" gid="16388" x="5008" y="256" width="16" height="16">
   <properties>
    <property name="Channel" value="2"/>
    <property name="Color" type="color" value="#ff00328b"/>
   </properties>
  </object>
  <object id="1295" gid="16388" x="5392" y="256" width="16" height="16">
   <properties>
    <property name="Channel" value="2"/>
    <property name="Color" type="color" value="#ff00328b"/>
   </properties>
  </object>
  <object id="1349" gid="16388" x="5648" y="176" width="16" height="16">
   <properties>
    <property name="Channel" value="2"/>
    <property name="Color" type="color" value="#ff00328b"/>
   </properties>
  </object>
  <object id="1365" gid="16388" x="5904" y="176" width="16" height="16">
   <properties>
    <property name="Channel" value="2"/>
    <property name="Color" type="color" value="#ff00328b"/>
   </properties>
  </object>
  <object id="1381" gid="16388" x="6160" y="176" width="16" height="16">
   <properties>
    <property name="Channel" value="2"/>
    <property name="Color" type="color" value="#ff00328b"/>
   </properties>
  </object>
  <object id="1400" gid="16388" x="6480" y="256" width="16" height="16">
   <properties>
    <property name="Channel" value="2"/>
    <property name="Color" type="color" value="#ff00328b"/>
   </properties>
  </object>
  <object id="1235" gid="16388" x="4304" y="256" width="16" height="16">
   <properties>
    <property name="Channel" value="2"/>
    <property name="Color" type="color" value="#ff00328b"/>
   </properties>
  </object>
  <object id="1245" gid="16388" x="4688" y="256" width="16" height="16">
   <properties>
    <property name="Channel" value="2"/>
    <property name="Color" type="color" value="#ff00328b"/>
   </properties>
  </object>
  <object id="1269" gid="16388" x="5072" y="256" width="16" height="16">
   <properties>
    <property name="Channel" value="2"/>
    <property name="Color" type="color" value="#ff00328b"/>
   </properties>
  </object>
  <object id="1293" gid="16388" x="5456" y="256" width="16" height="16">
   <properties>
    <property name="Channel" value="2"/>
    <property name="Color" type="color" value="#ff00328b"/>
   </properties>
  </object>
  <object id="1348" gid="16388" x="5712" y="176" width="16" height="16">
   <properties>
    <property name="Channel" value="2"/>
    <property name="Color" type="color" value="#ff00328b"/>
   </properties>
  </object>
  <object id="1364" gid="16388" x="5968" y="176" width="16" height="16">
   <properties>
    <property name="Channel" value="2"/>
    <property name="Color" type="color" value="#ff00328b"/>
   </properties>
  </object>
  <object id="1380" gid="16388" x="6224" y="176" width="16" height="16">
   <properties>
    <property name="Channel" value="2"/>
    <property name="Color" type="color" value="#ff00328b"/>
   </properties>
  </object>
  <object id="1401" gid="16388" x="6544" y="256" width="16" height="16">
   <properties>
    <property name="Channel" value="2"/>
    <property name="Color" type="color" value="#ff00328b"/>
   </properties>
  </object>
  <object id="1416" gid="16388" x="6576" y="256" width="16" height="16">
   <properties>
    <property name="Channel" value="2"/>
    <property name="Color" type="color" value="#ff008b09"/>
   </properties>
  </object>
  <object id="1239" gid="16388" x="4368" y="256" width="16" height="16">
   <properties>
    <property name="Channel" value="2"/>
    <property name="Color" type="color" value="#ff00328b"/>
   </properties>
  </object>
  <object id="1243" gid="16388" x="4752" y="256" width="16" height="16">
   <properties>
    <property name="Channel" value="2"/>
    <property name="Color" type="color" value="#ff00328b"/>
   </properties>
  </object>
  <object id="1267" gid="16388" x="5136" y="256" width="16" height="16">
   <properties>
    <property name="Channel" value="2"/>
    <property name="Color" type="color" value="#ff00328b"/>
   </properties>
  </object>
  <object id="1291" gid="16388" x="5520" y="256" width="16" height="16">
   <properties>
    <property name="Channel" value="2"/>
    <property name="Color" type="color" value="#ff00328b"/>
   </properties>
  </object>
  <object id="1347" gid="16388" x="5776" y="176" width="16" height="16">
   <properties>
    <property name="Channel" value="2"/>
    <property name="Color" type="color" value="#ff00328b"/>
   </properties>
  </object>
  <object id="1363" gid="16388" x="6032" y="176" width="16" height="16">
   <properties>
    <property name="Channel" value="2"/>
    <property name="Color" type="color" value="#ff00328b"/>
   </properties>
  </object>
  <object id="1404" gid="16388" x="6352" y="176" width="16" height="16">
   <properties>
    <property name="Channel" value="2"/>
    <property name="Color" type="color" value="#ff00328b"/>
   </properties>
  </object>
  <object id="1379" gid="16388" x="6288" y="176" width="16" height="16">
   <properties>
    <property name="Channel" value="2"/>
    <property name="Color" type="color" value="#ff00328b"/>
   </properties>
  </object>
  <object id="1159" gid="16388" x="3088" y="256" width="16" height="16">
   <properties>
    <property name="Channel" value="2"/>
    <property name="Color" type="color" value="#ff00328b"/>
   </properties>
  </object>
  <object id="1127" gid="16388" x="2640" y="240" width="16" height="16">
   <properties>
    <property name="Channel" value="2"/>
    <property name="Color" type="color" value="#ff00328b"/>
   </properties>
  </object>
  <object id="1131" gid="16388" x="2704" y="240" width="16" height="16">
   <properties>
    <property name="Channel" value="2"/>
    <property name="Color" type="color" value="#ff00328b"/>
   </properties>
  </object>
  <object id="1135" gid="16388" x="2768" y="240" width="16" height="16">
   <properties>
    <property name="Channel" value="2"/>
    <property name="Color" type="color" value="#ff00328b"/>
   </properties>
  </object>
  <object id="1139" gid="16388" x="2832" y="240" width="16" height="16">
   <properties>
    <property name="Channel" value="2"/>
    <property name="Color" type="color" value="#ff00328b"/>
   </properties>
  </object>
  <object id="1094" gid="16388" x="2080" y="416" width="16" height="16">
   <properties>
    <property name="Channel" value="2"/>
    <property name="Color" type="color" value="#ff00328b"/>
   </properties>
  </object>
  <object id="740" gid="16388" x="369" y="272" width="16" height="16">
   <properties>
    <property name="Channel" value="2"/>
    <property name="Color" type="color" value="#ff00328b"/>
   </properties>
  </object>
  <object id="742" gid="16388" x="433" y="272" width="16" height="16">
   <properties>
    <property name="Channel" value="2"/>
    <property name="Color" type="color" value="#ff00328b"/>
   </properties>
  </object>
  <object id="724" gid="16388" x="254" y="320" width="16" height="16">
   <properties>
    <property name="Channel" value="1"/>
    <property name="Color" type="color" value="#ff000000"/>
    <property name="Frames" type="int" value="18"/>
   </properties>
  </object>
  <object id="751" gid="16388" x="510" y="352" width="16" height="16">
   <properties>
    <property name="Channel" value="1"/>
    <property name="Color" type="color" value="#ff000000"/>
    <property name="Frames" type="int" value="18"/>
   </properties>
  </object>
  <object id="739" gid="16388" x="320" y="320" width="16" height="16">
   <properties>
    <property name="Channel" value="1"/>
    <property name="Color" type="color" value="#ff000000"/>
    <property name="Frames" type="int" value="18"/>
   </properties>
  </object>
  <object id="748" gid="16388" x="576" y="352" width="16" height="16">
   <properties>
    <property name="Channel" value="1"/>
    <property name="Color" type="color" value="#ff000000"/>
    <property name="Frames" type="int" value="18"/>
   </properties>
  </object>
  <object id="754" gid="16388" x="720" y="352" width="16" height="16">
   <properties>
    <property name="Channel" value="1"/>
    <property name="Color" type="color" value="#ff000000"/>
    <property name="Frames" type="int" value="18"/>
   </properties>
  </object>
  <object id="758" gid="16388" x="870" y="352" width="16" height="16">
   <properties>
    <property name="Channel" value="1"/>
    <property name="Color" type="color" value="#ff000000"/>
    <property name="Frames" type="int" value="18"/>
   </properties>
  </object>
  <object id="764" gid="16388" x="996" y="160" width="16" height="16">
   <properties>
    <property name="Channel" value="1"/>
    <property name="Color" type="color" value="#ff000000"/>
    <property name="Frames" type="int" value="18"/>
   </properties>
  </object>
  <object id="992" gid="16388" x="1158" y="336" width="16" height="16">
   <properties>
    <property name="Channel" value="1"/>
    <property name="Color" type="color" value="#ff000000"/>
    <property name="Frames" type="int" value="18"/>
   </properties>
  </object>
  <object id="995" gid="16388" x="1269" y="352" width="16" height="16">
   <properties>
    <property name="Channel" value="1"/>
    <property name="Color" type="color" value="#ff000000"/>
    <property name="Frames" type="int" value="18"/>
   </properties>
  </object>
  <object id="999" gid="16388" x="1374" y="368" width="16" height="16">
   <properties>
    <property name="Channel" value="1"/>
    <property name="Color" type="color" value="#ff000000"/>
    <property name="Frames" type="int" value="18"/>
   </properties>
  </object>
  <object id="1070" gid="16388" x="1502" y="320" width="16" height="16">
   <properties>
    <property name="Channel" value="1"/>
    <property name="Color" type="color" value="#ff000000"/>
    <property name="Frames" type="int" value="18"/>
   </properties>
  </object>
  <object id="1073" gid="16388" x="1615" y="336" width="16" height="16">
   <properties>
    <property name="Channel" value="1"/>
    <property name="Color" type="color" value="#ff000000"/>
    <property name="Frames" type="int" value="18"/>
   </properties>
  </object>
  <object id="1077" gid="16388" x="1684" y="368" width="16" height="16">
   <properties>
    <property name="Channel" value="1"/>
    <property name="Color" type="color" value="#ff000000"/>
    <property name="Frames" type="int" value="18"/>
   </properties>
  </object>
  <object id="1081" gid="16388" x="1777" y="352" width="16" height="16">
   <properties>
    <property name="Channel" value="1"/>
    <property name="Color" type="color" value="#ff000000"/>
    <property name="Frames" type="int" value="18"/>
   </properties>
  </object>
  <object id="1087" gid="16388" x="2033" y="384" width="16" height="16">
   <properties>
    <property name="Channel" value="1"/>
    <property name="Color" type="color" value="#ff000000"/>
    <property name="Frames" type="int" value="18"/>
   </properties>
  </object>
  <object id="1099" gid="16388" x="2240" y="224" width="16" height="16">
   <properties>
    <property name="Channel" value="1"/>
    <property name="Color" type="color" value="#ff000000"/>
    <property name="Frames" type="int" value="18"/>
   </properties>
  </object>
  <object id="1104" gid="16388" x="2304" y="224" width="16" height="16">
   <properties>
    <property name="Channel" value="1"/>
    <property name="Color" type="color" value="#ff000000"/>
    <property name="Frames" type="int" value="18"/>
   </properties>
  </object>
  <object id="1112" gid="16388" x="2368" y="224" width="16" height="16">
   <properties>
    <property name="Channel" value="1"/>
    <property name="Color" type="color" value="#ff000000"/>
    <property name="Frames" type="int" value="18"/>
   </properties>
  </object>
  <object id="1116" gid="16388" x="2432" y="224" width="16" height="16">
   <properties>
    <property name="Channel" value="1"/>
    <property name="Color" type="color" value="#ff000000"/>
    <property name="Frames" type="int" value="18"/>
   </properties>
  </object>
  <object id="1120" gid="16388" x="2496" y="176" width="16" height="16">
   <properties>
    <property name="Channel" value="1"/>
    <property name="Color" type="color" value="#ff000000"/>
    <property name="Frames" type="int" value="18"/>
   </properties>
  </object>
  <object id="1124" gid="16388" x="2560" y="224" width="16" height="16">
   <properties>
    <property name="Channel" value="1"/>
    <property name="Color" type="color" value="#ff000000"/>
    <property name="Frames" type="int" value="18"/>
   </properties>
  </object>
  <object id="1144" gid="16388" x="2880" y="176" width="16" height="16">
   <properties>
    <property name="Channel" value="1"/>
    <property name="Color" type="color" value="#ff000000"/>
    <property name="Frames" type="int" value="18"/>
   </properties>
  </object>
  <object id="1152" gid="16388" x="2944" y="176" width="16" height="16">
   <properties>
    <property name="Channel" value="1"/>
    <property name="Color" type="color" value="#ff000000"/>
    <property name="Frames" type="int" value="18"/>
   </properties>
  </object>
  <object id="1156" gid="16388" x="3008" y="176" width="16" height="16">
   <properties>
    <property name="Channel" value="1"/>
    <property name="Color" type="color" value="#ff000000"/>
    <property name="Frames" type="int" value="18"/>
   </properties>
  </object>
  <object id="1164" gid="16388" x="3136" y="240" width="16" height="16">
   <properties>
    <property name="Channel" value="1"/>
    <property name="Color" type="color" value="#ff000000"/>
    <property name="Frames" type="int" value="18"/>
   </properties>
  </object>
  <object id="1168" gid="16388" x="3200" y="240" width="16" height="16">
   <properties>
    <property name="Channel" value="1"/>
    <property name="Color" type="color" value="#ff000000"/>
    <property name="Frames" type="int" value="18"/>
   </properties>
  </object>
  <object id="1172" gid="16388" x="3264" y="240" width="16" height="16">
   <properties>
    <property name="Channel" value="1"/>
    <property name="Color" type="color" value="#ff000000"/>
    <property name="Frames" type="int" value="18"/>
   </properties>
  </object>
  <object id="1176" gid="16388" x="3328" y="112" width="16" height="16">
   <properties>
    <property name="Channel" value="1"/>
    <property name="Color" type="color" value="#ff000000"/>
    <property name="Frames" type="int" value="18"/>
   </properties>
  </object>
  <object id="1180" gid="16388" x="3392" y="112" width="16" height="16">
   <properties>
    <property name="Channel" value="1"/>
    <property name="Color" type="color" value="#ff000000"/>
    <property name="Frames" type="int" value="18"/>
   </properties>
  </object>
  <object id="1184" gid="16388" x="3456" y="240" width="16" height="16">
   <properties>
    <property name="Channel" value="1"/>
    <property name="Color" type="color" value="#ff000000"/>
    <property name="Frames" type="int" value="18"/>
   </properties>
  </object>
  <object id="1188" gid="16388" x="3520" y="176" width="16" height="16">
   <properties>
    <property name="Channel" value="1"/>
    <property name="Color" type="color" value="#ff000000"/>
    <property name="Frames" type="int" value="18"/>
   </properties>
  </object>
  <object id="1983" gid="16388" x="14032" y="240" width="16" height="16">
   <properties>
    <property name="Channel" value="1"/>
    <property name="Color" type="color" value="#ff000000"/>
    <property name="Frames" type="int" value="18"/>
   </properties>
  </object>
  <object id="2358" gid="16388" x="21552" y="240" width="16" height="16">
   <properties>
    <property name="Channel" value="1"/>
    <property name="Color" type="color" value="#ff000000"/>
    <property name="Frames" type="int" value="18"/>
   </properties>
  </object>
  <object id="2370" gid="16388" x="21773" y="240" width="16" height="16">
   <properties>
    <property name="Channel" value="1"/>
    <property name="Color" type="color" value="#ff000000"/>
    <property name="Frames" type="int" value="18"/>
   </properties>
  </object>
  <object id="2372" gid="16388" x="21827" y="240" width="16" height="16">
   <properties>
    <property name="Channel" value="1"/>
    <property name="Color" type="color" value="#ff000000"/>
    <property name="Frames" type="int" value="18"/>
   </properties>
  </object>
  <object id="2378" gid="16388" x="21908" y="240" width="16" height="16">
   <properties>
    <property name="Channel" value="1"/>
    <property name="Color" type="color" value="#ff000000"/>
    <property name="Frames" type="int" value="18"/>
   </properties>
  </object>
  <object id="2382" gid="16388" x="22022" y="240" width="16" height="16">
   <properties>
    <property name="Channel" value="1"/>
    <property name="Color" type="color" value="#ff000000"/>
    <property name="Frames" type="int" value="18"/>
   </properties>
  </object>
  <object id="2388" gid="16388" x="22104" y="240" width="16" height="16">
   <properties>
    <property name="Channel" value="1"/>
    <property name="Color" type="color" value="#ff000000"/>
    <property name="Frames" type="int" value="18"/>
   </properties>
  </object>
  <object id="2392" gid="16388" x="22219" y="240" width="16" height="16">
   <properties>
    <property name="Channel" value="1"/>
    <property name="Color" type="color" value="#ff000000"/>
    <property name="Frames" type="int" value="18"/>
   </properties>
  </object>
  <object id="2394" gid="16388" x="22277" y="240" width="16" height="16">
   <properties>
    <property name="Channel" value="1"/>
    <property name="Color" type="color" value="#ff000000"/>
    <property name="Frames" type="int" value="18"/>
   </properties>
  </object>
  <object id="2398" gid="16388" x="22400" y="240" width="16" height="16">
   <properties>
    <property name="Channel" value="1"/>
    <property name="Color" type="color" value="#ff000000"/>
    <property name="Frames" type="int" value="18"/>
   </properties>
  </object>
  <object id="2402" gid="16388" x="22500" y="240" width="16" height="16">
   <properties>
    <property name="Channel" value="1"/>
    <property name="Color" type="color" value="#ff000000"/>
    <property name="Frames" type="int" value="18"/>
   </properties>
  </object>
  <object id="2742" gid="16388" x="28856" y="240" width="16" height="16">
   <properties>
    <property name="Channel" value="1"/>
    <property name="Color" type="color" value="#ff000000"/>
    <property name="Frames" type="int" value="18"/>
   </properties>
  </object>
  <object id="2748" gid="16388" x="28955" y="240" width="16" height="16">
   <properties>
    <property name="Channel" value="1"/>
    <property name="Color" type="color" value="#ff000000"/>
    <property name="Frames" type="int" value="18"/>
   </properties>
  </object>
  <object id="2752" gid="16388" x="29029" y="240" width="16" height="16">
   <properties>
    <property name="Channel" value="1"/>
    <property name="Color" type="color" value="#ff000000"/>
    <property name="Frames" type="int" value="18"/>
   </properties>
  </object>
  <object id="2756" gid="16388" x="29136" y="240" width="16" height="16">
   <properties>
    <property name="Channel" value="1"/>
    <property name="Color" type="color" value="#ff000000"/>
    <property name="Frames" type="int" value="18"/>
   </properties>
  </object>
  <object id="2760" gid="16388" x="29230" y="240" width="16" height="16">
   <properties>
    <property name="Channel" value="1"/>
    <property name="Color" type="color" value="#ff000000"/>
    <property name="Frames" type="int" value="18"/>
   </properties>
  </object>
  <object id="2764" gid="16388" x="29296" y="240" width="16" height="16">
   <properties>
    <property name="Channel" value="1"/>
    <property name="Color" type="color" value="#ff000000"/>
    <property name="Frames" type="int" value="18"/>
   </properties>
  </object>
  <object id="2768" gid="16388" x="29440" y="240" width="16" height="16">
   <properties>
    <property name="Channel" value="1"/>
    <property name="Color" type="color" value="#ff000000"/>
    <property name="Frames" type="int" value="18"/>
   </properties>
  </object>
  <object id="2772" gid="16388" x="29590" y="240" width="16" height="16">
   <properties>
    <property name="Channel" value="1"/>
    <property name="Color" type="color" value="#ff000000"/>
    <property name="Frames" type="int" value="18"/>
   </properties>
  </object>
  <object id="2776" gid="16388" x="29716" y="240" width="16" height="16">
   <properties>
    <property name="Channel" value="1"/>
    <property name="Color" type="color" value="#ff000000"/>
    <property name="Frames" type="int" value="18"/>
   </properties>
  </object>
  <object id="2782" gid="16388" x="29883" y="240" width="16" height="16">
   <properties>
    <property name="Channel" value="1"/>
    <property name="Color" type="color" value="#ff000000"/>
    <property name="Frames" type="int" value="18"/>
   </properties>
  </object>
  <object id="2786" gid="16388" x="29990" y="240" width="16" height="16">
   <properties>
    <property name="Channel" value="1"/>
    <property name="Color" type="color" value="#ff000000"/>
    <property name="Frames" type="int" value="18"/>
   </properties>
  </object>
  <object id="2790" gid="16388" x="30094" y="240" width="16" height="16">
   <properties>
    <property name="Channel" value="1"/>
    <property name="Color" type="color" value="#ff000000"/>
    <property name="Frames" type="int" value="18"/>
   </properties>
  </object>
  <object id="2794" gid="16388" x="30222" y="240" width="16" height="16">
   <properties>
    <property name="Channel" value="1"/>
    <property name="Color" type="color" value="#ff000000"/>
    <property name="Frames" type="int" value="18"/>
   </properties>
  </object>
  <object id="2798" gid="16388" x="30335" y="240" width="16" height="16">
   <properties>
    <property name="Channel" value="1"/>
    <property name="Color" type="color" value="#ff000000"/>
    <property name="Frames" type="int" value="18"/>
   </properties>
  </object>
  <object id="2804" gid="16388" x="30404" y="240" width="16" height="16">
   <properties>
    <property name="Channel" value="1"/>
    <property name="Color" type="color" value="#ff000000"/>
    <property name="Frames" type="int" value="18"/>
   </properties>
  </object>
  <object id="2808" gid="16388" x="30497" y="240" width="16" height="16">
   <properties>
    <property name="Channel" value="1"/>
    <property name="Color" type="color" value="#ff000000"/>
    <property name="Frames" type="int" value="18"/>
   </properties>
  </object>
  <object id="2812" gid="16388" x="30609" y="240" width="16" height="16">
   <properties>
    <property name="Channel" value="1"/>
    <property name="Color" type="color" value="#ff000000"/>
    <property name="Frames" type="int" value="18"/>
   </properties>
  </object>
  <object id="2816" gid="16388" x="30753" y="240" width="16" height="16">
   <properties>
    <property name="Channel" value="1"/>
    <property name="Color" type="color" value="#ff000000"/>
    <property name="Frames" type="int" value="18"/>
   </properties>
  </object>
  <object id="2406" gid="16388" x="22572" y="240" width="16" height="16">
   <properties>
    <property name="Channel" value="1"/>
    <property name="Color" type="color" value="#ff000000"/>
    <property name="Frames" type="int" value="18"/>
   </properties>
  </object>
  <object id="2410" gid="16388" x="22688" y="240" width="16" height="16">
   <properties>
    <property name="Channel" value="1"/>
    <property name="Color" type="color" value="#ff000000"/>
    <property name="Frames" type="int" value="18"/>
   </properties>
  </object>
  <object id="2414" gid="16388" x="22764" y="240" width="16" height="16">
   <properties>
    <property name="Channel" value="1"/>
    <property name="Color" type="color" value="#ff000000"/>
    <property name="Frames" type="int" value="18"/>
   </properties>
  </object>
  <object id="2418" gid="16388" x="22817" y="240" width="16" height="16">
   <properties>
    <property name="Channel" value="1"/>
    <property name="Color" type="color" value="#ff000000"/>
    <property name="Frames" type="int" value="18"/>
   </properties>
  </object>
  <object id="2422" gid="16388" x="22900" y="240" width="16" height="16">
   <properties>
    <property name="Channel" value="1"/>
    <property name="Color" type="color" value="#ff000000"/>
    <property name="Frames" type="int" value="18"/>
   </properties>
  </object>
  <object id="2426" gid="16388" x="22984" y="240" width="16" height="16">
   <properties>
    <property name="Channel" value="1"/>
    <property name="Color" type="color" value="#ff000000"/>
    <property name="Frames" type="int" value="18"/>
   </properties>
  </object>
  <object id="2430" gid="16388" x="23099" y="240" width="16" height="16">
   <properties>
    <property name="Channel" value="1"/>
    <property name="Color" type="color" value="#ff000000"/>
    <property name="Frames" type="int" value="18"/>
   </properties>
  </object>
  <object id="2432" gid="16388" x="23152" y="80" width="16" height="16">
   <properties>
    <property name="Channel" value="1"/>
    <property name="Color" type="color" value="#ff000000"/>
    <property name="Frames" type="int" value="18"/>
   </properties>
  </object>
  <object id="2458" gid="16388" x="23398" y="176" width="16" height="16">
   <properties>
    <property name="Channel" value="1"/>
    <property name="Color" type="color" value="#ff0e9400"/>
    <property name="Copy from channel" value=""/>
    <property name="Frames" type="int" value="21"/>
   </properties>
  </object>
  <object id="2478" gid="16388" x="23725" y="176" width="16" height="16">
   <properties>
    <property name="Channel" value="1"/>
    <property name="Color" type="color" value="#ff0e9400"/>
    <property name="Copy from channel" value=""/>
    <property name="Frames" type="int" value="21"/>
   </properties>
  </object>
  <object id="2502" gid="16388" x="24066" y="176" width="16" height="16">
   <properties>
    <property name="Channel" value="1"/>
    <property name="Color" type="color" value="#ff0e9400"/>
    <property name="Copy from channel" value=""/>
    <property name="Frames" type="int" value="21"/>
   </properties>
  </object>
  <object id="2518" gid="16388" x="24411" y="176" width="16" height="16">
   <properties>
    <property name="Channel" value="1"/>
    <property name="Color" type="color" value="#ff0e9400"/>
    <property name="Copy from channel" value=""/>
    <property name="Frames" type="int" value="21"/>
   </properties>
  </object>
  <object id="2534" gid="16388" x="24576" y="160" width="16" height="16">
   <properties>
    <property name="Channel" value="1"/>
    <property name="Color" type="color" value="#ff0e9400"/>
    <property name="Copy from channel" value=""/>
    <property name="Frames" type="int" value="21"/>
   </properties>
  </object>
  <object id="2550" gid="16388" x="24920" y="160" width="16" height="16">
   <properties>
    <property name="Channel" value="1"/>
    <property name="Color" type="color" value="#ff0e9400"/>
    <property name="Copy from channel" value=""/>
    <property name="Frames" type="int" value="21"/>
   </properties>
  </object>
  <object id="2566" gid="16388" x="25252" y="176" width="16" height="16">
   <properties>
    <property name="Channel" value="1"/>
    <property name="Color" type="color" value="#ff0e9400"/>
    <property name="Copy from channel" value=""/>
    <property name="Frames" type="int" value="21"/>
   </properties>
  </object>
  <object id="2582" gid="16388" x="25603" y="176" width="16" height="16">
   <properties>
    <property name="Channel" value="1"/>
    <property name="Color" type="color" value="#ff0e9400"/>
    <property name="Copy from channel" value=""/>
    <property name="Frames" type="int" value="21"/>
   </properties>
  </object>
  <object id="2598" gid="16388" x="25853" y="176" width="16" height="16">
   <properties>
    <property name="Channel" value="1"/>
    <property name="Color" type="color" value="#ff0e9400"/>
    <property name="Copy from channel" value=""/>
    <property name="Frames" type="int" value="21"/>
   </properties>
  </object>
  <object id="2614" gid="16388" x="26120" y="176" width="16" height="16">
   <properties>
    <property name="Channel" value="1"/>
    <property name="Color" type="color" value="#ff0e9400"/>
    <property name="Copy from channel" value=""/>
    <property name="Frames" type="int" value="21"/>
   </properties>
  </object>
  <object id="2630" gid="16388" x="26454" y="176" width="16" height="16">
   <properties>
    <property name="Channel" value="1"/>
    <property name="Color" type="color" value="#ff0e9400"/>
    <property name="Copy from channel" value=""/>
    <property name="Frames" type="int" value="21"/>
   </properties>
  </object>
  <object id="2646" gid="16388" x="26802" y="176" width="16" height="16">
   <properties>
    <property name="Channel" value="1"/>
    <property name="Color" type="color" value="#ff0e9400"/>
    <property name="Copy from channel" value=""/>
    <property name="Frames" type="int" value="21"/>
   </properties>
  </object>
  <object id="2662" gid="16388" x="27136" y="176" width="16" height="16">
   <properties>
    <property name="Channel" value="1"/>
    <property name="Color" type="color" value="#ff0e9400"/>
    <property name="Copy from channel" value=""/>
    <property name="Frames" type="int" value="21"/>
   </properties>
  </object>
  <object id="2678" gid="16388" x="27483" y="176" width="16" height="16">
   <properties>
    <property name="Channel" value="1"/>
    <property name="Color" type="color" value="#ff0e9400"/>
    <property name="Copy from channel" value=""/>
    <property name="Frames" type="int" value="21"/>
   </properties>
  </object>
  <object id="2694" gid="16388" x="27818" y="176" width="16" height="16">
   <properties>
    <property name="Channel" value="1"/>
    <property name="Color" type="color" value="#ff0e9400"/>
    <property name="Copy from channel" value=""/>
    <property name="Frames" type="int" value="21"/>
   </properties>
  </object>
  <object id="2710" gid="16388" x="28165" y="176" width="16" height="16">
   <properties>
    <property name="Channel" value="1"/>
    <property name="Color" type="color" value="#ff0e9400"/>
    <property name="Copy from channel" value=""/>
    <property name="Frames" type="int" value="21"/>
   </properties>
  </object>
  <object id="2726" gid="16388" x="28504" y="176" width="16" height="16">
   <properties>
    <property name="Channel" value="1"/>
    <property name="Color" type="color" value="#ff0e9400"/>
    <property name="Copy from channel" value=""/>
    <property name="Frames" type="int" value="21"/>
   </properties>
  </object>
  <object id="2470" gid="16388" x="23556" y="176" width="16" height="16">
   <properties>
    <property name="Channel" value="1"/>
    <property name="Color" type="color" value="#ff940038"/>
    <property name="Copy from channel" value=""/>
    <property name="Frames" type="int" value="21"/>
   </properties>
  </object>
  <object id="2494" gid="16388" x="23894" y="176" width="16" height="16">
   <properties>
    <property name="Channel" value="1"/>
    <property name="Color" type="color" value="#ff940038"/>
    <property name="Copy from channel" value=""/>
    <property name="Frames" type="int" value="21"/>
   </properties>
  </object>
  <object id="2510" gid="16388" x="24232" y="176" width="16" height="16">
   <properties>
    <property name="Channel" value="1"/>
    <property name="Color" type="color" value="#ff940038"/>
    <property name="Copy from channel" value=""/>
    <property name="Frames" type="int" value="21"/>
   </properties>
  </object>
  <object id="2526" gid="16388" x="24494" y="176" width="16" height="16">
   <properties>
    <property name="Channel" value="1"/>
    <property name="Color" type="color" value="#ff940038"/>
    <property name="Copy from channel" value=""/>
    <property name="Frames" type="int" value="21"/>
   </properties>
  </object>
  <object id="2542" gid="16388" x="24748" y="160" width="16" height="16">
   <properties>
    <property name="Channel" value="1"/>
    <property name="Color" type="color" value="#ff940038"/>
    <property name="Copy from channel" value=""/>
    <property name="Frames" type="int" value="21"/>
   </properties>
  </object>
  <object id="2558" gid="16388" x="25089" y="176" width="16" height="16">
   <properties>
    <property name="Channel" value="1"/>
    <property name="Color" type="color" value="#ff940038"/>
    <property name="Copy from channel" value=""/>
    <property name="Frames" type="int" value="21"/>
   </properties>
  </object>
  <object id="2574" gid="16388" x="25429" y="176" width="16" height="16">
   <properties>
    <property name="Channel" value="1"/>
    <property name="Color" type="color" value="#ff940038"/>
    <property name="Copy from channel" value=""/>
    <property name="Frames" type="int" value="21"/>
   </properties>
  </object>
  <object id="2590" gid="16388" x="25775" y="176" width="16" height="16">
   <properties>
    <property name="Channel" value="1"/>
    <property name="Color" type="color" value="#ff940038"/>
    <property name="Copy from channel" value=""/>
    <property name="Frames" type="int" value="21"/>
   </properties>
  </object>
  <object id="2606" gid="16388" x="25939" y="176" width="16" height="16">
   <properties>
    <property name="Channel" value="1"/>
    <property name="Color" type="color" value="#ff940038"/>
    <property name="Copy from channel" value=""/>
    <property name="Frames" type="int" value="21"/>
   </properties>
  </object>
  <object id="2622" gid="16388" x="26285" y="176" width="16" height="16">
   <properties>
    <property name="Channel" value="1"/>
    <property name="Color" type="color" value="#ff940038"/>
    <property name="Copy from channel" value=""/>
    <property name="Frames" type="int" value="21"/>
   </properties>
  </object>
  <object id="2638" gid="16388" x="26616" y="176" width="16" height="16">
   <properties>
    <property name="Channel" value="1"/>
    <property name="Color" type="color" value="#ff940038"/>
    <property name="Copy from channel" value=""/>
    <property name="Frames" type="int" value="21"/>
   </properties>
  </object>
  <object id="2654" gid="16388" x="26962" y="176" width="16" height="16">
   <properties>
    <property name="Channel" value="1"/>
    <property name="Color" type="color" value="#ff940038"/>
    <property name="Copy from channel" value=""/>
    <property name="Frames" type="int" value="21"/>
   </properties>
  </object>
  <object id="2670" gid="16388" x="27308" y="176" width="16" height="16">
   <properties>
    <property name="Channel" value="1"/>
    <property name="Color" type="color" value="#ff940038"/>
    <property name="Copy from channel" value=""/>
    <property name="Frames" type="int" value="21"/>
   </properties>
  </object>
  <object id="2686" gid="16388" x="27648" y="176" width="16" height="16">
   <properties>
    <property name="Channel" value="1"/>
    <property name="Color" type="color" value="#ff940038"/>
    <property name="Copy from channel" value=""/>
    <property name="Frames" type="int" value="21"/>
   </properties>
  </object>
  <object id="2702" gid="16388" x="27990" y="176" width="16" height="16">
   <properties>
    <property name="Channel" value="1"/>
    <property name="Color" type="color" value="#ff940038"/>
    <property name="Copy from channel" value=""/>
    <property name="Frames" type="int" value="21"/>
   </properties>
  </object>
  <object id="2718" gid="16388" x="28334" y="176" width="16" height="16">
   <properties>
    <property name="Channel" value="1"/>
    <property name="Color" type="color" value="#ff940038"/>
    <property name="Copy from channel" value=""/>
    <property name="Frames" type="int" value="21"/>
   </properties>
  </object>
  <object id="2734" gid="16388" x="28690" y="176" width="16" height="16">
   <properties>
    <property name="Channel" value="1"/>
    <property name="Color" type="color" value="#ff940038"/>
    <property name="Copy from channel" value=""/>
    <property name="Frames" type="int" value="21"/>
   </properties>
  </object>
  <object id="2442" gid="16388" x="23200" y="80" width="16" height="16">
   <properties>
    <property name="Channel" value="1"/>
    <property name="Color" type="color" value="#ff000000"/>
    <property name="Frames" type="int" value="18"/>
   </properties>
  </object>
  <object id="2450" gid="16388" x="23232" y="80" width="16" height="16">
   <properties>
    <property name="Channel" value="1"/>
    <property name="Color" type="color" value="#ff000000"/>
    <property name="Frames" type="int" value="18"/>
   </properties>
  </object>
  <object id="2454" gid="16388" x="23264" y="80" width="16" height="16">
   <properties>
    <property name="Channel" value="1"/>
    <property name="Color" type="color" value="#ff000000"/>
    <property name="Frames" type="int" value="18"/>
   </properties>
  </object>
  <object id="2360" gid="16388" x="21618" y="240" width="16" height="16">
   <properties>
    <property name="Channel" value="1"/>
    <property name="Color" type="color" value="#ff000000"/>
    <property name="Frames" type="int" value="18"/>
   </properties>
  </object>
  <object id="2366" gid="16388" x="21694" y="240" width="16" height="16">
   <properties>
    <property name="Channel" value="1"/>
    <property name="Color" type="color" value="#ff000000"/>
    <property name="Frames" type="int" value="18"/>
   </properties>
  </object>
  <object id="1984" gid="16388" x="14115" y="240" width="16" height="16">
   <properties>
    <property name="Channel" value="1"/>
    <property name="Color" type="color" value="#ff000000"/>
    <property name="Frames" type="int" value="18"/>
   </properties>
  </object>
  <object id="1988" gid="16388" x="14194" y="240" width="16" height="16">
   <properties>
    <property name="Channel" value="1"/>
    <property name="Color" type="color" value="#ff000000"/>
    <property name="Frames" type="int" value="18"/>
   </properties>
  </object>
  <object id="1992" gid="16388" x="14304" y="240" width="16" height="16">
   <properties>
    <property name="Channel" value="1"/>
    <property name="Color" type="color" value="#ff000000"/>
    <property name="Frames" type="int" value="18"/>
   </properties>
  </object>
  <object id="1996" gid="16388" x="14384" y="240" width="16" height="16">
   <properties>
    <property name="Channel" value="1"/>
    <property name="Color" type="color" value="#ff000000"/>
    <property name="Frames" type="int" value="18"/>
   </properties>
  </object>
  <object id="1998" gid="16388" x="14448" y="240" width="16" height="16">
   <properties>
    <property name="Channel" value="1"/>
    <property name="Color" type="color" value="#ff000000"/>
    <property name="Frames" type="int" value="18"/>
   </properties>
  </object>
  <object id="2004" gid="16388" x="14528" y="240" width="16" height="16">
   <properties>
    <property name="Channel" value="1"/>
    <property name="Color" type="color" value="#ff000000"/>
    <property name="Frames" type="int" value="18"/>
   </properties>
  </object>
  <object id="2008" gid="16388" x="14609" y="240" width="16" height="16">
   <properties>
    <property name="Channel" value="1"/>
    <property name="Color" type="color" value="#ff000000"/>
    <property name="Frames" type="int" value="18"/>
   </properties>
  </object>
  <object id="2010" gid="16388" x="14721" y="240" width="16" height="16">
   <properties>
    <property name="Channel" value="1"/>
    <property name="Color" type="color" value="#ff000000"/>
    <property name="Frames" type="int" value="18"/>
   </properties>
  </object>
  <object id="2014" gid="16388" x="14764" y="240" width="16" height="16">
   <properties>
    <property name="Channel" value="1"/>
    <property name="Color" type="color" value="#ff000000"/>
    <property name="Frames" type="int" value="18"/>
   </properties>
  </object>
  <object id="2020" gid="16388" x="14897" y="160" width="16" height="16">
   <properties>
    <property name="Channel" value="1"/>
    <property name="Color" type="color" value="#ff0e9400"/>
    <property name="Frames" type="int" value="21"/>
   </properties>
  </object>
  <object id="2032" gid="16388" x="15105" y="160" width="16" height="16">
   <properties>
    <property name="Channel" value="1"/>
    <property name="Color" type="color" value="#ff0e9400"/>
    <property name="Frames" type="int" value="21"/>
   </properties>
  </object>
  <object id="2040" gid="16388" x="15379" y="160" width="16" height="16">
   <properties>
    <property name="Channel" value="1"/>
    <property name="Color" type="color" value="#ff0e9400"/>
    <property name="Frames" type="int" value="21"/>
   </properties>
  </object>
  <object id="2048" gid="16388" x="15645" y="160" width="16" height="16">
   <properties>
    <property name="Channel" value="1"/>
    <property name="Color" type="color" value="#ff0e9400"/>
    <property name="Frames" type="int" value="21"/>
   </properties>
  </object>
  <object id="2056" gid="16388" x="15931" y="160" width="16" height="16">
   <properties>
    <property name="Channel" value="1"/>
    <property name="Color" type="color" value="#ff0e9400"/>
    <property name="Frames" type="int" value="21"/>
   </properties>
  </object>
  <object id="2064" gid="16388" x="16202" y="160" width="16" height="16">
   <properties>
    <property name="Channel" value="1"/>
    <property name="Color" type="color" value="#ff0e9400"/>
    <property name="Frames" type="int" value="21"/>
   </properties>
  </object>
  <object id="2072" gid="16388" x="16482" y="160" width="16" height="16">
   <properties>
    <property name="Channel" value="1"/>
    <property name="Color" type="color" value="#ff0e9400"/>
    <property name="Frames" type="int" value="21"/>
   </properties>
  </object>
  <object id="2080" gid="16388" x="16756" y="160" width="16" height="16">
   <properties>
    <property name="Channel" value="1"/>
    <property name="Color" type="color" value="#ff0e9400"/>
    <property name="Frames" type="int" value="21"/>
   </properties>
  </object>
  <object id="2084" gid="16388" x="17184" y="144" width="16" height="16">
   <properties>
    <property name="Channel" value="1"/>
    <property name="Color" type="color" value="#ff0e9400"/>
    <property name="Frames" type="int" value="21"/>
   </properties>
  </object>
  <object id="2092" gid="16388" x="17457" y="144" width="16" height="16">
   <properties>
    <property name="Channel" value="1"/>
    <property name="Color" type="color" value="#ff0e9400"/>
    <property name="Frames" type="int" value="21"/>
   </properties>
  </object>
  <object id="2100" gid="16388" x="17727" y="144" width="16" height="16">
   <properties>
    <property name="Channel" value="1"/>
    <property name="Color" type="color" value="#ff0e9400"/>
    <property name="Frames" type="int" value="21"/>
   </properties>
  </object>
  <object id="2170" gid="16388" x="18001" y="144" width="16" height="16">
   <properties>
    <property name="Channel" value="1"/>
    <property name="Color" type="color" value="#ff0e9400"/>
    <property name="Frames" type="int" value="21"/>
   </properties>
  </object>
  <object id="2186" gid="16388" x="18273" y="160" width="16" height="16">
   <properties>
    <property name="Channel" value="1"/>
    <property name="Color" type="color" value="#ff0e9400"/>
    <property name="Frames" type="int" value="21"/>
   </properties>
  </object>
  <object id="2202" gid="16388" x="18544" y="160" width="16" height="16">
   <properties>
    <property name="Channel" value="1"/>
    <property name="Color" type="color" value="#ff0e9400"/>
    <property name="Frames" type="int" value="21"/>
   </properties>
  </object>
  <object id="2218" gid="16388" x="18815" y="160" width="16" height="16">
   <properties>
    <property name="Channel" value="1"/>
    <property name="Color" type="color" value="#ff0e9400"/>
    <property name="Frames" type="int" value="21"/>
   </properties>
  </object>
  <object id="2240" gid="16388" x="19296" y="176" width="16" height="16">
   <properties>
    <property name="Channel" value="1"/>
    <property name="Color" type="color" value="#ff0e9400"/>
    <property name="Frames" type="int" value="21"/>
   </properties>
  </object>
  <object id="2322" gid="16388" x="19717" y="208" width="16" height="16">
   <properties>
    <property name="Channel" value="1"/>
    <property name="Color" type="color" value="#ff0e9400"/>
    <property name="Frames" type="int" value="21"/>
   </properties>
  </object>
  <object id="2330" gid="16388" x="20546" y="208" width="16" height="16">
   <properties>
    <property name="Channel" value="1"/>
    <property name="Color" type="color" value="#ff0e9400"/>
    <property name="Frames" type="int" value="21"/>
   </properties>
  </object>
  <object id="2338" gid="16388" x="21019" y="208" width="16" height="16">
   <properties>
    <property name="Channel" value="1"/>
    <property name="Color" type="color" value="#ff0e9400"/>
    <property name="Frames" type="int" value="21"/>
   </properties>
  </object>
  <object id="2346" gid="16388" x="21226" y="208" width="16" height="16">
   <properties>
    <property name="Channel" value="1"/>
    <property name="Color" type="color" value="#ff0e9400"/>
    <property name="Frames" type="int" value="21"/>
   </properties>
  </object>
  <object id="2354" gid="16388" x="21488" y="208" width="16" height="16">
   <properties>
    <property name="Channel" value="1"/>
    <property name="Color" type="color" value="#ff000000"/>
    <property name="Frames" type="int" value="21"/>
   </properties>
  </object>
  <object id="2028" gid="16388" x="14975" y="160" width="16" height="16">
   <properties>
    <property name="Channel" value="1"/>
    <property name="Color" type="color" value="#ffb00063"/>
    <property name="Frames" type="int" value="21"/>
   </properties>
  </object>
  <object id="2036" gid="16388" x="15243" y="160" width="16" height="16">
   <properties>
    <property name="Channel" value="1"/>
    <property name="Color" type="color" value="#ffb00063"/>
    <property name="Frames" type="int" value="21"/>
   </properties>
  </object>
  <object id="2044" gid="16388" x="15523" y="160" width="16" height="16">
   <properties>
    <property name="Channel" value="1"/>
    <property name="Color" type="color" value="#ffb00063"/>
    <property name="Frames" type="int" value="21"/>
   </properties>
  </object>
  <object id="2052" gid="16388" x="15798" y="160" width="16" height="16">
   <properties>
    <property name="Channel" value="1"/>
    <property name="Color" type="color" value="#ffb00063"/>
    <property name="Frames" type="int" value="21"/>
   </properties>
  </object>
  <object id="2060" gid="16388" x="16069" y="160" width="16" height="16">
   <properties>
    <property name="Channel" value="1"/>
    <property name="Color" type="color" value="#ffb00063"/>
    <property name="Frames" type="int" value="21"/>
   </properties>
  </object>
  <object id="2068" gid="16388" x="16346" y="160" width="16" height="16">
   <properties>
    <property name="Channel" value="1"/>
    <property name="Color" type="color" value="#ffb00063"/>
    <property name="Frames" type="int" value="21"/>
   </properties>
  </object>
  <object id="2088" gid="16388" x="17324" y="144" width="16" height="16">
   <properties>
    <property name="Channel" value="1"/>
    <property name="Color" type="color" value="#ffb00063"/>
    <property name="Frames" type="int" value="21"/>
   </properties>
  </object>
  <object id="2096" gid="16388" x="17594" y="144" width="16" height="16">
   <properties>
    <property name="Channel" value="1"/>
    <property name="Color" type="color" value="#ffb00063"/>
    <property name="Frames" type="int" value="21"/>
   </properties>
  </object>
  <object id="2104" gid="16388" x="17860" y="144" width="16" height="16">
   <properties>
    <property name="Channel" value="1"/>
    <property name="Color" type="color" value="#ffb00063"/>
    <property name="Frames" type="int" value="21"/>
   </properties>
  </object>
  <object id="2178" gid="16388" x="18138" y="144" width="16" height="16">
   <properties>
    <property name="Channel" value="1"/>
    <property name="Color" type="color" value="#ffb00063"/>
    <property name="Frames" type="int" value="21"/>
   </properties>
  </object>
  <object id="2194" gid="16388" x="18408" y="160" width="16" height="16">
   <properties>
    <property name="Channel" value="1"/>
    <property name="Color" type="color" value="#ffb00063"/>
    <property name="Frames" type="int" value="21"/>
   </properties>
  </object>
  <object id="2210" gid="16388" x="18675" y="160" width="16" height="16">
   <properties>
    <property name="Channel" value="1"/>
    <property name="Color" type="color" value="#ffb00063"/>
    <property name="Frames" type="int" value="21"/>
   </properties>
  </object>
  <object id="2226" gid="16388" x="18957" y="160" width="16" height="16">
   <properties>
    <property name="Channel" value="1"/>
    <property name="Color" type="color" value="#ffb00063"/>
    <property name="Frames" type="int" value="21"/>
   </properties>
  </object>
  <object id="2258" gid="16388" x="19451" y="208" width="16" height="16">
   <properties>
    <property name="Channel" value="1"/>
    <property name="Color" type="color" value="#ffb00063"/>
    <property name="Frames" type="int" value="21"/>
   </properties>
  </object>
  <object id="2326" gid="16388" x="19992" y="208" width="16" height="16">
   <properties>
    <property name="Channel" value="1"/>
    <property name="Color" type="color" value="#ffb00063"/>
    <property name="Frames" type="int" value="21"/>
   </properties>
  </object>
  <object id="2334" gid="16388" x="20824" y="208" width="16" height="16">
   <properties>
    <property name="Channel" value="1"/>
    <property name="Color" type="color" value="#ffb00063"/>
    <property name="Frames" type="int" value="21"/>
   </properties>
  </object>
  <object id="2342" gid="16388" x="21092" y="208" width="16" height="16">
   <properties>
    <property name="Channel" value="1"/>
    <property name="Color" type="color" value="#ffb00063"/>
    <property name="Frames" type="int" value="21"/>
   </properties>
  </object>
  <object id="2350" gid="16388" x="21363" y="208" width="16" height="16">
   <properties>
    <property name="Channel" value="1"/>
    <property name="Color" type="color" value="#ffb00063"/>
    <property name="Frames" type="int" value="21"/>
   </properties>
  </object>
  <object id="1192" gid="16388" x="3584" y="176" width="16" height="16">
   <properties>
    <property name="Channel" value="1"/>
    <property name="Color" type="color" value="#ff000000"/>
    <property name="Frames" type="int" value="18"/>
   </properties>
  </object>
  <object id="1196" gid="16388" x="3648" y="240" width="16" height="16">
   <properties>
    <property name="Channel" value="1"/>
    <property name="Color" type="color" value="#ff000000"/>
    <property name="Frames" type="int" value="18"/>
   </properties>
  </object>
  <object id="1200" gid="16388" x="3712" y="176" width="16" height="16">
   <properties>
    <property name="Channel" value="1"/>
    <property name="Color" type="color" value="#ff000000"/>
    <property name="Frames" type="int" value="18"/>
   </properties>
  </object>
  <object id="1204" gid="16388" x="3776" y="176" width="16" height="16">
   <properties>
    <property name="Channel" value="1"/>
    <property name="Color" type="color" value="#ff000000"/>
    <property name="Frames" type="int" value="18"/>
   </properties>
  </object>
  <object id="1208" gid="16388" x="3840" y="176" width="16" height="16">
   <properties>
    <property name="Channel" value="1"/>
    <property name="Color" type="color" value="#ff000000"/>
    <property name="Frames" type="int" value="18"/>
   </properties>
  </object>
  <object id="1212" gid="16388" x="3904" y="176" width="16" height="16">
   <properties>
    <property name="Channel" value="1"/>
    <property name="Color" type="color" value="#ff000000"/>
    <property name="Frames" type="int" value="18"/>
   </properties>
  </object>
  <object id="1216" gid="16388" x="3968" y="176" width="16" height="16">
   <properties>
    <property name="Channel" value="1"/>
    <property name="Color" type="color" value="#ff000000"/>
    <property name="Frames" type="int" value="18"/>
   </properties>
  </object>
  <object id="1220" gid="16388" x="4032" y="240" width="16" height="16">
   <properties>
    <property name="Channel" value="1"/>
    <property name="Color" type="color" value="#ff000000"/>
    <property name="Frames" type="int" value="18"/>
   </properties>
  </object>
  <object id="1264" gid="16388" x="4416" y="240" width="16" height="16">
   <properties>
    <property name="Channel" value="1"/>
    <property name="Color" type="color" value="#ff000000"/>
    <property name="Frames" type="int" value="18"/>
   </properties>
  </object>
  <object id="1288" gid="16388" x="4800" y="240" width="16" height="16">
   <properties>
    <property name="Channel" value="1"/>
    <property name="Color" type="color" value="#ff000000"/>
    <property name="Frames" type="int" value="18"/>
   </properties>
  </object>
  <object id="1312" gid="16388" x="5184" y="240" width="16" height="16">
   <properties>
    <property name="Channel" value="1"/>
    <property name="Color" type="color" value="#ff000000"/>
    <property name="Frames" type="int" value="18"/>
   </properties>
  </object>
  <object id="1224" gid="16388" x="4096" y="240" width="16" height="16">
   <properties>
    <property name="Channel" value="1"/>
    <property name="Color" type="color" value="#ff000000"/>
    <property name="Frames" type="int" value="18"/>
   </properties>
  </object>
  <object id="1262" gid="16388" x="4480" y="240" width="16" height="16">
   <properties>
    <property name="Channel" value="1"/>
    <property name="Color" type="color" value="#ff000000"/>
    <property name="Frames" type="int" value="18"/>
   </properties>
  </object>
  <object id="1286" gid="16388" x="4864" y="240" width="16" height="16">
   <properties>
    <property name="Channel" value="1"/>
    <property name="Color" type="color" value="#ff000000"/>
    <property name="Frames" type="int" value="18"/>
   </properties>
  </object>
  <object id="1310" gid="16388" x="5248" y="240" width="16" height="16">
   <properties>
    <property name="Channel" value="1"/>
    <property name="Color" type="color" value="#ff000000"/>
    <property name="Frames" type="int" value="18"/>
   </properties>
  </object>
  <object id="1228" gid="16388" x="4160" y="240" width="16" height="16">
   <properties>
    <property name="Channel" value="1"/>
    <property name="Color" type="color" value="#ff000000"/>
    <property name="Frames" type="int" value="18"/>
   </properties>
  </object>
  <object id="1260" gid="16388" x="4544" y="240" width="16" height="16">
   <properties>
    <property name="Channel" value="1"/>
    <property name="Color" type="color" value="#ff000000"/>
    <property name="Frames" type="int" value="18"/>
   </properties>
  </object>
  <object id="1316" gid="16388" x="4430" y="176" width="16" height="16">
   <properties>
    <property name="Channel" value="BG"/>
    <property name="Color" type="color" value="#ff000000"/>
    <property name="Frames" type="int" value="18"/>
   </properties>
  </object>
  <object id="1320" gid="16388" x="4570" y="176" width="16" height="16">
   <properties>
    <property name="Channel" value="BG"/>
    <property name="Color" type="color" value="#ff000000"/>
    <property name="Frames" type="int" value="18"/>
   </properties>
  </object>
  <object id="1324" gid="16388" x="4707" y="176" width="16" height="16">
   <properties>
    <property name="Channel" value="BG"/>
    <property name="Color" type="color" value="#ff000000"/>
    <property name="Frames" type="int" value="18"/>
   </properties>
  </object>
  <object id="1328" gid="16388" x="4849" y="176" width="16" height="16">
   <properties>
    <property name="Channel" value="BG"/>
    <property name="Color" type="color" value="#ff000000"/>
    <property name="Frames" type="int" value="18"/>
   </properties>
  </object>
  <object id="1332" gid="16388" x="4984" y="176" width="16" height="16">
   <properties>
    <property name="Channel" value="BG"/>
    <property name="Color" type="color" value="#ff000000"/>
    <property name="Frames" type="int" value="18"/>
   </properties>
  </object>
  <object id="1336" gid="16388" x="5118" y="176" width="16" height="16">
   <properties>
    <property name="Channel" value="BG"/>
    <property name="Color" type="color" value="#ff000000"/>
    <property name="Frames" type="int" value="18"/>
   </properties>
  </object>
  <object id="1340" gid="16388" x="5251" y="176" width="16" height="16">
   <properties>
    <property name="Channel" value="BG"/>
    <property name="Color" type="color" value="#ff000000"/>
    <property name="Frames" type="int" value="18"/>
   </properties>
  </object>
  <object id="1344" gid="16388" x="5392" y="176" width="16" height="16">
   <properties>
    <property name="Channel" value="BG"/>
    <property name="Color" type="color" value="#ff000000"/>
    <property name="Frames" type="int" value="18"/>
   </properties>
  </object>
  <object id="1420" gid="16388" x="5650" y="128" width="16" height="16">
   <properties>
    <property name="Channel" value="BG"/>
    <property name="Color" type="color" value="#ff000000"/>
    <property name="Frames" type="int" value="60"/>
   </properties>
  </object>
  <object id="1424" gid="16388" x="5916" y="128" width="16" height="16">
   <properties>
    <property name="Channel" value="BG"/>
    <property name="Color" type="color" value="#ff000000"/>
    <property name="Frames" type="int" value="60"/>
   </properties>
  </object>
  <object id="1418" gid="16388" x="5522" y="176" width="16" height="16">
   <properties>
    <property name="Channel" value="BG"/>
    <property name="Color" type="color" value="#ff290040"/>
    <property name="Frames" type="int" value="60"/>
   </properties>
  </object>
  <object id="1422" gid="16388" x="5788" y="128" width="16" height="16">
   <properties>
    <property name="Channel" value="BG"/>
    <property name="Color" type="color" value="#ff000766"/>
    <property name="Frames" type="int" value="60"/>
   </properties>
  </object>
  <object id="1426" gid="16388" x="6072" y="128" width="16" height="16">
   <properties>
    <property name="Channel" value="BG"/>
    <property name="Color" type="color" value="#ff69008f"/>
    <property name="Frames" type="int" value="18"/>
   </properties>
  </object>
  <object id="1436" gid="16388" x="6211" y="128" width="16" height="16">
   <properties>
    <property name="Channel" value="BG"/>
    <property name="Color" type="color" value="#ff000c8f"/>
    <property name="Frames" type="int" value="18"/>
   </properties>
  </object>
  <object id="1438" gid="16388" x="6347" y="128" width="16" height="16">
   <properties>
    <property name="Channel" value="BG"/>
    <property name="Color" type="color" value="#ff5b008f"/>
    <property name="Frames" type="int" value="18"/>
   </properties>
  </object>
  <object id="1452" gid="16388" x="6477" y="192" width="16" height="16">
   <properties>
    <property name="Channel" value="BG"/>
    <property name="Color" type="color" value="#ff67008f"/>
    <property name="Frames" type="int" value="18"/>
   </properties>
  </object>
  <object id="1444" gid="16388" x="6410" y="128" width="16" height="16">
   <properties>
    <property name="Channel" value="BG"/>
    <property name="Color" type="color" value="#ff00088f"/>
    <property name="Frames" type="int" value="18"/>
   </properties>
  </object>
  <object id="1449" gid="16388" x="6539" y="192" width="16" height="16">
   <properties>
    <property name="Channel" value="BG"/>
    <property name="Color" type="color" value="#ff00018f"/>
    <property name="Frames" type="int" value="18"/>
   </properties>
  </object>
  <object id="1428" gid="16388" x="6120" y="128" width="16" height="16">
   <properties>
    <property name="Channel" value="BG"/>
    <property name="Color" type="color" value="#ff000000"/>
    <property name="Frames" type="int" value="18"/>
   </properties>
  </object>
  <object id="1435" gid="16388" x="6259" y="128" width="16" height="16">
   <properties>
    <property name="Channel" value="BG"/>
    <property name="Color" type="color" value="#ff000000"/>
    <property name="Frames" type="int" value="18"/>
   </properties>
  </object>
  <object id="1440" gid="16388" x="6379" y="128" width="16" height="16">
   <properties>
    <property name="Channel" value="BG"/>
    <property name="Color" type="color" value="#ff000000"/>
    <property name="Frames" type="int" value="18"/>
   </properties>
  </object>
  <object id="1451" gid="16388" x="6509" y="192" width="16" height="16">
   <properties>
    <property name="Channel" value="BG"/>
    <property name="Color" type="color" value="#ff000000"/>
    <property name="Frames" type="int" value="18"/>
   </properties>
  </object>
  <object id="1443" gid="16388" x="6442" y="128" width="16" height="16">
   <properties>
    <property name="Channel" value="BG"/>
    <property name="Color" type="color" value="#ff000000"/>
    <property name="Frames" type="int" value="18"/>
   </properties>
  </object>
  <object id="1450" gid="16388" x="6571" y="192" width="16" height="16">
   <properties>
    <property name="Channel" value="BG"/>
    <property name="Color" type="color" value="#ff000000"/>
    <property name="Frames" type="int" value="18"/>
   </properties>
  </object>
  <object id="1567" gid="16388" x="6626" y="192" width="16" height="16">
   <properties>
    <property name="Channel" value="BG"/>
    <property name="Color" type="color" value="#ff290040"/>
    <property name="Frames" type="int" value="60"/>
   </properties>
  </object>
  <object id="1583" gid="16388" x="7315" y="192" width="16" height="16">
   <properties>
    <property name="Channel" value="BG"/>
    <property name="Color" type="color" value="#ff290040"/>
    <property name="Frames" type="int" value="60"/>
   </properties>
  </object>
  <object id="1591" gid="16388" x="7997" y="192" width="16" height="16">
   <properties>
    <property name="Channel" value="BG"/>
    <property name="Color" type="color" value="#ff290040"/>
    <property name="Frames" type="int" value="60"/>
   </properties>
  </object>
  <object id="1601" gid="16388" x="8677" y="192" width="16" height="16">
   <properties>
    <property name="Channel" value="BG"/>
    <property name="Color" type="color" value="#ff290040"/>
    <property name="Frames" type="int" value="60"/>
   </properties>
  </object>
  <object id="1611" gid="16388" x="9347" y="192" width="16" height="16">
   <properties>
    <property name="Channel" value="BG"/>
    <property name="Color" type="color" value="#ff290040"/>
    <property name="Frames" type="int" value="60"/>
   </properties>
  </object>
  <object id="1618" gid="16388" x="9788" y="192" width="16" height="16">
   <properties>
    <property name="Channel" value="BG"/>
    <property name="Color" type="color" value="#ff290040"/>
    <property name="Frames" type="int" value="60"/>
   </properties>
  </object>
  <object id="1626" gid="16388" x="10237" y="192" width="16" height="16">
   <properties>
    <property name="Channel" value="BG"/>
    <property name="Color" type="color" value="#ff290040"/>
    <property name="Frames" type="int" value="60"/>
   </properties>
  </object>
  <object id="1634" gid="16388" x="10676" y="192" width="16" height="16">
   <properties>
    <property name="Channel" value="BG"/>
    <property name="Color" type="color" value="#ff290040"/>
    <property name="Frames" type="int" value="30"/>
   </properties>
  </object>
  <object id="1642" gid="16388" x="10884" y="192" width="16" height="16">
   <properties>
    <property name="Channel" value="BG"/>
    <property name="Color" type="color" value="#ff290040"/>
    <property name="Frames" type="int" value="30"/>
   </properties>
  </object>
  <object id="1579" gid="16388" x="6975" y="192" width="16" height="16">
   <properties>
    <property name="Channel" value="BG"/>
    <property name="Color" type="color" value="#ff040040"/>
    <property name="Frames" type="int" value="60"/>
   </properties>
  </object>
  <object id="1587" gid="16388" x="7663" y="192" width="16" height="16">
   <properties>
    <property name="Channel" value="BG"/>
    <property name="Color" type="color" value="#ff040040"/>
    <property name="Frames" type="int" value="60"/>
   </properties>
  </object>
  <object id="1595" gid="16388" x="8344" y="192" width="16" height="16">
   <properties>
    <property name="Channel" value="BG"/>
    <property name="Color" type="color" value="#ff040040"/>
    <property name="Frames" type="int" value="60"/>
   </properties>
  </object>
  <object id="1605" gid="16388" x="9056" y="192" width="16" height="16">
   <properties>
    <property name="Channel" value="BG"/>
    <property name="Color" type="color" value="#ff040040"/>
    <property name="Frames" type="int" value="60"/>
   </properties>
  </object>
  <object id="1615" gid="16388" x="9568" y="192" width="16" height="16">
   <properties>
    <property name="Channel" value="BG"/>
    <property name="Color" type="color" value="#ff040040"/>
    <property name="Frames" type="int" value="60"/>
   </properties>
  </object>
  <object id="1622" gid="16388" x="10007" y="192" width="16" height="16">
   <properties>
    <property name="Channel" value="BG"/>
    <property name="Color" type="color" value="#ff040040"/>
    <property name="Frames" type="int" value="60"/>
   </properties>
  </object>
  <object id="1630" gid="16388" x="10451" y="192" width="16" height="16">
   <properties>
    <property name="Channel" value="BG"/>
    <property name="Color" type="color" value="#ff040040"/>
    <property name="Frames" type="int" value="60"/>
   </properties>
  </object>
  <object id="1638" gid="16388" x="10771" y="192" width="16" height="16">
   <properties>
    <property name="Channel" value="BG"/>
    <property name="Color" type="color" value="#ff040040"/>
    <property name="Frames" type="int" value="27"/>
   </properties>
  </object>
  <object id="1646" gid="16388" x="10995" y="192" width="16" height="16">
   <properties>
    <property name="Channel" value="BG"/>
    <property name="Color" type="color" value="#ff040040"/>
    <property name="Frames" type="int" value="27"/>
   </properties>
  </object>
  <object id="1284" gid="16388" x="4928" y="240" width="16" height="16">
   <properties>
    <property name="Channel" value="1"/>
    <property name="Color" type="color" value="#ff000000"/>
    <property name="Frames" type="int" value="18"/>
   </properties>
  </object>
  <object id="1308" gid="16388" x="5312" y="240" width="16" height="16">
   <properties>
    <property name="Channel" value="1"/>
    <property name="Color" type="color" value="#ff000000"/>
    <property name="Frames" type="int" value="18"/>
   </properties>
  </object>
  <object id="1362" gid="16388" x="5568" y="160" width="16" height="16">
   <properties>
    <property name="Channel" value="1"/>
    <property name="Color" type="color" value="#ff000000"/>
    <property name="Frames" type="int" value="18"/>
   </properties>
  </object>
  <object id="1378" gid="16388" x="5824" y="160" width="16" height="16">
   <properties>
    <property name="Channel" value="1"/>
    <property name="Color" type="color" value="#ff000000"/>
    <property name="Frames" type="int" value="18"/>
   </properties>
  </object>
  <object id="1394" gid="16388" x="6080" y="160" width="16" height="16">
   <properties>
    <property name="Channel" value="1"/>
    <property name="Color" type="color" value="#ff000000"/>
    <property name="Frames" type="int" value="18"/>
   </properties>
  </object>
  <object id="1405" gid="16388" x="6400" y="160" width="16" height="16">
   <properties>
    <property name="Channel" value="1"/>
    <property name="Color" type="color" value="#ff000000"/>
    <property name="Frames" type="int" value="18"/>
   </properties>
  </object>
  <object id="1232" gid="16388" x="4224" y="240" width="16" height="16">
   <properties>
    <property name="Channel" value="1"/>
    <property name="Color" type="color" value="#ff000000"/>
    <property name="Frames" type="int" value="18"/>
   </properties>
  </object>
  <object id="1258" gid="16388" x="4608" y="240" width="16" height="16">
   <properties>
    <property name="Channel" value="1"/>
    <property name="Color" type="color" value="#ff000000"/>
    <property name="Frames" type="int" value="18"/>
   </properties>
  </object>
  <object id="1282" gid="16388" x="4992" y="240" width="16" height="16">
   <properties>
    <property name="Channel" value="1"/>
    <property name="Color" type="color" value="#ff000000"/>
    <property name="Frames" type="int" value="18"/>
   </properties>
  </object>
  <object id="1306" gid="16388" x="5376" y="240" width="16" height="16">
   <properties>
    <property name="Channel" value="1"/>
    <property name="Color" type="color" value="#ff000000"/>
    <property name="Frames" type="int" value="18"/>
   </properties>
  </object>
  <object id="1361" gid="16388" x="5632" y="160" width="16" height="16">
   <properties>
    <property name="Channel" value="1"/>
    <property name="Color" type="color" value="#ff000000"/>
    <property name="Frames" type="int" value="18"/>
   </properties>
  </object>
  <object id="1377" gid="16388" x="5888" y="160" width="16" height="16">
   <properties>
    <property name="Channel" value="1"/>
    <property name="Color" type="color" value="#ff000000"/>
    <property name="Frames" type="int" value="18"/>
   </properties>
  </object>
  <object id="1393" gid="16388" x="6144" y="160" width="16" height="16">
   <properties>
    <property name="Channel" value="1"/>
    <property name="Color" type="color" value="#ff000000"/>
    <property name="Frames" type="int" value="18"/>
   </properties>
  </object>
  <object id="1406" gid="16388" x="6464" y="160" width="16" height="16">
   <properties>
    <property name="Channel" value="1"/>
    <property name="Color" type="color" value="#ff000000"/>
    <property name="Frames" type="int" value="18"/>
   </properties>
  </object>
  <object id="1236" gid="16388" x="4288" y="240" width="16" height="16">
   <properties>
    <property name="Channel" value="1"/>
    <property name="Color" type="color" value="#ff000000"/>
    <property name="Frames" type="int" value="18"/>
   </properties>
  </object>
  <object id="1256" gid="16388" x="4672" y="240" width="16" height="16">
   <properties>
    <property name="Channel" value="1"/>
    <property name="Color" type="color" value="#ff000000"/>
    <property name="Frames" type="int" value="18"/>
   </properties>
  </object>
  <object id="1280" gid="16388" x="5056" y="240" width="16" height="16">
   <properties>
    <property name="Channel" value="1"/>
    <property name="Color" type="color" value="#ff000000"/>
    <property name="Frames" type="int" value="18"/>
   </properties>
  </object>
  <object id="1304" gid="16388" x="5440" y="240" width="16" height="16">
   <properties>
    <property name="Channel" value="1"/>
    <property name="Color" type="color" value="#ff000000"/>
    <property name="Frames" type="int" value="18"/>
   </properties>
  </object>
  <object id="1360" gid="16388" x="5696" y="160" width="16" height="16">
   <properties>
    <property name="Channel" value="1"/>
    <property name="Color" type="color" value="#ff000000"/>
    <property name="Frames" type="int" value="18"/>
   </properties>
  </object>
  <object id="1376" gid="16388" x="5952" y="160" width="16" height="16">
   <properties>
    <property name="Channel" value="1"/>
    <property name="Color" type="color" value="#ff000000"/>
    <property name="Frames" type="int" value="18"/>
   </properties>
  </object>
  <object id="1392" gid="16388" x="6208" y="160" width="16" height="16">
   <properties>
    <property name="Channel" value="1"/>
    <property name="Color" type="color" value="#ff000000"/>
    <property name="Frames" type="int" value="18"/>
   </properties>
  </object>
  <object id="1407" gid="16388" x="6528" y="240" width="16" height="16">
   <properties>
    <property name="Channel" value="1"/>
    <property name="Color" type="color" value="#ff000000"/>
    <property name="Frames" type="int" value="18"/>
   </properties>
  </object>
  <object id="1240" gid="16388" x="4352" y="240" width="16" height="16">
   <properties>
    <property name="Channel" value="1"/>
    <property name="Color" type="color" value="#ff000000"/>
    <property name="Frames" type="int" value="18"/>
   </properties>
  </object>
  <object id="1254" gid="16388" x="4736" y="240" width="16" height="16">
   <properties>
    <property name="Channel" value="1"/>
    <property name="Color" type="color" value="#ff000000"/>
    <property name="Frames" type="int" value="18"/>
   </properties>
  </object>
  <object id="1278" gid="16388" x="5120" y="240" width="16" height="16">
   <properties>
    <property name="Channel" value="1"/>
    <property name="Color" type="color" value="#ff000000"/>
    <property name="Frames" type="int" value="18"/>
   </properties>
  </object>
  <object id="1302" gid="16388" x="5504" y="240" width="16" height="16">
   <properties>
    <property name="Channel" value="1"/>
    <property name="Color" type="color" value="#ff000000"/>
    <property name="Frames" type="int" value="18"/>
   </properties>
  </object>
  <object id="1359" gid="16388" x="5760" y="160" width="16" height="16">
   <properties>
    <property name="Channel" value="1"/>
    <property name="Color" type="color" value="#ff000000"/>
    <property name="Frames" type="int" value="18"/>
   </properties>
  </object>
  <object id="1375" gid="16388" x="6016" y="160" width="16" height="16">
   <properties>
    <property name="Channel" value="1"/>
    <property name="Color" type="color" value="#ff000000"/>
    <property name="Frames" type="int" value="18"/>
   </properties>
  </object>
  <object id="1413" gid="16388" x="6336" y="160" width="16" height="16">
   <properties>
    <property name="Channel" value="1"/>
    <property name="Color" type="color" value="#ff000000"/>
    <property name="Frames" type="int" value="18"/>
   </properties>
  </object>
  <object id="1391" gid="16388" x="6272" y="160" width="16" height="16">
   <properties>
    <property name="Channel" value="1"/>
    <property name="Color" type="color" value="#ff000000"/>
    <property name="Frames" type="int" value="18"/>
   </properties>
  </object>
  <object id="1160" gid="16388" x="3072" y="240" width="16" height="16">
   <properties>
    <property name="Channel" value="1"/>
    <property name="Color" type="color" value="#ff000000"/>
    <property name="Frames" type="int" value="18"/>
   </properties>
  </object>
  <object id="1128" gid="16388" x="2624" y="224" width="16" height="16">
   <properties>
    <property name="Channel" value="1"/>
    <property name="Color" type="color" value="#ff000000"/>
    <property name="Frames" type="int" value="18"/>
   </properties>
  </object>
  <object id="1132" gid="16388" x="2688" y="224" width="16" height="16">
   <properties>
    <property name="Channel" value="1"/>
    <property name="Color" type="color" value="#ff000000"/>
    <property name="Frames" type="int" value="18"/>
   </properties>
  </object>
  <object id="1136" gid="16388" x="2752" y="224" width="16" height="16">
   <properties>
    <property name="Channel" value="1"/>
    <property name="Color" type="color" value="#ff000000"/>
    <property name="Frames" type="int" value="18"/>
   </properties>
  </object>
  <object id="1140" gid="16388" x="2816" y="224" width="16" height="16">
   <properties>
    <property name="Channel" value="1"/>
    <property name="Color" type="color" value="#ff000000"/>
    <property name="Frames" type="int" value="18"/>
   </properties>
  </object>
  <object id="1091" gid="16388" x="2096" y="400" width="16" height="16">
   <properties>
    <property name="Channel" value="1"/>
    <property name="Color" type="color" value="#ff000000"/>
    <property name="Frames" type="int" value="18"/>
   </properties>
  </object>
  <object id="1085" gid="16388" x="1890" y="368" width="16" height="16">
   <properties>
    <property name="Channel" value="1"/>
    <property name="Color" type="color" value="#ff000000"/>
    <property name="Frames" type="int" value="18"/>
   </properties>
  </object>
  <object id="744" gid="16388" x="416" y="256" width="16" height="16">
   <properties>
    <property name="Channel" value="1"/>
    <property name="Color" type="color" value="#ff000000"/>
    <property name="Frames" type="int" value="18"/>
   </properties>
  </object>
  <object id="725" gid="16388" x="238" y="320" width="16" height="16">
   <properties>
    <property name="Channel" value="1"/>
    <property name="Color" type="color" value="#ffab0000"/>
   </properties>
  </object>
  <object id="750" gid="16388" x="494" y="352" width="16" height="16">
   <properties>
    <property name="Channel" value="1"/>
    <property name="Color" type="color" value="#ffab0000"/>
   </properties>
  </object>
  <object id="738" gid="16388" x="304" y="320" width="16" height="16">
   <properties>
    <property name="Channel" value="1"/>
    <property name="Color" type="color" value="#ffab0000"/>
   </properties>
  </object>
  <object id="749" gid="16388" x="560" y="352" width="16" height="16">
   <properties>
    <property name="Channel" value="1"/>
    <property name="Color" type="color" value="#ffab0000"/>
   </properties>
  </object>
  <object id="755" gid="16388" x="704" y="352" width="16" height="16">
   <properties>
    <property name="Channel" value="1"/>
    <property name="Color" type="color" value="#ffab0000"/>
   </properties>
  </object>
  <object id="759" gid="16388" x="854" y="352" width="16" height="16">
   <properties>
    <property name="Channel" value="1"/>
    <property name="Color" type="color" value="#ffab0000"/>
   </properties>
  </object>
  <object id="765" gid="16388" x="980" y="160" width="16" height="16">
   <properties>
    <property name="Channel" value="1"/>
    <property name="Color" type="color" value="#ffab0000"/>
   </properties>
  </object>
  <object id="991" gid="16388" x="1142" y="336" width="16" height="16">
   <properties>
    <property name="Channel" value="1"/>
    <property name="Color" type="color" value="#ffab0000"/>
   </properties>
  </object>
  <object id="996" gid="16388" x="1253" y="352" width="16" height="16">
   <properties>
    <property name="Channel" value="1"/>
    <property name="Color" type="color" value="#ffab0000"/>
   </properties>
  </object>
  <object id="1000" gid="16388" x="1358" y="368" width="16" height="16">
   <properties>
    <property name="Channel" value="1"/>
    <property name="Color" type="color" value="#ffab0000"/>
   </properties>
  </object>
  <object id="1069" gid="16388" x="1486" y="320" width="16" height="16">
   <properties>
    <property name="Channel" value="1"/>
    <property name="Color" type="color" value="#ffab0000"/>
   </properties>
  </object>
  <object id="1074" gid="16388" x="1599" y="336" width="16" height="16">
   <properties>
    <property name="Channel" value="1"/>
    <property name="Color" type="color" value="#ffab0000"/>
   </properties>
  </object>
  <object id="1078" gid="16388" x="1668" y="368" width="16" height="16">
   <properties>
    <property name="Channel" value="1"/>
    <property name="Color" type="color" value="#ffab0000"/>
   </properties>
  </object>
  <object id="1082" gid="16388" x="1761" y="352" width="16" height="16">
   <properties>
    <property name="Channel" value="1"/>
    <property name="Color" type="color" value="#ffab0000"/>
   </properties>
  </object>
  <object id="1088" gid="16388" x="2017" y="384" width="16" height="16">
   <properties>
    <property name="Channel" value="1"/>
    <property name="Color" type="color" value="#ffab0000"/>
   </properties>
  </object>
  <object id="1098" gid="16388" x="2224" y="224" width="16" height="16">
   <properties>
    <property name="Channel" value="1"/>
    <property name="Color" type="color" value="#ffab0000"/>
   </properties>
  </object>
  <object id="1105" gid="16388" x="2288" y="224" width="16" height="16">
   <properties>
    <property name="Channel" value="1"/>
    <property name="Color" type="color" value="#ffab0000"/>
   </properties>
  </object>
  <object id="1113" gid="16388" x="2352" y="224" width="16" height="16">
   <properties>
    <property name="Channel" value="1"/>
    <property name="Color" type="color" value="#ffab0000"/>
   </properties>
  </object>
  <object id="1117" gid="16388" x="2416" y="224" width="16" height="16">
   <properties>
    <property name="Channel" value="1"/>
    <property name="Color" type="color" value="#ffab0000"/>
   </properties>
  </object>
  <object id="1121" gid="16388" x="2480" y="176" width="16" height="16">
   <properties>
    <property name="Channel" value="1"/>
    <property name="Color" type="color" value="#ffab0000"/>
   </properties>
  </object>
  <object id="1125" gid="16388" x="2544" y="224" width="16" height="16">
   <properties>
    <property name="Channel" value="1"/>
    <property name="Color" type="color" value="#ffab0000"/>
   </properties>
  </object>
  <object id="1145" gid="16388" x="2864" y="176" width="16" height="16">
   <properties>
    <property name="Channel" value="1"/>
    <property name="Color" type="color" value="#ffab0000"/>
   </properties>
  </object>
  <object id="1153" gid="16388" x="2928" y="176" width="16" height="16">
   <properties>
    <property name="Channel" value="1"/>
    <property name="Color" type="color" value="#ffab0000"/>
   </properties>
  </object>
  <object id="1157" gid="16388" x="2992" y="176" width="16" height="16">
   <properties>
    <property name="Channel" value="1"/>
    <property name="Color" type="color" value="#ffab0000"/>
   </properties>
  </object>
  <object id="1165" gid="16388" x="3120" y="240" width="16" height="16">
   <properties>
    <property name="Channel" value="1"/>
    <property name="Color" type="color" value="#ffab0000"/>
   </properties>
  </object>
  <object id="1169" gid="16388" x="3184" y="240" width="16" height="16">
   <properties>
    <property name="Channel" value="1"/>
    <property name="Color" type="color" value="#ffab0000"/>
   </properties>
  </object>
  <object id="1173" gid="16388" x="3248" y="240" width="16" height="16">
   <properties>
    <property name="Channel" value="1"/>
    <property name="Color" type="color" value="#ffab0000"/>
   </properties>
  </object>
  <object id="1177" gid="16388" x="3312" y="112" width="16" height="16">
   <properties>
    <property name="Channel" value="1"/>
    <property name="Color" type="color" value="#ffab0000"/>
   </properties>
  </object>
  <object id="1181" gid="16388" x="3376" y="112" width="16" height="16">
   <properties>
    <property name="Channel" value="1"/>
    <property name="Color" type="color" value="#ffab0000"/>
   </properties>
  </object>
  <object id="1185" gid="16388" x="3440" y="240" width="16" height="16">
   <properties>
    <property name="Channel" value="1"/>
    <property name="Color" type="color" value="#ffab0000"/>
   </properties>
  </object>
  <object id="1189" gid="16388" x="3504" y="176" width="16" height="16">
   <properties>
    <property name="Channel" value="1"/>
    <property name="Color" type="color" value="#ffab0000"/>
   </properties>
  </object>
  <object id="1982" gid="16388" x="14016" y="240" width="16" height="16">
   <properties>
    <property name="Channel" value="1"/>
    <property name="Color" type="color" value="#ffab0000"/>
   </properties>
  </object>
  <object id="2359" gid="16388" x="21536" y="240" width="16" height="16">
   <properties>
    <property name="Channel" value="1"/>
    <property name="Color" type="color" value="#ffa60000"/>
   </properties>
  </object>
  <object id="2371" gid="16388" x="21757" y="240" width="16" height="16">
   <properties>
    <property name="Channel" value="1"/>
    <property name="Color" type="color" value="#ffa60000"/>
   </properties>
  </object>
  <object id="2373" gid="16388" x="21811" y="240" width="16" height="16">
   <properties>
    <property name="Channel" value="1"/>
    <property name="Color" type="color" value="#ffa60000"/>
   </properties>
  </object>
  <object id="2379" gid="16388" x="21892" y="240" width="16" height="16">
   <properties>
    <property name="Channel" value="1"/>
    <property name="Color" type="color" value="#ffa60000"/>
   </properties>
  </object>
  <object id="2383" gid="16388" x="22006" y="240" width="16" height="16">
   <properties>
    <property name="Channel" value="1"/>
    <property name="Color" type="color" value="#ffa60000"/>
   </properties>
  </object>
  <object id="2389" gid="16388" x="22088" y="240" width="16" height="16">
   <properties>
    <property name="Channel" value="1"/>
    <property name="Color" type="color" value="#ffa60000"/>
   </properties>
  </object>
  <object id="2393" gid="16388" x="22203" y="240" width="16" height="16">
   <properties>
    <property name="Channel" value="1"/>
    <property name="Color" type="color" value="#ffa60000"/>
   </properties>
  </object>
  <object id="2395" gid="16388" x="22261" y="240" width="16" height="16">
   <properties>
    <property name="Channel" value="1"/>
    <property name="Color" type="color" value="#ffa60000"/>
   </properties>
  </object>
  <object id="2399" gid="16388" x="22384" y="240" width="16" height="16">
   <properties>
    <property name="Channel" value="1"/>
    <property name="Color" type="color" value="#ffa60000"/>
   </properties>
  </object>
  <object id="2403" gid="16388" x="22484" y="240" width="16" height="16">
   <properties>
    <property name="Channel" value="1"/>
    <property name="Color" type="color" value="#ffa60000"/>
   </properties>
  </object>
  <object id="2743" gid="16388" x="28840" y="240" width="16" height="16">
   <properties>
    <property name="Channel" value="1"/>
    <property name="Color" type="color" value="#ffab0000"/>
   </properties>
  </object>
  <object id="2749" gid="16388" x="28939" y="240" width="16" height="16">
   <properties>
    <property name="Channel" value="1"/>
    <property name="Color" type="color" value="#ffab0000"/>
   </properties>
  </object>
  <object id="2753" gid="16388" x="29013" y="240" width="16" height="16">
   <properties>
    <property name="Channel" value="1"/>
    <property name="Color" type="color" value="#ffab0000"/>
   </properties>
  </object>
  <object id="2757" gid="16388" x="29120" y="240" width="16" height="16">
   <properties>
    <property name="Channel" value="1"/>
    <property name="Color" type="color" value="#ffab0000"/>
   </properties>
  </object>
  <object id="2761" gid="16388" x="29214" y="240" width="16" height="16">
   <properties>
    <property name="Channel" value="1"/>
    <property name="Color" type="color" value="#ffab0000"/>
   </properties>
  </object>
  <object id="2765" gid="16388" x="29280" y="240" width="16" height="16">
   <properties>
    <property name="Channel" value="1"/>
    <property name="Color" type="color" value="#ffab0000"/>
   </properties>
  </object>
  <object id="2769" gid="16388" x="29424" y="240" width="16" height="16">
   <properties>
    <property name="Channel" value="1"/>
    <property name="Color" type="color" value="#ffab0000"/>
   </properties>
  </object>
  <object id="2773" gid="16388" x="29574" y="240" width="16" height="16">
   <properties>
    <property name="Channel" value="1"/>
    <property name="Color" type="color" value="#ffab0000"/>
   </properties>
  </object>
  <object id="2777" gid="16388" x="29700" y="240" width="16" height="16">
   <properties>
    <property name="Channel" value="1"/>
    <property name="Color" type="color" value="#ffab0000"/>
   </properties>
  </object>
  <object id="2783" gid="16388" x="29867" y="240" width="16" height="16">
   <properties>
    <property name="Channel" value="1"/>
    <property name="Color" type="color" value="#ffab0000"/>
   </properties>
  </object>
  <object id="2787" gid="16388" x="29974" y="240" width="16" height="16">
   <properties>
    <property name="Channel" value="1"/>
    <property name="Color" type="color" value="#ffab0000"/>
   </properties>
  </object>
  <object id="2791" gid="16388" x="30078" y="240" width="16" height="16">
   <properties>
    <property name="Channel" value="1"/>
    <property name="Color" type="color" value="#ffab0000"/>
   </properties>
  </object>
  <object id="2795" gid="16388" x="30206" y="240" width="16" height="16">
   <properties>
    <property name="Channel" value="1"/>
    <property name="Color" type="color" value="#ffab0000"/>
   </properties>
  </object>
  <object id="2799" gid="16388" x="30319" y="240" width="16" height="16">
   <properties>
    <property name="Channel" value="1"/>
    <property name="Color" type="color" value="#ffab0000"/>
   </properties>
  </object>
  <object id="2805" gid="16388" x="30388" y="240" width="16" height="16">
   <properties>
    <property name="Channel" value="1"/>
    <property name="Color" type="color" value="#ffab0000"/>
   </properties>
  </object>
  <object id="2809" gid="16388" x="30481" y="240" width="16" height="16">
   <properties>
    <property name="Channel" value="1"/>
    <property name="Color" type="color" value="#ffab0000"/>
   </properties>
  </object>
  <object id="2813" gid="16388" x="30593" y="240" width="16" height="16">
   <properties>
    <property name="Channel" value="1"/>
    <property name="Color" type="color" value="#ffab0000"/>
   </properties>
  </object>
  <object id="2817" gid="16388" x="30737" y="240" width="16" height="16">
   <properties>
    <property name="Channel" value="1"/>
    <property name="Color" type="color" value="#ffab0000"/>
   </properties>
  </object>
  <object id="2818" gid="16388" x="30800" y="240" width="16" height="16">
   <properties>
    <property name="Channel" value="1"/>
    <property name="Color" type="color" value="#ffab0000"/>
   </properties>
  </object>
  <object id="2407" gid="16388" x="22556" y="240" width="16" height="16">
   <properties>
    <property name="Channel" value="1"/>
    <property name="Color" type="color" value="#ffa60000"/>
   </properties>
  </object>
  <object id="2411" gid="16388" x="22672" y="240" width="16" height="16">
   <properties>
    <property name="Channel" value="1"/>
    <property name="Color" type="color" value="#ffa60000"/>
   </properties>
  </object>
  <object id="2415" gid="16388" x="22748" y="240" width="16" height="16">
   <properties>
    <property name="Channel" value="1"/>
    <property name="Color" type="color" value="#ffa60000"/>
   </properties>
  </object>
  <object id="2419" gid="16388" x="22801" y="240" width="16" height="16">
   <properties>
    <property name="Channel" value="1"/>
    <property name="Color" type="color" value="#ffa60000"/>
   </properties>
  </object>
  <object id="2423" gid="16388" x="22884" y="240" width="16" height="16">
   <properties>
    <property name="Channel" value="1"/>
    <property name="Color" type="color" value="#ffa60000"/>
   </properties>
  </object>
  <object id="2427" gid="16388" x="22968" y="240" width="16" height="16">
   <properties>
    <property name="Channel" value="1"/>
    <property name="Color" type="color" value="#ffa60000"/>
   </properties>
  </object>
  <object id="2431" gid="16388" x="23083" y="240" width="16" height="16">
   <properties>
    <property name="Channel" value="1"/>
    <property name="Color" type="color" value="#ffa60000"/>
   </properties>
  </object>
  <object id="2433" gid="16388" x="23136" y="80" width="16" height="16">
   <properties>
    <property name="Channel" value="1"/>
    <property name="Color" type="color" value="#ffa60000"/>
   </properties>
  </object>
  <object id="2459" gid="16388" x="23382" y="176" width="16" height="16">
   <properties>
    <property name="Channel" value="1"/>
    <property name="Color" type="color" value="#ff0aec00"/>
   </properties>
  </object>
  <object id="2479" gid="16388" x="23709" y="176" width="16" height="16">
   <properties>
    <property name="Channel" value="1"/>
    <property name="Color" type="color" value="#ff0aec00"/>
   </properties>
  </object>
  <object id="2503" gid="16388" x="24050" y="176" width="16" height="16">
   <properties>
    <property name="Channel" value="1"/>
    <property name="Color" type="color" value="#ff0aec00"/>
   </properties>
  </object>
  <object id="2519" gid="16388" x="24395" y="176" width="16" height="16">
   <properties>
    <property name="Channel" value="1"/>
    <property name="Color" type="color" value="#ff0aec00"/>
   </properties>
  </object>
  <object id="2535" gid="16388" x="24560" y="160" width="16" height="16">
   <properties>
    <property name="Channel" value="1"/>
    <property name="Color" type="color" value="#ff0aec00"/>
   </properties>
  </object>
  <object id="2551" gid="16388" x="24904" y="160" width="16" height="16">
   <properties>
    <property name="Channel" value="1"/>
    <property name="Color" type="color" value="#ff0aec00"/>
   </properties>
  </object>
  <object id="2567" gid="16388" x="25236" y="176" width="16" height="16">
   <properties>
    <property name="Channel" value="1"/>
    <property name="Color" type="color" value="#ff0aec00"/>
   </properties>
  </object>
  <object id="2583" gid="16388" x="25587" y="176" width="16" height="16">
   <properties>
    <property name="Channel" value="1"/>
    <property name="Color" type="color" value="#ff0aec00"/>
   </properties>
  </object>
  <object id="2599" gid="16388" x="25837" y="176" width="16" height="16">
   <properties>
    <property name="Channel" value="1"/>
    <property name="Color" type="color" value="#ff0aec00"/>
   </properties>
  </object>
  <object id="2615" gid="16388" x="26104" y="176" width="16" height="16">
   <properties>
    <property name="Channel" value="1"/>
    <property name="Color" type="color" value="#ff0aec00"/>
   </properties>
  </object>
  <object id="2631" gid="16388" x="26438" y="176" width="16" height="16">
   <properties>
    <property name="Channel" value="1"/>
    <property name="Color" type="color" value="#ff0aec00"/>
   </properties>
  </object>
  <object id="2647" gid="16388" x="26786" y="176" width="16" height="16">
   <properties>
    <property name="Channel" value="1"/>
    <property name="Color" type="color" value="#ff0aec00"/>
   </properties>
  </object>
  <object id="2663" gid="16388" x="27120" y="176" width="16" height="16">
   <properties>
    <property name="Channel" value="1"/>
    <property name="Color" type="color" value="#ff0aec00"/>
   </properties>
  </object>
  <object id="2679" gid="16388" x="27467" y="176" width="16" height="16">
   <properties>
    <property name="Channel" value="1"/>
    <property name="Color" type="color" value="#ff0aec00"/>
   </properties>
  </object>
  <object id="2695" gid="16388" x="27802" y="176" width="16" height="16">
   <properties>
    <property name="Channel" value="1"/>
    <property name="Color" type="color" value="#ff0aec00"/>
   </properties>
  </object>
  <object id="2711" gid="16388" x="28149" y="176" width="16" height="16">
   <properties>
    <property name="Channel" value="1"/>
    <property name="Color" type="color" value="#ff0aec00"/>
   </properties>
  </object>
  <object id="2727" gid="16388" x="28488" y="176" width="16" height="16">
   <properties>
    <property name="Channel" value="1"/>
    <property name="Color" type="color" value="#ff0aec00"/>
   </properties>
  </object>
  <object id="2471" gid="16388" x="23540" y="176" width="16" height="16">
   <properties>
    <property name="Channel" value="1"/>
    <property name="Color" type="color" value="#ffec0077"/>
   </properties>
  </object>
  <object id="2495" gid="16388" x="23878" y="176" width="16" height="16">
   <properties>
    <property name="Channel" value="1"/>
    <property name="Color" type="color" value="#ffec0077"/>
   </properties>
  </object>
  <object id="2511" gid="16388" x="24216" y="176" width="16" height="16">
   <properties>
    <property name="Channel" value="1"/>
    <property name="Color" type="color" value="#ffec0077"/>
   </properties>
  </object>
  <object id="2527" gid="16388" x="24478" y="176" width="16" height="16">
   <properties>
    <property name="Channel" value="1"/>
    <property name="Color" type="color" value="#ffec0077"/>
   </properties>
  </object>
  <object id="2543" gid="16388" x="24732" y="160" width="16" height="16">
   <properties>
    <property name="Channel" value="1"/>
    <property name="Color" type="color" value="#ffec0077"/>
   </properties>
  </object>
  <object id="2559" gid="16388" x="25073" y="176" width="16" height="16">
   <properties>
    <property name="Channel" value="1"/>
    <property name="Color" type="color" value="#ffec0077"/>
   </properties>
  </object>
  <object id="2575" gid="16388" x="25413" y="176" width="16" height="16">
   <properties>
    <property name="Channel" value="1"/>
    <property name="Color" type="color" value="#ffec0077"/>
   </properties>
  </object>
  <object id="2591" gid="16388" x="25759" y="176" width="16" height="16">
   <properties>
    <property name="Channel" value="1"/>
    <property name="Color" type="color" value="#ffec0077"/>
   </properties>
  </object>
  <object id="2607" gid="16388" x="25923" y="176" width="16" height="16">
   <properties>
    <property name="Channel" value="1"/>
    <property name="Color" type="color" value="#ffec0077"/>
   </properties>
  </object>
  <object id="2623" gid="16388" x="26269" y="176" width="16" height="16">
   <properties>
    <property name="Channel" value="1"/>
    <property name="Color" type="color" value="#ffec0077"/>
   </properties>
  </object>
  <object id="2639" gid="16388" x="26600" y="176" width="16" height="16">
   <properties>
    <property name="Channel" value="1"/>
    <property name="Color" type="color" value="#ffec0077"/>
   </properties>
  </object>
  <object id="2655" gid="16388" x="26946" y="176" width="16" height="16">
   <properties>
    <property name="Channel" value="1"/>
    <property name="Color" type="color" value="#ffec0077"/>
   </properties>
  </object>
  <object id="2671" gid="16388" x="27292" y="176" width="16" height="16">
   <properties>
    <property name="Channel" value="1"/>
    <property name="Color" type="color" value="#ffec0077"/>
   </properties>
  </object>
  <object id="2687" gid="16388" x="27632" y="176" width="16" height="16">
   <properties>
    <property name="Channel" value="1"/>
    <property name="Color" type="color" value="#ffec0077"/>
   </properties>
  </object>
  <object id="2703" gid="16388" x="27974" y="176" width="16" height="16">
   <properties>
    <property name="Channel" value="1"/>
    <property name="Color" type="color" value="#ffec0077"/>
   </properties>
  </object>
  <object id="2719" gid="16388" x="28318" y="176" width="16" height="16">
   <properties>
    <property name="Channel" value="1"/>
    <property name="Color" type="color" value="#ffec0077"/>
   </properties>
  </object>
  <object id="2735" gid="16388" x="28674" y="176" width="16" height="16">
   <properties>
    <property name="Channel" value="1"/>
    <property name="Color" type="color" value="#ffec0077"/>
   </properties>
  </object>
  <object id="2443" gid="16388" x="23184" y="80" width="16" height="16">
   <properties>
    <property name="Channel" value="1"/>
    <property name="Color" type="color" value="#ffa60000"/>
   </properties>
  </object>
  <object id="2451" gid="16388" x="23216" y="80" width="16" height="16">
   <properties>
    <property name="Channel" value="1"/>
    <property name="Color" type="color" value="#ffa60000"/>
   </properties>
  </object>
  <object id="2455" gid="16388" x="23248" y="80" width="16" height="16">
   <properties>
    <property name="Channel" value="1"/>
    <property name="Color" type="color" value="#ffa60000"/>
   </properties>
  </object>
  <object id="2361" gid="16388" x="21602" y="240" width="16" height="16">
   <properties>
    <property name="Channel" value="1"/>
    <property name="Color" type="color" value="#ffa60000"/>
   </properties>
  </object>
  <object id="2367" gid="16388" x="21678" y="240" width="16" height="16">
   <properties>
    <property name="Channel" value="1"/>
    <property name="Color" type="color" value="#ffa60000"/>
   </properties>
  </object>
  <object id="1985" gid="16388" x="14099" y="240" width="16" height="16">
   <properties>
    <property name="Channel" value="1"/>
    <property name="Color" type="color" value="#ffab0000"/>
   </properties>
  </object>
  <object id="1989" gid="16388" x="14178" y="240" width="16" height="16">
   <properties>
    <property name="Channel" value="1"/>
    <property name="Color" type="color" value="#ffab0000"/>
   </properties>
  </object>
  <object id="1993" gid="16388" x="14288" y="240" width="16" height="16">
   <properties>
    <property name="Channel" value="1"/>
    <property name="Color" type="color" value="#ffab0000"/>
   </properties>
  </object>
  <object id="1997" gid="16388" x="14368" y="240" width="16" height="16">
   <properties>
    <property name="Channel" value="1"/>
    <property name="Color" type="color" value="#ffab0000"/>
   </properties>
  </object>
  <object id="1999" gid="16388" x="14432" y="240" width="16" height="16">
   <properties>
    <property name="Channel" value="1"/>
    <property name="Color" type="color" value="#ffab0000"/>
   </properties>
  </object>
  <object id="2005" gid="16388" x="14512" y="240" width="16" height="16">
   <properties>
    <property name="Channel" value="1"/>
    <property name="Color" type="color" value="#ffab0000"/>
   </properties>
  </object>
  <object id="2009" gid="16388" x="14593" y="240" width="16" height="16">
   <properties>
    <property name="Channel" value="1"/>
    <property name="Color" type="color" value="#ffab0000"/>
   </properties>
  </object>
  <object id="2011" gid="16388" x="14705" y="240" width="16" height="16">
   <properties>
    <property name="Channel" value="1"/>
    <property name="Color" type="color" value="#ffab0000"/>
   </properties>
  </object>
  <object id="2015" gid="16388" x="14748" y="240" width="16" height="16">
   <properties>
    <property name="Channel" value="1"/>
    <property name="Color" type="color" value="#ffab0000"/>
   </properties>
  </object>
  <object id="2021" gid="16388" x="14881" y="160" width="16" height="16">
   <properties>
    <property name="Channel" value="1"/>
    <property name="Color" type="color" value="#ff0aec00"/>
   </properties>
  </object>
  <object id="2033" gid="16388" x="15089" y="160" width="16" height="16">
   <properties>
    <property name="Channel" value="1"/>
    <property name="Color" type="color" value="#ff0aec00"/>
   </properties>
  </object>
  <object id="2041" gid="16388" x="15363" y="160" width="16" height="16">
   <properties>
    <property name="Channel" value="1"/>
    <property name="Color" type="color" value="#ff0aec00"/>
   </properties>
  </object>
  <object id="2049" gid="16388" x="15629" y="160" width="16" height="16">
   <properties>
    <property name="Channel" value="1"/>
    <property name="Color" type="color" value="#ff0aec00"/>
   </properties>
  </object>
  <object id="2057" gid="16388" x="15915" y="160" width="16" height="16">
   <properties>
    <property name="Channel" value="1"/>
    <property name="Color" type="color" value="#ff0aec00"/>
   </properties>
  </object>
  <object id="2065" gid="16388" x="16186" y="160" width="16" height="16">
   <properties>
    <property name="Channel" value="1"/>
    <property name="Color" type="color" value="#ff0aec00"/>
   </properties>
  </object>
  <object id="2073" gid="16388" x="16466" y="160" width="16" height="16">
   <properties>
    <property name="Channel" value="1"/>
    <property name="Color" type="color" value="#ff0aec00"/>
   </properties>
  </object>
  <object id="2081" gid="16388" x="16740" y="160" width="16" height="16">
   <properties>
    <property name="Channel" value="1"/>
    <property name="Color" type="color" value="#ff0aec00"/>
   </properties>
  </object>
  <object id="2085" gid="16388" x="17168" y="144" width="16" height="16">
   <properties>
    <property name="Channel" value="1"/>
    <property name="Color" type="color" value="#ff0aec00"/>
   </properties>
  </object>
  <object id="2093" gid="16388" x="17441" y="144" width="16" height="16">
   <properties>
    <property name="Channel" value="1"/>
    <property name="Color" type="color" value="#ff0aec00"/>
   </properties>
  </object>
  <object id="2101" gid="16388" x="17711" y="144" width="16" height="16">
   <properties>
    <property name="Channel" value="1"/>
    <property name="Color" type="color" value="#ff0aec00"/>
   </properties>
  </object>
  <object id="2171" gid="16388" x="17985" y="144" width="16" height="16">
   <properties>
    <property name="Channel" value="1"/>
    <property name="Color" type="color" value="#ff0aec00"/>
   </properties>
  </object>
  <object id="2187" gid="16388" x="18257" y="160" width="16" height="16">
   <properties>
    <property name="Channel" value="1"/>
    <property name="Color" type="color" value="#ff0aec00"/>
   </properties>
  </object>
  <object id="2203" gid="16388" x="18528" y="160" width="16" height="16">
   <properties>
    <property name="Channel" value="1"/>
    <property name="Color" type="color" value="#ff0aec00"/>
   </properties>
  </object>
  <object id="2219" gid="16388" x="18799" y="160" width="16" height="16">
   <properties>
    <property name="Channel" value="1"/>
    <property name="Color" type="color" value="#ff0aec00"/>
   </properties>
  </object>
  <object id="2241" gid="16388" x="19280" y="176" width="16" height="16">
   <properties>
    <property name="Channel" value="1"/>
    <property name="Color" type="color" value="#ff0aec00"/>
   </properties>
  </object>
  <object id="2323" gid="16388" x="19701" y="208" width="16" height="16">
   <properties>
    <property name="Channel" value="1"/>
    <property name="Color" type="color" value="#ff0aec00"/>
   </properties>
  </object>
  <object id="2331" gid="16388" x="20530" y="208" width="16" height="16">
   <properties>
    <property name="Channel" value="1"/>
    <property name="Color" type="color" value="#ff0aec00"/>
   </properties>
  </object>
  <object id="2339" gid="16388" x="21003" y="208" width="16" height="16">
   <properties>
    <property name="Channel" value="1"/>
    <property name="Color" type="color" value="#ff0aec00"/>
   </properties>
  </object>
  <object id="2347" gid="16388" x="21210" y="208" width="16" height="16">
   <properties>
    <property name="Channel" value="1"/>
    <property name="Color" type="color" value="#ff0aec00"/>
   </properties>
  </object>
  <object id="2355" gid="16388" x="21472" y="208" width="16" height="16">
   <properties>
    <property name="Channel" value="1"/>
    <property name="Color" type="color" value="#ffec0000"/>
   </properties>
  </object>
  <object id="2029" gid="16388" x="14959" y="160" width="16" height="16">
   <properties>
    <property name="Channel" value="1"/>
    <property name="Color" type="color" value="#ffec008f"/>
   </properties>
  </object>
  <object id="2037" gid="16388" x="15227" y="160" width="16" height="16">
   <properties>
    <property name="Channel" value="1"/>
    <property name="Color" type="color" value="#ffec008f"/>
   </properties>
  </object>
  <object id="2045" gid="16388" x="15507" y="160" width="16" height="16">
   <properties>
    <property name="Channel" value="1"/>
    <property name="Color" type="color" value="#ffec008f"/>
   </properties>
  </object>
  <object id="2053" gid="16388" x="15782" y="160" width="16" height="16">
   <properties>
    <property name="Channel" value="1"/>
    <property name="Color" type="color" value="#ffec008f"/>
   </properties>
  </object>
  <object id="2061" gid="16388" x="16053" y="160" width="16" height="16">
   <properties>
    <property name="Channel" value="1"/>
    <property name="Color" type="color" value="#ffec008f"/>
   </properties>
  </object>
  <object id="2069" gid="16388" x="16330" y="160" width="16" height="16">
   <properties>
    <property name="Channel" value="1"/>
    <property name="Color" type="color" value="#ffec008f"/>
   </properties>
  </object>
  <object id="2089" gid="16388" x="17308" y="144" width="16" height="16">
   <properties>
    <property name="Channel" value="1"/>
    <property name="Color" type="color" value="#ffec008f"/>
   </properties>
  </object>
  <object id="2097" gid="16388" x="17578" y="144" width="16" height="16">
   <properties>
    <property name="Channel" value="1"/>
    <property name="Color" type="color" value="#ffec008f"/>
   </properties>
  </object>
  <object id="2105" gid="16388" x="17844" y="144" width="16" height="16">
   <properties>
    <property name="Channel" value="1"/>
    <property name="Color" type="color" value="#ffec008f"/>
   </properties>
  </object>
  <object id="2179" gid="16388" x="18122" y="144" width="16" height="16">
   <properties>
    <property name="Channel" value="1"/>
    <property name="Color" type="color" value="#ffec008f"/>
   </properties>
  </object>
  <object id="2195" gid="16388" x="18392" y="160" width="16" height="16">
   <properties>
    <property name="Channel" value="1"/>
    <property name="Color" type="color" value="#ffec008f"/>
   </properties>
  </object>
  <object id="2211" gid="16388" x="18659" y="160" width="16" height="16">
   <properties>
    <property name="Channel" value="1"/>
    <property name="Color" type="color" value="#ffec008f"/>
   </properties>
  </object>
  <object id="2227" gid="16388" x="18941" y="160" width="16" height="16">
   <properties>
    <property name="Channel" value="1"/>
    <property name="Color" type="color" value="#ffec008f"/>
   </properties>
  </object>
  <object id="2259" gid="16388" x="19435" y="208" width="16" height="16">
   <properties>
    <property name="Channel" value="1"/>
    <property name="Color" type="color" value="#ffec008f"/>
   </properties>
  </object>
  <object id="2327" gid="16388" x="19976" y="208" width="16" height="16">
   <properties>
    <property name="Channel" value="1"/>
    <property name="Color" type="color" value="#ffec008f"/>
   </properties>
  </object>
  <object id="2335" gid="16388" x="20808" y="208" width="16" height="16">
   <properties>
    <property name="Channel" value="1"/>
    <property name="Color" type="color" value="#ffec008f"/>
   </properties>
  </object>
  <object id="2343" gid="16388" x="21076" y="208" width="16" height="16">
   <properties>
    <property name="Channel" value="1"/>
    <property name="Color" type="color" value="#ffec008f"/>
   </properties>
  </object>
  <object id="2351" gid="16388" x="21347" y="208" width="16" height="16">
   <properties>
    <property name="Channel" value="1"/>
    <property name="Color" type="color" value="#ffec008f"/>
   </properties>
  </object>
  <object id="1193" gid="16388" x="3568" y="176" width="16" height="16">
   <properties>
    <property name="Channel" value="1"/>
    <property name="Color" type="color" value="#ffab0000"/>
   </properties>
  </object>
  <object id="1197" gid="16388" x="3632" y="240" width="16" height="16">
   <properties>
    <property name="Channel" value="1"/>
    <property name="Color" type="color" value="#ffab0000"/>
   </properties>
  </object>
  <object id="1201" gid="16388" x="3696" y="176" width="16" height="16">
   <properties>
    <property name="Channel" value="1"/>
    <property name="Color" type="color" value="#ffab0000"/>
   </properties>
  </object>
  <object id="1205" gid="16388" x="3760" y="176" width="16" height="16">
   <properties>
    <property name="Channel" value="1"/>
    <property name="Color" type="color" value="#ffab0000"/>
   </properties>
  </object>
  <object id="1209" gid="16388" x="3824" y="176" width="16" height="16">
   <properties>
    <property name="Channel" value="1"/>
    <property name="Color" type="color" value="#ffab0000"/>
   </properties>
  </object>
  <object id="1213" gid="16388" x="3888" y="176" width="16" height="16">
   <properties>
    <property name="Channel" value="1"/>
    <property name="Color" type="color" value="#ffab0000"/>
   </properties>
  </object>
  <object id="1217" gid="16388" x="3952" y="176" width="16" height="16">
   <properties>
    <property name="Channel" value="1"/>
    <property name="Color" type="color" value="#ffab0000"/>
   </properties>
  </object>
  <object id="1221" gid="16388" x="4016" y="240" width="16" height="16">
   <properties>
    <property name="Channel" value="1"/>
    <property name="Color" type="color" value="#ffab0000"/>
   </properties>
  </object>
  <object id="1265" gid="16388" x="4400" y="240" width="16" height="16">
   <properties>
    <property name="Channel" value="1"/>
    <property name="Color" type="color" value="#ffab0000"/>
   </properties>
  </object>
  <object id="1289" gid="16388" x="4784" y="240" width="16" height="16">
   <properties>
    <property name="Channel" value="1"/>
    <property name="Color" type="color" value="#ffab0000"/>
   </properties>
  </object>
  <object id="1313" gid="16388" x="5168" y="240" width="16" height="16">
   <properties>
    <property name="Channel" value="1"/>
    <property name="Color" type="color" value="#ffab0000"/>
   </properties>
  </object>
  <object id="1225" gid="16388" x="4080" y="240" width="16" height="16">
   <properties>
    <property name="Channel" value="1"/>
    <property name="Color" type="color" value="#ffab0000"/>
   </properties>
  </object>
  <object id="1263" gid="16388" x="4464" y="240" width="16" height="16">
   <properties>
    <property name="Channel" value="1"/>
    <property name="Color" type="color" value="#ffab0000"/>
   </properties>
  </object>
  <object id="1287" gid="16388" x="4848" y="240" width="16" height="16">
   <properties>
    <property name="Channel" value="1"/>
    <property name="Color" type="color" value="#ffab0000"/>
   </properties>
  </object>
  <object id="1311" gid="16388" x="5232" y="240" width="16" height="16">
   <properties>
    <property name="Channel" value="1"/>
    <property name="Color" type="color" value="#ffab0000"/>
   </properties>
  </object>
  <object id="1229" gid="16388" x="4144" y="240" width="16" height="16">
   <properties>
    <property name="Channel" value="1"/>
    <property name="Color" type="color" value="#ffab0000"/>
   </properties>
  </object>
  <object id="1261" gid="16388" x="4528" y="240" width="16" height="16">
   <properties>
    <property name="Channel" value="1"/>
    <property name="Color" type="color" value="#ffab0000"/>
   </properties>
  </object>
  <object id="1317" gid="16388" x="4414" y="176" width="16" height="16">
   <properties>
    <property name="Channel" value="BG"/>
    <property name="Color" type="color" value="#ff121212"/>
   </properties>
  </object>
  <object id="1321" gid="16388" x="4554" y="176" width="16" height="16">
   <properties>
    <property name="Channel" value="BG"/>
    <property name="Color" type="color" value="#ff121212"/>
   </properties>
  </object>
  <object id="1325" gid="16388" x="4691" y="176" width="16" height="16">
   <properties>
    <property name="Channel" value="BG"/>
    <property name="Color" type="color" value="#ff121212"/>
   </properties>
  </object>
  <object id="1329" gid="16388" x="4833" y="176" width="16" height="16">
   <properties>
    <property name="Channel" value="BG"/>
    <property name="Color" type="color" value="#ff121212"/>
   </properties>
  </object>
  <object id="1333" gid="16388" x="4968" y="176" width="16" height="16">
   <properties>
    <property name="Channel" value="BG"/>
    <property name="Color" type="color" value="#ff121212"/>
   </properties>
  </object>
  <object id="1337" gid="16388" x="5102" y="176" width="16" height="16">
   <properties>
    <property name="Channel" value="BG"/>
    <property name="Color" type="color" value="#ff121212"/>
   </properties>
  </object>
  <object id="1341" gid="16388" x="5235" y="176" width="16" height="16">
   <properties>
    <property name="Channel" value="BG"/>
    <property name="Color" type="color" value="#ff121212"/>
   </properties>
  </object>
  <object id="1345" gid="16388" x="5376" y="176" width="16" height="16">
   <properties>
    <property name="Channel" value="BG"/>
    <property name="Color" type="color" value="#ff121212"/>
   </properties>
  </object>
  <object id="1285" gid="16388" x="4912" y="240" width="16" height="16">
   <properties>
    <property name="Channel" value="1"/>
    <property name="Color" type="color" value="#ffab0000"/>
   </properties>
  </object>
  <object id="1309" gid="16388" x="5296" y="240" width="16" height="16">
   <properties>
    <property name="Channel" value="1"/>
    <property name="Color" type="color" value="#ffab0000"/>
   </properties>
  </object>
  <object id="1358" gid="16388" x="5552" y="160" width="16" height="16">
   <properties>
    <property name="Channel" value="1"/>
    <property name="Color" type="color" value="#ffab0000"/>
   </properties>
  </object>
  <object id="1374" gid="16388" x="5808" y="160" width="16" height="16">
   <properties>
    <property name="Channel" value="1"/>
    <property name="Color" type="color" value="#ffab0000"/>
   </properties>
  </object>
  <object id="1390" gid="16388" x="6064" y="160" width="16" height="16">
   <properties>
    <property name="Channel" value="1"/>
    <property name="Color" type="color" value="#ffab0000"/>
   </properties>
  </object>
  <object id="1409" gid="16388" x="6384" y="160" width="16" height="16">
   <properties>
    <property name="Channel" value="1"/>
    <property name="Color" type="color" value="#ffab0000"/>
   </properties>
  </object>
  <object id="1233" gid="16388" x="4208" y="240" width="16" height="16">
   <properties>
    <property name="Channel" value="1"/>
    <property name="Color" type="color" value="#ffab0000"/>
   </properties>
  </object>
  <object id="1259" gid="16388" x="4592" y="240" width="16" height="16">
   <properties>
    <property name="Channel" value="1"/>
    <property name="Color" type="color" value="#ffab0000"/>
   </properties>
  </object>
  <object id="1283" gid="16388" x="4976" y="240" width="16" height="16">
   <properties>
    <property name="Channel" value="1"/>
    <property name="Color" type="color" value="#ffab0000"/>
   </properties>
  </object>
  <object id="1307" gid="16388" x="5360" y="240" width="16" height="16">
   <properties>
    <property name="Channel" value="1"/>
    <property name="Color" type="color" value="#ffab0000"/>
   </properties>
  </object>
  <object id="1357" gid="16388" x="5616" y="160" width="16" height="16">
   <properties>
    <property name="Channel" value="1"/>
    <property name="Color" type="color" value="#ffab0000"/>
   </properties>
  </object>
  <object id="1373" gid="16388" x="5872" y="160" width="16" height="16">
   <properties>
    <property name="Channel" value="1"/>
    <property name="Color" type="color" value="#ffab0000"/>
   </properties>
  </object>
  <object id="1389" gid="16388" x="6128" y="160" width="16" height="16">
   <properties>
    <property name="Channel" value="1"/>
    <property name="Color" type="color" value="#ffab0000"/>
   </properties>
  </object>
  <object id="1410" gid="16388" x="6448" y="160" width="16" height="16">
   <properties>
    <property name="Channel" value="1"/>
    <property name="Color" type="color" value="#ffab0000"/>
   </properties>
  </object>
  <object id="1237" gid="16388" x="4272" y="240" width="16" height="16">
   <properties>
    <property name="Channel" value="1"/>
    <property name="Color" type="color" value="#ffab0000"/>
   </properties>
  </object>
  <object id="1257" gid="16388" x="4656" y="240" width="16" height="16">
   <properties>
    <property name="Channel" value="1"/>
    <property name="Color" type="color" value="#ffab0000"/>
   </properties>
  </object>
  <object id="1281" gid="16388" x="5040" y="240" width="16" height="16">
   <properties>
    <property name="Channel" value="1"/>
    <property name="Color" type="color" value="#ffab0000"/>
   </properties>
  </object>
  <object id="1305" gid="16388" x="5424" y="240" width="16" height="16">
   <properties>
    <property name="Channel" value="1"/>
    <property name="Color" type="color" value="#ffab0000"/>
   </properties>
  </object>
  <object id="1356" gid="16388" x="5680" y="160" width="16" height="16">
   <properties>
    <property name="Channel" value="1"/>
    <property name="Color" type="color" value="#ffab0000"/>
   </properties>
  </object>
  <object id="1372" gid="16388" x="5936" y="160" width="16" height="16">
   <properties>
    <property name="Channel" value="1"/>
    <property name="Color" type="color" value="#ffab0000"/>
   </properties>
  </object>
  <object id="1388" gid="16388" x="6192" y="160" width="16" height="16">
   <properties>
    <property name="Channel" value="1"/>
    <property name="Color" type="color" value="#ffab0000"/>
   </properties>
  </object>
  <object id="1411" gid="16388" x="6512" y="240" width="16" height="16">
   <properties>
    <property name="Channel" value="1"/>
    <property name="Color" type="color" value="#ffab0000"/>
   </properties>
  </object>
  <object id="1415" gid="16388" x="6576" y="240" width="16" height="16">
   <properties>
    <property name="Channel" value="1"/>
    <property name="Color" type="color" value="#ffab0000"/>
   </properties>
  </object>
  <object id="1241" gid="16388" x="4336" y="240" width="16" height="16">
   <properties>
    <property name="Channel" value="1"/>
    <property name="Color" type="color" value="#ffab0000"/>
   </properties>
  </object>
  <object id="1255" gid="16388" x="4720" y="240" width="16" height="16">
   <properties>
    <property name="Channel" value="1"/>
    <property name="Color" type="color" value="#ffab0000"/>
   </properties>
  </object>
  <object id="1279" gid="16388" x="5104" y="240" width="16" height="16">
   <properties>
    <property name="Channel" value="1"/>
    <property name="Color" type="color" value="#ffab0000"/>
   </properties>
  </object>
  <object id="1303" gid="16388" x="5488" y="240" width="16" height="16">
   <properties>
    <property name="Channel" value="1"/>
    <property name="Color" type="color" value="#ffab0000"/>
   </properties>
  </object>
  <object id="1355" gid="16388" x="5744" y="160" width="16" height="16">
   <properties>
    <property name="Channel" value="1"/>
    <property name="Color" type="color" value="#ffab0000"/>
   </properties>
  </object>
  <object id="1371" gid="16388" x="6000" y="160" width="16" height="16">
   <properties>
    <property name="Channel" value="1"/>
    <property name="Color" type="color" value="#ffab0000"/>
   </properties>
  </object>
  <object id="1414" gid="16388" x="6320" y="160" width="16" height="16">
   <properties>
    <property name="Channel" value="1"/>
    <property name="Color" type="color" value="#ffab0000"/>
   </properties>
  </object>
  <object id="1387" gid="16388" x="6256" y="160" width="16" height="16">
   <properties>
    <property name="Channel" value="1"/>
    <property name="Color" type="color" value="#ffab0000"/>
   </properties>
  </object>
  <object id="1161" gid="16388" x="3056" y="176" width="16" height="16">
   <properties>
    <property name="Channel" value="1"/>
    <property name="Color" type="color" value="#ffab0000"/>
   </properties>
  </object>
  <object id="1129" gid="16388" x="2608" y="224" width="16" height="16">
   <properties>
    <property name="Channel" value="1"/>
    <property name="Color" type="color" value="#ffab0000"/>
   </properties>
  </object>
  <object id="1133" gid="16388" x="2672" y="224" width="16" height="16">
   <properties>
    <property name="Channel" value="1"/>
    <property name="Color" type="color" value="#ffab0000"/>
   </properties>
  </object>
  <object id="1137" gid="16388" x="2736" y="224" width="16" height="16">
   <properties>
    <property name="Channel" value="1"/>
    <property name="Color" type="color" value="#ffab0000"/>
   </properties>
  </object>
  <object id="1141" gid="16388" x="2800" y="224" width="16" height="16">
   <properties>
    <property name="Channel" value="1"/>
    <property name="Color" type="color" value="#ffab0000"/>
   </properties>
  </object>
  <object id="1092" gid="16388" x="2080" y="400" width="16" height="16">
   <properties>
    <property name="Channel" value="1"/>
    <property name="Color" type="color" value="#ffab0000"/>
   </properties>
  </object>
  <object id="1086" gid="16388" x="1874" y="368" width="16" height="16">
   <properties>
    <property name="Channel" value="1"/>
    <property name="Color" type="color" value="#ffab0000"/>
   </properties>
  </object>
  <object id="745" gid="16388" x="400" y="256" width="16" height="16">
   <properties>
    <property name="Channel" value="1"/>
    <property name="Color" type="color" value="#ffab0000"/>
   </properties>
  </object>
  <object id="769" gid="16388" x="0" y="336" width="16" height="16">
   <properties>
    <property name="Channel" value="3"/>
    <property name="Copy color" type="bool" value="true"/>
    <property name="Copy from channel" value="P1"/>
   </properties>
  </object>
  <object id="770" gid="16388" x="0" y="352" width="16" height="16">
   <properties>
    <property name="Channel" value="4"/>
    <property name="Copy color" type="bool" value="true"/>
    <property name="Copy from channel" value="P2"/>
   </properties>
  </object>
  <object id="771" gid="16400" x="3264" y="400" width="16" height="16"/>
  <object id="772" gid="16394" x="3344" y="320" width="16" height="16"/>
  <object id="773" gid="16399" x="3392" y="352" width="16" height="16"/>
  <object id="774" gid="16394" x="1792" y="416" width="16" height="16"/>
  <object id="775" gid="16401" x="3520" y="400" width="16" height="16"/>
  <object id="776" gid="16401" x="3552" y="320" width="16" height="16"/>
  <object id="777" gid="16403" x="3584" y="400" width="16" height="16"/>
  <object id="778" gid="16400" x="3648" y="400" width="16" height="16"/>
  <object id="779" gid="16401" x="3792" y="336" width="16" height="16"/>
  <object id="780" gid="16401" x="3824" y="416" width="16" height="16"/>
  <object id="781" gid="16394" x="3856" y="336" width="16" height="16"/>
  <object id="782" gid="16402" x="3984" y="368" width="16" height="16">
   <properties>
    <property name="vflip" type="bool" value="true"/>
   </properties>
  </object>
  <object id="783" gid="16394" x="4064" y="400" width="16" height="16"/>
  <object id="784" gid="16395" x="4416" y="432" width="16" height="16"/>
  <object id="785" gid="16386" x="4416" y="384" width="16" height="16">
   <properties>
    <property name="enable rotation" type="bool" value="true"/>
    <property name="rotation angle" type="int" value="270"/>
   </properties>
  </object>
  <object id="786" gid="16500" x="4416" y="384" width="16" height="16">
   <properties>
    <property name="color channel" value="3"/>
   </properties>
  </object>
  <object id="787" gid="16387" x="5536" y="360" width="16" height="16"/>
  <object id="788" gid="16500" x="5536" y="360" width="16" height="16">
   <properties>
    <property name="color channel" value="3"/>
   </properties>
  </object>
  <object id="789" gid="16395" x="5648" y="368" width="16" height="16"/>
  <object id="790" gid="16394" x="5952" y="352" width="16" height="16"/>
  <object id="791" gid="16394" x="6272" y="368" width="16" height="16"/>
  <object id="792" gid="16394" x="6336" y="352" width="16" height="16"/>
  <object id="793" gid="16394" x="6400" y="368" width="16" height="16"/>
  <object id="794" gid="16402" x="6480" y="368" width="16" height="16"/>
  <object id="795" gid="16402" x="6544" y="368" width="16" height="16"/>
  <object id="796" gid="16402" x="6608" y="368" width="16" height="16"/>
  <object id="797" gid="16402" x="6576" y="304" width="16" height="16">
   <properties>
    <property name="vflip" type="bool" value="true"/>
   </properties>
  </object>
  <object id="798" gid="16402" x="6512" y="304" width="16" height="16">
   <properties>
    <property name="vflip" type="bool" value="true"/>
   </properties>
  </object>
  <object id="799" gid="16411" x="6624" y="336" width="16" height="16"/>
  <object id="800" gid="16500" x="6624" y="336" width="16" height="16">
   <properties>
    <property name="color channel" value="3"/>
   </properties>
  </object>
  <object id="801" gid="16439" x="6624" y="336" width="16" height="16"/>
  <object id="802" gid="16395" x="6928" y="384" width="16" height="16"/>
  <object id="807" gid="16395" x="7288" y="331" width="16" height="16">
   <properties>
    <property name="vflip" type="bool" value="true"/>
   </properties>
  </object>
  <object id="803" gid="16395" x="6944" y="384" width="16" height="16"/>
  <object id="806" gid="16395" x="7304" y="331" width="16" height="16">
   <properties>
    <property name="vflip" type="bool" value="true"/>
   </properties>
  </object>
  <object id="804" gid="16395" x="6936" y="384" width="16" height="16"/>
  <object id="805" gid="16395" x="7296" y="331" width="16" height="16">
   <properties>
    <property name="vflip" type="bool" value="true"/>
   </properties>
  </object>
  <object id="808" gid="16394" x="8000" y="368" width="16" height="16"/>
  <object id="809" gid="16399" x="8384" y="320" width="16" height="16">
   <properties>
    <property name="enable rotation" type="bool" value="true"/>
    <property name="rotation angle" type="int" value="270"/>
   </properties>
  </object>
  <object id="810" gid="16395" x="8656" y="320" width="16" height="16">
   <properties>
    <property name="vflip" type="bool" value="true"/>
   </properties>
  </object>
  <object id="811" gid="16395" x="8672" y="320" width="16" height="16">
   <properties>
    <property name="vflip" type="bool" value="true"/>
   </properties>
  </object>
  <object id="812" gid="16395" x="8664" y="320" width="16" height="16">
   <properties>
    <property name="vflip" type="bool" value="true"/>
   </properties>
  </object>
  <object id="813" gid="16403" x="8768" y="336" width="16" height="16"/>
  <object id="814" gid="16403" x="8800" y="352" width="16" height="16"/>
  <object id="815" gid="16403" x="8832" y="368" width="16" height="16"/>
  <object id="816" gid="16492" x="8832" y="368" width="16" height="16">
   <properties>
    <property name="color channel" value="1"/>
   </properties>
  </object>
  <object id="817" gid="16395" x="9184" y="352" width="16" height="16"/>
  <object id="818" gid="16442" x="9312" y="368" width="16" height="16"/>
  <object id="819" gid="16437" x="9312" y="368" width="16" height="16"/>
  <object id="820" gid="16500" x="9312" y="368" width="16" height="16">
   <properties>
    <property name="color channel" value="3"/>
   </properties>
  </object>
  <object id="821" gid="16499" x="11104" y="400" width="16" height="16"/>
  <object id="822" gid="16500" x="11104" y="400" width="16" height="16">
   <properties>
    <property name="color channel" value="3"/>
   </properties>
  </object>
  <object id="823" gid="16387" x="12880" y="312" width="16" height="16"/>
  <object id="824" gid="16438" x="12880" y="312" width="16" height="16"/>
  <object id="825" gid="16500" x="12880" y="312" width="16" height="16">
   <properties>
    <property name="color channel" value="3"/>
   </properties>
  </object>
  <object id="826" gid="16503" x="496" y="400" width="16" height="16">
   <properties>
    <property name="color channel" value="2"/>
   </properties>
  </object>
  <object id="827" gid="16503" x="528" y="320" width="16" height="16">
   <properties>
    <property name="color channel" value="1"/>
   </properties>
  </object>
  <object id="828" gid="16503" x="560" y="400" width="16" height="16">
   <properties>
    <property name="color channel" value="2"/>
   </properties>
  </object>
  <object id="829" gid="16503" x="784" y="336" width="16" height="16">
   <properties>
    <property name="color channel" value="2"/>
   </properties>
  </object>
  <object id="830" gid="16503" x="1728" y="416" width="16" height="16">
   <properties>
    <property name="color channel" value="2"/>
   </properties>
  </object>
  <object id="831" gid="16503" x="1760" y="336" width="16" height="16">
   <properties>
    <property name="color channel" value="1"/>
   </properties>
  </object>
  <object id="832" gid="16503" x="1792" y="416" width="16" height="16">
   <properties>
    <property name="color channel" value="2"/>
   </properties>
  </object>
  <object id="833" gid="16503" x="2432" y="384" width="16" height="16">
   <properties>
    <property name="color channel" value="1"/>
   </properties>
  </object>
  <object id="834" gid="16503" x="2464" y="304" width="16" height="16">
   <properties>
    <property name="color channel" value="2"/>
   </properties>
  </object>
  <object id="835" gid="16503" x="2496" y="384" width="16" height="16">
   <properties>
    <property name="color channel" value="1"/>
   </properties>
  </object>
  <object id="836" gid="16503" x="2976" y="368" width="16" height="16">
   <properties>
    <property name="color channel" value="2"/>
   </properties>
  </object>
  <object id="837" gid="16503" x="3184" y="368" width="16" height="16">
   <properties>
    <property name="color channel" value="1"/>
   </properties>
  </object>
  <object id="838" gid="16503" x="3344" y="320" width="16" height="16">
   <properties>
    <property name="color channel" value="2"/>
   </properties>
  </object>
  <object id="839" gid="16503" x="3520" y="400" width="16" height="16">
   <properties>
    <property name="color channel" value="1"/>
   </properties>
  </object>
  <object id="840" gid="16503" x="3552" y="320" width="16" height="16">
   <properties>
    <property name="color channel" value="2"/>
   </properties>
  </object>
  <object id="841" gid="16503" x="3584" y="400" width="16" height="16">
   <properties>
    <property name="color channel" value="1"/>
   </properties>
  </object>
  <object id="842" gid="16503" x="3792" y="336" width="16" height="16">
   <properties>
    <property name="color channel" value="2"/>
   </properties>
  </object>
  <object id="843" gid="16503" x="3824" y="416" width="16" height="16">
   <properties>
    <property name="color channel" value="1"/>
   </properties>
  </object>
  <object id="844" gid="16503" x="3856" y="336" width="16" height="16">
   <properties>
    <property name="color channel" value="2"/>
   </properties>
  </object>
  <object id="845" gid="16503" x="4064" y="400" width="16" height="16">
   <properties>
    <property name="color channel" value="1"/>
   </properties>
  </object>
  <object id="846" gid="16503" x="5952" y="352" width="16" height="16">
   <properties>
    <property name="color channel" value="2"/>
   </properties>
  </object>
  <object id="847" gid="16503" x="6272" y="368" width="16" height="16">
   <properties>
    <property name="color channel" value="1"/>
   </properties>
  </object>
  <object id="848" gid="16503" x="6336" y="352" width="16" height="16">
   <properties>
    <property name="color channel" value="2"/>
   </properties>
  </object>
  <object id="849" gid="16503" x="6400" y="368" width="16" height="16">
   <properties>
    <property name="color channel" value="1"/>
   </properties>
  </object>
  <object id="851" gid="16503" x="8000" y="368" width="16" height="16">
   <properties>
    <property name="color channel" value="1"/>
   </properties>
  </object>
  <object id="853" gid="16503" x="8768" y="336" width="16" height="16">
   <properties>
    <property name="color channel" value="1"/>
   </properties>
  </object>
  <object id="854" gid="16503" x="8800" y="352" width="16" height="16">
   <properties>
    <property name="color channel" value="2"/>
   </properties>
  </object>
  <object id="855" gid="16503" x="8832" y="368" width="16" height="16">
   <properties>
    <property name="color channel" value="1"/>
   </properties>
  </object>
  <object id="856" gid="16401" x="13216" y="336" width="16" height="16"/>
  <object id="857" gid="16401" x="13248" y="256" width="16" height="16"/>
  <object id="858" gid="16394" x="13280" y="336" width="16" height="16"/>
  <object id="859" gid="16400" x="13520" y="400" width="16" height="16">
   <properties>
    <property name="enable rotation" type="bool" value="true"/>
    <property name="rotation angle" type="int" value="61"/>
   </properties>
  </object>
  <object id="860" gid="16399" x="13712" y="400" width="16" height="16"/>
  <object id="861" gid="16395" x="14016" y="432" width="16" height="16"/>
  <object id="862" gid="16437" x="14016" y="400" width="16" height="16">
   <properties>
    <property name="enable rotation" type="bool" value="true"/>
    <property name="rotation angle" type="int" value="270"/>
   </properties>
  </object>
  <object id="863" gid="16401" x="14480" y="400" width="16" height="16"/>
  <object id="864" gid="16401" x="14512" y="320" width="16" height="16"/>
  <object id="865" gid="16394" x="14544" y="400" width="16" height="16"/>
  <object id="868" gid="16400" x="14824" y="384" width="16" height="16">
   <properties>
    <property name="enable rotation" type="bool" value="true"/>
    <property name="rotation angle" type="int" value="66"/>
   </properties>
  </object>
  <object id="869" gid="16438" x="14880" y="256" width="16" height="16"/>
  <object id="870" gid="16457" x="14888" y="256" width="16" height="16"/>
  <object id="871" gid="16395" x="14992" y="320" width="16" height="16"/>
  <object id="872" gid="16395" x="14992" y="192" width="16" height="16">
   <properties>
    <property name="vflip" type="bool" value="true"/>
   </properties>
  </object>
  <object id="873" gid="16394" x="15232" y="288" width="16" height="16"/>
  <object id="874" gid="16394" x="15232" y="224" width="16" height="16"/>
  <object id="875" gid="16503" x="15232" y="288" width="16" height="16">
   <properties>
    <property name="color channel" value="2"/>
   </properties>
  </object>
  <object id="876" gid="16503" x="15232" y="224" width="16" height="16">
   <properties>
    <property name="color channel" value="1"/>
   </properties>
  </object>
  <object id="877" gid="16503" x="13216" y="336" width="16" height="16">
   <properties>
    <property name="color channel" value="1"/>
   </properties>
  </object>
  <object id="878" gid="16503" x="13248" y="256" width="16" height="16">
   <properties>
    <property name="color channel" value="2"/>
   </properties>
  </object>
  <object id="879" gid="16503" x="13280" y="336" width="16" height="16">
   <properties>
    <property name="color channel" value="1"/>
   </properties>
  </object>
  <object id="880" gid="16503" x="14480" y="400" width="16" height="16">
   <properties>
    <property name="color channel" value="1"/>
   </properties>
  </object>
  <object id="881" gid="16503" x="14512" y="320" width="16" height="16">
   <properties>
    <property name="color channel" value="2"/>
   </properties>
  </object>
  <object id="882" gid="16503" x="14544" y="400" width="16" height="16">
   <properties>
    <property name="color channel" value="1"/>
   </properties>
  </object>
  <object id="883" gid="16394" x="15648" y="208" width="16" height="16"/>
  <object id="884" gid="16394" x="15648" y="304" width="16" height="16"/>
  <object id="885" gid="16503" x="15648" y="208" width="16" height="16">
   <properties>
    <property name="color channel" value="2"/>
   </properties>
  </object>
  <object id="886" gid="16503" x="15648" y="304" width="16" height="16">
   <properties>
    <property name="color channel" value="1"/>
   </properties>
  </object>
  <object id="887" gid="16395" x="15888" y="320" width="16" height="16"/>
  <object id="888" gid="16395" x="15888" y="192" width="16" height="16">
   <properties>
    <property name="hflip" type="bool" value="false"/>
    <property name="vflip" type="bool" value="true"/>
   </properties>
  </object>
  <object id="889" gid="16395" x="15344" y="288" width="16" height="16"/>
  <object id="890" gid="16395" x="15344" y="224" width="16" height="16">
   <properties>
    <property name="vflip" type="bool" value="true"/>
   </properties>
  </object>
  <object id="891" gid="16399" x="16000" y="216" width="16" height="16"/>
  <object id="892" gid="16400" x="16000" y="296" width="16" height="16"/>
  <object id="893" gid="16399" x="16176" y="224" width="16" height="16"/>
  <object id="894" gid="16400" x="16176" y="288" width="16" height="16"/>
  <object id="895" gid="16394" x="16320" y="256" width="16" height="16"/>
  <object id="896" gid="16503" x="16320" y="256" width="16" height="16">
   <properties>
    <property name="color channel" value="1"/>
   </properties>
  </object>
  <object id="897" gid="16503" x="16624" y="256" width="16" height="16">
   <properties>
    <property name="color channel" value="1"/>
   </properties>
  </object>
  <object id="898" gid="16394" x="16624" y="256" width="16" height="16"/>
  <object id="899" gid="16394" x="16880" y="208" width="16" height="16"/>
  <object id="900" gid="16394" x="16880" y="304" width="16" height="16"/>
  <object id="901" gid="16503" x="16880" y="304" width="16" height="16">
   <properties>
    <property name="color channel" value="1"/>
   </properties>
  </object>
  <object id="902" gid="16503" x="16880" y="208" width="16" height="16">
   <properties>
    <property name="color channel" value="2"/>
   </properties>
  </object>
  <object id="903" gid="16395" x="16960" y="288" width="16" height="16"/>
  <object id="904" gid="16395" x="16960" y="224" width="16" height="16">
   <properties>
    <property name="vflip" type="bool" value="true"/>
   </properties>
  </object>
  <object id="905" gid="16442" x="17072" y="200" width="16" height="16"/>
  <object id="906" gid="16442" x="17072" y="312" width="16" height="16"/>
  <object id="907" gid="16399" x="18224" y="264" width="16" height="16"/>
  <object id="908" gid="16458" x="18224" y="264" width="16" height="16"/>
  <object id="909" gid="16499" x="19280" y="304" width="16" height="16">
   <properties>
    <property name="enable rotation" type="bool" value="true"/>
    <property name="rotation angle" type="int" value="45"/>
   </properties>
  </object>
  <object id="910" gid="16437" x="21472" y="269" width="16" height="16"/>
  <object id="911" gid="16387" x="21472" y="269" width="16" height="16"/>
  <object id="912" gid="16401" x="21760" y="400" width="16" height="16"/>
  <object id="913" gid="16401" x="21784" y="320" width="16" height="16"/>
  <object id="914" gid="16394" x="21808" y="400" width="16" height="16"/>
  <object id="915" gid="16503" x="21760" y="400" width="16" height="16">
   <properties>
    <property name="color channel" value="1"/>
   </properties>
  </object>
  <object id="916" gid="16503" x="21808" y="400" width="16" height="16">
   <properties>
    <property name="color channel" value="1"/>
   </properties>
  </object>
  <object id="917" gid="16503" x="21784" y="320" width="16" height="16">
   <properties>
    <property name="color channel" value="2"/>
   </properties>
  </object>
  <object id="918" gid="16395" x="21920" y="416" width="16" height="16"/>
  <object id="919" gid="16402" x="22032" y="368" width="16" height="16"/>
  <object id="920" gid="16395" x="22096" y="320" width="16" height="16">
   <properties>
    <property name="vflip" type="bool" value="true"/>
   </properties>
  </object>
  <object id="921" gid="16399" x="22336" y="352" width="16" height="16">
   <properties>
    <property name="enable rotation" type="bool" value="true"/>
    <property name="rotation angle" type="int" value="270"/>
   </properties>
  </object>
  <object id="922" gid="16395" x="22384" y="432" width="16" height="16"/>
  <object id="923" gid="16401" x="22528" y="400" width="16" height="16"/>
  <object id="934" gid="16401" x="22848" y="416" width="16" height="16"/>
  <object id="924" gid="16401" x="22560" y="304" width="16" height="16"/>
  <object id="936" gid="16401" x="22880" y="320" width="16" height="16"/>
  <object id="925" gid="16394" x="22592" y="400" width="16" height="16"/>
  <object id="933" gid="16394" x="22912" y="416" width="16" height="16"/>
  <object id="926" gid="16503" x="22528" y="400" width="16" height="16">
   <properties>
    <property name="color channel" value="1"/>
   </properties>
  </object>
  <object id="932" gid="16503" x="22848" y="416" width="16" height="16">
   <properties>
    <property name="color channel" value="2"/>
   </properties>
  </object>
  <object id="927" gid="16503" x="22560" y="304" width="16" height="16">
   <properties>
    <property name="color channel" value="2"/>
   </properties>
  </object>
  <object id="935" gid="16503" x="22880" y="320" width="16" height="16">
   <properties>
    <property name="color channel" value="1"/>
   </properties>
  </object>
  <object id="928" gid="16503" x="22592" y="400" width="16" height="16">
   <properties>
    <property name="color channel" value="1"/>
   </properties>
  </object>
  <object id="931" gid="16503" x="22912" y="416" width="16" height="16">
   <properties>
    <property name="color channel" value="2"/>
   </properties>
  </object>
  <object id="929" gid="16400" x="22656" y="400" width="16" height="16">
   <properties>
    <property name="enable rotation" type="bool" value="true"/>
    <property name="rotation angle" type="int" value="56"/>
   </properties>
  </object>
  <object id="930" gid="16402" x="22752" y="384" width="16" height="16">
   <properties>
    <property name="vflip" type="bool" value="true"/>
   </properties>
  </object>
  <object id="937" gid="16428" x="22968" y="432" width="16" height="16">
   <properties>
    <property name="metatile ID appearance" type="int" value="3553"/>
    <property name="z index" type="int" value="3"/>
   </properties>
  </object>
  <object id="938" gid="16428" x="22968" y="432" width="16" height="16">
   <properties>
    <property name="metatile ID appearance" type="int" value="3481"/>
   </properties>
  </object>
  <object id="939" gid="16395" x="22968" y="416" width="16" height="16"/>
  <object id="940" gid="16395" x="23136" y="336" width="16" height="16"/>
  <object id="941" gid="16402" x="23184" y="288" width="16" height="16"/>
  <object id="942" gid="16402" x="23200" y="288" width="16" height="16"/>
  <object id="943" gid="16402" x="23216" y="288" width="16" height="16"/>
  <object id="944" gid="16402" x="23232" y="288" width="16" height="16"/>
  <object id="945" gid="16402" x="23248" y="288" width="16" height="16"/>
  <object id="946" gid="16402" x="23184" y="256" width="16" height="16">
   <properties>
    <property name="vflip" type="bool" value="true"/>
   </properties>
  </object>
  <object id="947" gid="16402" x="23216" y="256" width="16" height="16">
   <properties>
    <property name="vflip" type="bool" value="true"/>
   </properties>
  </object>
  <object id="948" gid="16402" x="23200" y="256" width="16" height="16">
   <properties>
    <property name="vflip" type="bool" value="true"/>
   </properties>
  </object>
  <object id="949" gid="16402" x="23232" y="256" width="16" height="16">
   <properties>
    <property name="vflip" type="bool" value="true"/>
   </properties>
  </object>
  <object id="950" gid="16402" x="23248" y="256" width="16" height="16">
   <properties>
    <property name="vflip" type="bool" value="true"/>
   </properties>
  </object>
  <object id="951" gid="16402" x="23264" y="256" width="16" height="16">
   <properties>
    <property name="vflip" type="bool" value="true"/>
   </properties>
  </object>
  <object id="952" gid="16402" x="23280" y="256" width="16" height="16">
   <properties>
    <property name="vflip" type="bool" value="true"/>
   </properties>
  </object>
  <object id="953" gid="16438" x="23184" y="272" width="16" height="16"/>
  <object id="954" gid="16386" x="23272" y="271" width="16" height="16"/>
  <object id="955" gid="16399" x="23280" y="280" width="16" height="16"/>
  <object id="956" gid="16439" x="23280" y="280" width="16" height="16"/>
  <object id="957" gid="16457" x="24656" y="276" width="16" height="16"/>
  <object id="958" gid="16458" x="26000" y="280" width="16" height="16"/>
  <object id="959" gid="16400" x="27376" y="280" width="16" height="16"/>
  <object id="960" gid="16387" x="28736" y="280" width="16" height="16"/>
  <object id="961" gid="16399" x="28736" y="280" width="16" height="16"/>
  <object id="962" gid="16395" x="29008" y="432" width="16" height="16"/>
  <object id="963" gid="16401" x="29216" y="400" width="16" height="16"/>
  <object id="964" gid="16401" x="29248" y="320" width="16" height="16"/>
  <object id="965" gid="16403" x="29280" y="400" width="16" height="16"/>
  <object id="966" gid="16400" x="29344" y="403" width="16" height="16">
   <properties>
    <property name="enable rotation" type="bool" value="true"/>
    <property name="rotation angle" type="int" value="51"/>
   </properties>
  </object>
  <object id="967" gid="16503" x="29216" y="400" width="16" height="16">
   <properties>
    <property name="color channel" value="2"/>
   </properties>
  </object>
  <object id="968" gid="16503" x="29248" y="320" width="16" height="16">
   <properties>
    <property name="color channel" value="1"/>
   </properties>
  </object>
  <object id="969" gid="16503" x="29280" y="400" width="16" height="16">
   <properties>
    <property name="color channel" value="2"/>
   </properties>
  </object>
  <object id="970" gid="16394" x="29504" y="336" width="16" height="16"/>
  <object id="971" gid="16503" x="29504" y="336" width="16" height="16">
   <properties>
    <property name="color channel" value="2"/>
   </properties>
  </object>
  <object id="972" gid="16399" x="29552" y="368" width="16" height="16"/>
  <object id="973" gid="16395" x="29872" y="432" width="16" height="16"/>
  <object id="974" gid="16402" x="30032" y="384" width="16" height="16"/>
  <object id="975" gid="16395" x="30112" y="352" width="16" height="16">
   <properties>
    <property name="vflip" type="bool" value="true"/>
   </properties>
  </object>
  <object id="976" gid="16402" x="30208" y="336" width="16" height="16">
   <properties>
    <property name="vflip" type="bool" value="true"/>
   </properties>
  </object>
  <object id="977" gid="16401" x="30448" y="416" width="16" height="16"/>
  <object id="978" gid="16401" x="30480" y="336" width="16" height="16"/>
  <object id="979" gid="16394" x="30512" y="416" width="16" height="16"/>
  <object id="980" gid="16503" x="30448" y="416" width="16" height="16">
   <properties>
    <property name="color channel" value="2"/>
   </properties>
  </object>
  <object id="981" gid="16503" x="30480" y="336" width="16" height="16">
   <properties>
    <property name="color channel" value="1"/>
   </properties>
  </object>
  <object id="982" gid="16503" x="30512" y="416" width="16" height="16">
   <properties>
    <property name="color channel" value="2"/>
   </properties>
  </object>
  <object id="983" gid="16402" x="30592" y="400" width="16" height="16"/>
  <object id="984" gid="16399" x="6624" y="336" width="16" height="16"/>
  <object id="985" gid="16395" x="14208" y="416" width="16" height="16"/>
  <object id="987" gid="16438" x="28736" y="280" width="16" height="16"/>
  <object id="988" gid="16404" x="432" y="416" width="16" height="16"/>
  <object id="1003" gid="16399" x="6640" y="331" width="16" height="16"/>
  <object id="1009" gid="16428" x="7080" y="283" width="16" height="16">
   <properties>
    <property name="bg layer" value="1"/>
    <property name="metatile ID appearance" type="int" value="3474"/>
   </properties>
  </object>
  <object id="1056" gid="16428" x="7288" y="283" width="16" height="16">
   <properties>
    <property name="bg layer" value="1"/>
    <property name="metatile ID appearance" type="int" value="3474"/>
   </properties>
  </object>
  <object id="1061" gid="16428" x="8616" y="384" width="16" height="16">
   <properties>
    <property name="bg layer" value="1"/>
    <property name="metatile ID appearance" type="int" value="3474"/>
   </properties>
  </object>
  <object id="1066" gid="16428" x="8632" y="368" width="16" height="16">
   <properties>
    <property name="bg layer" value="1"/>
    <property name="metatile ID appearance" type="int" value="3480"/>
   </properties>
  </object>
  <object id="1065" gid="16428" x="8616" y="368" width="16" height="16">
   <properties>
    <property name="bg layer" value="1"/>
    <property name="metatile ID appearance" type="int" value="3477"/>
   </properties>
  </object>
  <object id="1033" gid="16428" x="7160" y="283" width="16" height="16">
   <properties>
    <property name="bg layer" value="1"/>
    <property name="metatile ID appearance" type="int" value="3474"/>
   </properties>
  </object>
  <object id="1021" gid="16428" x="7080" y="283" width="16" height="16">
   <properties>
    <property name="bg layer" value="1"/>
    <property name="metatile ID appearance" type="int" value="3682"/>
    <property name="z index" type="int" value="3"/>
   </properties>
  </object>
  <object id="1053" gid="16428" x="7288" y="283" width="16" height="16">
   <properties>
    <property name="bg layer" value="1"/>
    <property name="metatile ID appearance" type="int" value="3682"/>
    <property name="z index" type="int" value="3"/>
   </properties>
  </object>
  <object id="1062" gid="16428" x="8616" y="384" width="16" height="16">
   <properties>
    <property name="bg layer" value="1"/>
    <property name="metatile ID appearance" type="int" value="3682"/>
    <property name="z index" type="int" value="3"/>
   </properties>
  </object>
  <object id="1067" gid="16428" x="8616" y="368" width="16" height="16">
   <properties>
    <property name="bg layer" value="1"/>
    <property name="metatile ID appearance" type="int" value="3696"/>
    <property name="z index" type="int" value="3"/>
   </properties>
  </object>
  <object id="1068" gid="16428" x="8632" y="368" width="16" height="16">
   <properties>
    <property name="bg layer" value="1"/>
    <property name="metatile ID appearance" type="int" value="3697"/>
    <property name="z index" type="int" value="3"/>
   </properties>
  </object>
  <object id="1030" gid="16428" x="7160" y="283" width="16" height="16">
   <properties>
    <property name="bg layer" value="1"/>
    <property name="metatile ID appearance" type="int" value="3682"/>
    <property name="z index" type="int" value="3"/>
   </properties>
  </object>
  <object id="1038" gid="16428" x="7208" y="283" width="16" height="16">
   <properties>
    <property name="bg layer" value="1"/>
    <property name="metatile ID appearance" type="int" value="3682"/>
    <property name="z index" type="int" value="3"/>
   </properties>
  </object>
  <object id="1011" gid="16428" x="7080" y="299" width="16" height="16">
   <properties>
    <property name="bg layer" value="1"/>
    <property name="metatile ID appearance" type="int" value="3474"/>
   </properties>
  </object>
  <object id="1052" gid="16428" x="7288" y="299" width="16" height="16">
   <properties>
    <property name="bg layer" value="1"/>
    <property name="metatile ID appearance" type="int" value="3474"/>
   </properties>
  </object>
  <object id="1057" gid="16428" x="8616" y="400" width="16" height="16">
   <properties>
    <property name="bg layer" value="1"/>
    <property name="metatile ID appearance" type="int" value="3474"/>
   </properties>
  </object>
  <object id="1029" gid="16428" x="7160" y="299" width="16" height="16">
   <properties>
    <property name="bg layer" value="1"/>
    <property name="metatile ID appearance" type="int" value="3474"/>
   </properties>
  </object>
  <object id="1019" gid="16428" x="7080" y="299" width="16" height="16">
   <properties>
    <property name="bg layer" value="1"/>
    <property name="metatile ID appearance" type="int" value="3682"/>
    <property name="z index" type="int" value="3"/>
   </properties>
  </object>
  <object id="1049" gid="16428" x="7288" y="299" width="16" height="16">
   <properties>
    <property name="bg layer" value="1"/>
    <property name="metatile ID appearance" type="int" value="3682"/>
    <property name="z index" type="int" value="3"/>
   </properties>
  </object>
  <object id="1058" gid="16428" x="8616" y="400" width="16" height="16">
   <properties>
    <property name="bg layer" value="1"/>
    <property name="metatile ID appearance" type="int" value="3682"/>
    <property name="z index" type="int" value="3"/>
   </properties>
  </object>
  <object id="1026" gid="16428" x="7160" y="299" width="16" height="16">
   <properties>
    <property name="bg layer" value="1"/>
    <property name="metatile ID appearance" type="int" value="3682"/>
    <property name="z index" type="int" value="3"/>
   </properties>
  </object>
  <object id="1036" gid="16428" x="7208" y="299" width="16" height="16">
   <properties>
    <property name="bg layer" value="1"/>
    <property name="metatile ID appearance" type="int" value="3682"/>
    <property name="z index" type="int" value="3"/>
   </properties>
  </object>
  <object id="1012" gid="16428" x="7080" y="315" width="16" height="16">
   <properties>
    <property name="bg layer" value="1"/>
    <property name="metatile ID appearance" type="int" value="3478"/>
   </properties>
  </object>
  <object id="1048" gid="16428" x="7288" y="315" width="16" height="16">
   <properties>
    <property name="bg layer" value="1"/>
    <property name="metatile ID appearance" type="int" value="3478"/>
   </properties>
  </object>
  <object id="1025" gid="16428" x="7160" y="315" width="16" height="16">
   <properties>
    <property name="bg layer" value="1"/>
    <property name="metatile ID appearance" type="int" value="3478"/>
   </properties>
  </object>
  <object id="1042" gid="16428" x="7176" y="315" width="16" height="16">
   <properties>
    <property name="bg layer" value="1"/>
    <property name="metatile ID appearance" type="int" value="3475"/>
   </properties>
  </object>
  <object id="1043" gid="16428" x="7192" y="315" width="16" height="16">
   <properties>
    <property name="bg layer" value="1"/>
    <property name="metatile ID appearance" type="int" value="3475"/>
   </properties>
  </object>
  <object id="1044" gid="16428" x="7208" y="315" width="16" height="16">
   <properties>
    <property name="bg layer" value="1"/>
    <property name="metatile ID appearance" type="int" value="3475"/>
   </properties>
  </object>
  <object id="1017" gid="16428" x="7080" y="315" width="16" height="16">
   <properties>
    <property name="bg layer" value="1"/>
    <property name="metatile ID appearance" type="int" value="3698"/>
    <property name="z index" type="int" value="3"/>
   </properties>
  </object>
  <object id="1045" gid="16428" x="7288" y="315" width="16" height="16">
   <properties>
    <property name="bg layer" value="1"/>
    <property name="metatile ID appearance" type="int" value="3698"/>
    <property name="z index" type="int" value="3"/>
   </properties>
  </object>
  <object id="1022" gid="16428" x="7160" y="315" width="16" height="16">
   <properties>
    <property name="bg layer" value="1"/>
    <property name="metatile ID appearance" type="int" value="3698"/>
    <property name="z index" type="int" value="3"/>
   </properties>
  </object>
  <object id="1034" gid="16428" x="7208" y="315" width="16" height="16">
   <properties>
    <property name="bg layer" value="1"/>
    <property name="metatile ID appearance" type="int" value="3681"/>
    <property name="z index" type="int" value="3"/>
   </properties>
  </object>
  <object id="1013" gid="16428" x="7096" y="283" width="16" height="16">
   <properties>
    <property name="bg layer" value="1"/>
    <property name="metatile ID appearance" type="int" value="3476"/>
   </properties>
  </object>
  <object id="1055" gid="16428" x="7304" y="283" width="16" height="16">
   <properties>
    <property name="bg layer" value="1"/>
    <property name="metatile ID appearance" type="int" value="3476"/>
   </properties>
  </object>
  <object id="1063" gid="16428" x="8632" y="384" width="16" height="16">
   <properties>
    <property name="bg layer" value="1"/>
    <property name="metatile ID appearance" type="int" value="3476"/>
   </properties>
  </object>
  <object id="1032" gid="16428" x="7224" y="283" width="16" height="16">
   <properties>
    <property name="bg layer" value="1"/>
    <property name="metatile ID appearance" type="int" value="3476"/>
   </properties>
  </object>
  <object id="1020" gid="16428" x="7096" y="283" width="16" height="16">
   <properties>
    <property name="bg layer" value="1"/>
    <property name="metatile ID appearance" type="int" value="3683"/>
    <property name="z index" type="int" value="3"/>
   </properties>
  </object>
  <object id="1054" gid="16428" x="7304" y="283" width="16" height="16">
   <properties>
    <property name="bg layer" value="1"/>
    <property name="metatile ID appearance" type="int" value="3683"/>
    <property name="z index" type="int" value="3"/>
   </properties>
  </object>
  <object id="1064" gid="16428" x="8632" y="384" width="16" height="16">
   <properties>
    <property name="bg layer" value="1"/>
    <property name="metatile ID appearance" type="int" value="3683"/>
    <property name="z index" type="int" value="3"/>
   </properties>
  </object>
  <object id="1031" gid="16428" x="7176" y="283" width="16" height="16">
   <properties>
    <property name="bg layer" value="1"/>
    <property name="metatile ID appearance" type="int" value="3683"/>
    <property name="z index" type="int" value="3"/>
   </properties>
  </object>
  <object id="1039" gid="16428" x="7224" y="283" width="16" height="16">
   <properties>
    <property name="bg layer" value="1"/>
    <property name="metatile ID appearance" type="int" value="3683"/>
    <property name="z index" type="int" value="3"/>
   </properties>
  </object>
  <object id="1014" gid="16428" x="7096" y="299" width="16" height="16">
   <properties>
    <property name="bg layer" value="1"/>
    <property name="metatile ID appearance" type="int" value="3476"/>
   </properties>
  </object>
  <object id="1051" gid="16428" x="7304" y="299" width="16" height="16">
   <properties>
    <property name="bg layer" value="1"/>
    <property name="metatile ID appearance" type="int" value="3476"/>
   </properties>
  </object>
  <object id="1059" gid="16428" x="8632" y="400" width="16" height="16">
   <properties>
    <property name="bg layer" value="1"/>
    <property name="metatile ID appearance" type="int" value="3476"/>
   </properties>
  </object>
  <object id="1028" gid="16428" x="7224" y="299" width="16" height="16">
   <properties>
    <property name="bg layer" value="1"/>
    <property name="metatile ID appearance" type="int" value="3476"/>
   </properties>
  </object>
  <object id="1018" gid="16428" x="7096" y="299" width="16" height="16">
   <properties>
    <property name="bg layer" value="1"/>
    <property name="metatile ID appearance" type="int" value="3683"/>
    <property name="z index" type="int" value="3"/>
   </properties>
  </object>
  <object id="1050" gid="16428" x="7304" y="299" width="16" height="16">
   <properties>
    <property name="bg layer" value="1"/>
    <property name="metatile ID appearance" type="int" value="3683"/>
    <property name="z index" type="int" value="3"/>
   </properties>
  </object>
  <object id="1060" gid="16428" x="8632" y="400" width="16" height="16">
   <properties>
    <property name="bg layer" value="1"/>
    <property name="metatile ID appearance" type="int" value="3683"/>
    <property name="z index" type="int" value="3"/>
   </properties>
  </object>
  <object id="1027" gid="16428" x="7176" y="299" width="16" height="16">
   <properties>
    <property name="bg layer" value="1"/>
    <property name="metatile ID appearance" type="int" value="3713"/>
    <property name="z index" type="int" value="3"/>
   </properties>
  </object>
  <object id="1037" gid="16428" x="7224" y="299" width="16" height="16">
   <properties>
    <property name="bg layer" value="1"/>
    <property name="metatile ID appearance" type="int" value="3683"/>
    <property name="z index" type="int" value="3"/>
   </properties>
  </object>
  <object id="1015" gid="16428" x="7096" y="315" width="16" height="16">
   <properties>
    <property name="bg layer" value="1"/>
    <property name="metatile ID appearance" type="int" value="3479"/>
   </properties>
  </object>
  <object id="1047" gid="16428" x="7304" y="315" width="16" height="16">
   <properties>
    <property name="bg layer" value="1"/>
    <property name="metatile ID appearance" type="int" value="3479"/>
   </properties>
  </object>
  <object id="1024" gid="16428" x="7224" y="315" width="16" height="16">
   <properties>
    <property name="bg layer" value="1"/>
    <property name="metatile ID appearance" type="int" value="3479"/>
   </properties>
  </object>
  <object id="1016" gid="16428" x="7096" y="315" width="16" height="16">
   <properties>
    <property name="bg layer" value="1"/>
    <property name="metatile ID appearance" type="int" value="3699"/>
    <property name="z index" type="int" value="3"/>
   </properties>
  </object>
  <object id="1046" gid="16428" x="7304" y="315" width="16" height="16">
   <properties>
    <property name="bg layer" value="1"/>
    <property name="metatile ID appearance" type="int" value="3699"/>
    <property name="z index" type="int" value="3"/>
   </properties>
  </object>
  <object id="1023" gid="16428" x="7176" y="315" width="16" height="16">
   <properties>
    <property name="bg layer" value="1"/>
    <property name="metatile ID appearance" type="int" value="3681"/>
    <property name="z index" type="int" value="3"/>
   </properties>
  </object>
  <object id="1040" gid="16428" x="7192" y="315" width="16" height="16">
   <properties>
    <property name="bg layer" value="1"/>
    <property name="metatile ID appearance" type="int" value="3681"/>
    <property name="z index" type="int" value="3"/>
   </properties>
  </object>
  <object id="1041" gid="16428" x="7192" y="299" width="16" height="16">
   <properties>
    <property name="bg layer" value="1"/>
    <property name="metatile ID appearance" type="int" value="3680"/>
    <property name="z index" type="int" value="3"/>
   </properties>
  </object>
  <object id="1035" gid="16428" x="7224" y="315" width="16" height="16">
   <properties>
    <property name="bg layer" value="1"/>
    <property name="metatile ID appearance" type="int" value="3699"/>
    <property name="z index" type="int" value="3"/>
   </properties>
  </object>
  <object id="1095" gid="16474" x="29040" y="272" width="16" height="16"/>
  <object id="1096" gid="16503" x="29040" y="272" width="16" height="16"/>
  <object id="1097" gid="16514" x="29088" y="288" width="16" height="16">
   <properties>
    <property name="enable rotation" type="bool" value="true"/>
    <property name="rotation angle" type="int" value="-90"/>
   </properties>
  </object>
  <object id="1462" gid="16528" x="432" y="336" width="16" height="16">
   <properties>
    <property name="bg layer" value="0"/>
   </properties>
  </object>
  <object id="1542" gid="16528" x="544" y="272" width="16" height="16">
   <properties>
    <property name="bg layer" value="0"/>
   </properties>
  </object>
  <object id="1545" gid="16528" x="624" y="320" width="16" height="16">
   <properties>
    <property name="bg layer" value="0"/>
   </properties>
  </object>
  <object id="1547" gid="16528" x="976" y="288" width="16" height="16">
   <properties>
    <property name="bg layer" value="0"/>
   </properties>
  </object>
  <object id="1553" gid="16528" x="1440" y="352" width="16" height="16">
   <properties>
    <property name="bg layer" value="0"/>
   </properties>
  </object>
  <object id="1557" gid="16528" x="1536" y="304" width="16" height="16">
   <properties>
    <property name="bg layer" value="0"/>
   </properties>
  </object>
  <object id="1559" gid="16528" x="1632" y="320" width="16" height="16">
   <properties>
    <property name="bg layer" value="0"/>
   </properties>
  </object>
  <object id="1561" gid="16528" x="1792" y="304" width="16" height="16">
   <properties>
    <property name="bg layer" value="0"/>
   </properties>
  </object>
  <object id="1563" gid="16528" x="1840" y="336" width="16" height="16">
   <properties>
    <property name="bg layer" value="0"/>
   </properties>
  </object>
  <object id="1565" gid="16528" x="1920" y="400" width="16" height="16">
   <properties>
    <property name="bg layer" value="0"/>
   </properties>
  </object>
  <object id="1555" gid="16528" x="1184" y="329" width="16" height="16">
   <properties>
    <property name="bg layer" value="0"/>
   </properties>
  </object>
  <object id="2878" gid="16528" x="1296" y="320" width="16" height="16">
   <properties>
    <property name="bg layer" value="0"/>
   </properties>
  </object>
  <object id="1549" gid="16528" x="800" y="288" width="16" height="16">
   <properties>
    <property name="bg layer" value="0"/>
   </properties>
  </object>
  <object id="1551" gid="16528" x="880" y="320" width="16" height="16">
   <properties>
    <property name="bg layer" value="0"/>
   </properties>
  </object>
  <object id="1494" gid="16528" x="4368" y="336" width="16" height="16">
   <properties>
    <property name="bg layer" value="0"/>
   </properties>
  </object>
  <object id="2875" gid="16528" x="5600" y="320" width="16" height="16">
   <properties>
    <property name="bg layer" value="0"/>
   </properties>
  </object>
  <object id="2876" gid="16528" x="5776" y="272" width="16" height="16">
   <properties>
    <property name="bg layer" value="0"/>
   </properties>
  </object>
  <object id="2877" gid="16528" x="5832" y="392" width="16" height="16">
   <properties>
    <property name="bg layer" value="0"/>
   </properties>
  </object>
  <object id="2900" gid="16528" x="17104" y="256" width="16" height="16">
   <properties>
    <property name="bg layer" value="0"/>
   </properties>
  </object>
  <object id="3183" gid="16528" x="17136" y="288" width="16" height="16">
   <properties>
    <property name="bg layer" value="0"/>
   </properties>
  </object>
  <object id="3184" gid="16528" x="18208" y="200" width="16" height="16">
   <properties>
    <property name="bg layer" value="0"/>
   </properties>
  </object>
  <object id="3189" gid="16528" x="21600" y="352" width="16" height="16">
   <properties>
    <property name="bg layer" value="0"/>
   </properties>
  </object>
  <object id="3214" gid="16528" x="29152" y="336" width="16" height="16">
   <properties>
    <property name="bg layer" value="0"/>
   </properties>
  </object>
  <object id="3340" gid="16528" x="30640" y="400" width="16" height="16">
   <properties>
    <property name="bg layer" value="0"/>
   </properties>
  </object>
  <object id="3352" gid="16528" x="30560" y="336" width="16" height="16">
   <properties>
    <property name="bg layer" value="0"/>
   </properties>
  </object>
  <object id="3351" gid="16528" x="30496" y="304" width="16" height="16">
   <properties>
    <property name="bg layer" value="0"/>
   </properties>
  </object>
  <object id="3350" gid="16528" x="30352" y="320" width="16" height="16">
   <properties>
    <property name="bg layer" value="0"/>
   </properties>
  </object>
  <object id="3349" gid="16528" x="30256" y="304" width="16" height="16">
   <properties>
    <property name="bg layer" value="0"/>
   </properties>
  </object>
  <object id="3348" gid="16528" x="30160" y="352" width="16" height="16">
   <properties>
    <property name="bg layer" value="0"/>
   </properties>
  </object>
  <object id="3347" gid="16528" x="30016" y="304" width="16" height="16">
   <properties>
    <property name="bg layer" value="0"/>
   </properties>
  </object>
  <object id="3346" gid="16528" x="29904" y="320" width="16" height="16">
   <properties>
    <property name="bg layer" value="0"/>
   </properties>
  </object>
  <object id="3345" gid="16528" x="29696" y="288" width="16" height="16">
   <properties>
    <property name="bg layer" value="0"/>
   </properties>
  </object>
  <object id="3344" gid="16528" x="29600" y="320" width="16" height="16">
   <properties>
    <property name="bg layer" value="0"/>
   </properties>
  </object>
  <object id="3343" gid="16528" x="29520" y="288" width="16" height="16">
   <properties>
    <property name="bg layer" value="0"/>
   </properties>
  </object>
  <object id="3353" gid="16528" x="29424" y="400" width="16" height="16">
   <properties>
    <property name="bg layer" value="0"/>
   </properties>
  </object>
  <object id="3342" gid="16528" x="29344" y="320" width="16" height="16">
   <properties>
    <property name="bg layer" value="0"/>
   </properties>
  </object>
  <object id="3341" gid="16528" x="29264" y="272" width="16" height="16">
   <properties>
    <property name="bg layer" value="0"/>
   </properties>
  </object>
  <object id="3231" gid="16528" x="23216" y="336" width="16" height="16">
   <properties>
    <property name="bg layer" value="0"/>
   </properties>
  </object>
  <object id="3230" gid="16528" x="23168" y="352" width="16" height="16">
   <properties>
    <property name="bg layer" value="0"/>
   </properties>
  </object>
  <object id="3229" gid="16528" x="23056" y="304" width="16" height="16">
   <properties>
    <property name="bg layer" value="0"/>
   </properties>
  </object>
  <object id="3227" gid="16528" x="22896" y="288" width="16" height="16">
   <properties>
    <property name="bg layer" value="0"/>
   </properties>
  </object>
  <object id="3228" gid="16528" x="22960" y="320" width="16" height="16">
   <properties>
    <property name="bg layer" value="0"/>
   </properties>
  </object>
  <object id="3226" gid="16528" x="22800" y="368" width="16" height="16">
   <properties>
    <property name="bg layer" value="0"/>
   </properties>
  </object>
  <object id="3225" gid="16528" x="22624" y="320" width="16" height="16">
   <properties>
    <property name="bg layer" value="0"/>
   </properties>
  </object>
  <object id="3224" gid="16528" x="22576" y="272" width="16" height="16">
   <properties>
    <property name="bg layer" value="0"/>
   </properties>
  </object>
  <object id="3223" gid="16528" x="22480" y="352" width="16" height="16">
   <properties>
    <property name="bg layer" value="0"/>
   </properties>
  </object>
  <object id="3222" gid="16528" x="22400" y="304" width="16" height="16">
   <properties>
    <property name="bg layer" value="0"/>
   </properties>
  </object>
  <object id="3221" gid="16528" x="22288" y="336" width="16" height="16">
   <properties>
    <property name="bg layer" value="0"/>
   </properties>
  </object>
  <object id="3220" gid="16528" x="22072" y="384" width="16" height="16">
   <properties>
    <property name="bg layer" value="0"/>
   </properties>
  </object>
  <object id="3219" gid="16528" x="22128" y="304" width="16" height="16">
   <properties>
    <property name="bg layer" value="0"/>
   </properties>
  </object>
  <object id="3218" gid="16528" x="21984" y="304" width="16" height="16">
   <properties>
    <property name="bg layer" value="0"/>
   </properties>
  </object>
  <object id="3217" gid="16528" x="21888" y="336" width="16" height="16">
   <properties>
    <property name="bg layer" value="0"/>
   </properties>
  </object>
  <object id="3216" gid="16528" x="21808" y="288" width="16" height="16">
   <properties>
    <property name="bg layer" value="0"/>
   </properties>
  </object>
  <object id="3215" gid="16528" x="21696" y="336" width="16" height="16">
   <properties>
    <property name="bg layer" value="0"/>
   </properties>
  </object>
  <object id="3188" gid="16528" x="18208" y="320" width="16" height="16">
   <properties>
    <property name="bg layer" value="0"/>
   </properties>
  </object>
  <object id="3187" gid="16528" x="17728" y="256" width="16" height="16">
   <properties>
    <property name="bg layer" value="0"/>
   </properties>
  </object>
  <object id="3186" gid="16528" x="17312" y="256" width="16" height="16">
   <properties>
    <property name="bg layer" value="0"/>
   </properties>
  </object>
  <object id="3185" gid="16528" x="17136" y="224" width="16" height="16">
   <properties>
    <property name="bg layer" value="0"/>
   </properties>
  </object>
  <object id="3083" gid="16528" x="14816" y="304" width="16" height="16">
   <properties>
    <property name="bg layer" value="0"/>
   </properties>
  </object>
  <object id="3082" gid="16528" x="14704" y="320" width="16" height="16">
   <properties>
    <property name="bg layer" value="0"/>
   </properties>
  </object>
  <object id="3081" gid="16528" x="14608" y="336" width="16" height="16">
   <properties>
    <property name="bg layer" value="0"/>
   </properties>
  </object>
  <object id="3080" gid="16528" x="14528" y="288" width="16" height="16">
   <properties>
    <property name="bg layer" value="0"/>
   </properties>
  </object>
  <object id="3079" gid="16528" x="14416" y="352" width="16" height="16">
   <properties>
    <property name="bg layer" value="0"/>
   </properties>
  </object>
  <object id="3078" gid="16528" x="14320" y="336" width="16" height="16">
   <properties>
    <property name="bg layer" value="0"/>
   </properties>
  </object>
  <object id="3077" gid="16528" x="14192" y="352" width="16" height="16">
   <properties>
    <property name="bg layer" value="0"/>
   </properties>
  </object>
  <object id="3076" gid="16528" x="14064" y="336" width="16" height="16">
   <properties>
    <property name="bg layer" value="0"/>
   </properties>
  </object>
  <object id="3075" gid="16528" x="13952" y="384" width="16" height="16">
   <properties>
    <property name="bg layer" value="0"/>
   </properties>
  </object>
  <object id="3074" gid="16528" x="13696" y="352" width="16" height="16">
   <properties>
    <property name="bg layer" value="0"/>
   </properties>
  </object>
  <object id="3099" gid="16528" x="13808" y="336" width="16" height="16">
   <properties>
    <property name="bg layer" value="0"/>
   </properties>
  </object>
  <object id="3073" gid="16528" x="13616" y="336" width="16" height="16">
   <properties>
    <property name="bg layer" value="0"/>
   </properties>
  </object>
  <object id="3072" gid="16528" x="13456" y="416" width="16" height="16">
   <properties>
    <property name="bg layer" value="0"/>
   </properties>
  </object>
  <object id="3071" gid="16528" x="13456" y="304" width="16" height="16">
   <properties>
    <property name="bg layer" value="0"/>
   </properties>
  </object>
  <object id="3070" gid="16528" x="13344" y="240" width="16" height="16">
   <properties>
    <property name="bg layer" value="0"/>
   </properties>
  </object>
  <object id="3068" gid="16528" x="13232" y="384" width="16" height="16">
   <properties>
    <property name="bg layer" value="0"/>
   </properties>
  </object>
  <object id="3069" gid="16528" x="13264" y="224" width="16" height="16">
   <properties>
    <property name="bg layer" value="0"/>
   </properties>
  </object>
  <object id="3067" gid="16528" x="13088" y="224" width="16" height="16">
   <properties>
    <property name="bg layer" value="0"/>
   </properties>
  </object>
  <object id="3066" gid="16528" x="13064" y="320" width="16" height="16">
   <properties>
    <property name="bg layer" value="0"/>
   </properties>
  </object>
  <object id="3065" gid="16528" x="12976" y="256" width="16" height="16">
   <properties>
    <property name="bg layer" value="0"/>
   </properties>
  </object>
  <object id="2934" gid="16528" x="9328" y="320" width="16" height="16">
   <properties>
    <property name="bg layer" value="0"/>
   </properties>
  </object>
  <object id="2933" gid="16528" x="9248" y="368" width="16" height="16">
   <properties>
    <property name="bg layer" value="0"/>
   </properties>
  </object>
  <object id="2932" gid="16528" x="9152" y="304" width="16" height="16">
   <properties>
    <property name="bg layer" value="0"/>
   </properties>
  </object>
  <object id="2931" gid="16528" x="9072" y="376" width="16" height="16">
   <properties>
    <property name="bg layer" value="0"/>
   </properties>
  </object>
  <object id="2930" gid="16528" x="9000" y="312" width="16" height="16">
   <properties>
    <property name="bg layer" value="0"/>
   </properties>
  </object>
  <object id="2929" gid="16528" x="8928" y="368" width="16" height="16">
   <properties>
    <property name="bg layer" value="0"/>
   </properties>
  </object>
  <object id="2928" gid="16528" x="8848" y="320" width="16" height="16">
   <properties>
    <property name="bg layer" value="0"/>
   </properties>
  </object>
  <object id="2927" gid="16528" x="8720" y="304" width="16" height="16">
   <properties>
    <property name="bg layer" value="0"/>
   </properties>
  </object>
  <object id="2926" gid="16528" x="8576" y="368" width="16" height="16">
   <properties>
    <property name="bg layer" value="0"/>
   </properties>
  </object>
  <object id="2925" gid="16528" x="8496" y="320" width="16" height="16">
   <properties>
    <property name="bg layer" value="0"/>
   </properties>
  </object>
  <object id="2924" gid="16528" x="8384" y="368" width="16" height="16">
   <properties>
    <property name="bg layer" value="0"/>
   </properties>
  </object>
  <object id="2923" gid="16528" x="8304" y="320" width="16" height="16">
   <properties>
    <property name="bg layer" value="0"/>
   </properties>
  </object>
  <object id="2922" gid="16528" x="8208" y="376" width="16" height="16">
   <properties>
    <property name="bg layer" value="0"/>
   </properties>
  </object>
  <object id="2921" gid="16528" x="8144" y="320" width="16" height="16">
   <properties>
    <property name="bg layer" value="0"/>
   </properties>
  </object>
  <object id="2920" gid="16528" x="8048" y="368" width="16" height="16">
   <properties>
    <property name="bg layer" value="0"/>
   </properties>
  </object>
  <object id="2919" gid="16528" x="7936" y="368" width="16" height="16">
   <properties>
    <property name="bg layer" value="0"/>
   </properties>
  </object>
  <object id="2918" gid="16528" x="7776" y="368" width="16" height="16">
   <properties>
    <property name="bg layer" value="0"/>
   </properties>
  </object>
  <object id="3037" gid="16528" x="7696" y="320" width="16" height="16">
   <properties>
    <property name="bg layer" value="0"/>
   </properties>
  </object>
  <object id="2917" gid="16528" x="7608" y="368" width="16" height="16">
   <properties>
    <property name="bg layer" value="0"/>
   </properties>
  </object>
  <object id="2916" gid="16528" x="7488" y="376" width="16" height="16">
   <properties>
    <property name="bg layer" value="0"/>
   </properties>
  </object>
  <object id="2915" gid="16528" x="7368" y="320" width="16" height="16">
   <properties>
    <property name="bg layer" value="0"/>
   </properties>
  </object>
  <object id="2913" gid="16528" x="7192" y="368" width="16" height="16">
   <properties>
    <property name="bg layer" value="0"/>
   </properties>
  </object>
  <object id="2912" gid="16528" x="7024" y="304" width="16" height="16">
   <properties>
    <property name="bg layer" value="0"/>
   </properties>
  </object>
  <object id="2911" gid="16528" x="6928" y="320" width="16" height="16">
   <properties>
    <property name="bg layer" value="0"/>
   </properties>
  </object>
  <object id="2910" gid="16528" x="6848" y="368" width="16" height="16">
   <properties>
    <property name="bg layer" value="0"/>
   </properties>
  </object>
  <object id="2909" gid="16528" x="6336" y="400" width="16" height="16">
   <properties>
    <property name="bg layer" value="0"/>
   </properties>
  </object>
  <object id="2908" gid="16528" x="6400" y="272" width="16" height="16">
   <properties>
    <property name="bg layer" value="0"/>
   </properties>
  </object>
  <object id="2907" gid="16528" x="6336" y="256" width="16" height="16">
   <properties>
    <property name="bg layer" value="0"/>
   </properties>
  </object>
  <object id="2906" gid="16528" x="6272" y="272" width="16" height="16">
   <properties>
    <property name="bg layer" value="0"/>
   </properties>
  </object>
  <object id="2905" gid="16528" x="6144" y="304" width="16" height="16">
   <properties>
    <property name="bg layer" value="0"/>
   </properties>
  </object>
  <object id="2904" gid="16528" x="6096" y="384" width="16" height="16">
   <properties>
    <property name="bg layer" value="0"/>
   </properties>
  </object>
  <object id="2903" gid="16528" x="6048" y="288" width="16" height="16">
   <properties>
    <property name="bg layer" value="0"/>
   </properties>
  </object>
  <object id="2902" gid="16528" x="5952" y="400" width="16" height="16">
   <properties>
    <property name="bg layer" value="0"/>
   </properties>
  </object>
  <object id="2901" gid="16528" x="5888" y="320" width="16" height="16">
   <properties>
    <property name="bg layer" value="0"/>
   </properties>
  </object>
  <object id="1493" gid="16528" x="4160" y="336" width="16" height="16">
   <properties>
    <property name="bg layer" value="0"/>
   </properties>
  </object>
  <object id="1492" gid="16528" x="4032" y="320" width="16" height="16">
   <properties>
    <property name="bg layer" value="0"/>
   </properties>
  </object>
  <object id="1491" gid="16528" x="3872" y="304" width="16" height="16">
   <properties>
    <property name="bg layer" value="0"/>
   </properties>
  </object>
  <object id="1490" gid="16528" x="3760" y="304" width="16" height="16">
   <properties>
    <property name="bg layer" value="0"/>
   </properties>
  </object>
  <object id="1489" gid="16528" x="3808" y="288" width="16" height="16">
   <properties>
    <property name="bg layer" value="0"/>
   </properties>
  </object>
  <object id="1488" gid="16528" x="3744" y="400" width="16" height="16">
   <properties>
    <property name="bg layer" value="0"/>
   </properties>
  </object>
  <object id="1487" gid="16528" x="3648" y="336" width="16" height="16">
   <properties>
    <property name="bg layer" value="0"/>
   </properties>
  </object>
  <object id="1486" gid="16528" x="3568" y="272" width="16" height="16">
   <properties>
    <property name="bg layer" value="0"/>
   </properties>
  </object>
  <object id="1485" gid="16528" x="3472" y="336" width="16" height="16">
   <properties>
    <property name="bg layer" value="0"/>
   </properties>
  </object>
  <object id="1484" gid="16528" x="3360" y="288" width="16" height="16">
   <properties>
    <property name="bg layer" value="0"/>
   </properties>
  </object>
  <object id="1483" gid="16528" x="3344" y="400" width="16" height="16">
   <properties>
    <property name="bg layer" value="0"/>
   </properties>
  </object>
  <object id="1481" gid="16528" x="3280" y="320" width="16" height="16">
   <properties>
    <property name="bg layer" value="0"/>
   </properties>
  </object>
  <object id="1480" gid="16528" x="3184" y="408" width="16" height="16">
   <properties>
    <property name="bg layer" value="0"/>
   </properties>
  </object>
  <object id="1479" gid="16528" x="3088" y="320" width="16" height="16">
   <properties>
    <property name="bg layer" value="0"/>
   </properties>
  </object>
  <object id="1478" gid="16528" x="3008" y="320" width="16" height="16">
   <properties>
    <property name="bg layer" value="0"/>
   </properties>
  </object>
  <object id="1475" gid="16528" x="2944" y="336" width="16" height="16">
   <properties>
    <property name="bg layer" value="0"/>
   </properties>
  </object>
  <object id="1477" gid="16528" x="2816" y="352" width="16" height="16">
   <properties>
    <property name="bg layer" value="0"/>
   </properties>
  </object>
  <object id="1476" gid="16528" x="2640" y="336" width="16" height="16">
   <properties>
    <property name="bg layer" value="0"/>
   </properties>
  </object>
  <object id="2882" gid="16528" x="2496" y="240" width="16" height="16">
   <properties>
    <property name="bg layer" value="0"/>
   </properties>
  </object>
  <object id="1474" gid="16528" x="2384" y="400" width="16" height="16">
   <properties>
    <property name="bg layer" value="0"/>
   </properties>
  </object>
  <object id="1473" gid="16528" x="2256" y="320" width="16" height="16">
   <properties>
    <property name="bg layer" value="0"/>
   </properties>
  </object>
  <object id="1472" gid="16528" x="2128" y="320" width="16" height="16">
   <properties>
    <property name="bg layer" value="0"/>
   </properties>
  </object>
  <object id="1458" gid="16528" x="704" y="400" width="16" height="16">
   <properties>
    <property name="bg layer" value="0"/>
   </properties>
  </object>
  <object id="1495" gid="16396" x="368" y="384" width="16" height="16"/>
  <object id="1496" gid="16396" x="400" y="400" width="16" height="16"/>
  <object id="1497" gid="16396" x="672" y="352" width="16" height="16">
   <properties>
    <property name="vflip" type="bool" value="true"/>
   </properties>
  </object>
  <object id="1498" gid="16396" x="704" y="336" width="16" height="16">
   <properties>
    <property name="vflip" type="bool" value="true"/>
   </properties>
  </object>
  <object id="1499" gid="16396" x="848" y="400" width="16" height="16"/>
  <object id="1500" gid="16396" x="912" y="384" width="16" height="16"/>
  <object id="1501" gid="16396" x="976" y="368" width="16" height="16"/>
  <object id="1502" gid="16396" x="1216" y="384" width="16" height="16"/>
  <object id="1503" gid="16396" x="1248" y="400" width="16" height="16"/>
  <object id="1504" gid="16396" x="1344" y="320" width="16" height="16">
   <properties>
    <property name="vflip" type="bool" value="true"/>
   </properties>
  </object>
  <object id="1505" gid="16396" x="1520" y="384" width="16" height="16"/>
  <object id="1506" gid="16396" x="1584" y="368" width="16" height="16"/>
  <object id="1507" gid="16396" x="1616" y="384" width="16" height="16"/>
  <object id="1508" gid="16396" x="1648" y="400" width="16" height="16"/>
  <object id="1509" gid="16396" x="1904" y="352" width="16" height="16">
   <properties>
    <property name="vflip" type="bool" value="true"/>
   </properties>
  </object>
  <object id="1510" gid="16396" x="1936" y="352" width="16" height="16">
   <properties>
    <property name="vflip" type="bool" value="true"/>
   </properties>
  </object>
  <object id="1511" gid="16396" x="2016" y="368" width="16" height="16">
   <properties>
    <property name="vflip" type="bool" value="true"/>
   </properties>
  </object>
  <object id="1512" gid="16396" x="2080" y="384" width="16" height="16">
   <properties>
    <property name="vflip" type="bool" value="true"/>
   </properties>
  </object>
  <object id="1513" gid="16396" x="2240" y="384" width="16" height="16"/>
  <object id="1514" gid="16396" x="2272" y="384" width="16" height="16"/>
  <object id="1515" gid="16396" x="2352" y="368" width="16" height="16"/>
  <object id="1516" gid="16396" x="2560" y="368" width="16" height="16"/>
  <object id="1517" gid="16396" x="2592" y="384" width="16" height="16"/>
  <object id="1518" gid="16396" x="2624" y="400" width="16" height="16"/>
  <object id="1519" gid="16396" x="2704" y="384" width="16" height="16"/>
  <object id="1520" gid="16396" x="2736" y="400" width="16" height="16"/>
  <object id="1521" gid="16396" x="2864" y="400" width="16" height="16">
   <properties>
    <property name="vflip" type="bool" value="true"/>
   </properties>
  </object>
  <object id="1522" gid="16396" x="2896" y="384" width="16" height="16">
   <properties>
    <property name="vflip" type="bool" value="true"/>
   </properties>
  </object>
  <object id="1523" gid="16396" x="3040" y="352" width="16" height="16">
   <properties>
    <property name="vflip" type="bool" value="true"/>
   </properties>
  </object>
  <object id="1524" gid="16396" x="3120" y="384" width="16" height="16"/>
  <object id="1525" gid="16396" x="3424" y="384" width="16" height="16"/>
  <object id="1526" gid="16396" x="3456" y="400" width="16" height="16"/>
  <object id="1527" gid="16396" x="3696" y="352" width="16" height="16">
   <properties>
    <property name="vflip" type="bool" value="true"/>
   </properties>
  </object>
  <object id="1528" gid="16396" x="3728" y="336" width="16" height="16">
   <properties>
    <property name="vflip" type="bool" value="true"/>
   </properties>
  </object>
  <object id="1529" gid="16396" x="3936" y="336" width="16" height="16">
   <properties>
    <property name="vflip" type="bool" value="true"/>
   </properties>
  </object>
  <object id="1530" gid="16396" x="4000" y="400" width="16" height="16"/>
  <object id="1531" gid="16396" x="4144" y="400" width="16" height="16"/>
  <object id="1532" gid="16396" x="4208" y="384" width="16" height="16"/>
  <object id="1533" gid="16396" x="4272" y="368" width="16" height="16"/>
  <object id="1534" gid="16447" x="976" y="336" width="16" height="16"/>
  <object id="1537" gid="16447" x="2768" y="384" width="16" height="16"/>
  <object id="1539" gid="16447" x="4272" y="336" width="16" height="16"/>
  <object id="1535" gid="16510" x="976" y="336" width="16" height="16"/>
  <object id="1536" gid="16510" x="2768" y="384" width="16" height="16"/>
  <object id="1538" gid="16510" x="4272" y="336" width="16" height="16"/>
  <object id="1540" gid="16428" x="2752" y="432" width="16" height="16">
   <properties>
    <property name="bg layer" value="1"/>
    <property name="metatile ID appearance" type="int" value="3460"/>
   </properties>
  </object>
  <object id="1541" gid="16428" x="2784" y="432" width="16" height="16">
   <properties>
    <property name="bg layer" value="1"/>
    <property name="metatile ID appearance" type="int" value="3460"/>
   </properties>
  </object>
  <object id="1568" gid="16388" x="6700" y="240" width="16" height="16">
   <properties>
    <property name="Channel" value="1"/>
    <property name="Color" type="color" value="#ff1eec00"/>
   </properties>
  </object>
  <object id="1651" gid="16388" x="7055" y="240" width="16" height="16">
   <properties>
    <property name="Channel" value="1"/>
    <property name="Color" type="color" value="#ff1eec00"/>
   </properties>
  </object>
  <object id="1658" gid="16388" x="7396" y="240" width="16" height="16">
   <properties>
    <property name="Channel" value="1"/>
    <property name="Color" type="color" value="#ff1eec00"/>
   </properties>
  </object>
  <object id="1678" gid="16388" x="7736" y="240" width="16" height="16">
   <properties>
    <property name="Channel" value="1"/>
    <property name="Color" type="color" value="#ff1eec00"/>
   </properties>
  </object>
  <object id="1682" gid="16388" x="7894" y="240" width="16" height="16">
   <properties>
    <property name="Channel" value="1"/>
    <property name="Color" type="color" value="#ff1eec00"/>
   </properties>
  </object>
  <object id="1690" gid="16388" x="8254" y="240" width="16" height="16">
   <properties>
    <property name="Channel" value="1"/>
    <property name="Color" type="color" value="#ff1eec00"/>
   </properties>
  </object>
  <object id="1698" gid="16388" x="8590" y="240" width="16" height="16">
   <properties>
    <property name="Channel" value="1"/>
    <property name="Color" type="color" value="#ff1eec00"/>
   </properties>
  </object>
  <object id="1706" gid="16388" x="8920" y="240" width="16" height="16">
   <properties>
    <property name="Channel" value="1"/>
    <property name="Color" type="color" value="#ff1eec00"/>
   </properties>
  </object>
  <object id="1718" gid="16388" x="9169" y="240" width="16" height="16">
   <properties>
    <property name="Channel" value="1"/>
    <property name="Color" type="color" value="#ff1eec00"/>
   </properties>
  </object>
  <object id="1726" gid="16388" x="9395" y="240" width="16" height="16">
   <properties>
    <property name="Channel" value="1"/>
    <property name="Color" type="color" value="#ff1eec00"/>
   </properties>
  </object>
  <object id="1734" gid="16388" x="9620" y="240" width="16" height="16">
   <properties>
    <property name="Channel" value="1"/>
    <property name="Color" type="color" value="#ff1eec00"/>
   </properties>
  </object>
  <object id="1742" gid="16388" x="9839" y="240" width="16" height="16">
   <properties>
    <property name="Channel" value="1"/>
    <property name="Color" type="color" value="#ff1eec00"/>
   </properties>
  </object>
  <object id="1750" gid="16388" x="10063" y="240" width="16" height="16">
   <properties>
    <property name="Channel" value="1"/>
    <property name="Color" type="color" value="#ff1eec00"/>
   </properties>
  </object>
  <object id="1758" gid="16388" x="10173" y="240" width="16" height="16">
   <properties>
    <property name="Channel" value="1"/>
    <property name="Color" type="color" value="#ff1eec00"/>
   </properties>
  </object>
  <object id="1766" gid="16388" x="10398" y="240" width="16" height="16">
   <properties>
    <property name="Channel" value="1"/>
    <property name="Color" type="color" value="#ff1eec00"/>
   </properties>
  </object>
  <object id="1778" gid="16388" x="10724" y="240" width="16" height="16">
   <properties>
    <property name="Channel" value="1"/>
    <property name="Color" type="color" value="#ff1eec00"/>
   </properties>
  </object>
  <object id="1774" gid="16388" x="10612" y="240" width="16" height="16">
   <properties>
    <property name="Channel" value="1"/>
    <property name="Color" type="color" value="#ff1eec00"/>
   </properties>
  </object>
  <object id="1782" gid="16388" x="10832" y="240" width="16" height="16">
   <properties>
    <property name="Channel" value="1"/>
    <property name="Color" type="color" value="#ff1eec00"/>
   </properties>
  </object>
  <object id="1790" gid="16388" x="11229" y="240" width="16" height="16">
   <properties>
    <property name="Channel" value="1"/>
    <property name="Color" type="color" value="#ff1eec00"/>
   </properties>
  </object>
  <object id="1814" gid="16388" x="11667" y="240" width="16" height="16">
   <properties>
    <property name="Channel" value="1"/>
    <property name="Color" type="color" value="#ff1eec00"/>
   </properties>
  </object>
  <object id="1836" gid="16388" x="12333" y="240" width="16" height="16">
   <properties>
    <property name="Channel" value="1"/>
    <property name="Color" type="color" value="#ff1eec00"/>
   </properties>
  </object>
  <object id="1858" gid="16388" x="12552" y="240" width="16" height="16">
   <properties>
    <property name="Channel" value="1"/>
    <property name="Color" type="color" value="#ff1eec00"/>
   </properties>
  </object>
  <object id="1878" gid="16388" x="12773" y="240" width="16" height="16">
   <properties>
    <property name="Channel" value="1"/>
    <property name="Color" type="color" value="#ff1eec00"/>
   </properties>
  </object>
  <object id="1802" gid="16388" x="11450" y="240" width="16" height="16">
   <properties>
    <property name="Channel" value="1"/>
    <property name="Color" type="color" value="#ffec0006"/>
   </properties>
  </object>
  <object id="1826" gid="16388" x="12112" y="240" width="16" height="16">
   <properties>
    <property name="Channel" value="1"/>
    <property name="Color" type="color" value="#ffec0006"/>
   </properties>
  </object>
  <object id="1850" gid="16388" x="12495" y="240" width="16" height="16">
   <properties>
    <property name="Channel" value="1"/>
    <property name="Color" type="color" value="#ffec0006"/>
   </properties>
  </object>
  <object id="1870" gid="16388" x="12667" y="240" width="16" height="16">
   <properties>
    <property name="Channel" value="1"/>
    <property name="Color" type="color" value="#ffec0006"/>
   </properties>
  </object>
  <object id="1798" gid="16388" x="11336" y="240" width="16" height="16">
   <properties>
    <property name="Channel" value="1"/>
    <property name="Color" type="color" value="#ffec0006"/>
   </properties>
  </object>
  <object id="1822" gid="16388" x="11782" y="240" width="16" height="16">
   <properties>
    <property name="Channel" value="1"/>
    <property name="Color" type="color" value="#ffec0006"/>
   </properties>
  </object>
  <object id="1846" gid="16388" x="12448" y="240" width="16" height="16">
   <properties>
    <property name="Channel" value="1"/>
    <property name="Color" type="color" value="#ffec0006"/>
   </properties>
  </object>
  <object id="1866" gid="16388" x="12588" y="240" width="16" height="16">
   <properties>
    <property name="Channel" value="1"/>
    <property name="Color" type="color" value="#ffec0006"/>
   </properties>
  </object>
  <object id="1886" gid="16388" x="12880" y="240" width="16" height="16">
   <properties>
    <property name="Channel" value="1"/>
    <property name="Color" type="color" value="#ffec008f"/>
   </properties>
  </object>
  <object id="1947" gid="16388" x="13165" y="240" width="16" height="16">
   <properties>
    <property name="Channel" value="1"/>
    <property name="Color" type="color" value="#ffec008f"/>
   </properties>
  </object>
  <object id="1954" gid="16388" x="13435" y="240" width="16" height="16">
   <properties>
    <property name="Channel" value="1"/>
    <property name="Color" type="color" value="#ffec008f"/>
   </properties>
  </object>
  <object id="1967" gid="16388" x="13715" y="240" width="16" height="16">
   <properties>
    <property name="Channel" value="1"/>
    <property name="Color" type="color" value="#ffec008f"/>
   </properties>
  </object>
  <object id="1978" gid="16388" x="13920" y="240" width="16" height="16">
   <properties>
    <property name="Channel" value="1"/>
    <property name="Color" type="color" value="#ffec008f"/>
   </properties>
  </object>
  <object id="1974" gid="16388" x="13845" y="240" width="16" height="16">
   <properties>
    <property name="Channel" value="1"/>
    <property name="Color" type="color" value="#ffec008f"/>
   </properties>
  </object>
  <object id="1943" gid="16388" x="13019" y="240" width="16" height="16">
   <properties>
    <property name="Channel" value="1"/>
    <property name="Color" type="color" value="#ff0aec00"/>
   </properties>
  </object>
  <object id="1950" gid="16388" x="13297" y="240" width="16" height="16">
   <properties>
    <property name="Channel" value="1"/>
    <property name="Color" type="color" value="#ff0aec00"/>
   </properties>
  </object>
  <object id="1963" gid="16388" x="13574" y="240" width="16" height="16">
   <properties>
    <property name="Channel" value="1"/>
    <property name="Color" type="color" value="#ff0aec00"/>
   </properties>
  </object>
  <object id="1970" gid="16388" x="13779" y="240" width="16" height="16">
   <properties>
    <property name="Channel" value="1"/>
    <property name="Color" type="color" value="#ff0aec00"/>
   </properties>
  </object>
  <object id="1810" gid="16388" x="11568" y="240" width="16" height="16">
   <properties>
    <property name="Channel" value="1"/>
    <property name="Color" type="color" value="#ff1eec00"/>
   </properties>
  </object>
  <object id="1838" gid="16388" x="12230" y="240" width="16" height="16">
   <properties>
    <property name="Channel" value="1"/>
    <property name="Color" type="color" value="#ff1eec00"/>
   </properties>
  </object>
  <object id="1569" gid="16388" x="6700" y="256" width="16" height="16">
   <properties>
    <property name="Channel" value="2"/>
    <property name="Color" type="color" value="#ffff0000"/>
   </properties>
  </object>
  <object id="1649" gid="16388" x="7055" y="256" width="16" height="16">
   <properties>
    <property name="Channel" value="2"/>
    <property name="Color" type="color" value="#ffff0000"/>
   </properties>
  </object>
  <object id="1656" gid="16388" x="7396" y="256" width="16" height="16">
   <properties>
    <property name="Channel" value="2"/>
    <property name="Color" type="color" value="#ffff0000"/>
   </properties>
  </object>
  <object id="1676" gid="16388" x="7736" y="256" width="16" height="16">
   <properties>
    <property name="Channel" value="2"/>
    <property name="Color" type="color" value="#ffff0000"/>
   </properties>
  </object>
  <object id="1680" gid="16388" x="7894" y="256" width="16" height="16">
   <properties>
    <property name="Channel" value="2"/>
    <property name="Color" type="color" value="#ffff0000"/>
   </properties>
  </object>
  <object id="1688" gid="16388" x="8254" y="256" width="16" height="16">
   <properties>
    <property name="Channel" value="2"/>
    <property name="Color" type="color" value="#ffff0000"/>
   </properties>
  </object>
  <object id="1696" gid="16388" x="8590" y="256" width="16" height="16">
   <properties>
    <property name="Channel" value="2"/>
    <property name="Color" type="color" value="#ffff0000"/>
   </properties>
  </object>
  <object id="1704" gid="16388" x="8920" y="256" width="16" height="16">
   <properties>
    <property name="Channel" value="2"/>
    <property name="Color" type="color" value="#ffff0000"/>
   </properties>
  </object>
  <object id="1716" gid="16388" x="9169" y="256" width="16" height="16">
   <properties>
    <property name="Channel" value="2"/>
    <property name="Color" type="color" value="#ffff0000"/>
   </properties>
  </object>
  <object id="1724" gid="16388" x="9395" y="256" width="16" height="16">
   <properties>
    <property name="Channel" value="2"/>
    <property name="Color" type="color" value="#ffff0000"/>
   </properties>
  </object>
  <object id="1732" gid="16388" x="9620" y="256" width="16" height="16">
   <properties>
    <property name="Channel" value="2"/>
    <property name="Color" type="color" value="#ffff0000"/>
   </properties>
  </object>
  <object id="1740" gid="16388" x="9839" y="256" width="16" height="16">
   <properties>
    <property name="Channel" value="2"/>
    <property name="Color" type="color" value="#ffff0000"/>
   </properties>
  </object>
  <object id="1748" gid="16388" x="10063" y="256" width="16" height="16">
   <properties>
    <property name="Channel" value="2"/>
    <property name="Color" type="color" value="#ffff0000"/>
   </properties>
  </object>
  <object id="1756" gid="16388" x="10173" y="256" width="16" height="16">
   <properties>
    <property name="Channel" value="2"/>
    <property name="Color" type="color" value="#ffff0000"/>
   </properties>
  </object>
  <object id="1764" gid="16388" x="10398" y="256" width="16" height="16">
   <properties>
    <property name="Channel" value="2"/>
    <property name="Color" type="color" value="#ffff0000"/>
   </properties>
  </object>
  <object id="1776" gid="16388" x="10724" y="256" width="16" height="16">
   <properties>
    <property name="Channel" value="2"/>
    <property name="Color" type="color" value="#ffff0000"/>
   </properties>
  </object>
  <object id="1772" gid="16388" x="10612" y="256" width="16" height="16">
   <properties>
    <property name="Channel" value="2"/>
    <property name="Color" type="color" value="#ffff0000"/>
   </properties>
  </object>
  <object id="1780" gid="16388" x="10832" y="256" width="16" height="16">
   <properties>
    <property name="Channel" value="2"/>
    <property name="Color" type="color" value="#ffff0000"/>
   </properties>
  </object>
  <object id="1788" gid="16388" x="11229" y="256" width="16" height="16">
   <properties>
    <property name="Channel" value="2"/>
    <property name="Color" type="color" value="#ff1eec00"/>
   </properties>
  </object>
  <object id="1812" gid="16388" x="11667" y="256" width="16" height="16">
   <properties>
    <property name="Channel" value="2"/>
    <property name="Color" type="color" value="#ff1eec00"/>
   </properties>
  </object>
  <object id="1832" gid="16388" x="12333" y="256" width="16" height="16">
   <properties>
    <property name="Channel" value="2"/>
    <property name="Color" type="color" value="#ff1eec00"/>
   </properties>
  </object>
  <object id="1856" gid="16388" x="12552" y="256" width="16" height="16">
   <properties>
    <property name="Channel" value="2"/>
    <property name="Color" type="color" value="#ff1eec00"/>
   </properties>
  </object>
  <object id="1876" gid="16388" x="12773" y="256" width="16" height="16">
   <properties>
    <property name="Channel" value="2"/>
    <property name="Color" type="color" value="#ff1eec00"/>
   </properties>
  </object>
  <object id="1800" gid="16388" x="11450" y="256" width="16" height="16">
   <properties>
    <property name="Channel" value="2"/>
    <property name="Color" type="color" value="#ffec0006"/>
   </properties>
  </object>
  <object id="1824" gid="16388" x="12112" y="256" width="16" height="16">
   <properties>
    <property name="Channel" value="2"/>
    <property name="Color" type="color" value="#ffec0006"/>
   </properties>
  </object>
  <object id="1848" gid="16388" x="12495" y="256" width="16" height="16">
   <properties>
    <property name="Channel" value="2"/>
    <property name="Color" type="color" value="#ffec0006"/>
   </properties>
  </object>
  <object id="1868" gid="16388" x="12667" y="256" width="16" height="16">
   <properties>
    <property name="Channel" value="2"/>
    <property name="Color" type="color" value="#ffec0006"/>
   </properties>
  </object>
  <object id="1796" gid="16388" x="11336" y="256" width="16" height="16">
   <properties>
    <property name="Channel" value="2"/>
    <property name="Color" type="color" value="#ff1eec00"/>
   </properties>
  </object>
  <object id="1820" gid="16388" x="11782" y="256" width="16" height="16">
   <properties>
    <property name="Channel" value="2"/>
    <property name="Color" type="color" value="#ff1eec00"/>
   </properties>
  </object>
  <object id="1844" gid="16388" x="12448" y="256" width="16" height="16">
   <properties>
    <property name="Channel" value="2"/>
    <property name="Color" type="color" value="#ff1eec00"/>
   </properties>
  </object>
  <object id="1864" gid="16388" x="12588" y="256" width="16" height="16">
   <properties>
    <property name="Channel" value="2"/>
    <property name="Color" type="color" value="#ff1eec00"/>
   </properties>
  </object>
  <object id="1884" gid="16388" x="12880" y="256" width="16" height="16">
   <properties>
    <property name="Channel" value="2"/>
    <property name="Color" type="color" value="#ff11ec00"/>
   </properties>
  </object>
  <object id="1945" gid="16388" x="13165" y="256" width="16" height="16">
   <properties>
    <property name="Channel" value="2"/>
    <property name="Color" type="color" value="#ff11ec00"/>
   </properties>
  </object>
  <object id="1952" gid="16388" x="13435" y="256" width="16" height="16">
   <properties>
    <property name="Channel" value="2"/>
    <property name="Color" type="color" value="#ff11ec00"/>
   </properties>
  </object>
  <object id="1965" gid="16388" x="13715" y="256" width="16" height="16">
   <properties>
    <property name="Channel" value="2"/>
    <property name="Color" type="color" value="#ff11ec00"/>
   </properties>
  </object>
  <object id="1976" gid="16388" x="13920" y="256" width="16" height="16">
   <properties>
    <property name="Channel" value="2"/>
    <property name="Color" type="color" value="#ff11ec00"/>
   </properties>
  </object>
  <object id="1972" gid="16388" x="13845" y="256" width="16" height="16">
   <properties>
    <property name="Channel" value="2"/>
    <property name="Color" type="color" value="#ff11ec00"/>
   </properties>
  </object>
  <object id="1941" gid="16388" x="13019" y="256" width="16" height="16">
   <properties>
    <property name="Channel" value="2"/>
    <property name="Color" type="color" value="#ffff007d"/>
   </properties>
  </object>
  <object id="1948" gid="16388" x="13297" y="256" width="16" height="16">
   <properties>
    <property name="Channel" value="2"/>
    <property name="Color" type="color" value="#ffff007d"/>
   </properties>
  </object>
  <object id="1961" gid="16388" x="13574" y="256" width="16" height="16">
   <properties>
    <property name="Channel" value="2"/>
    <property name="Color" type="color" value="#ffff007d"/>
   </properties>
  </object>
  <object id="1968" gid="16388" x="13779" y="256" width="16" height="16">
   <properties>
    <property name="Channel" value="2"/>
    <property name="Color" type="color" value="#ffff007d"/>
   </properties>
  </object>
  <object id="1808" gid="16388" x="11568" y="256" width="16" height="16">
   <properties>
    <property name="Channel" value="2"/>
    <property name="Color" type="color" value="#ffff0000"/>
   </properties>
  </object>
  <object id="1834" gid="16388" x="12230" y="256" width="16" height="16">
   <properties>
    <property name="Channel" value="2"/>
    <property name="Color" type="color" value="#ffff0000"/>
   </properties>
  </object>
  <object id="1570" gid="16388" x="6716" y="240" width="16" height="16">
   <properties>
    <property name="Channel" value="1"/>
    <property name="Color" type="color" value="#ff129400"/>
    <property name="Frames" type="int" value="21"/>
   </properties>
  </object>
  <object id="1650" gid="16388" x="7071" y="240" width="16" height="16">
   <properties>
    <property name="Channel" value="1"/>
    <property name="Color" type="color" value="#ff129400"/>
    <property name="Frames" type="int" value="21"/>
   </properties>
  </object>
  <object id="1659" gid="16388" x="7412" y="240" width="16" height="16">
   <properties>
    <property name="Channel" value="1"/>
    <property name="Color" type="color" value="#ff129400"/>
    <property name="Frames" type="int" value="21"/>
   </properties>
  </object>
  <object id="1679" gid="16388" x="7752" y="240" width="16" height="16">
   <properties>
    <property name="Channel" value="1"/>
    <property name="Color" type="color" value="#ff129400"/>
    <property name="Frames" type="int" value="21"/>
   </properties>
  </object>
  <object id="1683" gid="16388" x="7910" y="240" width="16" height="16">
   <properties>
    <property name="Channel" value="1"/>
    <property name="Color" type="color" value="#ff129400"/>
    <property name="Frames" type="int" value="21"/>
   </properties>
  </object>
  <object id="1691" gid="16388" x="8270" y="240" width="16" height="16">
   <properties>
    <property name="Channel" value="1"/>
    <property name="Color" type="color" value="#ff129400"/>
    <property name="Frames" type="int" value="21"/>
   </properties>
  </object>
  <object id="1699" gid="16388" x="8606" y="240" width="16" height="16">
   <properties>
    <property name="Channel" value="1"/>
    <property name="Color" type="color" value="#ff129400"/>
    <property name="Frames" type="int" value="21"/>
   </properties>
  </object>
  <object id="1707" gid="16388" x="8936" y="240" width="16" height="16">
   <properties>
    <property name="Channel" value="1"/>
    <property name="Color" type="color" value="#ff129400"/>
    <property name="Frames" type="int" value="21"/>
   </properties>
  </object>
  <object id="1719" gid="16388" x="9185" y="240" width="16" height="16">
   <properties>
    <property name="Channel" value="1"/>
    <property name="Color" type="color" value="#ff129400"/>
    <property name="Frames" type="int" value="21"/>
   </properties>
  </object>
  <object id="1727" gid="16388" x="9411" y="240" width="16" height="16">
   <properties>
    <property name="Channel" value="1"/>
    <property name="Color" type="color" value="#ff129400"/>
    <property name="Frames" type="int" value="21"/>
   </properties>
  </object>
  <object id="1735" gid="16388" x="9636" y="240" width="16" height="16">
   <properties>
    <property name="Channel" value="1"/>
    <property name="Color" type="color" value="#ff129400"/>
    <property name="Frames" type="int" value="21"/>
   </properties>
  </object>
  <object id="1743" gid="16388" x="9855" y="240" width="16" height="16">
   <properties>
    <property name="Channel" value="1"/>
    <property name="Color" type="color" value="#ff129400"/>
    <property name="Frames" type="int" value="21"/>
   </properties>
  </object>
  <object id="1751" gid="16388" x="10079" y="240" width="16" height="16">
   <properties>
    <property name="Channel" value="1"/>
    <property name="Color" type="color" value="#ff129400"/>
    <property name="Frames" type="int" value="21"/>
   </properties>
  </object>
  <object id="1759" gid="16388" x="10189" y="240" width="16" height="16">
   <properties>
    <property name="Channel" value="1"/>
    <property name="Color" type="color" value="#ff129400"/>
    <property name="Frames" type="int" value="21"/>
   </properties>
  </object>
  <object id="1767" gid="16388" x="10414" y="240" width="16" height="16">
   <properties>
    <property name="Channel" value="1"/>
    <property name="Color" type="color" value="#ff129400"/>
    <property name="Frames" type="int" value="21"/>
   </properties>
  </object>
  <object id="1779" gid="16388" x="10740" y="240" width="16" height="16">
   <properties>
    <property name="Channel" value="1"/>
    <property name="Color" type="color" value="#ff129400"/>
    <property name="Frames" type="int" value="21"/>
   </properties>
  </object>
  <object id="1775" gid="16388" x="10628" y="240" width="16" height="16">
   <properties>
    <property name="Channel" value="1"/>
    <property name="Color" type="color" value="#ff129400"/>
    <property name="Frames" type="int" value="21"/>
   </properties>
  </object>
  <object id="1783" gid="16388" x="10848" y="240" width="16" height="16">
   <properties>
    <property name="Channel" value="1"/>
    <property name="Color" type="color" value="#ff129400"/>
    <property name="Frames" type="int" value="21"/>
   </properties>
  </object>
  <object id="1791" gid="16388" x="11245" y="240" width="16" height="16">
   <properties>
    <property name="Channel" value="1"/>
    <property name="Color" type="color" value="#ff17b900"/>
    <property name="Frames" type="int" value="18"/>
   </properties>
  </object>
  <object id="1815" gid="16388" x="11683" y="240" width="16" height="16">
   <properties>
    <property name="Channel" value="1"/>
    <property name="Color" type="color" value="#ff17b900"/>
    <property name="Frames" type="int" value="18"/>
   </properties>
  </object>
  <object id="1837" gid="16388" x="12349" y="240" width="16" height="16">
   <properties>
    <property name="Channel" value="1"/>
    <property name="Color" type="color" value="#ff17b900"/>
    <property name="Frames" type="int" value="18"/>
   </properties>
  </object>
  <object id="1859" gid="16388" x="12568" y="240" width="16" height="16">
   <properties>
    <property name="Channel" value="1"/>
    <property name="Color" type="color" value="#ff17b900"/>
    <property name="Frames" type="int" value="18"/>
   </properties>
  </object>
  <object id="1879" gid="16388" x="12789" y="240" width="16" height="16">
   <properties>
    <property name="Channel" value="1"/>
    <property name="Color" type="color" value="#ff17b900"/>
    <property name="Frames" type="int" value="18"/>
   </properties>
  </object>
  <object id="1803" gid="16388" x="11466" y="240" width="16" height="16">
   <properties>
    <property name="Channel" value="1"/>
    <property name="Color" type="color" value="#ff940200"/>
    <property name="Frames" type="int" value="18"/>
   </properties>
  </object>
  <object id="1827" gid="16388" x="12128" y="240" width="16" height="16">
   <properties>
    <property name="Channel" value="1"/>
    <property name="Color" type="color" value="#ff940200"/>
    <property name="Frames" type="int" value="18"/>
   </properties>
  </object>
  <object id="1851" gid="16388" x="12511" y="240" width="16" height="16">
   <properties>
    <property name="Channel" value="1"/>
    <property name="Color" type="color" value="#ff940200"/>
    <property name="Frames" type="int" value="18"/>
   </properties>
  </object>
  <object id="1871" gid="16388" x="12683" y="240" width="16" height="16">
   <properties>
    <property name="Channel" value="1"/>
    <property name="Color" type="color" value="#ff940200"/>
    <property name="Frames" type="int" value="18"/>
   </properties>
  </object>
  <object id="1799" gid="16388" x="11352" y="240" width="16" height="16">
   <properties>
    <property name="Channel" value="1"/>
    <property name="Color" type="color" value="#ff940200"/>
    <property name="Frames" type="int" value="21"/>
   </properties>
  </object>
  <object id="1823" gid="16388" x="11798" y="240" width="16" height="16">
   <properties>
    <property name="Channel" value="1"/>
    <property name="Color" type="color" value="#ff940200"/>
    <property name="Frames" type="int" value="21"/>
   </properties>
  </object>
  <object id="1847" gid="16388" x="12464" y="240" width="16" height="16">
   <properties>
    <property name="Channel" value="1"/>
    <property name="Color" type="color" value="#ff940200"/>
    <property name="Frames" type="int" value="21"/>
   </properties>
  </object>
  <object id="1867" gid="16388" x="12604" y="240" width="16" height="16">
   <properties>
    <property name="Channel" value="1"/>
    <property name="Color" type="color" value="#ff940200"/>
    <property name="Frames" type="int" value="21"/>
   </properties>
  </object>
  <object id="1887" gid="16388" x="12896" y="240" width="16" height="16">
   <properties>
    <property name="Channel" value="1"/>
    <property name="Color" type="color" value="#ffb00063"/>
    <property name="Frames" type="int" value="21"/>
   </properties>
  </object>
  <object id="1946" gid="16388" x="13181" y="240" width="16" height="16">
   <properties>
    <property name="Channel" value="1"/>
    <property name="Color" type="color" value="#ffb00063"/>
    <property name="Frames" type="int" value="21"/>
   </properties>
  </object>
  <object id="1955" gid="16388" x="13451" y="240" width="16" height="16">
   <properties>
    <property name="Channel" value="1"/>
    <property name="Color" type="color" value="#ffb00063"/>
    <property name="Frames" type="int" value="21"/>
   </properties>
  </object>
  <object id="1966" gid="16388" x="13731" y="240" width="16" height="16">
   <properties>
    <property name="Channel" value="1"/>
    <property name="Color" type="color" value="#ffb00063"/>
    <property name="Frames" type="int" value="21"/>
   </properties>
  </object>
  <object id="1979" gid="16388" x="13936" y="240" width="16" height="16">
   <properties>
    <property name="Channel" value="1"/>
    <property name="Color" type="color" value="#ff000000"/>
    <property name="Frames" type="int" value="21"/>
   </properties>
  </object>
  <object id="1975" gid="16388" x="13861" y="240" width="16" height="16">
   <properties>
    <property name="Channel" value="1"/>
    <property name="Color" type="color" value="#ffb00063"/>
    <property name="Frames" type="int" value="21"/>
   </properties>
  </object>
  <object id="1942" gid="16388" x="13035" y="240" width="16" height="16">
   <properties>
    <property name="Channel" value="1"/>
    <property name="Color" type="color" value="#ff0e9400"/>
    <property name="Frames" type="int" value="21"/>
   </properties>
  </object>
  <object id="1951" gid="16388" x="13313" y="240" width="16" height="16">
   <properties>
    <property name="Channel" value="1"/>
    <property name="Color" type="color" value="#ff0e9400"/>
    <property name="Frames" type="int" value="21"/>
   </properties>
  </object>
  <object id="1962" gid="16388" x="13590" y="240" width="16" height="16">
   <properties>
    <property name="Channel" value="1"/>
    <property name="Color" type="color" value="#ff0e9400"/>
    <property name="Frames" type="int" value="21"/>
   </properties>
  </object>
  <object id="1971" gid="16388" x="13795" y="240" width="16" height="16">
   <properties>
    <property name="Channel" value="1"/>
    <property name="Color" type="color" value="#ff0e9400"/>
    <property name="Frames" type="int" value="21"/>
   </properties>
  </object>
  <object id="1811" gid="16388" x="11584" y="240" width="16" height="16">
   <properties>
    <property name="Channel" value="1"/>
    <property name="Color" type="color" value="#ff129400"/>
    <property name="Frames" type="int" value="21"/>
   </properties>
  </object>
  <object id="1839" gid="16388" x="12246" y="240" width="16" height="16">
   <properties>
    <property name="Channel" value="1"/>
    <property name="Color" type="color" value="#ff129400"/>
    <property name="Frames" type="int" value="21"/>
   </properties>
  </object>
  <object id="1571" gid="16388" x="6716" y="256" width="16" height="16">
   <properties>
    <property name="Channel" value="2"/>
    <property name="Color" type="color" value="#ff9d0000"/>
    <property name="Frames" type="int" value="21"/>
   </properties>
  </object>
  <object id="1648" gid="16388" x="7071" y="256" width="16" height="16">
   <properties>
    <property name="Channel" value="2"/>
    <property name="Color" type="color" value="#ff9d0000"/>
    <property name="Frames" type="int" value="21"/>
   </properties>
  </object>
  <object id="1657" gid="16388" x="7412" y="256" width="16" height="16">
   <properties>
    <property name="Channel" value="2"/>
    <property name="Color" type="color" value="#ff9d0000"/>
    <property name="Frames" type="int" value="21"/>
   </properties>
  </object>
  <object id="1677" gid="16388" x="7752" y="256" width="16" height="16">
   <properties>
    <property name="Channel" value="2"/>
    <property name="Color" type="color" value="#ff9d0000"/>
    <property name="Frames" type="int" value="21"/>
   </properties>
  </object>
  <object id="1681" gid="16388" x="7910" y="256" width="16" height="16">
   <properties>
    <property name="Channel" value="2"/>
    <property name="Color" type="color" value="#ff9d0000"/>
    <property name="Frames" type="int" value="21"/>
   </properties>
  </object>
  <object id="1689" gid="16388" x="8270" y="256" width="16" height="16">
   <properties>
    <property name="Channel" value="2"/>
    <property name="Color" type="color" value="#ff9d0000"/>
    <property name="Frames" type="int" value="21"/>
   </properties>
  </object>
  <object id="1697" gid="16388" x="8606" y="256" width="16" height="16">
   <properties>
    <property name="Channel" value="2"/>
    <property name="Color" type="color" value="#ff9d0000"/>
    <property name="Frames" type="int" value="21"/>
   </properties>
  </object>
  <object id="1705" gid="16388" x="8936" y="256" width="16" height="16">
   <properties>
    <property name="Channel" value="2"/>
    <property name="Color" type="color" value="#ff9d0000"/>
    <property name="Frames" type="int" value="21"/>
   </properties>
  </object>
  <object id="1717" gid="16388" x="9185" y="256" width="16" height="16">
   <properties>
    <property name="Channel" value="2"/>
    <property name="Color" type="color" value="#ff9d0000"/>
    <property name="Frames" type="int" value="21"/>
   </properties>
  </object>
  <object id="1725" gid="16388" x="9411" y="256" width="16" height="16">
   <properties>
    <property name="Channel" value="2"/>
    <property name="Color" type="color" value="#ff9d0000"/>
    <property name="Frames" type="int" value="21"/>
   </properties>
  </object>
  <object id="1733" gid="16388" x="9636" y="256" width="16" height="16">
   <properties>
    <property name="Channel" value="2"/>
    <property name="Color" type="color" value="#ff9d0000"/>
    <property name="Frames" type="int" value="21"/>
   </properties>
  </object>
  <object id="1741" gid="16388" x="9855" y="256" width="16" height="16">
   <properties>
    <property name="Channel" value="2"/>
    <property name="Color" type="color" value="#ff9d0000"/>
    <property name="Frames" type="int" value="21"/>
   </properties>
  </object>
  <object id="1749" gid="16388" x="10079" y="256" width="16" height="16">
   <properties>
    <property name="Channel" value="2"/>
    <property name="Color" type="color" value="#ff9d0000"/>
    <property name="Frames" type="int" value="21"/>
   </properties>
  </object>
  <object id="1757" gid="16388" x="10189" y="256" width="16" height="16">
   <properties>
    <property name="Channel" value="2"/>
    <property name="Color" type="color" value="#ff9d0000"/>
    <property name="Frames" type="int" value="21"/>
   </properties>
  </object>
  <object id="1765" gid="16388" x="10414" y="256" width="16" height="16">
   <properties>
    <property name="Channel" value="2"/>
    <property name="Color" type="color" value="#ff9d0000"/>
    <property name="Frames" type="int" value="21"/>
   </properties>
  </object>
  <object id="1777" gid="16388" x="10740" y="256" width="16" height="16">
   <properties>
    <property name="Channel" value="2"/>
    <property name="Color" type="color" value="#ff9d0000"/>
    <property name="Frames" type="int" value="21"/>
   </properties>
  </object>
  <object id="1773" gid="16388" x="10628" y="256" width="16" height="16">
   <properties>
    <property name="Channel" value="2"/>
    <property name="Color" type="color" value="#ff9d0000"/>
    <property name="Frames" type="int" value="21"/>
   </properties>
  </object>
  <object id="1781" gid="16388" x="10848" y="256" width="16" height="16">
   <properties>
    <property name="Channel" value="2"/>
    <property name="Color" type="color" value="#ff9d0000"/>
    <property name="Frames" type="int" value="21"/>
   </properties>
  </object>
  <object id="1789" gid="16388" x="11245" y="256" width="16" height="16">
   <properties>
    <property name="Channel" value="2"/>
    <property name="Color" type="color" value="#ff17b900"/>
    <property name="Frames" type="int" value="21"/>
   </properties>
  </object>
  <object id="1813" gid="16388" x="11683" y="256" width="16" height="16">
   <properties>
    <property name="Channel" value="2"/>
    <property name="Color" type="color" value="#ff17b900"/>
    <property name="Frames" type="int" value="21"/>
   </properties>
  </object>
  <object id="1833" gid="16388" x="12349" y="256" width="16" height="16">
   <properties>
    <property name="Channel" value="2"/>
    <property name="Color" type="color" value="#ff17b900"/>
    <property name="Frames" type="int" value="21"/>
   </properties>
  </object>
  <object id="1857" gid="16388" x="12568" y="256" width="16" height="16">
   <properties>
    <property name="Channel" value="2"/>
    <property name="Color" type="color" value="#ff17b900"/>
    <property name="Frames" type="int" value="21"/>
   </properties>
  </object>
  <object id="1877" gid="16388" x="12789" y="256" width="16" height="16">
   <properties>
    <property name="Channel" value="2"/>
    <property name="Color" type="color" value="#ff17b900"/>
    <property name="Frames" type="int" value="21"/>
   </properties>
  </object>
  <object id="1801" gid="16388" x="11466" y="256" width="16" height="16">
   <properties>
    <property name="Channel" value="2"/>
    <property name="Color" type="color" value="#ff940200"/>
    <property name="Frames" type="int" value="21"/>
   </properties>
  </object>
  <object id="1825" gid="16388" x="12128" y="256" width="16" height="16">
   <properties>
    <property name="Channel" value="2"/>
    <property name="Color" type="color" value="#ff940200"/>
    <property name="Frames" type="int" value="21"/>
   </properties>
  </object>
  <object id="1849" gid="16388" x="12511" y="256" width="16" height="16">
   <properties>
    <property name="Channel" value="2"/>
    <property name="Color" type="color" value="#ff940200"/>
    <property name="Frames" type="int" value="21"/>
   </properties>
  </object>
  <object id="1869" gid="16388" x="12683" y="256" width="16" height="16">
   <properties>
    <property name="Channel" value="2"/>
    <property name="Color" type="color" value="#ff940200"/>
    <property name="Frames" type="int" value="21"/>
   </properties>
  </object>
  <object id="1797" gid="16388" x="11352" y="256" width="16" height="16">
   <properties>
    <property name="Channel" value="2"/>
    <property name="Color" type="color" value="#ff17b900"/>
    <property name="Frames" type="int" value="21"/>
   </properties>
  </object>
  <object id="1821" gid="16388" x="11798" y="256" width="16" height="16">
   <properties>
    <property name="Channel" value="2"/>
    <property name="Color" type="color" value="#ff17b900"/>
    <property name="Frames" type="int" value="21"/>
   </properties>
  </object>
  <object id="1845" gid="16388" x="12464" y="256" width="16" height="16">
   <properties>
    <property name="Channel" value="2"/>
    <property name="Color" type="color" value="#ff17b900"/>
    <property name="Frames" type="int" value="21"/>
   </properties>
  </object>
  <object id="1865" gid="16388" x="12604" y="256" width="16" height="16">
   <properties>
    <property name="Channel" value="2"/>
    <property name="Color" type="color" value="#ff17b900"/>
    <property name="Frames" type="int" value="21"/>
   </properties>
  </object>
  <object id="1885" gid="16388" x="12896" y="256" width="16" height="16">
   <properties>
    <property name="Channel" value="2"/>
    <property name="Color" type="color" value="#ff16b900"/>
    <property name="Frames" type="int" value="21"/>
   </properties>
  </object>
  <object id="1944" gid="16388" x="13181" y="256" width="16" height="16">
   <properties>
    <property name="Channel" value="2"/>
    <property name="Color" type="color" value="#ff16b900"/>
    <property name="Frames" type="int" value="21"/>
   </properties>
  </object>
  <object id="1953" gid="16388" x="13451" y="256" width="16" height="16">
   <properties>
    <property name="Channel" value="2"/>
    <property name="Color" type="color" value="#ff16b900"/>
    <property name="Frames" type="int" value="21"/>
   </properties>
  </object>
  <object id="1964" gid="16388" x="13731" y="256" width="16" height="16">
   <properties>
    <property name="Channel" value="2"/>
    <property name="Color" type="color" value="#ff16b900"/>
    <property name="Frames" type="int" value="21"/>
   </properties>
  </object>
  <object id="1977" gid="16388" x="13936" y="256" width="16" height="16">
   <properties>
    <property name="Channel" value="2"/>
    <property name="Color" type="color" value="#ff000000"/>
    <property name="Frames" type="int" value="21"/>
   </properties>
  </object>
  <object id="1973" gid="16388" x="13861" y="256" width="16" height="16">
   <properties>
    <property name="Channel" value="2"/>
    <property name="Color" type="color" value="#ff16b900"/>
    <property name="Frames" type="int" value="21"/>
   </properties>
  </object>
  <object id="1940" gid="16388" x="13035" y="256" width="16" height="16">
   <properties>
    <property name="Channel" value="2"/>
    <property name="Color" type="color" value="#ffc2005f"/>
    <property name="Frames" type="int" value="21"/>
   </properties>
  </object>
  <object id="1949" gid="16388" x="13313" y="256" width="16" height="16">
   <properties>
    <property name="Channel" value="2"/>
    <property name="Color" type="color" value="#ffc2005f"/>
    <property name="Frames" type="int" value="21"/>
   </properties>
  </object>
  <object id="1960" gid="16388" x="13590" y="256" width="16" height="16">
   <properties>
    <property name="Channel" value="2"/>
    <property name="Color" type="color" value="#ffc2005f"/>
    <property name="Frames" type="int" value="21"/>
   </properties>
  </object>
  <object id="1969" gid="16388" x="13795" y="256" width="16" height="16">
   <properties>
    <property name="Channel" value="2"/>
    <property name="Color" type="color" value="#ffc2005f"/>
    <property name="Frames" type="int" value="21"/>
   </properties>
  </object>
  <object id="1809" gid="16388" x="11584" y="256" width="16" height="16">
   <properties>
    <property name="Channel" value="2"/>
    <property name="Color" type="color" value="#ff9d0000"/>
    <property name="Frames" type="int" value="21"/>
   </properties>
  </object>
  <object id="1835" gid="16388" x="12246" y="256" width="16" height="16">
   <properties>
    <property name="Channel" value="2"/>
    <property name="Color" type="color" value="#ff9d0000"/>
    <property name="Frames" type="int" value="21"/>
   </properties>
  </object>
  <object id="1572" gid="16388" x="6864" y="192" width="16" height="16">
   <properties>
    <property name="Channel" value="BG"/>
    <property name="Color" type="color" value="#ff000000"/>
    <property name="Frames" type="int" value="60"/>
   </properties>
  </object>
  <object id="1581" gid="16388" x="7199" y="192" width="16" height="16">
   <properties>
    <property name="Channel" value="BG"/>
    <property name="Color" type="color" value="#ff000000"/>
    <property name="Frames" type="int" value="60"/>
   </properties>
  </object>
  <object id="1585" gid="16388" x="7555" y="192" width="16" height="16">
   <properties>
    <property name="Channel" value="BG"/>
    <property name="Color" type="color" value="#ff000000"/>
    <property name="Frames" type="int" value="60"/>
   </properties>
  </object>
  <object id="1589" gid="16388" x="7887" y="192" width="16" height="16">
   <properties>
    <property name="Channel" value="BG"/>
    <property name="Color" type="color" value="#ff000000"/>
    <property name="Frames" type="int" value="60"/>
   </properties>
  </object>
  <object id="1593" gid="16388" x="8237" y="192" width="16" height="16">
   <properties>
    <property name="Channel" value="BG"/>
    <property name="Color" type="color" value="#ff000000"/>
    <property name="Frames" type="int" value="60"/>
   </properties>
  </object>
  <object id="1599" gid="16388" x="8568" y="192" width="16" height="16">
   <properties>
    <property name="Channel" value="BG"/>
    <property name="Color" type="color" value="#ff000000"/>
    <property name="Frames" type="int" value="60"/>
   </properties>
  </object>
  <object id="1603" gid="16388" x="8949" y="192" width="16" height="16">
   <properties>
    <property name="Channel" value="BG"/>
    <property name="Color" type="color" value="#ff000000"/>
    <property name="Frames" type="int" value="60"/>
   </properties>
  </object>
  <object id="1610" gid="16388" x="9491" y="192" width="16" height="16">
   <properties>
    <property name="Channel" value="BG"/>
    <property name="Color" type="color" value="#ff000000"/>
    <property name="Frames" type="int" value="60"/>
   </properties>
  </object>
  <object id="1619" gid="16388" x="9932" y="192" width="16" height="16">
   <properties>
    <property name="Channel" value="BG"/>
    <property name="Color" type="color" value="#ff000000"/>
    <property name="Frames" type="int" value="60"/>
   </properties>
  </object>
  <object id="1627" gid="16388" x="10381" y="192" width="16" height="16">
   <properties>
    <property name="Channel" value="BG"/>
    <property name="Color" type="color" value="#ff000000"/>
    <property name="Frames" type="int" value="60"/>
   </properties>
  </object>
  <object id="1635" gid="16388" x="10724" y="192" width="16" height="16">
   <properties>
    <property name="Channel" value="BG"/>
    <property name="Color" type="color" value="#ff000000"/>
    <property name="Frames" type="int" value="30"/>
   </properties>
  </object>
  <object id="1643" gid="16388" x="10932" y="192" width="16" height="16">
   <properties>
    <property name="Channel" value="BG"/>
    <property name="Color" type="color" value="#ff000000"/>
    <property name="Frames" type="int" value="30"/>
   </properties>
  </object>
  <object id="1607" gid="16388" x="9280" y="192" width="16" height="16">
   <properties>
    <property name="Channel" value="BG"/>
    <property name="Color" type="color" value="#ff000000"/>
    <property name="Frames" type="int" value="60"/>
   </properties>
  </object>
  <object id="1614" gid="16388" x="9712" y="192" width="16" height="16">
   <properties>
    <property name="Channel" value="BG"/>
    <property name="Color" type="color" value="#ff000000"/>
    <property name="Frames" type="int" value="60"/>
   </properties>
  </object>
  <object id="1623" gid="16388" x="10151" y="192" width="16" height="16">
   <properties>
    <property name="Channel" value="BG"/>
    <property name="Color" type="color" value="#ff000000"/>
    <property name="Frames" type="int" value="60"/>
   </properties>
  </object>
  <object id="1631" gid="16388" x="10595" y="192" width="16" height="16">
   <properties>
    <property name="Channel" value="BG"/>
    <property name="Color" type="color" value="#ff000000"/>
    <property name="Frames" type="int" value="60"/>
   </properties>
  </object>
  <object id="1639" gid="16388" x="10819" y="192" width="16" height="16">
   <properties>
    <property name="Channel" value="BG"/>
    <property name="Color" type="color" value="#ff000000"/>
    <property name="Frames" type="int" value="30"/>
   </properties>
  </object>
  <object id="1647" gid="16388" x="11043" y="192" width="16" height="16">
   <properties>
    <property name="Channel" value="BG"/>
    <property name="Color" type="color" value="#ff000000"/>
    <property name="Frames" type="int" value="30"/>
   </properties>
  </object>
  <object id="1793" gid="16388" x="11229" y="192" width="16" height="16">
   <properties>
    <property name="Channel" value="BG"/>
    <property name="Color" type="color" value="#ffff0000"/>
    <property name="Frames" type="int" value="0"/>
   </properties>
  </object>
  <object id="1819" gid="16388" x="11667" y="192" width="16" height="16">
   <properties>
    <property name="Channel" value="BG"/>
    <property name="Color" type="color" value="#ffff0000"/>
    <property name="Frames" type="int" value="0"/>
   </properties>
  </object>
  <object id="1842" gid="16388" x="12333" y="192" width="16" height="16">
   <properties>
    <property name="Channel" value="BG"/>
    <property name="Color" type="color" value="#ffff0000"/>
    <property name="Frames" type="int" value="0"/>
   </properties>
  </object>
  <object id="1862" gid="16388" x="12552" y="192" width="16" height="16">
   <properties>
    <property name="Channel" value="BG"/>
    <property name="Color" type="color" value="#ffff0000"/>
    <property name="Frames" type="int" value="0"/>
   </properties>
  </object>
  <object id="1882" gid="16388" x="12773" y="192" width="16" height="16">
   <properties>
    <property name="Channel" value="BG"/>
    <property name="Color" type="color" value="#ffff0000"/>
    <property name="Frames" type="int" value="0"/>
   </properties>
  </object>
  <object id="1891" gid="16388" x="12958" y="192" width="16" height="16">
   <properties>
    <property name="Channel" value="BG"/>
    <property name="Color" type="color" value="#ffab0000"/>
    <property name="Frames" type="int" value="0"/>
   </properties>
  </object>
  <object id="1898" gid="16388" x="13232" y="192" width="16" height="16">
   <properties>
    <property name="Channel" value="BG"/>
    <property name="Color" type="color" value="#ffab0000"/>
    <property name="Frames" type="int" value="0"/>
   </properties>
  </object>
  <object id="1914" gid="16388" x="13509" y="192" width="16" height="16">
   <properties>
    <property name="Channel" value="BG"/>
    <property name="Color" type="color" value="#ffab0000"/>
    <property name="Frames" type="int" value="0"/>
   </properties>
  </object>
  <object id="1926" gid="16388" x="13787" y="192" width="16" height="16">
   <properties>
    <property name="Channel" value="BG"/>
    <property name="Color" type="color" value="#ffab0000"/>
    <property name="Frames" type="int" value="0"/>
   </properties>
  </object>
  <object id="1938" gid="16388" x="13920" y="192" width="16" height="16">
   <properties>
    <property name="Channel" value="BG"/>
    <property name="Color" type="color" value="#ffab0000"/>
    <property name="Frames" type="int" value="0"/>
   </properties>
  </object>
  <object id="1894" gid="16388" x="13100" y="192" width="16" height="16">
   <properties>
    <property name="Channel" value="BG"/>
    <property name="Color" type="color" value="#ff0049ab"/>
    <property name="Frames" type="int" value="0"/>
   </properties>
  </object>
  <object id="1910" gid="16388" x="13374" y="192" width="16" height="16">
   <properties>
    <property name="Channel" value="BG"/>
    <property name="Color" type="color" value="#ff0049ab"/>
    <property name="Frames" type="int" value="0"/>
   </properties>
  </object>
  <object id="1920" gid="16388" x="13648" y="192" width="16" height="16">
   <properties>
    <property name="Channel" value="BG"/>
    <property name="Color" type="color" value="#ff0049ab"/>
    <property name="Frames" type="int" value="0"/>
   </properties>
  </object>
  <object id="1932" gid="16388" x="13851" y="192" width="16" height="16">
   <properties>
    <property name="Channel" value="BG"/>
    <property name="Color" type="color" value="#ff0049ab"/>
    <property name="Frames" type="int" value="0"/>
   </properties>
  </object>
  <object id="2025" gid="16388" x="14884" y="112" width="16" height="16">
   <properties>
    <property name="Channel" value="BG"/>
    <property name="Color" type="color" value="#ff0049ab"/>
    <property name="Frames" type="int" value="63"/>
   </properties>
  </object>
  <object id="2119" gid="16388" x="15434" y="112" width="16" height="16">
   <properties>
    <property name="Channel" value="BG"/>
    <property name="Color" type="color" value="#ff0049ab"/>
    <property name="Frames" type="int" value="63"/>
   </properties>
  </object>
  <object id="2129" gid="16388" x="15987" y="112" width="16" height="16">
   <properties>
    <property name="Channel" value="BG"/>
    <property name="Color" type="color" value="#ff0049ab"/>
    <property name="Frames" type="int" value="63"/>
   </properties>
  </object>
  <object id="2136" gid="16388" x="16543" y="112" width="16" height="16">
   <properties>
    <property name="Channel" value="BG"/>
    <property name="Color" type="color" value="#ff0049ab"/>
    <property name="Frames" type="int" value="63"/>
   </properties>
  </object>
  <object id="2112" gid="16388" x="15163" y="112" width="16" height="16">
   <properties>
    <property name="Channel" value="BG"/>
    <property name="Color" type="color" value="#ff000b4a"/>
    <property name="Frames" type="int" value="63"/>
   </properties>
  </object>
  <object id="2125" gid="16388" x="15707" y="112" width="16" height="16">
   <properties>
    <property name="Channel" value="BG"/>
    <property name="Color" type="color" value="#ff000b4a"/>
    <property name="Frames" type="int" value="63"/>
   </properties>
  </object>
  <object id="2132" gid="16388" x="16270" y="112" width="16" height="16">
   <properties>
    <property name="Channel" value="BG"/>
    <property name="Color" type="color" value="#ff000b4a"/>
    <property name="Frames" type="int" value="63"/>
   </properties>
  </object>
  <object id="2140" gid="16388" x="16822" y="112" width="16" height="16">
   <properties>
    <property name="Channel" value="BG"/>
    <property name="Color" type="color" value="#ff000b4a"/>
    <property name="Frames" type="int" value="63"/>
   </properties>
  </object>
  <object id="2108" gid="16388" x="15060" y="112" width="16" height="16">
   <properties>
    <property name="Channel" value="BG"/>
    <property name="Color" type="color" value="#ff000000"/>
    <property name="Frames" type="int" value="63"/>
   </properties>
  </object>
  <object id="2116" gid="16388" x="15323" y="112" width="16" height="16">
   <properties>
    <property name="Channel" value="BG"/>
    <property name="Color" type="color" value="#ff000000"/>
    <property name="Frames" type="int" value="63"/>
   </properties>
  </object>
  <object id="2124" gid="16388" x="15883" y="112" width="16" height="16">
   <properties>
    <property name="Channel" value="BG"/>
    <property name="Color" type="color" value="#ff000000"/>
    <property name="Frames" type="int" value="63"/>
   </properties>
  </object>
  <object id="2133" gid="16388" x="16446" y="112" width="16" height="16">
   <properties>
    <property name="Channel" value="BG"/>
    <property name="Color" type="color" value="#ff000000"/>
    <property name="Frames" type="int" value="63"/>
   </properties>
  </object>
  <object id="2141" gid="16388" x="16998" y="112" width="16" height="16">
   <properties>
    <property name="Channel" value="BG"/>
    <property name="Color" type="color" value="#ff000000"/>
    <property name="Frames" type="int" value="63"/>
   </properties>
  </object>
  <object id="2143" gid="16388" x="17106" y="112" width="16" height="16">
   <properties>
    <property name="Channel" value="BG"/>
    <property name="Color" type="color" value="#ff4a0200"/>
    <property name="Frames" type="int" value="27"/>
   </properties>
  </object>
  <object id="2147" gid="16388" x="17234" y="112" width="16" height="16">
   <properties>
    <property name="Channel" value="BG"/>
    <property name="Color" type="color" value="#ff4a0200"/>
    <property name="Frames" type="int" value="27"/>
   </properties>
  </object>
  <object id="2151" gid="16388" x="17371" y="112" width="16" height="16">
   <properties>
    <property name="Channel" value="BG"/>
    <property name="Color" type="color" value="#ff4a0200"/>
    <property name="Frames" type="int" value="27"/>
   </properties>
  </object>
  <object id="2155" gid="16388" x="17507" y="112" width="16" height="16">
   <properties>
    <property name="Channel" value="BG"/>
    <property name="Color" type="color" value="#ff4a0200"/>
    <property name="Frames" type="int" value="27"/>
   </properties>
  </object>
  <object id="2159" gid="16388" x="17648" y="112" width="16" height="16">
   <properties>
    <property name="Channel" value="BG"/>
    <property name="Color" type="color" value="#ff4a0200"/>
    <property name="Frames" type="int" value="27"/>
   </properties>
  </object>
  <object id="2163" gid="16388" x="17778" y="112" width="16" height="16">
   <properties>
    <property name="Channel" value="BG"/>
    <property name="Color" type="color" value="#ff4a0200"/>
    <property name="Frames" type="int" value="27"/>
   </properties>
  </object>
  <object id="2167" gid="16388" x="17919" y="112" width="16" height="16">
   <properties>
    <property name="Channel" value="BG"/>
    <property name="Color" type="color" value="#ff4a0200"/>
    <property name="Frames" type="int" value="27"/>
   </properties>
  </object>
  <object id="2175" gid="16388" x="18056" y="112" width="16" height="16">
   <properties>
    <property name="Channel" value="BG"/>
    <property name="Color" type="color" value="#ff4a0200"/>
    <property name="Frames" type="int" value="27"/>
   </properties>
  </object>
  <object id="2183" gid="16388" x="18191" y="112" width="16" height="16">
   <properties>
    <property name="Channel" value="BG"/>
    <property name="Color" type="color" value="#ff4a0200"/>
    <property name="Frames" type="int" value="27"/>
   </properties>
  </object>
  <object id="2191" gid="16388" x="18326" y="112" width="16" height="16">
   <properties>
    <property name="Channel" value="BG"/>
    <property name="Color" type="color" value="#ff4a0200"/>
    <property name="Frames" type="int" value="27"/>
   </properties>
  </object>
  <object id="2199" gid="16388" x="18459" y="112" width="16" height="16">
   <properties>
    <property name="Channel" value="BG"/>
    <property name="Color" type="color" value="#ff4a0200"/>
    <property name="Frames" type="int" value="27"/>
   </properties>
  </object>
  <object id="2207" gid="16388" x="18592" y="112" width="16" height="16">
   <properties>
    <property name="Channel" value="BG"/>
    <property name="Color" type="color" value="#ff4a0200"/>
    <property name="Frames" type="int" value="27"/>
   </properties>
  </object>
  <object id="2215" gid="16388" x="18732" y="112" width="16" height="16">
   <properties>
    <property name="Channel" value="BG"/>
    <property name="Color" type="color" value="#ff4a0200"/>
    <property name="Frames" type="int" value="27"/>
   </properties>
  </object>
  <object id="2223" gid="16388" x="18869" y="112" width="16" height="16">
   <properties>
    <property name="Channel" value="BG"/>
    <property name="Color" type="color" value="#ff4a0200"/>
    <property name="Frames" type="int" value="27"/>
   </properties>
  </object>
  <object id="2231" gid="16388" x="19019" y="112" width="16" height="16">
   <properties>
    <property name="Channel" value="BG"/>
    <property name="Color" type="color" value="#ff4a0200"/>
    <property name="Frames" type="int" value="27"/>
   </properties>
  </object>
  <object id="2235" gid="16388" x="19152" y="112" width="16" height="16">
   <properties>
    <property name="Channel" value="BG"/>
    <property name="Color" type="color" value="#ff4a0200"/>
    <property name="Frames" type="int" value="27"/>
   </properties>
  </object>
  <object id="2243" gid="16388" x="19295" y="144" width="16" height="16">
   <properties>
    <property name="Channel" value="BG"/>
    <property name="Color" type="color" value="#ff4a0200"/>
    <property name="Frames" type="int" value="27"/>
   </properties>
  </object>
  <object id="2247" gid="16388" x="19428" y="176" width="16" height="16">
   <properties>
    <property name="Channel" value="BG"/>
    <property name="Color" type="color" value="#ff4a0200"/>
    <property name="Frames" type="int" value="27"/>
   </properties>
  </object>
  <object id="2251" gid="16388" x="19572" y="176" width="16" height="16">
   <properties>
    <property name="Channel" value="BG"/>
    <property name="Color" type="color" value="#ff4a0200"/>
    <property name="Frames" type="int" value="27"/>
   </properties>
  </object>
  <object id="2263" gid="16388" x="19709" y="176" width="16" height="16">
   <properties>
    <property name="Channel" value="BG"/>
    <property name="Color" type="color" value="#ff4a0200"/>
    <property name="Frames" type="int" value="27"/>
   </properties>
  </object>
  <object id="2267" gid="16388" x="19844" y="176" width="16" height="16">
   <properties>
    <property name="Channel" value="BG"/>
    <property name="Color" type="color" value="#ff4a0200"/>
    <property name="Frames" type="int" value="27"/>
   </properties>
  </object>
  <object id="2271" gid="16388" x="19980" y="176" width="16" height="16">
   <properties>
    <property name="Channel" value="BG"/>
    <property name="Color" type="color" value="#ff4a0200"/>
    <property name="Frames" type="int" value="27"/>
   </properties>
  </object>
  <object id="2275" gid="16388" x="20111" y="176" width="16" height="16">
   <properties>
    <property name="Channel" value="BG"/>
    <property name="Color" type="color" value="#ff4a0200"/>
    <property name="Frames" type="int" value="27"/>
   </properties>
  </object>
  <object id="2281" gid="16388" x="20240" y="176" width="16" height="16">
   <properties>
    <property name="Channel" value="BG"/>
    <property name="Color" type="color" value="#ff4a0200"/>
    <property name="Frames" type="int" value="27"/>
   </properties>
  </object>
  <object id="2285" gid="16388" x="20385" y="176" width="16" height="16">
   <properties>
    <property name="Channel" value="BG"/>
    <property name="Color" type="color" value="#ff4a0200"/>
    <property name="Frames" type="int" value="27"/>
   </properties>
  </object>
  <object id="2289" gid="16388" x="20520" y="176" width="16" height="16">
   <properties>
    <property name="Channel" value="BG"/>
    <property name="Color" type="color" value="#ff4a0200"/>
    <property name="Frames" type="int" value="27"/>
   </properties>
  </object>
  <object id="2465" gid="16388" x="23382" y="128" width="16" height="16">
   <properties>
    <property name="Channel" value="BG"/>
    <property name="Color" type="color" value="#ffb90500"/>
    <property name="Frames" type="int" value="0"/>
   </properties>
  </object>
  <object id="2483" gid="16388" x="23709" y="128" width="16" height="16">
   <properties>
    <property name="Channel" value="BG"/>
    <property name="Color" type="color" value="#ffb90500"/>
    <property name="Frames" type="int" value="0"/>
   </properties>
  </object>
  <object id="2506" gid="16388" x="24050" y="128" width="16" height="16">
   <properties>
    <property name="Channel" value="BG"/>
    <property name="Color" type="color" value="#ffb90500"/>
    <property name="Frames" type="int" value="0"/>
   </properties>
  </object>
  <object id="2522" gid="16388" x="24395" y="128" width="16" height="16">
   <properties>
    <property name="Channel" value="BG"/>
    <property name="Color" type="color" value="#ffb90500"/>
    <property name="Frames" type="int" value="0"/>
   </properties>
  </object>
  <object id="2538" gid="16388" x="24560" y="128" width="16" height="16">
   <properties>
    <property name="Channel" value="BG"/>
    <property name="Color" type="color" value="#ffb90500"/>
    <property name="Frames" type="int" value="0"/>
   </properties>
  </object>
  <object id="2554" gid="16388" x="24904" y="128" width="16" height="16">
   <properties>
    <property name="Channel" value="BG"/>
    <property name="Color" type="color" value="#ffb90500"/>
    <property name="Frames" type="int" value="0"/>
   </properties>
  </object>
  <object id="2570" gid="16388" x="25236" y="128" width="16" height="16">
   <properties>
    <property name="Channel" value="BG"/>
    <property name="Color" type="color" value="#ffb90500"/>
    <property name="Frames" type="int" value="0"/>
   </properties>
  </object>
  <object id="2586" gid="16388" x="25587" y="128" width="16" height="16">
   <properties>
    <property name="Channel" value="BG"/>
    <property name="Color" type="color" value="#ffb90500"/>
    <property name="Frames" type="int" value="0"/>
   </properties>
  </object>
  <object id="2602" gid="16388" x="25837" y="128" width="16" height="16">
   <properties>
    <property name="Channel" value="BG"/>
    <property name="Color" type="color" value="#ffb90500"/>
    <property name="Frames" type="int" value="0"/>
   </properties>
  </object>
  <object id="2618" gid="16388" x="26104" y="128" width="16" height="16">
   <properties>
    <property name="Channel" value="BG"/>
    <property name="Color" type="color" value="#ffb90500"/>
    <property name="Frames" type="int" value="0"/>
   </properties>
  </object>
  <object id="2634" gid="16388" x="26438" y="128" width="16" height="16">
   <properties>
    <property name="Channel" value="BG"/>
    <property name="Color" type="color" value="#ffb90500"/>
    <property name="Frames" type="int" value="0"/>
   </properties>
  </object>
  <object id="2650" gid="16388" x="26786" y="128" width="16" height="16">
   <properties>
    <property name="Channel" value="BG"/>
    <property name="Color" type="color" value="#ffb90500"/>
    <property name="Frames" type="int" value="0"/>
   </properties>
  </object>
  <object id="2666" gid="16388" x="27120" y="128" width="16" height="16">
   <properties>
    <property name="Channel" value="BG"/>
    <property name="Color" type="color" value="#ffb90500"/>
    <property name="Frames" type="int" value="0"/>
   </properties>
  </object>
  <object id="2682" gid="16388" x="27467" y="128" width="16" height="16">
   <properties>
    <property name="Channel" value="BG"/>
    <property name="Color" type="color" value="#ffb90500"/>
    <property name="Frames" type="int" value="0"/>
   </properties>
  </object>
  <object id="2698" gid="16388" x="27802" y="128" width="16" height="16">
   <properties>
    <property name="Channel" value="BG"/>
    <property name="Color" type="color" value="#ffb90500"/>
    <property name="Frames" type="int" value="0"/>
   </properties>
  </object>
  <object id="2714" gid="16388" x="28149" y="128" width="16" height="16">
   <properties>
    <property name="Channel" value="BG"/>
    <property name="Color" type="color" value="#ffb90500"/>
    <property name="Frames" type="int" value="0"/>
   </properties>
  </object>
  <object id="2730" gid="16388" x="28488" y="128" width="16" height="16">
   <properties>
    <property name="Channel" value="BG"/>
    <property name="Color" type="color" value="#ffb90500"/>
    <property name="Frames" type="int" value="0"/>
   </properties>
  </object>
  <object id="2475" gid="16388" x="23540" y="128" width="16" height="16">
   <properties>
    <property name="Channel" value="BG"/>
    <property name="Color" type="color" value="#ff0045b9"/>
    <property name="Frames" type="int" value="0"/>
   </properties>
  </object>
  <object id="2498" gid="16388" x="23878" y="128" width="16" height="16">
   <properties>
    <property name="Channel" value="BG"/>
    <property name="Color" type="color" value="#ff0045b9"/>
    <property name="Frames" type="int" value="0"/>
   </properties>
  </object>
  <object id="2514" gid="16388" x="24216" y="128" width="16" height="16">
   <properties>
    <property name="Channel" value="BG"/>
    <property name="Color" type="color" value="#ff0045b9"/>
    <property name="Frames" type="int" value="0"/>
   </properties>
  </object>
  <object id="2530" gid="16388" x="24478" y="128" width="16" height="16">
   <properties>
    <property name="Channel" value="BG"/>
    <property name="Color" type="color" value="#ff0045b9"/>
    <property name="Frames" type="int" value="0"/>
   </properties>
  </object>
  <object id="2546" gid="16388" x="24732" y="128" width="16" height="16">
   <properties>
    <property name="Channel" value="BG"/>
    <property name="Color" type="color" value="#ff0045b9"/>
    <property name="Frames" type="int" value="0"/>
   </properties>
  </object>
  <object id="2562" gid="16388" x="25073" y="128" width="16" height="16">
   <properties>
    <property name="Channel" value="BG"/>
    <property name="Color" type="color" value="#ff0045b9"/>
    <property name="Frames" type="int" value="0"/>
   </properties>
  </object>
  <object id="2578" gid="16388" x="25413" y="128" width="16" height="16">
   <properties>
    <property name="Channel" value="BG"/>
    <property name="Color" type="color" value="#ff0045b9"/>
    <property name="Frames" type="int" value="0"/>
   </properties>
  </object>
  <object id="2594" gid="16388" x="25759" y="128" width="16" height="16">
   <properties>
    <property name="Channel" value="BG"/>
    <property name="Color" type="color" value="#ff0045b9"/>
    <property name="Frames" type="int" value="0"/>
   </properties>
  </object>
  <object id="2610" gid="16388" x="25923" y="128" width="16" height="16">
   <properties>
    <property name="Channel" value="BG"/>
    <property name="Color" type="color" value="#ff0045b9"/>
    <property name="Frames" type="int" value="0"/>
   </properties>
  </object>
  <object id="2626" gid="16388" x="26269" y="128" width="16" height="16">
   <properties>
    <property name="Channel" value="BG"/>
    <property name="Color" type="color" value="#ff0045b9"/>
    <property name="Frames" type="int" value="0"/>
   </properties>
  </object>
  <object id="2642" gid="16388" x="26600" y="128" width="16" height="16">
   <properties>
    <property name="Channel" value="BG"/>
    <property name="Color" type="color" value="#ff0045b9"/>
    <property name="Frames" type="int" value="0"/>
   </properties>
  </object>
  <object id="2658" gid="16388" x="26946" y="128" width="16" height="16">
   <properties>
    <property name="Channel" value="BG"/>
    <property name="Color" type="color" value="#ff0045b9"/>
    <property name="Frames" type="int" value="0"/>
   </properties>
  </object>
  <object id="2674" gid="16388" x="27292" y="128" width="16" height="16">
   <properties>
    <property name="Channel" value="BG"/>
    <property name="Color" type="color" value="#ff0045b9"/>
    <property name="Frames" type="int" value="0"/>
   </properties>
  </object>
  <object id="2690" gid="16388" x="27632" y="128" width="16" height="16">
   <properties>
    <property name="Channel" value="BG"/>
    <property name="Color" type="color" value="#ff0045b9"/>
    <property name="Frames" type="int" value="0"/>
   </properties>
  </object>
  <object id="2706" gid="16388" x="27974" y="128" width="16" height="16">
   <properties>
    <property name="Channel" value="BG"/>
    <property name="Color" type="color" value="#ff0045b9"/>
    <property name="Frames" type="int" value="0"/>
   </properties>
  </object>
  <object id="2722" gid="16388" x="28318" y="128" width="16" height="16">
   <properties>
    <property name="Channel" value="BG"/>
    <property name="Color" type="color" value="#ff0045b9"/>
    <property name="Frames" type="int" value="0"/>
   </properties>
  </object>
  <object id="2738" gid="16388" x="28674" y="128" width="16" height="16">
   <properties>
    <property name="Channel" value="BG"/>
    <property name="Color" type="color" value="#ff0045b9"/>
    <property name="Frames" type="int" value="0"/>
   </properties>
  </object>
  <object id="2467" gid="16388" x="23398" y="128" width="16" height="16">
   <properties>
    <property name="Channel" value="BG"/>
    <property name="Color" type="color" value="#ff000000"/>
    <property name="Frames" type="int" value="21"/>
   </properties>
  </object>
  <object id="2482" gid="16388" x="23725" y="128" width="16" height="16">
   <properties>
    <property name="Channel" value="BG"/>
    <property name="Color" type="color" value="#ff000000"/>
    <property name="Frames" type="int" value="21"/>
   </properties>
  </object>
  <object id="2507" gid="16388" x="24066" y="128" width="16" height="16">
   <properties>
    <property name="Channel" value="BG"/>
    <property name="Color" type="color" value="#ff000000"/>
    <property name="Frames" type="int" value="21"/>
   </properties>
  </object>
  <object id="2523" gid="16388" x="24411" y="128" width="16" height="16">
   <properties>
    <property name="Channel" value="BG"/>
    <property name="Color" type="color" value="#ff000000"/>
    <property name="Frames" type="int" value="21"/>
   </properties>
  </object>
  <object id="2539" gid="16388" x="24576" y="128" width="16" height="16">
   <properties>
    <property name="Channel" value="BG"/>
    <property name="Color" type="color" value="#ff000000"/>
    <property name="Frames" type="int" value="21"/>
   </properties>
  </object>
  <object id="2555" gid="16388" x="24920" y="128" width="16" height="16">
   <properties>
    <property name="Channel" value="BG"/>
    <property name="Color" type="color" value="#ff000000"/>
    <property name="Frames" type="int" value="21"/>
   </properties>
  </object>
  <object id="2571" gid="16388" x="25252" y="128" width="16" height="16">
   <properties>
    <property name="Channel" value="BG"/>
    <property name="Color" type="color" value="#ff000000"/>
    <property name="Frames" type="int" value="21"/>
   </properties>
  </object>
  <object id="2587" gid="16388" x="25603" y="128" width="16" height="16">
   <properties>
    <property name="Channel" value="BG"/>
    <property name="Color" type="color" value="#ff000000"/>
    <property name="Frames" type="int" value="21"/>
   </properties>
  </object>
  <object id="2603" gid="16388" x="25853" y="128" width="16" height="16">
   <properties>
    <property name="Channel" value="BG"/>
    <property name="Color" type="color" value="#ff000000"/>
    <property name="Frames" type="int" value="21"/>
   </properties>
  </object>
  <object id="2619" gid="16388" x="26120" y="128" width="16" height="16">
   <properties>
    <property name="Channel" value="BG"/>
    <property name="Color" type="color" value="#ff000000"/>
    <property name="Frames" type="int" value="21"/>
   </properties>
  </object>
  <object id="2635" gid="16388" x="26454" y="128" width="16" height="16">
   <properties>
    <property name="Channel" value="BG"/>
    <property name="Color" type="color" value="#ff000000"/>
    <property name="Frames" type="int" value="21"/>
   </properties>
  </object>
  <object id="2651" gid="16388" x="26802" y="128" width="16" height="16">
   <properties>
    <property name="Channel" value="BG"/>
    <property name="Color" type="color" value="#ff000000"/>
    <property name="Frames" type="int" value="21"/>
   </properties>
  </object>
  <object id="2667" gid="16388" x="27136" y="128" width="16" height="16">
   <properties>
    <property name="Channel" value="BG"/>
    <property name="Color" type="color" value="#ff000000"/>
    <property name="Frames" type="int" value="21"/>
   </properties>
  </object>
  <object id="2683" gid="16388" x="27483" y="128" width="16" height="16">
   <properties>
    <property name="Channel" value="BG"/>
    <property name="Color" type="color" value="#ff000000"/>
    <property name="Frames" type="int" value="21"/>
   </properties>
  </object>
  <object id="2699" gid="16388" x="27818" y="128" width="16" height="16">
   <properties>
    <property name="Channel" value="BG"/>
    <property name="Color" type="color" value="#ff000000"/>
    <property name="Frames" type="int" value="21"/>
   </properties>
  </object>
  <object id="2715" gid="16388" x="28165" y="128" width="16" height="16">
   <properties>
    <property name="Channel" value="BG"/>
    <property name="Color" type="color" value="#ff000000"/>
    <property name="Frames" type="int" value="21"/>
   </properties>
  </object>
  <object id="2731" gid="16388" x="28504" y="128" width="16" height="16">
   <properties>
    <property name="Channel" value="BG"/>
    <property name="Color" type="color" value="#ff000000"/>
    <property name="Frames" type="int" value="21"/>
   </properties>
  </object>
  <object id="2474" gid="16388" x="23556" y="128" width="16" height="16">
   <properties>
    <property name="Channel" value="BG"/>
    <property name="Color" type="color" value="#ff000000"/>
    <property name="Frames" type="int" value="21"/>
   </properties>
  </object>
  <object id="2499" gid="16388" x="23894" y="128" width="16" height="16">
   <properties>
    <property name="Channel" value="BG"/>
    <property name="Color" type="color" value="#ff000000"/>
    <property name="Frames" type="int" value="21"/>
   </properties>
  </object>
  <object id="2515" gid="16388" x="24232" y="128" width="16" height="16">
   <properties>
    <property name="Channel" value="BG"/>
    <property name="Color" type="color" value="#ff000000"/>
    <property name="Frames" type="int" value="21"/>
   </properties>
  </object>
  <object id="2531" gid="16388" x="24494" y="128" width="16" height="16">
   <properties>
    <property name="Channel" value="BG"/>
    <property name="Color" type="color" value="#ff000000"/>
    <property name="Frames" type="int" value="21"/>
   </properties>
  </object>
  <object id="2547" gid="16388" x="24748" y="128" width="16" height="16">
   <properties>
    <property name="Channel" value="BG"/>
    <property name="Color" type="color" value="#ff000000"/>
    <property name="Frames" type="int" value="21"/>
   </properties>
  </object>
  <object id="2563" gid="16388" x="25089" y="128" width="16" height="16">
   <properties>
    <property name="Channel" value="BG"/>
    <property name="Color" type="color" value="#ff000000"/>
    <property name="Frames" type="int" value="21"/>
   </properties>
  </object>
  <object id="2579" gid="16388" x="25429" y="128" width="16" height="16">
   <properties>
    <property name="Channel" value="BG"/>
    <property name="Color" type="color" value="#ff000000"/>
    <property name="Frames" type="int" value="21"/>
   </properties>
  </object>
  <object id="2595" gid="16388" x="25775" y="128" width="16" height="16">
   <properties>
    <property name="Channel" value="BG"/>
    <property name="Color" type="color" value="#ff000000"/>
    <property name="Frames" type="int" value="21"/>
   </properties>
  </object>
  <object id="2611" gid="16388" x="25939" y="128" width="16" height="16">
   <properties>
    <property name="Channel" value="BG"/>
    <property name="Color" type="color" value="#ff000000"/>
    <property name="Frames" type="int" value="21"/>
   </properties>
  </object>
  <object id="2627" gid="16388" x="26285" y="128" width="16" height="16">
   <properties>
    <property name="Channel" value="BG"/>
    <property name="Color" type="color" value="#ff000000"/>
    <property name="Frames" type="int" value="21"/>
   </properties>
  </object>
  <object id="2643" gid="16388" x="26616" y="128" width="16" height="16">
   <properties>
    <property name="Channel" value="BG"/>
    <property name="Color" type="color" value="#ff000000"/>
    <property name="Frames" type="int" value="21"/>
   </properties>
  </object>
  <object id="2659" gid="16388" x="26962" y="128" width="16" height="16">
   <properties>
    <property name="Channel" value="BG"/>
    <property name="Color" type="color" value="#ff000000"/>
    <property name="Frames" type="int" value="21"/>
   </properties>
  </object>
  <object id="2675" gid="16388" x="27308" y="128" width="16" height="16">
   <properties>
    <property name="Channel" value="BG"/>
    <property name="Color" type="color" value="#ff000000"/>
    <property name="Frames" type="int" value="21"/>
   </properties>
  </object>
  <object id="2691" gid="16388" x="27648" y="128" width="16" height="16">
   <properties>
    <property name="Channel" value="BG"/>
    <property name="Color" type="color" value="#ff000000"/>
    <property name="Frames" type="int" value="21"/>
   </properties>
  </object>
  <object id="2707" gid="16388" x="27990" y="128" width="16" height="16">
   <properties>
    <property name="Channel" value="BG"/>
    <property name="Color" type="color" value="#ff000000"/>
    <property name="Frames" type="int" value="21"/>
   </properties>
  </object>
  <object id="2723" gid="16388" x="28334" y="128" width="16" height="16">
   <properties>
    <property name="Channel" value="BG"/>
    <property name="Color" type="color" value="#ff000000"/>
    <property name="Frames" type="int" value="21"/>
   </properties>
  </object>
  <object id="2739" gid="16388" x="28690" y="128" width="16" height="16">
   <properties>
    <property name="Channel" value="BG"/>
    <property name="Color" type="color" value="#ff000000"/>
    <property name="Frames" type="int" value="21"/>
   </properties>
  </object>
  <object id="2293" gid="16388" x="20661" y="176" width="16" height="16">
   <properties>
    <property name="Channel" value="BG"/>
    <property name="Color" type="color" value="#ff4a0200"/>
    <property name="Frames" type="int" value="27"/>
   </properties>
  </object>
  <object id="2297" gid="16388" x="20789" y="176" width="16" height="16">
   <properties>
    <property name="Channel" value="BG"/>
    <property name="Color" type="color" value="#ff4a0200"/>
    <property name="Frames" type="int" value="27"/>
   </properties>
  </object>
  <object id="2301" gid="16388" x="20930" y="176" width="16" height="16">
   <properties>
    <property name="Channel" value="BG"/>
    <property name="Color" type="color" value="#ff4a0200"/>
    <property name="Frames" type="int" value="27"/>
   </properties>
  </object>
  <object id="2307" gid="16388" x="21070" y="176" width="16" height="16">
   <properties>
    <property name="Channel" value="BG"/>
    <property name="Color" type="color" value="#ff4a0200"/>
    <property name="Frames" type="int" value="27"/>
   </properties>
  </object>
  <object id="2311" gid="16388" x="21210" y="176" width="16" height="16">
   <properties>
    <property name="Channel" value="BG"/>
    <property name="Color" type="color" value="#ff4a0200"/>
    <property name="Frames" type="int" value="27"/>
   </properties>
  </object>
  <object id="2315" gid="16388" x="21347" y="176" width="16" height="16">
   <properties>
    <property name="Channel" value="BG"/>
    <property name="Color" type="color" value="#ff4a0200"/>
    <property name="Frames" type="int" value="27"/>
   </properties>
  </object>
  <object id="2319" gid="16388" x="21472" y="176" width="16" height="16">
   <properties>
    <property name="Channel" value="BG"/>
    <property name="Color" type="color" value="#ff000000"/>
    <property name="Frames" type="int" value="27"/>
   </properties>
  </object>
  <object id="2145" gid="16388" x="17168" y="112" width="16" height="16">
   <properties>
    <property name="Channel" value="BG"/>
    <property name="Color" type="color" value="#ff000b4a"/>
    <property name="Frames" type="int" value="30"/>
   </properties>
  </object>
  <object id="2149" gid="16388" x="17308" y="112" width="16" height="16">
   <properties>
    <property name="Channel" value="BG"/>
    <property name="Color" type="color" value="#ff000b4a"/>
    <property name="Frames" type="int" value="30"/>
   </properties>
  </object>
  <object id="2153" gid="16388" x="17441" y="112" width="16" height="16">
   <properties>
    <property name="Channel" value="BG"/>
    <property name="Color" type="color" value="#ff000b4a"/>
    <property name="Frames" type="int" value="30"/>
   </properties>
  </object>
  <object id="2157" gid="16388" x="17578" y="112" width="16" height="16">
   <properties>
    <property name="Channel" value="BG"/>
    <property name="Color" type="color" value="#ff000b4a"/>
    <property name="Frames" type="int" value="30"/>
   </properties>
  </object>
  <object id="2161" gid="16388" x="17711" y="112" width="16" height="16">
   <properties>
    <property name="Channel" value="BG"/>
    <property name="Color" type="color" value="#ff000b4a"/>
    <property name="Frames" type="int" value="30"/>
   </properties>
  </object>
  <object id="2173" gid="16388" x="17985" y="112" width="16" height="16">
   <properties>
    <property name="Channel" value="BG"/>
    <property name="Color" type="color" value="#ff000b4a"/>
    <property name="Frames" type="int" value="30"/>
   </properties>
  </object>
  <object id="2189" gid="16388" x="18257" y="112" width="16" height="16">
   <properties>
    <property name="Channel" value="BG"/>
    <property name="Color" type="color" value="#ff000b4a"/>
    <property name="Frames" type="int" value="30"/>
   </properties>
  </object>
  <object id="2205" gid="16388" x="18528" y="112" width="16" height="16">
   <properties>
    <property name="Channel" value="BG"/>
    <property name="Color" type="color" value="#ff000b4a"/>
    <property name="Frames" type="int" value="30"/>
   </properties>
  </object>
  <object id="2221" gid="16388" x="18799" y="112" width="16" height="16">
   <properties>
    <property name="Channel" value="BG"/>
    <property name="Color" type="color" value="#ff000b4a"/>
    <property name="Frames" type="int" value="30"/>
   </properties>
  </object>
  <object id="2165" gid="16388" x="17844" y="112" width="16" height="16">
   <properties>
    <property name="Channel" value="BG"/>
    <property name="Color" type="color" value="#ff000b4a"/>
    <property name="Frames" type="int" value="30"/>
   </properties>
  </object>
  <object id="2181" gid="16388" x="18122" y="112" width="16" height="16">
   <properties>
    <property name="Channel" value="BG"/>
    <property name="Color" type="color" value="#ff000b4a"/>
    <property name="Frames" type="int" value="30"/>
   </properties>
  </object>
  <object id="2197" gid="16388" x="18392" y="112" width="16" height="16">
   <properties>
    <property name="Channel" value="BG"/>
    <property name="Color" type="color" value="#ff000b4a"/>
    <property name="Frames" type="int" value="30"/>
   </properties>
  </object>
  <object id="2213" gid="16388" x="18659" y="112" width="16" height="16">
   <properties>
    <property name="Channel" value="BG"/>
    <property name="Color" type="color" value="#ff000b4a"/>
    <property name="Frames" type="int" value="30"/>
   </properties>
  </object>
  <object id="2229" gid="16388" x="18941" y="112" width="16" height="16">
   <properties>
    <property name="Channel" value="BG"/>
    <property name="Color" type="color" value="#ff000b4a"/>
    <property name="Frames" type="int" value="30"/>
   </properties>
  </object>
  <object id="2233" gid="16388" x="19080" y="112" width="16" height="16">
   <properties>
    <property name="Channel" value="BG"/>
    <property name="Color" type="color" value="#ff000b4a"/>
    <property name="Frames" type="int" value="30"/>
   </properties>
  </object>
  <object id="2237" gid="16388" x="19218" y="112" width="16" height="16">
   <properties>
    <property name="Channel" value="BG"/>
    <property name="Color" type="color" value="#ff000b4a"/>
    <property name="Frames" type="int" value="30"/>
   </properties>
  </object>
  <object id="2245" gid="16388" x="19360" y="160" width="16" height="16">
   <properties>
    <property name="Channel" value="BG"/>
    <property name="Color" type="color" value="#ff000b4a"/>
    <property name="Frames" type="int" value="30"/>
   </properties>
  </object>
  <object id="2249" gid="16388" x="19503" y="176" width="16" height="16">
   <properties>
    <property name="Channel" value="BG"/>
    <property name="Color" type="color" value="#ff000b4a"/>
    <property name="Frames" type="int" value="30"/>
   </properties>
  </object>
  <object id="2261" gid="16388" x="19643" y="176" width="16" height="16">
   <properties>
    <property name="Channel" value="BG"/>
    <property name="Color" type="color" value="#ff000b4a"/>
    <property name="Frames" type="int" value="30"/>
   </properties>
  </object>
  <object id="2265" gid="16388" x="19775" y="176" width="16" height="16">
   <properties>
    <property name="Channel" value="BG"/>
    <property name="Color" type="color" value="#ff000b4a"/>
    <property name="Frames" type="int" value="30"/>
   </properties>
  </object>
  <object id="2269" gid="16388" x="19909" y="176" width="16" height="16">
   <properties>
    <property name="Channel" value="BG"/>
    <property name="Color" type="color" value="#ff000b4a"/>
    <property name="Frames" type="int" value="30"/>
   </properties>
  </object>
  <object id="2273" gid="16388" x="20046" y="176" width="16" height="16">
   <properties>
    <property name="Channel" value="BG"/>
    <property name="Color" type="color" value="#ff000b4a"/>
    <property name="Frames" type="int" value="30"/>
   </properties>
  </object>
  <object id="2279" gid="16388" x="20174" y="176" width="16" height="16">
   <properties>
    <property name="Channel" value="BG"/>
    <property name="Color" type="color" value="#ff000b4a"/>
    <property name="Frames" type="int" value="30"/>
   </properties>
  </object>
  <object id="2283" gid="16388" x="20310" y="176" width="16" height="16">
   <properties>
    <property name="Channel" value="BG"/>
    <property name="Color" type="color" value="#ff000b4a"/>
    <property name="Frames" type="int" value="30"/>
   </properties>
  </object>
  <object id="2287" gid="16388" x="20451" y="176" width="16" height="16">
   <properties>
    <property name="Channel" value="BG"/>
    <property name="Color" type="color" value="#ff000b4a"/>
    <property name="Frames" type="int" value="30"/>
   </properties>
  </object>
  <object id="2291" gid="16388" x="20589" y="176" width="16" height="16">
   <properties>
    <property name="Channel" value="BG"/>
    <property name="Color" type="color" value="#ff000b4a"/>
    <property name="Frames" type="int" value="30"/>
   </properties>
  </object>
  <object id="2295" gid="16388" x="20728" y="176" width="16" height="16">
   <properties>
    <property name="Channel" value="BG"/>
    <property name="Color" type="color" value="#ff000b4a"/>
    <property name="Frames" type="int" value="30"/>
   </properties>
  </object>
  <object id="2299" gid="16388" x="20856" y="176" width="16" height="16">
   <properties>
    <property name="Channel" value="BG"/>
    <property name="Color" type="color" value="#ff000b4a"/>
    <property name="Frames" type="int" value="30"/>
   </properties>
  </object>
  <object id="2303" gid="16388" x="20998" y="176" width="16" height="16">
   <properties>
    <property name="Channel" value="BG"/>
    <property name="Color" type="color" value="#ff000b4a"/>
    <property name="Frames" type="int" value="30"/>
   </properties>
  </object>
  <object id="2309" gid="16388" x="21140" y="176" width="16" height="16">
   <properties>
    <property name="Channel" value="BG"/>
    <property name="Color" type="color" value="#ff000b4a"/>
    <property name="Frames" type="int" value="30"/>
   </properties>
  </object>
  <object id="2313" gid="16388" x="21278" y="176" width="16" height="16">
   <properties>
    <property name="Channel" value="BG"/>
    <property name="Color" type="color" value="#ff000b4a"/>
    <property name="Frames" type="int" value="30"/>
   </properties>
  </object>
  <object id="2317" gid="16388" x="21405" y="176" width="16" height="16">
   <properties>
    <property name="Channel" value="BG"/>
    <property name="Color" type="color" value="#ff000b4a"/>
    <property name="Frames" type="int" value="30"/>
   </properties>
  </object>
  <object id="2121" gid="16388" x="15610" y="112" width="16" height="16">
   <properties>
    <property name="Channel" value="BG"/>
    <property name="Color" type="color" value="#ff000000"/>
    <property name="Frames" type="int" value="63"/>
   </properties>
  </object>
  <object id="2128" gid="16388" x="16163" y="112" width="16" height="16">
   <properties>
    <property name="Channel" value="BG"/>
    <property name="Color" type="color" value="#ff000000"/>
    <property name="Frames" type="int" value="63"/>
   </properties>
  </object>
  <object id="2137" gid="16388" x="16719" y="112" width="16" height="16">
   <properties>
    <property name="Channel" value="BG"/>
    <property name="Color" type="color" value="#ff000000"/>
    <property name="Frames" type="int" value="63"/>
   </properties>
  </object>
  <object id="1807" gid="16388" x="11450" y="192" width="16" height="16">
   <properties>
    <property name="Channel" value="BG"/>
    <property name="Color" type="color" value="#ff1eec00"/>
    <property name="Frames" type="int" value="0"/>
   </properties>
  </object>
  <object id="1830" gid="16388" x="12112" y="192" width="16" height="16">
   <properties>
    <property name="Channel" value="BG"/>
    <property name="Color" type="color" value="#ff1eec00"/>
    <property name="Frames" type="int" value="0"/>
   </properties>
  </object>
  <object id="1854" gid="16388" x="12495" y="192" width="16" height="16">
   <properties>
    <property name="Channel" value="BG"/>
    <property name="Color" type="color" value="#ff1eec00"/>
    <property name="Frames" type="int" value="0"/>
   </properties>
  </object>
  <object id="1874" gid="16388" x="12667" y="192" width="16" height="16">
   <properties>
    <property name="Channel" value="BG"/>
    <property name="Color" type="color" value="#ff1eec00"/>
    <property name="Frames" type="int" value="0"/>
   </properties>
  </object>
  <object id="1795" gid="16388" x="11245" y="192" width="16" height="16">
   <properties>
    <property name="Channel" value="BG"/>
    <property name="Color" type="color" value="#ff000000"/>
    <property name="Frames" type="int" value="30"/>
   </properties>
  </object>
  <object id="1818" gid="16388" x="11683" y="192" width="16" height="16">
   <properties>
    <property name="Channel" value="BG"/>
    <property name="Color" type="color" value="#ff000000"/>
    <property name="Frames" type="int" value="30"/>
   </properties>
  </object>
  <object id="1843" gid="16388" x="12349" y="192" width="16" height="16">
   <properties>
    <property name="Channel" value="BG"/>
    <property name="Color" type="color" value="#ff000000"/>
    <property name="Frames" type="int" value="30"/>
   </properties>
  </object>
  <object id="1863" gid="16388" x="12568" y="192" width="16" height="16">
   <properties>
    <property name="Channel" value="BG"/>
    <property name="Color" type="color" value="#ff000000"/>
    <property name="Frames" type="int" value="30"/>
   </properties>
  </object>
  <object id="1883" gid="16388" x="12789" y="192" width="16" height="16">
   <properties>
    <property name="Channel" value="BG"/>
    <property name="Color" type="color" value="#ff000000"/>
    <property name="Frames" type="int" value="30"/>
   </properties>
  </object>
  <object id="1890" gid="16388" x="12974" y="192" width="16" height="16">
   <properties>
    <property name="Channel" value="BG"/>
    <property name="Color" type="color" value="#ff000000"/>
    <property name="Frames" type="int" value="18"/>
   </properties>
  </object>
  <object id="1899" gid="16388" x="13248" y="192" width="16" height="16">
   <properties>
    <property name="Channel" value="BG"/>
    <property name="Color" type="color" value="#ff000000"/>
    <property name="Frames" type="int" value="18"/>
   </properties>
  </object>
  <object id="1915" gid="16388" x="13525" y="192" width="16" height="16">
   <properties>
    <property name="Channel" value="BG"/>
    <property name="Color" type="color" value="#ff000000"/>
    <property name="Frames" type="int" value="18"/>
   </properties>
  </object>
  <object id="1927" gid="16388" x="13803" y="192" width="16" height="16">
   <properties>
    <property name="Channel" value="BG"/>
    <property name="Color" type="color" value="#ff000000"/>
    <property name="Frames" type="int" value="18"/>
   </properties>
  </object>
  <object id="1939" gid="16388" x="13936" y="192" width="16" height="16">
   <properties>
    <property name="Channel" value="BG"/>
    <property name="Color" type="color" value="#ff000000"/>
    <property name="Frames" type="int" value="18"/>
   </properties>
  </object>
  <object id="1895" gid="16388" x="13116" y="192" width="16" height="16">
   <properties>
    <property name="Channel" value="BG"/>
    <property name="Color" type="color" value="#ff000000"/>
    <property name="Frames" type="int" value="18"/>
   </properties>
  </object>
  <object id="1911" gid="16388" x="13390" y="192" width="16" height="16">
   <properties>
    <property name="Channel" value="BG"/>
    <property name="Color" type="color" value="#ff000000"/>
    <property name="Frames" type="int" value="18"/>
   </properties>
  </object>
  <object id="1922" gid="16388" x="13664" y="192" width="16" height="16">
   <properties>
    <property name="Channel" value="BG"/>
    <property name="Color" type="color" value="#ff000000"/>
    <property name="Frames" type="int" value="18"/>
   </properties>
  </object>
  <object id="1934" gid="16388" x="13867" y="192" width="16" height="16">
   <properties>
    <property name="Channel" value="BG"/>
    <property name="Color" type="color" value="#ff000000"/>
    <property name="Frames" type="int" value="18"/>
   </properties>
  </object>
  <object id="1806" gid="16388" x="11466" y="192" width="16" height="16">
   <properties>
    <property name="Channel" value="BG"/>
    <property name="Color" type="color" value="#ff000000"/>
    <property name="Frames" type="int" value="30"/>
   </properties>
  </object>
  <object id="1831" gid="16388" x="12128" y="192" width="16" height="16">
   <properties>
    <property name="Channel" value="BG"/>
    <property name="Color" type="color" value="#ff000000"/>
    <property name="Frames" type="int" value="30"/>
   </properties>
  </object>
  <object id="1855" gid="16388" x="12511" y="192" width="16" height="16">
   <properties>
    <property name="Channel" value="BG"/>
    <property name="Color" type="color" value="#ff000000"/>
    <property name="Frames" type="int" value="30"/>
   </properties>
  </object>
  <object id="1875" gid="16388" x="12683" y="192" width="16" height="16">
   <properties>
    <property name="Channel" value="BG"/>
    <property name="Color" type="color" value="#ff000000"/>
    <property name="Frames" type="int" value="30"/>
   </properties>
  </object>
  <object id="1573" gid="16388" x="6864" y="208" width="16" height="16">
   <properties>
    <property name="Channel" value="GROUND"/>
    <property name="Color" type="color" value="#ff000000"/>
    <property name="Frames" type="int" value="60"/>
   </properties>
  </object>
  <object id="1580" gid="16388" x="7199" y="208" width="16" height="16">
   <properties>
    <property name="Channel" value="GROUND"/>
    <property name="Color" type="color" value="#ff000000"/>
    <property name="Frames" type="int" value="60"/>
   </properties>
  </object>
  <object id="1584" gid="16388" x="7555" y="208" width="16" height="16">
   <properties>
    <property name="Channel" value="GROUND"/>
    <property name="Color" type="color" value="#ff000000"/>
    <property name="Frames" type="int" value="60"/>
   </properties>
  </object>
  <object id="1588" gid="16388" x="7887" y="208" width="16" height="16">
   <properties>
    <property name="Channel" value="GROUND"/>
    <property name="Color" type="color" value="#ff000000"/>
    <property name="Frames" type="int" value="60"/>
   </properties>
  </object>
  <object id="1592" gid="16388" x="8237" y="208" width="16" height="16">
   <properties>
    <property name="Channel" value="GROUND"/>
    <property name="Color" type="color" value="#ff000000"/>
    <property name="Frames" type="int" value="60"/>
   </properties>
  </object>
  <object id="1598" gid="16388" x="8568" y="208" width="16" height="16">
   <properties>
    <property name="Channel" value="GROUND"/>
    <property name="Color" type="color" value="#ff000000"/>
    <property name="Frames" type="int" value="60"/>
   </properties>
  </object>
  <object id="1602" gid="16388" x="8949" y="208" width="16" height="16">
   <properties>
    <property name="Channel" value="GROUND"/>
    <property name="Color" type="color" value="#ff000000"/>
    <property name="Frames" type="int" value="60"/>
   </properties>
  </object>
  <object id="1608" gid="16388" x="9491" y="208" width="16" height="16">
   <properties>
    <property name="Channel" value="GROUND"/>
    <property name="Color" type="color" value="#ff000000"/>
    <property name="Frames" type="int" value="60"/>
   </properties>
  </object>
  <object id="1617" gid="16388" x="9932" y="208" width="16" height="16">
   <properties>
    <property name="Channel" value="GROUND"/>
    <property name="Color" type="color" value="#ff000000"/>
    <property name="Frames" type="int" value="60"/>
   </properties>
  </object>
  <object id="1625" gid="16388" x="10381" y="208" width="16" height="16">
   <properties>
    <property name="Channel" value="GROUND"/>
    <property name="Color" type="color" value="#ff000000"/>
    <property name="Frames" type="int" value="60"/>
   </properties>
  </object>
  <object id="1633" gid="16388" x="10724" y="208" width="16" height="16">
   <properties>
    <property name="Channel" value="GROUND"/>
    <property name="Color" type="color" value="#ff000000"/>
    <property name="Frames" type="int" value="27"/>
   </properties>
  </object>
  <object id="1641" gid="16388" x="10932" y="208" width="16" height="16">
   <properties>
    <property name="Channel" value="GROUND"/>
    <property name="Color" type="color" value="#ff000000"/>
    <property name="Frames" type="int" value="27"/>
   </properties>
  </object>
  <object id="1606" gid="16388" x="9280" y="208" width="16" height="16">
   <properties>
    <property name="Channel" value="GROUND"/>
    <property name="Color" type="color" value="#ff000000"/>
    <property name="Frames" type="int" value="60"/>
   </properties>
  </object>
  <object id="1612" gid="16388" x="9712" y="208" width="16" height="16">
   <properties>
    <property name="Channel" value="GROUND"/>
    <property name="Color" type="color" value="#ff000000"/>
    <property name="Frames" type="int" value="60"/>
   </properties>
  </object>
  <object id="1621" gid="16388" x="10151" y="208" width="16" height="16">
   <properties>
    <property name="Channel" value="GROUND"/>
    <property name="Color" type="color" value="#ff000000"/>
    <property name="Frames" type="int" value="60"/>
   </properties>
  </object>
  <object id="1629" gid="16388" x="10595" y="208" width="16" height="16">
   <properties>
    <property name="Channel" value="GROUND"/>
    <property name="Color" type="color" value="#ff000000"/>
    <property name="Frames" type="int" value="60"/>
   </properties>
  </object>
  <object id="1637" gid="16388" x="10819" y="208" width="16" height="16">
   <properties>
    <property name="Channel" value="GROUND"/>
    <property name="Color" type="color" value="#ff000000"/>
    <property name="Frames" type="int" value="30"/>
   </properties>
  </object>
  <object id="1645" gid="16388" x="11043" y="208" width="16" height="16">
   <properties>
    <property name="Channel" value="GROUND"/>
    <property name="Color" type="color" value="#ff000000"/>
    <property name="Frames" type="int" value="30"/>
   </properties>
  </object>
  <object id="1792" gid="16388" x="11229" y="208" width="16" height="16">
   <properties>
    <property name="Channel" value="GROUND"/>
    <property name="Color" type="color" value="#ffb40000"/>
    <property name="Frames" type="int" value="0"/>
   </properties>
  </object>
  <object id="1817" gid="16388" x="11667" y="208" width="16" height="16">
   <properties>
    <property name="Channel" value="GROUND"/>
    <property name="Color" type="color" value="#ffb40000"/>
    <property name="Frames" type="int" value="0"/>
   </properties>
  </object>
  <object id="1840" gid="16388" x="12333" y="208" width="16" height="16">
   <properties>
    <property name="Channel" value="GROUND"/>
    <property name="Color" type="color" value="#ffb40000"/>
    <property name="Frames" type="int" value="0"/>
   </properties>
  </object>
  <object id="1860" gid="16388" x="12552" y="208" width="16" height="16">
   <properties>
    <property name="Channel" value="GROUND"/>
    <property name="Color" type="color" value="#ffb40000"/>
    <property name="Frames" type="int" value="0"/>
   </properties>
  </object>
  <object id="1880" gid="16388" x="12773" y="208" width="16" height="16">
   <properties>
    <property name="Channel" value="GROUND"/>
    <property name="Color" type="color" value="#ffb40000"/>
    <property name="Frames" type="int" value="0"/>
   </properties>
  </object>
  <object id="1889" gid="16388" x="12958" y="208" width="16" height="16">
   <properties>
    <property name="Channel" value="GROUND"/>
    <property name="Color" type="color" value="#ff660000"/>
    <property name="Frames" type="int" value="0"/>
   </properties>
  </object>
  <object id="1896" gid="16388" x="13232" y="208" width="16" height="16">
   <properties>
    <property name="Channel" value="GROUND"/>
    <property name="Color" type="color" value="#ff660000"/>
    <property name="Frames" type="int" value="0"/>
   </properties>
  </object>
  <object id="1912" gid="16388" x="13509" y="208" width="16" height="16">
   <properties>
    <property name="Channel" value="GROUND"/>
    <property name="Color" type="color" value="#ff660000"/>
    <property name="Frames" type="int" value="0"/>
   </properties>
  </object>
  <object id="1924" gid="16388" x="13787" y="208" width="16" height="16">
   <properties>
    <property name="Channel" value="GROUND"/>
    <property name="Color" type="color" value="#ff660000"/>
    <property name="Frames" type="int" value="0"/>
   </properties>
  </object>
  <object id="1936" gid="16388" x="13920" y="208" width="16" height="16">
   <properties>
    <property name="Channel" value="GROUND"/>
    <property name="Color" type="color" value="#ff660000"/>
    <property name="Frames" type="int" value="0"/>
   </properties>
  </object>
  <object id="1892" gid="16388" x="13100" y="208" width="16" height="16">
   <properties>
    <property name="Channel" value="GROUND"/>
    <property name="Color" type="color" value="#ff001f66"/>
    <property name="Frames" type="int" value="0"/>
   </properties>
  </object>
  <object id="1906" gid="16388" x="13374" y="208" width="16" height="16">
   <properties>
    <property name="Channel" value="GROUND"/>
    <property name="Color" type="color" value="#ff001f66"/>
    <property name="Frames" type="int" value="0"/>
   </properties>
  </object>
  <object id="1916" gid="16388" x="13648" y="208" width="16" height="16">
   <properties>
    <property name="Channel" value="GROUND"/>
    <property name="Color" type="color" value="#ff001f66"/>
    <property name="Frames" type="int" value="0"/>
   </properties>
  </object>
  <object id="1928" gid="16388" x="13851" y="208" width="16" height="16">
   <properties>
    <property name="Channel" value="GROUND"/>
    <property name="Color" type="color" value="#ff001f66"/>
    <property name="Frames" type="int" value="0"/>
   </properties>
  </object>
  <object id="2023" gid="16388" x="14884" y="128" width="16" height="16">
   <properties>
    <property name="Channel" value="GROUND"/>
    <property name="Color" type="color" value="#ff001f66"/>
    <property name="Frames" type="int" value="63"/>
   </properties>
  </object>
  <object id="2118" gid="16388" x="15434" y="128" width="16" height="16">
   <properties>
    <property name="Channel" value="GROUND"/>
    <property name="Color" type="color" value="#ff001f66"/>
    <property name="Frames" type="int" value="63"/>
   </properties>
  </object>
  <object id="2127" gid="16388" x="15987" y="128" width="16" height="16">
   <properties>
    <property name="Channel" value="GROUND"/>
    <property name="Color" type="color" value="#ff001f66"/>
    <property name="Frames" type="int" value="63"/>
   </properties>
  </object>
  <object id="2134" gid="16388" x="16543" y="128" width="16" height="16">
   <properties>
    <property name="Channel" value="GROUND"/>
    <property name="Color" type="color" value="#ff001f66"/>
    <property name="Frames" type="int" value="63"/>
   </properties>
  </object>
  <object id="2110" gid="16388" x="15163" y="128" width="16" height="16">
   <properties>
    <property name="Channel" value="GROUND"/>
    <property name="Color" type="color" value="#ff00053c"/>
    <property name="Frames" type="int" value="63"/>
   </properties>
  </object>
  <object id="2123" gid="16388" x="15707" y="128" width="16" height="16">
   <properties>
    <property name="Channel" value="GROUND"/>
    <property name="Color" type="color" value="#ff00053c"/>
    <property name="Frames" type="int" value="63"/>
   </properties>
  </object>
  <object id="2130" gid="16388" x="16270" y="128" width="16" height="16">
   <properties>
    <property name="Channel" value="GROUND"/>
    <property name="Color" type="color" value="#ff00053c"/>
    <property name="Frames" type="int" value="63"/>
   </properties>
  </object>
  <object id="2138" gid="16388" x="16822" y="128" width="16" height="16">
   <properties>
    <property name="Channel" value="GROUND"/>
    <property name="Color" type="color" value="#ff00053c"/>
    <property name="Frames" type="int" value="63"/>
   </properties>
  </object>
  <object id="2106" gid="16388" x="15060" y="128" width="16" height="16">
   <properties>
    <property name="Channel" value="GROUND"/>
    <property name="Color" type="color" value="#ff000000"/>
    <property name="Frames" type="int" value="63"/>
   </properties>
  </object>
  <object id="2114" gid="16388" x="15323" y="128" width="16" height="16">
   <properties>
    <property name="Channel" value="GROUND"/>
    <property name="Color" type="color" value="#ff000000"/>
    <property name="Frames" type="int" value="63"/>
   </properties>
  </object>
  <object id="2122" gid="16388" x="15883" y="128" width="16" height="16">
   <properties>
    <property name="Channel" value="GROUND"/>
    <property name="Color" type="color" value="#ff000000"/>
    <property name="Frames" type="int" value="63"/>
   </properties>
  </object>
  <object id="2131" gid="16388" x="16446" y="128" width="16" height="16">
   <properties>
    <property name="Channel" value="GROUND"/>
    <property name="Color" type="color" value="#ff000000"/>
    <property name="Frames" type="int" value="63"/>
   </properties>
  </object>
  <object id="2139" gid="16388" x="16998" y="128" width="16" height="16">
   <properties>
    <property name="Channel" value="GROUND"/>
    <property name="Color" type="color" value="#ff000000"/>
    <property name="Frames" type="int" value="63"/>
   </properties>
  </object>
  <object id="2142" gid="16388" x="17106" y="128" width="16" height="16">
   <properties>
    <property name="Channel" value="GROUND"/>
    <property name="Color" type="color" value="#ff3c0000"/>
    <property name="Frames" type="int" value="30"/>
   </properties>
  </object>
  <object id="2146" gid="16388" x="17234" y="128" width="16" height="16">
   <properties>
    <property name="Channel" value="GROUND"/>
    <property name="Color" type="color" value="#ff3c0000"/>
    <property name="Frames" type="int" value="30"/>
   </properties>
  </object>
  <object id="2150" gid="16388" x="17371" y="128" width="16" height="16">
   <properties>
    <property name="Channel" value="GROUND"/>
    <property name="Color" type="color" value="#ff3c0000"/>
    <property name="Frames" type="int" value="30"/>
   </properties>
  </object>
  <object id="2154" gid="16388" x="17507" y="128" width="16" height="16">
   <properties>
    <property name="Channel" value="GROUND"/>
    <property name="Color" type="color" value="#ff3c0000"/>
    <property name="Frames" type="int" value="30"/>
   </properties>
  </object>
  <object id="2158" gid="16388" x="17648" y="128" width="16" height="16">
   <properties>
    <property name="Channel" value="GROUND"/>
    <property name="Color" type="color" value="#ff3c0000"/>
    <property name="Frames" type="int" value="30"/>
   </properties>
  </object>
  <object id="2162" gid="16388" x="17778" y="128" width="16" height="16">
   <properties>
    <property name="Channel" value="GROUND"/>
    <property name="Color" type="color" value="#ff3c0000"/>
    <property name="Frames" type="int" value="30"/>
   </properties>
  </object>
  <object id="2166" gid="16388" x="17919" y="128" width="16" height="16">
   <properties>
    <property name="Channel" value="GROUND"/>
    <property name="Color" type="color" value="#ff3c0000"/>
    <property name="Frames" type="int" value="30"/>
   </properties>
  </object>
  <object id="2174" gid="16388" x="18056" y="128" width="16" height="16">
   <properties>
    <property name="Channel" value="GROUND"/>
    <property name="Color" type="color" value="#ff3c0000"/>
    <property name="Frames" type="int" value="30"/>
   </properties>
  </object>
  <object id="2182" gid="16388" x="18191" y="128" width="16" height="16">
   <properties>
    <property name="Channel" value="GROUND"/>
    <property name="Color" type="color" value="#ff3c0000"/>
    <property name="Frames" type="int" value="30"/>
   </properties>
  </object>
  <object id="2190" gid="16388" x="18326" y="128" width="16" height="16">
   <properties>
    <property name="Channel" value="GROUND"/>
    <property name="Color" type="color" value="#ff3c0000"/>
    <property name="Frames" type="int" value="30"/>
   </properties>
  </object>
  <object id="2198" gid="16388" x="18459" y="128" width="16" height="16">
   <properties>
    <property name="Channel" value="GROUND"/>
    <property name="Color" type="color" value="#ff3c0000"/>
    <property name="Frames" type="int" value="30"/>
   </properties>
  </object>
  <object id="2206" gid="16388" x="18592" y="128" width="16" height="16">
   <properties>
    <property name="Channel" value="GROUND"/>
    <property name="Color" type="color" value="#ff3c0000"/>
    <property name="Frames" type="int" value="30"/>
   </properties>
  </object>
  <object id="2214" gid="16388" x="18732" y="128" width="16" height="16">
   <properties>
    <property name="Channel" value="GROUND"/>
    <property name="Color" type="color" value="#ff3c0000"/>
    <property name="Frames" type="int" value="30"/>
   </properties>
  </object>
  <object id="2222" gid="16388" x="18869" y="128" width="16" height="16">
   <properties>
    <property name="Channel" value="GROUND"/>
    <property name="Color" type="color" value="#ff3c0000"/>
    <property name="Frames" type="int" value="30"/>
   </properties>
  </object>
  <object id="2230" gid="16388" x="19019" y="128" width="16" height="16">
   <properties>
    <property name="Channel" value="GROUND"/>
    <property name="Color" type="color" value="#ff3c0000"/>
    <property name="Frames" type="int" value="30"/>
   </properties>
  </object>
  <object id="2234" gid="16388" x="19152" y="128" width="16" height="16">
   <properties>
    <property name="Channel" value="GROUND"/>
    <property name="Color" type="color" value="#ff3c0000"/>
    <property name="Frames" type="int" value="30"/>
   </properties>
  </object>
  <object id="2242" gid="16388" x="19295" y="160" width="16" height="16">
   <properties>
    <property name="Channel" value="GROUND"/>
    <property name="Color" type="color" value="#ff3c0000"/>
    <property name="Frames" type="int" value="30"/>
   </properties>
  </object>
  <object id="2246" gid="16388" x="19428" y="192" width="16" height="16">
   <properties>
    <property name="Channel" value="GROUND"/>
    <property name="Color" type="color" value="#ff3c0000"/>
    <property name="Frames" type="int" value="30"/>
   </properties>
  </object>
  <object id="2250" gid="16388" x="19572" y="192" width="16" height="16">
   <properties>
    <property name="Channel" value="GROUND"/>
    <property name="Color" type="color" value="#ff3c0000"/>
    <property name="Frames" type="int" value="30"/>
   </properties>
  </object>
  <object id="2262" gid="16388" x="19709" y="192" width="16" height="16">
   <properties>
    <property name="Channel" value="GROUND"/>
    <property name="Color" type="color" value="#ff3c0000"/>
    <property name="Frames" type="int" value="30"/>
   </properties>
  </object>
  <object id="2266" gid="16388" x="19844" y="192" width="16" height="16">
   <properties>
    <property name="Channel" value="GROUND"/>
    <property name="Color" type="color" value="#ff3c0000"/>
    <property name="Frames" type="int" value="30"/>
   </properties>
  </object>
  <object id="2270" gid="16388" x="19980" y="192" width="16" height="16">
   <properties>
    <property name="Channel" value="GROUND"/>
    <property name="Color" type="color" value="#ff3c0000"/>
    <property name="Frames" type="int" value="30"/>
   </properties>
  </object>
  <object id="2274" gid="16388" x="20111" y="192" width="16" height="16">
   <properties>
    <property name="Channel" value="GROUND"/>
    <property name="Color" type="color" value="#ff3c0000"/>
    <property name="Frames" type="int" value="30"/>
   </properties>
  </object>
  <object id="2280" gid="16388" x="20240" y="192" width="16" height="16">
   <properties>
    <property name="Channel" value="GROUND"/>
    <property name="Color" type="color" value="#ff3c0000"/>
    <property name="Frames" type="int" value="30"/>
   </properties>
  </object>
  <object id="2284" gid="16388" x="20385" y="192" width="16" height="16">
   <properties>
    <property name="Channel" value="GROUND"/>
    <property name="Color" type="color" value="#ff3c0000"/>
    <property name="Frames" type="int" value="30"/>
   </properties>
  </object>
  <object id="2288" gid="16388" x="20520" y="192" width="16" height="16">
   <properties>
    <property name="Channel" value="GROUND"/>
    <property name="Color" type="color" value="#ff3c0000"/>
    <property name="Frames" type="int" value="30"/>
   </properties>
  </object>
  <object id="2464" gid="16388" x="23382" y="144" width="16" height="16">
   <properties>
    <property name="Channel" value="GROUND"/>
    <property name="Color" type="color" value="#ff860000"/>
    <property name="Frames" type="int" value="0"/>
   </properties>
  </object>
  <object id="2481" gid="16388" x="23709" y="144" width="16" height="16">
   <properties>
    <property name="Channel" value="GROUND"/>
    <property name="Color" type="color" value="#ff860000"/>
    <property name="Frames" type="int" value="0"/>
   </properties>
  </object>
  <object id="2504" gid="16388" x="24050" y="144" width="16" height="16">
   <properties>
    <property name="Channel" value="GROUND"/>
    <property name="Color" type="color" value="#ff860000"/>
    <property name="Frames" type="int" value="0"/>
   </properties>
  </object>
  <object id="2520" gid="16388" x="24395" y="144" width="16" height="16">
   <properties>
    <property name="Channel" value="GROUND"/>
    <property name="Color" type="color" value="#ff860000"/>
    <property name="Frames" type="int" value="0"/>
   </properties>
  </object>
  <object id="2536" gid="16388" x="24560" y="144" width="16" height="16">
   <properties>
    <property name="Channel" value="GROUND"/>
    <property name="Color" type="color" value="#ff860000"/>
    <property name="Frames" type="int" value="0"/>
   </properties>
  </object>
  <object id="2552" gid="16388" x="24904" y="144" width="16" height="16">
   <properties>
    <property name="Channel" value="GROUND"/>
    <property name="Color" type="color" value="#ff860000"/>
    <property name="Frames" type="int" value="0"/>
   </properties>
  </object>
  <object id="2568" gid="16388" x="25236" y="144" width="16" height="16">
   <properties>
    <property name="Channel" value="GROUND"/>
    <property name="Color" type="color" value="#ff860000"/>
    <property name="Frames" type="int" value="0"/>
   </properties>
  </object>
  <object id="2584" gid="16388" x="25587" y="144" width="16" height="16">
   <properties>
    <property name="Channel" value="GROUND"/>
    <property name="Color" type="color" value="#ff860000"/>
    <property name="Frames" type="int" value="0"/>
   </properties>
  </object>
  <object id="2600" gid="16388" x="25837" y="144" width="16" height="16">
   <properties>
    <property name="Channel" value="GROUND"/>
    <property name="Color" type="color" value="#ff860000"/>
    <property name="Frames" type="int" value="0"/>
   </properties>
  </object>
  <object id="2616" gid="16388" x="26104" y="144" width="16" height="16">
   <properties>
    <property name="Channel" value="GROUND"/>
    <property name="Color" type="color" value="#ff860000"/>
    <property name="Frames" type="int" value="0"/>
   </properties>
  </object>
  <object id="2632" gid="16388" x="26438" y="144" width="16" height="16">
   <properties>
    <property name="Channel" value="GROUND"/>
    <property name="Color" type="color" value="#ff860000"/>
    <property name="Frames" type="int" value="0"/>
   </properties>
  </object>
  <object id="2648" gid="16388" x="26786" y="144" width="16" height="16">
   <properties>
    <property name="Channel" value="GROUND"/>
    <property name="Color" type="color" value="#ff860000"/>
    <property name="Frames" type="int" value="0"/>
   </properties>
  </object>
  <object id="2664" gid="16388" x="27120" y="144" width="16" height="16">
   <properties>
    <property name="Channel" value="GROUND"/>
    <property name="Color" type="color" value="#ff860000"/>
    <property name="Frames" type="int" value="0"/>
   </properties>
  </object>
  <object id="2680" gid="16388" x="27467" y="144" width="16" height="16">
   <properties>
    <property name="Channel" value="GROUND"/>
    <property name="Color" type="color" value="#ff860000"/>
    <property name="Frames" type="int" value="0"/>
   </properties>
  </object>
  <object id="2696" gid="16388" x="27802" y="144" width="16" height="16">
   <properties>
    <property name="Channel" value="GROUND"/>
    <property name="Color" type="color" value="#ff860000"/>
    <property name="Frames" type="int" value="0"/>
   </properties>
  </object>
  <object id="2712" gid="16388" x="28149" y="144" width="16" height="16">
   <properties>
    <property name="Channel" value="GROUND"/>
    <property name="Color" type="color" value="#ff860000"/>
    <property name="Frames" type="int" value="0"/>
   </properties>
  </object>
  <object id="2728" gid="16388" x="28488" y="144" width="16" height="16">
   <properties>
    <property name="Channel" value="GROUND"/>
    <property name="Color" type="color" value="#ff860000"/>
    <property name="Frames" type="int" value="0"/>
   </properties>
  </object>
  <object id="2473" gid="16388" x="23540" y="144" width="16" height="16">
   <properties>
    <property name="Channel" value="GROUND"/>
    <property name="Color" type="color" value="#ff003086"/>
    <property name="Frames" type="int" value="0"/>
   </properties>
  </object>
  <object id="2496" gid="16388" x="23878" y="144" width="16" height="16">
   <properties>
    <property name="Channel" value="GROUND"/>
    <property name="Color" type="color" value="#ff003086"/>
    <property name="Frames" type="int" value="0"/>
   </properties>
  </object>
  <object id="2512" gid="16388" x="24216" y="144" width="16" height="16">
   <properties>
    <property name="Channel" value="GROUND"/>
    <property name="Color" type="color" value="#ff003086"/>
    <property name="Frames" type="int" value="0"/>
   </properties>
  </object>
  <object id="2528" gid="16388" x="24478" y="144" width="16" height="16">
   <properties>
    <property name="Channel" value="GROUND"/>
    <property name="Color" type="color" value="#ff003086"/>
    <property name="Frames" type="int" value="0"/>
   </properties>
  </object>
  <object id="2544" gid="16388" x="24732" y="144" width="16" height="16">
   <properties>
    <property name="Channel" value="GROUND"/>
    <property name="Color" type="color" value="#ff003086"/>
    <property name="Frames" type="int" value="0"/>
   </properties>
  </object>
  <object id="2560" gid="16388" x="25073" y="144" width="16" height="16">
   <properties>
    <property name="Channel" value="GROUND"/>
    <property name="Color" type="color" value="#ff003086"/>
    <property name="Frames" type="int" value="0"/>
   </properties>
  </object>
  <object id="2576" gid="16388" x="25413" y="144" width="16" height="16">
   <properties>
    <property name="Channel" value="GROUND"/>
    <property name="Color" type="color" value="#ff003086"/>
    <property name="Frames" type="int" value="0"/>
   </properties>
  </object>
  <object id="2592" gid="16388" x="25759" y="144" width="16" height="16">
   <properties>
    <property name="Channel" value="GROUND"/>
    <property name="Color" type="color" value="#ff003086"/>
    <property name="Frames" type="int" value="0"/>
   </properties>
  </object>
  <object id="2608" gid="16388" x="25923" y="144" width="16" height="16">
   <properties>
    <property name="Channel" value="GROUND"/>
    <property name="Color" type="color" value="#ff003086"/>
    <property name="Frames" type="int" value="0"/>
   </properties>
  </object>
  <object id="2624" gid="16388" x="26269" y="144" width="16" height="16">
   <properties>
    <property name="Channel" value="GROUND"/>
    <property name="Color" type="color" value="#ff003086"/>
    <property name="Frames" type="int" value="0"/>
   </properties>
  </object>
  <object id="2640" gid="16388" x="26600" y="144" width="16" height="16">
   <properties>
    <property name="Channel" value="GROUND"/>
    <property name="Color" type="color" value="#ff003086"/>
    <property name="Frames" type="int" value="0"/>
   </properties>
  </object>
  <object id="2656" gid="16388" x="26946" y="144" width="16" height="16">
   <properties>
    <property name="Channel" value="GROUND"/>
    <property name="Color" type="color" value="#ff003086"/>
    <property name="Frames" type="int" value="0"/>
   </properties>
  </object>
  <object id="2672" gid="16388" x="27292" y="144" width="16" height="16">
   <properties>
    <property name="Channel" value="GROUND"/>
    <property name="Color" type="color" value="#ff003086"/>
    <property name="Frames" type="int" value="0"/>
   </properties>
  </object>
  <object id="2688" gid="16388" x="27632" y="144" width="16" height="16">
   <properties>
    <property name="Channel" value="GROUND"/>
    <property name="Color" type="color" value="#ff003086"/>
    <property name="Frames" type="int" value="0"/>
   </properties>
  </object>
  <object id="2704" gid="16388" x="27974" y="144" width="16" height="16">
   <properties>
    <property name="Channel" value="GROUND"/>
    <property name="Color" type="color" value="#ff003086"/>
    <property name="Frames" type="int" value="0"/>
   </properties>
  </object>
  <object id="2720" gid="16388" x="28318" y="144" width="16" height="16">
   <properties>
    <property name="Channel" value="GROUND"/>
    <property name="Color" type="color" value="#ff003086"/>
    <property name="Frames" type="int" value="0"/>
   </properties>
  </object>
  <object id="2736" gid="16388" x="28674" y="144" width="16" height="16">
   <properties>
    <property name="Channel" value="GROUND"/>
    <property name="Color" type="color" value="#ff003086"/>
    <property name="Frames" type="int" value="0"/>
   </properties>
  </object>
  <object id="2466" gid="16388" x="23398" y="144" width="16" height="16">
   <properties>
    <property name="Channel" value="GROUND"/>
    <property name="Color" type="color" value="#ff000000"/>
    <property name="Frames" type="int" value="21"/>
   </properties>
  </object>
  <object id="2480" gid="16388" x="23725" y="144" width="16" height="16">
   <properties>
    <property name="Channel" value="GROUND"/>
    <property name="Color" type="color" value="#ff000000"/>
    <property name="Frames" type="int" value="21"/>
   </properties>
  </object>
  <object id="2505" gid="16388" x="24066" y="144" width="16" height="16">
   <properties>
    <property name="Channel" value="GROUND"/>
    <property name="Color" type="color" value="#ff000000"/>
    <property name="Frames" type="int" value="21"/>
   </properties>
  </object>
  <object id="2521" gid="16388" x="24411" y="144" width="16" height="16">
   <properties>
    <property name="Channel" value="GROUND"/>
    <property name="Color" type="color" value="#ff000000"/>
    <property name="Frames" type="int" value="21"/>
   </properties>
  </object>
  <object id="2537" gid="16388" x="24576" y="144" width="16" height="16">
   <properties>
    <property name="Channel" value="GROUND"/>
    <property name="Color" type="color" value="#ff000000"/>
    <property name="Frames" type="int" value="21"/>
   </properties>
  </object>
  <object id="2553" gid="16388" x="24920" y="144" width="16" height="16">
   <properties>
    <property name="Channel" value="GROUND"/>
    <property name="Color" type="color" value="#ff000000"/>
    <property name="Frames" type="int" value="21"/>
   </properties>
  </object>
  <object id="2569" gid="16388" x="25252" y="144" width="16" height="16">
   <properties>
    <property name="Channel" value="GROUND"/>
    <property name="Color" type="color" value="#ff000000"/>
    <property name="Frames" type="int" value="21"/>
   </properties>
  </object>
  <object id="2585" gid="16388" x="25603" y="144" width="16" height="16">
   <properties>
    <property name="Channel" value="GROUND"/>
    <property name="Color" type="color" value="#ff000000"/>
    <property name="Frames" type="int" value="21"/>
   </properties>
  </object>
  <object id="2601" gid="16388" x="25853" y="144" width="16" height="16">
   <properties>
    <property name="Channel" value="GROUND"/>
    <property name="Color" type="color" value="#ff000000"/>
    <property name="Frames" type="int" value="21"/>
   </properties>
  </object>
  <object id="2617" gid="16388" x="26120" y="144" width="16" height="16">
   <properties>
    <property name="Channel" value="GROUND"/>
    <property name="Color" type="color" value="#ff000000"/>
    <property name="Frames" type="int" value="21"/>
   </properties>
  </object>
  <object id="2633" gid="16388" x="26454" y="144" width="16" height="16">
   <properties>
    <property name="Channel" value="GROUND"/>
    <property name="Color" type="color" value="#ff000000"/>
    <property name="Frames" type="int" value="21"/>
   </properties>
  </object>
  <object id="2649" gid="16388" x="26802" y="144" width="16" height="16">
   <properties>
    <property name="Channel" value="GROUND"/>
    <property name="Color" type="color" value="#ff000000"/>
    <property name="Frames" type="int" value="21"/>
   </properties>
  </object>
  <object id="2665" gid="16388" x="27136" y="144" width="16" height="16">
   <properties>
    <property name="Channel" value="GROUND"/>
    <property name="Color" type="color" value="#ff000000"/>
    <property name="Frames" type="int" value="21"/>
   </properties>
  </object>
  <object id="2681" gid="16388" x="27483" y="144" width="16" height="16">
   <properties>
    <property name="Channel" value="GROUND"/>
    <property name="Color" type="color" value="#ff000000"/>
    <property name="Frames" type="int" value="21"/>
   </properties>
  </object>
  <object id="2697" gid="16388" x="27818" y="144" width="16" height="16">
   <properties>
    <property name="Channel" value="GROUND"/>
    <property name="Color" type="color" value="#ff000000"/>
    <property name="Frames" type="int" value="21"/>
   </properties>
  </object>
  <object id="2713" gid="16388" x="28165" y="144" width="16" height="16">
   <properties>
    <property name="Channel" value="GROUND"/>
    <property name="Color" type="color" value="#ff000000"/>
    <property name="Frames" type="int" value="21"/>
   </properties>
  </object>
  <object id="2729" gid="16388" x="28504" y="144" width="16" height="16">
   <properties>
    <property name="Channel" value="GROUND"/>
    <property name="Color" type="color" value="#ff000000"/>
    <property name="Frames" type="int" value="21"/>
   </properties>
  </object>
  <object id="2472" gid="16388" x="23556" y="144" width="16" height="16">
   <properties>
    <property name="Channel" value="GROUND"/>
    <property name="Color" type="color" value="#ff000000"/>
    <property name="Frames" type="int" value="21"/>
   </properties>
  </object>
  <object id="2497" gid="16388" x="23894" y="144" width="16" height="16">
   <properties>
    <property name="Channel" value="GROUND"/>
    <property name="Color" type="color" value="#ff000000"/>
    <property name="Frames" type="int" value="21"/>
   </properties>
  </object>
  <object id="2513" gid="16388" x="24232" y="144" width="16" height="16">
   <properties>
    <property name="Channel" value="GROUND"/>
    <property name="Color" type="color" value="#ff000000"/>
    <property name="Frames" type="int" value="21"/>
   </properties>
  </object>
  <object id="2529" gid="16388" x="24494" y="144" width="16" height="16">
   <properties>
    <property name="Channel" value="GROUND"/>
    <property name="Color" type="color" value="#ff000000"/>
    <property name="Frames" type="int" value="21"/>
   </properties>
  </object>
  <object id="2545" gid="16388" x="24748" y="144" width="16" height="16">
   <properties>
    <property name="Channel" value="GROUND"/>
    <property name="Color" type="color" value="#ff000000"/>
    <property name="Frames" type="int" value="21"/>
   </properties>
  </object>
  <object id="2561" gid="16388" x="25089" y="144" width="16" height="16">
   <properties>
    <property name="Channel" value="GROUND"/>
    <property name="Color" type="color" value="#ff000000"/>
    <property name="Frames" type="int" value="21"/>
   </properties>
  </object>
  <object id="2577" gid="16388" x="25429" y="144" width="16" height="16">
   <properties>
    <property name="Channel" value="GROUND"/>
    <property name="Color" type="color" value="#ff000000"/>
    <property name="Frames" type="int" value="21"/>
   </properties>
  </object>
  <object id="2593" gid="16388" x="25775" y="144" width="16" height="16">
   <properties>
    <property name="Channel" value="GROUND"/>
    <property name="Color" type="color" value="#ff000000"/>
    <property name="Frames" type="int" value="21"/>
   </properties>
  </object>
  <object id="2609" gid="16388" x="25939" y="144" width="16" height="16">
   <properties>
    <property name="Channel" value="GROUND"/>
    <property name="Color" type="color" value="#ff000000"/>
    <property name="Frames" type="int" value="21"/>
   </properties>
  </object>
  <object id="2625" gid="16388" x="26285" y="144" width="16" height="16">
   <properties>
    <property name="Channel" value="GROUND"/>
    <property name="Color" type="color" value="#ff000000"/>
    <property name="Frames" type="int" value="21"/>
   </properties>
  </object>
  <object id="2641" gid="16388" x="26616" y="144" width="16" height="16">
   <properties>
    <property name="Channel" value="GROUND"/>
    <property name="Color" type="color" value="#ff000000"/>
    <property name="Frames" type="int" value="21"/>
   </properties>
  </object>
  <object id="2657" gid="16388" x="26962" y="144" width="16" height="16">
   <properties>
    <property name="Channel" value="GROUND"/>
    <property name="Color" type="color" value="#ff000000"/>
    <property name="Frames" type="int" value="21"/>
   </properties>
  </object>
  <object id="2673" gid="16388" x="27308" y="144" width="16" height="16">
   <properties>
    <property name="Channel" value="GROUND"/>
    <property name="Color" type="color" value="#ff000000"/>
    <property name="Frames" type="int" value="21"/>
   </properties>
  </object>
  <object id="2689" gid="16388" x="27648" y="144" width="16" height="16">
   <properties>
    <property name="Channel" value="GROUND"/>
    <property name="Color" type="color" value="#ff000000"/>
    <property name="Frames" type="int" value="21"/>
   </properties>
  </object>
  <object id="2705" gid="16388" x="27990" y="144" width="16" height="16">
   <properties>
    <property name="Channel" value="GROUND"/>
    <property name="Color" type="color" value="#ff000000"/>
    <property name="Frames" type="int" value="21"/>
   </properties>
  </object>
  <object id="2721" gid="16388" x="28334" y="144" width="16" height="16">
   <properties>
    <property name="Channel" value="GROUND"/>
    <property name="Color" type="color" value="#ff000000"/>
    <property name="Frames" type="int" value="21"/>
   </properties>
  </object>
  <object id="2737" gid="16388" x="28690" y="144" width="16" height="16">
   <properties>
    <property name="Channel" value="GROUND"/>
    <property name="Color" type="color" value="#ff000000"/>
    <property name="Frames" type="int" value="21"/>
   </properties>
  </object>
  <object id="2292" gid="16388" x="20661" y="192" width="16" height="16">
   <properties>
    <property name="Channel" value="GROUND"/>
    <property name="Color" type="color" value="#ff3c0000"/>
    <property name="Frames" type="int" value="30"/>
   </properties>
  </object>
  <object id="2296" gid="16388" x="20789" y="192" width="16" height="16">
   <properties>
    <property name="Channel" value="GROUND"/>
    <property name="Color" type="color" value="#ff3c0000"/>
    <property name="Frames" type="int" value="30"/>
   </properties>
  </object>
  <object id="2300" gid="16388" x="20930" y="192" width="16" height="16">
   <properties>
    <property name="Channel" value="GROUND"/>
    <property name="Color" type="color" value="#ff3c0000"/>
    <property name="Frames" type="int" value="30"/>
   </properties>
  </object>
  <object id="2306" gid="16388" x="21070" y="192" width="16" height="16">
   <properties>
    <property name="Channel" value="GROUND"/>
    <property name="Color" type="color" value="#ff3c0000"/>
    <property name="Frames" type="int" value="30"/>
   </properties>
  </object>
  <object id="2310" gid="16388" x="21210" y="192" width="16" height="16">
   <properties>
    <property name="Channel" value="GROUND"/>
    <property name="Color" type="color" value="#ff3c0000"/>
    <property name="Frames" type="int" value="30"/>
   </properties>
  </object>
  <object id="2314" gid="16388" x="21347" y="192" width="16" height="16">
   <properties>
    <property name="Channel" value="GROUND"/>
    <property name="Color" type="color" value="#ff3c0000"/>
    <property name="Frames" type="int" value="30"/>
   </properties>
  </object>
  <object id="2318" gid="16388" x="21472" y="192" width="16" height="16">
   <properties>
    <property name="Channel" value="GROUND"/>
    <property name="Color" type="color" value="#ff000000"/>
    <property name="Frames" type="int" value="30"/>
   </properties>
  </object>
  <object id="2144" gid="16388" x="17168" y="128" width="16" height="16">
   <properties>
    <property name="Channel" value="GROUND"/>
    <property name="Color" type="color" value="#ff00053c"/>
    <property name="Frames" type="int" value="30"/>
   </properties>
  </object>
  <object id="2148" gid="16388" x="17308" y="128" width="16" height="16">
   <properties>
    <property name="Channel" value="GROUND"/>
    <property name="Color" type="color" value="#ff00053c"/>
    <property name="Frames" type="int" value="30"/>
   </properties>
  </object>
  <object id="2152" gid="16388" x="17441" y="128" width="16" height="16">
   <properties>
    <property name="Channel" value="GROUND"/>
    <property name="Color" type="color" value="#ff00053c"/>
    <property name="Frames" type="int" value="30"/>
   </properties>
  </object>
  <object id="2156" gid="16388" x="17578" y="128" width="16" height="16">
   <properties>
    <property name="Channel" value="GROUND"/>
    <property name="Color" type="color" value="#ff00053c"/>
    <property name="Frames" type="int" value="30"/>
   </properties>
  </object>
  <object id="2160" gid="16388" x="17711" y="128" width="16" height="16">
   <properties>
    <property name="Channel" value="GROUND"/>
    <property name="Color" type="color" value="#ff00053c"/>
    <property name="Frames" type="int" value="30"/>
   </properties>
  </object>
  <object id="2172" gid="16388" x="17985" y="128" width="16" height="16">
   <properties>
    <property name="Channel" value="GROUND"/>
    <property name="Color" type="color" value="#ff00053c"/>
    <property name="Frames" type="int" value="30"/>
   </properties>
  </object>
  <object id="2188" gid="16388" x="18257" y="128" width="16" height="16">
   <properties>
    <property name="Channel" value="GROUND"/>
    <property name="Color" type="color" value="#ff00053c"/>
    <property name="Frames" type="int" value="30"/>
   </properties>
  </object>
  <object id="2204" gid="16388" x="18528" y="128" width="16" height="16">
   <properties>
    <property name="Channel" value="GROUND"/>
    <property name="Color" type="color" value="#ff00053c"/>
    <property name="Frames" type="int" value="30"/>
   </properties>
  </object>
  <object id="2220" gid="16388" x="18799" y="128" width="16" height="16">
   <properties>
    <property name="Channel" value="GROUND"/>
    <property name="Color" type="color" value="#ff00053c"/>
    <property name="Frames" type="int" value="30"/>
   </properties>
  </object>
  <object id="2164" gid="16388" x="17844" y="128" width="16" height="16">
   <properties>
    <property name="Channel" value="GROUND"/>
    <property name="Color" type="color" value="#ff00053c"/>
    <property name="Frames" type="int" value="30"/>
   </properties>
  </object>
  <object id="2180" gid="16388" x="18122" y="128" width="16" height="16">
   <properties>
    <property name="Channel" value="GROUND"/>
    <property name="Color" type="color" value="#ff00053c"/>
    <property name="Frames" type="int" value="30"/>
   </properties>
  </object>
  <object id="2196" gid="16388" x="18392" y="128" width="16" height="16">
   <properties>
    <property name="Channel" value="GROUND"/>
    <property name="Color" type="color" value="#ff00053c"/>
    <property name="Frames" type="int" value="30"/>
   </properties>
  </object>
  <object id="2212" gid="16388" x="18659" y="128" width="16" height="16">
   <properties>
    <property name="Channel" value="GROUND"/>
    <property name="Color" type="color" value="#ff00053c"/>
    <property name="Frames" type="int" value="30"/>
   </properties>
  </object>
  <object id="2228" gid="16388" x="18941" y="128" width="16" height="16">
   <properties>
    <property name="Channel" value="GROUND"/>
    <property name="Color" type="color" value="#ff00053c"/>
    <property name="Frames" type="int" value="30"/>
   </properties>
  </object>
  <object id="2232" gid="16388" x="19080" y="128" width="16" height="16">
   <properties>
    <property name="Channel" value="GROUND"/>
    <property name="Color" type="color" value="#ff00053c"/>
    <property name="Frames" type="int" value="30"/>
   </properties>
  </object>
  <object id="2236" gid="16388" x="19218" y="128" width="16" height="16">
   <properties>
    <property name="Channel" value="GROUND"/>
    <property name="Color" type="color" value="#ff00053c"/>
    <property name="Frames" type="int" value="30"/>
   </properties>
  </object>
  <object id="2244" gid="16388" x="19360" y="176" width="16" height="16">
   <properties>
    <property name="Channel" value="GROUND"/>
    <property name="Color" type="color" value="#ff00053c"/>
    <property name="Frames" type="int" value="30"/>
   </properties>
  </object>
  <object id="2248" gid="16388" x="19503" y="192" width="16" height="16">
   <properties>
    <property name="Channel" value="GROUND"/>
    <property name="Color" type="color" value="#ff00053c"/>
    <property name="Frames" type="int" value="30"/>
   </properties>
  </object>
  <object id="2260" gid="16388" x="19643" y="192" width="16" height="16">
   <properties>
    <property name="Channel" value="GROUND"/>
    <property name="Color" type="color" value="#ff00053c"/>
    <property name="Frames" type="int" value="30"/>
   </properties>
  </object>
  <object id="2264" gid="16388" x="19775" y="192" width="16" height="16">
   <properties>
    <property name="Channel" value="GROUND"/>
    <property name="Color" type="color" value="#ff00053c"/>
    <property name="Frames" type="int" value="30"/>
   </properties>
  </object>
  <object id="2268" gid="16388" x="19909" y="192" width="16" height="16">
   <properties>
    <property name="Channel" value="GROUND"/>
    <property name="Color" type="color" value="#ff00053c"/>
    <property name="Frames" type="int" value="30"/>
   </properties>
  </object>
  <object id="2272" gid="16388" x="20046" y="192" width="16" height="16">
   <properties>
    <property name="Channel" value="GROUND"/>
    <property name="Color" type="color" value="#ff00053c"/>
    <property name="Frames" type="int" value="30"/>
   </properties>
  </object>
  <object id="2278" gid="16388" x="20174" y="192" width="16" height="16">
   <properties>
    <property name="Channel" value="GROUND"/>
    <property name="Color" type="color" value="#ff00053c"/>
    <property name="Frames" type="int" value="30"/>
   </properties>
  </object>
  <object id="2282" gid="16388" x="20310" y="192" width="16" height="16">
   <properties>
    <property name="Channel" value="GROUND"/>
    <property name="Color" type="color" value="#ff00053c"/>
    <property name="Frames" type="int" value="30"/>
   </properties>
  </object>
  <object id="2286" gid="16388" x="20451" y="192" width="16" height="16">
   <properties>
    <property name="Channel" value="GROUND"/>
    <property name="Color" type="color" value="#ff00053c"/>
    <property name="Frames" type="int" value="30"/>
   </properties>
  </object>
  <object id="2290" gid="16388" x="20589" y="192" width="16" height="16">
   <properties>
    <property name="Channel" value="GROUND"/>
    <property name="Color" type="color" value="#ff00053c"/>
    <property name="Frames" type="int" value="30"/>
   </properties>
  </object>
  <object id="2294" gid="16388" x="20728" y="192" width="16" height="16">
   <properties>
    <property name="Channel" value="GROUND"/>
    <property name="Color" type="color" value="#ff00053c"/>
    <property name="Frames" type="int" value="30"/>
   </properties>
  </object>
  <object id="2298" gid="16388" x="20856" y="192" width="16" height="16">
   <properties>
    <property name="Channel" value="GROUND"/>
    <property name="Color" type="color" value="#ff00053c"/>
    <property name="Frames" type="int" value="30"/>
   </properties>
  </object>
  <object id="2302" gid="16388" x="20998" y="192" width="16" height="16">
   <properties>
    <property name="Channel" value="GROUND"/>
    <property name="Color" type="color" value="#ff00053c"/>
    <property name="Frames" type="int" value="30"/>
   </properties>
  </object>
  <object id="2308" gid="16388" x="21140" y="192" width="16" height="16">
   <properties>
    <property name="Channel" value="GROUND"/>
    <property name="Color" type="color" value="#ff00053c"/>
    <property name="Frames" type="int" value="30"/>
   </properties>
  </object>
  <object id="2312" gid="16388" x="21278" y="192" width="16" height="16">
   <properties>
    <property name="Channel" value="GROUND"/>
    <property name="Color" type="color" value="#ff00053c"/>
    <property name="Frames" type="int" value="30"/>
   </properties>
  </object>
  <object id="2316" gid="16388" x="21405" y="192" width="16" height="16">
   <properties>
    <property name="Channel" value="GROUND"/>
    <property name="Color" type="color" value="#ff00053c"/>
    <property name="Frames" type="int" value="30"/>
   </properties>
  </object>
  <object id="2120" gid="16388" x="15610" y="128" width="16" height="16">
   <properties>
    <property name="Channel" value="GROUND"/>
    <property name="Color" type="color" value="#ff000000"/>
    <property name="Frames" type="int" value="63"/>
   </properties>
  </object>
  <object id="2126" gid="16388" x="16163" y="128" width="16" height="16">
   <properties>
    <property name="Channel" value="GROUND"/>
    <property name="Color" type="color" value="#ff000000"/>
    <property name="Frames" type="int" value="63"/>
   </properties>
  </object>
  <object id="2135" gid="16388" x="16719" y="128" width="16" height="16">
   <properties>
    <property name="Channel" value="GROUND"/>
    <property name="Color" type="color" value="#ff000000"/>
    <property name="Frames" type="int" value="63"/>
   </properties>
  </object>
  <object id="1805" gid="16388" x="11450" y="208" width="16" height="16">
   <properties>
    <property name="Channel" value="GROUND"/>
    <property name="Color" type="color" value="#ff118b00"/>
    <property name="Frames" type="int" value="0"/>
   </properties>
  </object>
  <object id="1828" gid="16388" x="12112" y="208" width="16" height="16">
   <properties>
    <property name="Channel" value="GROUND"/>
    <property name="Color" type="color" value="#ff118b00"/>
    <property name="Frames" type="int" value="0"/>
   </properties>
  </object>
  <object id="1852" gid="16388" x="12495" y="208" width="16" height="16">
   <properties>
    <property name="Channel" value="GROUND"/>
    <property name="Color" type="color" value="#ff118b00"/>
    <property name="Frames" type="int" value="0"/>
   </properties>
  </object>
  <object id="1872" gid="16388" x="12667" y="208" width="16" height="16">
   <properties>
    <property name="Channel" value="GROUND"/>
    <property name="Color" type="color" value="#ff118b00"/>
    <property name="Frames" type="int" value="0"/>
   </properties>
  </object>
  <object id="1794" gid="16388" x="11245" y="208" width="16" height="16">
   <properties>
    <property name="Channel" value="GROUND"/>
    <property name="Color" type="color" value="#ff000000"/>
    <property name="Frames" type="int" value="30"/>
   </properties>
  </object>
  <object id="1816" gid="16388" x="11683" y="208" width="16" height="16">
   <properties>
    <property name="Channel" value="GROUND"/>
    <property name="Color" type="color" value="#ff000000"/>
    <property name="Frames" type="int" value="30"/>
   </properties>
  </object>
  <object id="1841" gid="16388" x="12349" y="208" width="16" height="16">
   <properties>
    <property name="Channel" value="GROUND"/>
    <property name="Color" type="color" value="#ff000000"/>
    <property name="Frames" type="int" value="30"/>
   </properties>
  </object>
  <object id="1861" gid="16388" x="12568" y="208" width="16" height="16">
   <properties>
    <property name="Channel" value="GROUND"/>
    <property name="Color" type="color" value="#ff000000"/>
    <property name="Frames" type="int" value="30"/>
   </properties>
  </object>
  <object id="1881" gid="16388" x="12789" y="208" width="16" height="16">
   <properties>
    <property name="Channel" value="GROUND"/>
    <property name="Color" type="color" value="#ff000000"/>
    <property name="Frames" type="int" value="30"/>
   </properties>
  </object>
  <object id="1888" gid="16388" x="12974" y="208" width="16" height="16">
   <properties>
    <property name="Channel" value="GROUND"/>
    <property name="Color" type="color" value="#ff000000"/>
    <property name="Frames" type="int" value="21"/>
   </properties>
  </object>
  <object id="1897" gid="16388" x="13248" y="208" width="16" height="16">
   <properties>
    <property name="Channel" value="GROUND"/>
    <property name="Color" type="color" value="#ff000000"/>
    <property name="Frames" type="int" value="21"/>
   </properties>
  </object>
  <object id="1913" gid="16388" x="13525" y="208" width="16" height="16">
   <properties>
    <property name="Channel" value="GROUND"/>
    <property name="Color" type="color" value="#ff000000"/>
    <property name="Frames" type="int" value="21"/>
   </properties>
  </object>
  <object id="1925" gid="16388" x="13803" y="208" width="16" height="16">
   <properties>
    <property name="Channel" value="GROUND"/>
    <property name="Color" type="color" value="#ff000000"/>
    <property name="Frames" type="int" value="21"/>
   </properties>
  </object>
  <object id="1937" gid="16388" x="13936" y="208" width="16" height="16">
   <properties>
    <property name="Channel" value="GROUND"/>
    <property name="Color" type="color" value="#ff000000"/>
    <property name="Frames" type="int" value="21"/>
   </properties>
  </object>
  <object id="1893" gid="16388" x="13116" y="208" width="16" height="16">
   <properties>
    <property name="Channel" value="GROUND"/>
    <property name="Color" type="color" value="#ff000000"/>
    <property name="Frames" type="int" value="21"/>
   </properties>
  </object>
  <object id="1907" gid="16388" x="13390" y="208" width="16" height="16">
   <properties>
    <property name="Channel" value="GROUND"/>
    <property name="Color" type="color" value="#ff000000"/>
    <property name="Frames" type="int" value="21"/>
   </properties>
  </object>
  <object id="1918" gid="16388" x="13664" y="208" width="16" height="16">
   <properties>
    <property name="Channel" value="GROUND"/>
    <property name="Color" type="color" value="#ff000000"/>
    <property name="Frames" type="int" value="21"/>
   </properties>
  </object>
  <object id="1930" gid="16388" x="13867" y="208" width="16" height="16">
   <properties>
    <property name="Channel" value="GROUND"/>
    <property name="Color" type="color" value="#ff000000"/>
    <property name="Frames" type="int" value="21"/>
   </properties>
  </object>
  <object id="1804" gid="16388" x="11466" y="208" width="16" height="16">
   <properties>
    <property name="Channel" value="GROUND"/>
    <property name="Color" type="color" value="#ff000000"/>
    <property name="Frames" type="int" value="30"/>
   </properties>
  </object>
  <object id="1829" gid="16388" x="12128" y="208" width="16" height="16">
   <properties>
    <property name="Channel" value="GROUND"/>
    <property name="Color" type="color" value="#ff000000"/>
    <property name="Frames" type="int" value="30"/>
   </properties>
  </object>
  <object id="1853" gid="16388" x="12511" y="208" width="16" height="16">
   <properties>
    <property name="Channel" value="GROUND"/>
    <property name="Color" type="color" value="#ff000000"/>
    <property name="Frames" type="int" value="30"/>
   </properties>
  </object>
  <object id="1873" gid="16388" x="12683" y="208" width="16" height="16">
   <properties>
    <property name="Channel" value="GROUND"/>
    <property name="Color" type="color" value="#ff000000"/>
    <property name="Frames" type="int" value="30"/>
   </properties>
  </object>
  <object id="1574" gid="16388" x="6872" y="240" width="16" height="16">
   <properties>
    <property name="Channel" value="1"/>
    <property name="Color" type="color" value="#ffec0006"/>
   </properties>
  </object>
  <object id="1655" gid="16388" x="7229" y="240" width="16" height="16">
   <properties>
    <property name="Channel" value="1"/>
    <property name="Color" type="color" value="#ffec0006"/>
   </properties>
  </object>
  <object id="1666" gid="16388" x="7557" y="240" width="16" height="16">
   <properties>
    <property name="Channel" value="1"/>
    <property name="Color" type="color" value="#ffec0006"/>
   </properties>
  </object>
  <object id="1670" gid="16388" x="7800" y="240" width="16" height="16">
   <properties>
    <property name="Channel" value="1"/>
    <property name="Color" type="color" value="#ffec0006"/>
   </properties>
  </object>
  <object id="1686" gid="16388" x="8078" y="240" width="16" height="16">
   <properties>
    <property name="Channel" value="1"/>
    <property name="Color" type="color" value="#ffec0006"/>
   </properties>
  </object>
  <object id="1694" gid="16388" x="8420" y="240" width="16" height="16">
   <properties>
    <property name="Channel" value="1"/>
    <property name="Color" type="color" value="#ffec0006"/>
   </properties>
  </object>
  <object id="1702" gid="16388" x="8754" y="240" width="16" height="16">
   <properties>
    <property name="Channel" value="1"/>
    <property name="Color" type="color" value="#ffec0006"/>
   </properties>
  </object>
  <object id="1714" gid="16388" x="9094" y="240" width="16" height="16">
   <properties>
    <property name="Channel" value="1"/>
    <property name="Color" type="color" value="#ffec0006"/>
   </properties>
  </object>
  <object id="1722" gid="16388" x="9270" y="240" width="16" height="16">
   <properties>
    <property name="Channel" value="1"/>
    <property name="Color" type="color" value="#ffec0006"/>
   </properties>
  </object>
  <object id="1730" gid="16388" x="9488" y="240" width="16" height="16">
   <properties>
    <property name="Channel" value="1"/>
    <property name="Color" type="color" value="#ffec0006"/>
   </properties>
  </object>
  <object id="1738" gid="16388" x="9725" y="240" width="16" height="16">
   <properties>
    <property name="Channel" value="1"/>
    <property name="Color" type="color" value="#ffec0006"/>
   </properties>
  </object>
  <object id="1746" gid="16388" x="9944" y="240" width="16" height="16">
   <properties>
    <property name="Channel" value="1"/>
    <property name="Color" type="color" value="#ffec0006"/>
   </properties>
  </object>
  <object id="1754" gid="16388" x="10115" y="240" width="16" height="16">
   <properties>
    <property name="Channel" value="1"/>
    <property name="Color" type="color" value="#ffec0006"/>
   </properties>
  </object>
  <object id="1762" gid="16388" x="10270" y="240" width="16" height="16">
   <properties>
    <property name="Channel" value="1"/>
    <property name="Color" type="color" value="#ffec0006"/>
   </properties>
  </object>
  <object id="1770" gid="16388" x="10504" y="240" width="16" height="16">
   <properties>
    <property name="Channel" value="1"/>
    <property name="Color" type="color" value="#ffec0006"/>
   </properties>
  </object>
  <object id="1575" gid="16388" x="6888" y="240" width="16" height="16">
   <properties>
    <property name="Channel" value="1"/>
    <property name="Color" type="color" value="#ff940200"/>
    <property name="Frames" type="int" value="21"/>
   </properties>
  </object>
  <object id="1654" gid="16388" x="7245" y="240" width="16" height="16">
   <properties>
    <property name="Channel" value="1"/>
    <property name="Color" type="color" value="#ff940200"/>
    <property name="Frames" type="int" value="21"/>
   </properties>
  </object>
  <object id="1667" gid="16388" x="7573" y="240" width="16" height="16">
   <properties>
    <property name="Channel" value="1"/>
    <property name="Color" type="color" value="#ff940200"/>
    <property name="Frames" type="int" value="21"/>
   </properties>
  </object>
  <object id="1671" gid="16388" x="7816" y="240" width="16" height="16">
   <properties>
    <property name="Channel" value="1"/>
    <property name="Color" type="color" value="#ff940200"/>
    <property name="Frames" type="int" value="21"/>
   </properties>
  </object>
  <object id="1687" gid="16388" x="8094" y="240" width="16" height="16">
   <properties>
    <property name="Channel" value="1"/>
    <property name="Color" type="color" value="#ff940200"/>
    <property name="Frames" type="int" value="21"/>
   </properties>
  </object>
  <object id="1695" gid="16388" x="8436" y="240" width="16" height="16">
   <properties>
    <property name="Channel" value="1"/>
    <property name="Color" type="color" value="#ff940200"/>
    <property name="Frames" type="int" value="21"/>
   </properties>
  </object>
  <object id="1703" gid="16388" x="8770" y="240" width="16" height="16">
   <properties>
    <property name="Channel" value="1"/>
    <property name="Color" type="color" value="#ff940200"/>
    <property name="Frames" type="int" value="21"/>
   </properties>
  </object>
  <object id="1715" gid="16388" x="9110" y="240" width="16" height="16">
   <properties>
    <property name="Channel" value="1"/>
    <property name="Color" type="color" value="#ff940200"/>
    <property name="Frames" type="int" value="21"/>
   </properties>
  </object>
  <object id="1723" gid="16388" x="9286" y="240" width="16" height="16">
   <properties>
    <property name="Channel" value="1"/>
    <property name="Color" type="color" value="#ff940200"/>
    <property name="Frames" type="int" value="21"/>
   </properties>
  </object>
  <object id="1731" gid="16388" x="9504" y="240" width="16" height="16">
   <properties>
    <property name="Channel" value="1"/>
    <property name="Color" type="color" value="#ff940200"/>
    <property name="Frames" type="int" value="21"/>
   </properties>
  </object>
  <object id="1739" gid="16388" x="9741" y="240" width="16" height="16">
   <properties>
    <property name="Channel" value="1"/>
    <property name="Color" type="color" value="#ff940200"/>
    <property name="Frames" type="int" value="21"/>
   </properties>
  </object>
  <object id="1747" gid="16388" x="9960" y="240" width="16" height="16">
   <properties>
    <property name="Channel" value="1"/>
    <property name="Color" type="color" value="#ff940200"/>
    <property name="Frames" type="int" value="21"/>
   </properties>
  </object>
  <object id="1755" gid="16388" x="10131" y="240" width="16" height="16">
   <properties>
    <property name="Channel" value="1"/>
    <property name="Color" type="color" value="#ff940200"/>
    <property name="Frames" type="int" value="21"/>
   </properties>
  </object>
  <object id="1763" gid="16388" x="10286" y="240" width="16" height="16">
   <properties>
    <property name="Channel" value="1"/>
    <property name="Color" type="color" value="#ff940200"/>
    <property name="Frames" type="int" value="21"/>
   </properties>
  </object>
  <object id="1771" gid="16388" x="10520" y="240" width="16" height="16">
   <properties>
    <property name="Channel" value="1"/>
    <property name="Color" type="color" value="#ff940200"/>
    <property name="Frames" type="int" value="21"/>
   </properties>
  </object>
  <object id="1576" gid="16388" x="6872" y="256" width="16" height="16">
   <properties>
    <property name="Channel" value="2"/>
    <property name="Color" type="color" value="#ff10ff00"/>
   </properties>
  </object>
  <object id="1653" gid="16388" x="7229" y="256" width="16" height="16">
   <properties>
    <property name="Channel" value="2"/>
    <property name="Color" type="color" value="#ff10ff00"/>
   </properties>
  </object>
  <object id="1664" gid="16388" x="7557" y="256" width="16" height="16">
   <properties>
    <property name="Channel" value="2"/>
    <property name="Color" type="color" value="#ff10ff00"/>
   </properties>
  </object>
  <object id="1668" gid="16388" x="7800" y="256" width="16" height="16">
   <properties>
    <property name="Channel" value="2"/>
    <property name="Color" type="color" value="#ff10ff00"/>
   </properties>
  </object>
  <object id="1684" gid="16388" x="8078" y="256" width="16" height="16">
   <properties>
    <property name="Channel" value="2"/>
    <property name="Color" type="color" value="#ff10ff00"/>
   </properties>
  </object>
  <object id="1692" gid="16388" x="8420" y="256" width="16" height="16">
   <properties>
    <property name="Channel" value="2"/>
    <property name="Color" type="color" value="#ff10ff00"/>
   </properties>
  </object>
  <object id="1700" gid="16388" x="8754" y="256" width="16" height="16">
   <properties>
    <property name="Channel" value="2"/>
    <property name="Color" type="color" value="#ff10ff00"/>
   </properties>
  </object>
  <object id="1712" gid="16388" x="9094" y="256" width="16" height="16">
   <properties>
    <property name="Channel" value="2"/>
    <property name="Color" type="color" value="#ff10ff00"/>
   </properties>
  </object>
  <object id="1720" gid="16388" x="9270" y="256" width="16" height="16">
   <properties>
    <property name="Channel" value="2"/>
    <property name="Color" type="color" value="#ff10ff00"/>
   </properties>
  </object>
  <object id="1728" gid="16388" x="9488" y="256" width="16" height="16">
   <properties>
    <property name="Channel" value="2"/>
    <property name="Color" type="color" value="#ff10ff00"/>
   </properties>
  </object>
  <object id="1736" gid="16388" x="9725" y="256" width="16" height="16">
   <properties>
    <property name="Channel" value="2"/>
    <property name="Color" type="color" value="#ff10ff00"/>
   </properties>
  </object>
  <object id="1744" gid="16388" x="9944" y="256" width="16" height="16">
   <properties>
    <property name="Channel" value="2"/>
    <property name="Color" type="color" value="#ff10ff00"/>
   </properties>
  </object>
  <object id="1752" gid="16388" x="10115" y="256" width="16" height="16">
   <properties>
    <property name="Channel" value="2"/>
    <property name="Color" type="color" value="#ff10ff00"/>
   </properties>
  </object>
  <object id="1760" gid="16388" x="10270" y="256" width="16" height="16">
   <properties>
    <property name="Channel" value="2"/>
    <property name="Color" type="color" value="#ff10ff00"/>
   </properties>
  </object>
  <object id="1768" gid="16388" x="10504" y="256" width="16" height="16">
   <properties>
    <property name="Channel" value="2"/>
    <property name="Color" type="color" value="#ff10ff00"/>
   </properties>
  </object>
  <object id="1577" gid="16388" x="6888" y="256" width="16" height="16">
   <properties>
    <property name="Channel" value="2"/>
    <property name="Color" type="color" value="#ff139d00"/>
    <property name="Frames" type="int" value="21"/>
   </properties>
  </object>
  <object id="1652" gid="16388" x="7245" y="256" width="16" height="16">
   <properties>
    <property name="Channel" value="2"/>
    <property name="Color" type="color" value="#ff139d00"/>
    <property name="Frames" type="int" value="21"/>
   </properties>
  </object>
  <object id="1665" gid="16388" x="7573" y="256" width="16" height="16">
   <properties>
    <property name="Channel" value="2"/>
    <property name="Color" type="color" value="#ff139d00"/>
    <property name="Frames" type="int" value="21"/>
   </properties>
  </object>
  <object id="1669" gid="16388" x="7816" y="256" width="16" height="16">
   <properties>
    <property name="Channel" value="2"/>
    <property name="Color" type="color" value="#ff139d00"/>
    <property name="Frames" type="int" value="21"/>
   </properties>
  </object>
  <object id="1685" gid="16388" x="8094" y="256" width="16" height="16">
   <properties>
    <property name="Channel" value="2"/>
    <property name="Color" type="color" value="#ff139d00"/>
    <property name="Frames" type="int" value="21"/>
   </properties>
  </object>
  <object id="1693" gid="16388" x="8436" y="256" width="16" height="16">
   <properties>
    <property name="Channel" value="2"/>
    <property name="Color" type="color" value="#ff139d00"/>
    <property name="Frames" type="int" value="21"/>
   </properties>
  </object>
  <object id="1701" gid="16388" x="8770" y="256" width="16" height="16">
   <properties>
    <property name="Channel" value="2"/>
    <property name="Color" type="color" value="#ff139d00"/>
    <property name="Frames" type="int" value="21"/>
   </properties>
  </object>
  <object id="1713" gid="16388" x="9110" y="256" width="16" height="16">
   <properties>
    <property name="Channel" value="2"/>
    <property name="Color" type="color" value="#ff139d00"/>
    <property name="Frames" type="int" value="21"/>
   </properties>
  </object>
  <object id="1721" gid="16388" x="9286" y="256" width="16" height="16">
   <properties>
    <property name="Channel" value="2"/>
    <property name="Color" type="color" value="#ff139d00"/>
    <property name="Frames" type="int" value="21"/>
   </properties>
  </object>
  <object id="1729" gid="16388" x="9504" y="256" width="16" height="16">
   <properties>
    <property name="Channel" value="2"/>
    <property name="Color" type="color" value="#ff139d00"/>
    <property name="Frames" type="int" value="21"/>
   </properties>
  </object>
  <object id="1737" gid="16388" x="9741" y="256" width="16" height="16">
   <properties>
    <property name="Channel" value="2"/>
    <property name="Color" type="color" value="#ff139d00"/>
    <property name="Frames" type="int" value="21"/>
   </properties>
  </object>
  <object id="1745" gid="16388" x="9960" y="256" width="16" height="16">
   <properties>
    <property name="Channel" value="2"/>
    <property name="Color" type="color" value="#ff139d00"/>
    <property name="Frames" type="int" value="21"/>
   </properties>
  </object>
  <object id="1753" gid="16388" x="10131" y="256" width="16" height="16">
   <properties>
    <property name="Channel" value="2"/>
    <property name="Color" type="color" value="#ff139d00"/>
    <property name="Frames" type="int" value="21"/>
   </properties>
  </object>
  <object id="1761" gid="16388" x="10286" y="256" width="16" height="16">
   <properties>
    <property name="Channel" value="2"/>
    <property name="Color" type="color" value="#ff139d00"/>
    <property name="Frames" type="int" value="21"/>
   </properties>
  </object>
  <object id="1769" gid="16388" x="10520" y="256" width="16" height="16">
   <properties>
    <property name="Channel" value="2"/>
    <property name="Color" type="color" value="#ff139d00"/>
    <property name="Frames" type="int" value="21"/>
   </properties>
  </object>
  <object id="2820" gid="16428" x="4560" y="432" width="16" height="16">
   <properties>
    <property name="bg layer" value="1"/>
    <property name="metatile ID appearance" type="int" value="1509"/>
   </properties>
  </object>
  <object id="2821" gid="16428" x="4848" y="432" width="16" height="16">
   <properties>
    <property name="bg layer" value="1"/>
    <property name="metatile ID appearance" type="int" value="1509"/>
   </properties>
  </object>
  <object id="2822" gid="16428" x="5056" y="400" width="16" height="16">
   <properties>
    <property name="bg layer" value="1"/>
    <property name="metatile ID appearance" type="int" value="1509"/>
   </properties>
  </object>
  <object id="2823" gid="16428" x="5264" y="416" width="16" height="16">
   <properties>
    <property name="bg layer" value="1"/>
    <property name="metatile ID appearance" type="int" value="1509"/>
   </properties>
  </object>
  <object id="2824" gid="16428" x="4736" y="432" width="16" height="16">
   <properties>
    <property name="bg layer" value="1"/>
    <property name="metatile ID appearance" type="int" value="1510"/>
   </properties>
  </object>
  <object id="2825" gid="16428" x="4944" y="400" width="16" height="16">
   <properties>
    <property name="bg layer" value="1"/>
    <property name="metatile ID appearance" type="int" value="1510"/>
   </properties>
  </object>
  <object id="2826" gid="16428" x="5152" y="416" width="16" height="16">
   <properties>
    <property name="bg layer" value="1"/>
    <property name="metatile ID appearance" type="int" value="1510"/>
   </properties>
  </object>
  <object id="2827" gid="16428" x="5152" y="304" width="16" height="16">
   <properties>
    <property name="bg layer" value="1"/>
    <property name="metatile ID appearance" type="int" value="1513"/>
   </properties>
  </object>
  <object id="2828" gid="16428" x="4704" y="288" width="16" height="16">
   <properties>
    <property name="bg layer" value="1"/>
    <property name="metatile ID appearance" type="int" value="1513"/>
   </properties>
  </object>
  <object id="2829" gid="16428" x="4944" y="288" width="16" height="16">
   <properties>
    <property name="bg layer" value="1"/>
    <property name="metatile ID appearance" type="int" value="1513"/>
   </properties>
  </object>
  <object id="2830" gid="16428" x="5424" y="304" width="16" height="16">
   <properties>
    <property name="bg layer" value="1"/>
    <property name="metatile ID appearance" type="int" value="7993"/>
   </properties>
  </object>
  <object id="2831" gid="16428" x="5312" y="304" width="16" height="16">
   <properties>
    <property name="bg layer" value="1"/>
    <property name="metatile ID appearance" type="int" value="1514"/>
   </properties>
  </object>
  <object id="2832" gid="16428" x="4592" y="288" width="16" height="16">
   <properties>
    <property name="bg layer" value="1"/>
    <property name="metatile ID appearance" type="int" value="1514"/>
   </properties>
  </object>
  <object id="2833" gid="16428" x="4880" y="288" width="16" height="16">
   <properties>
    <property name="bg layer" value="1"/>
    <property name="metatile ID appearance" type="int" value="1514"/>
   </properties>
  </object>
  <object id="2834" gid="16428" x="5040" y="304" width="16" height="16">
   <properties>
    <property name="bg layer" value="1"/>
    <property name="metatile ID appearance" type="int" value="1514"/>
   </properties>
  </object>
  <object id="2835" gid="16428" x="9360" y="432" width="16" height="16">
   <properties>
    <property name="bg layer" value="1"/>
    <property name="metatile ID appearance" type="int" value="1509"/>
   </properties>
  </object>
  <object id="2848" gid="16428" x="9520" y="288" width="16" height="16">
   <properties>
    <property name="bg layer" value="1"/>
    <property name="metatile ID appearance" type="int" value="1513"/>
   </properties>
  </object>
  <object id="2849" gid="16428" x="9696" y="288" width="16" height="16">
   <properties>
    <property name="bg layer" value="1"/>
    <property name="metatile ID appearance" type="int" value="1513"/>
   </properties>
  </object>
  <object id="2850" gid="16428" x="9776" y="288" width="16" height="16">
   <properties>
    <property name="bg layer" value="1"/>
    <property name="metatile ID appearance" type="int" value="1513"/>
   </properties>
  </object>
  <object id="2851" gid="16428" x="10048" y="288" width="16" height="16">
   <properties>
    <property name="bg layer" value="1"/>
    <property name="metatile ID appearance" type="int" value="1513"/>
   </properties>
  </object>
  <object id="2852" gid="16428" x="10224" y="288" width="16" height="16">
   <properties>
    <property name="bg layer" value="1"/>
    <property name="metatile ID appearance" type="int" value="1513"/>
   </properties>
  </object>
  <object id="2865" gid="16428" x="17280" y="176" width="16" height="16">
   <properties>
    <property name="bg layer" value="1"/>
    <property name="metatile ID appearance" type="int" value="1513"/>
   </properties>
  </object>
  <object id="2872" gid="16428" x="17696" y="176" width="16" height="16">
   <properties>
    <property name="bg layer" value="1"/>
    <property name="metatile ID appearance" type="int" value="1513"/>
   </properties>
  </object>
  <object id="2867" gid="16428" x="17472" y="176" width="16" height="16">
   <properties>
    <property name="bg layer" value="1"/>
    <property name="metatile ID appearance" type="int" value="1513"/>
   </properties>
  </object>
  <object id="2853" gid="16428" x="10544" y="288" width="16" height="16">
   <properties>
    <property name="bg layer" value="1"/>
    <property name="metatile ID appearance" type="int" value="1513"/>
   </properties>
  </object>
  <object id="2854" gid="16428" x="10768" y="288" width="16" height="16">
   <properties>
    <property name="bg layer" value="1"/>
    <property name="metatile ID appearance" type="int" value="1513"/>
   </properties>
  </object>
  <object id="2855" gid="16428" x="10848" y="288" width="16" height="16">
   <properties>
    <property name="bg layer" value="1"/>
    <property name="metatile ID appearance" type="int" value="1514"/>
   </properties>
  </object>
  <object id="2856" gid="16428" x="10656" y="288" width="16" height="16">
   <properties>
    <property name="bg layer" value="1"/>
    <property name="metatile ID appearance" type="int" value="1514"/>
   </properties>
  </object>
  <object id="2857" gid="16428" x="10368" y="288" width="16" height="16">
   <properties>
    <property name="bg layer" value="1"/>
    <property name="metatile ID appearance" type="int" value="1514"/>
   </properties>
  </object>
  <object id="2864" gid="16428" x="17344" y="176" width="16" height="16">
   <properties>
    <property name="bg layer" value="1"/>
    <property name="metatile ID appearance" type="int" value="1514"/>
   </properties>
  </object>
  <object id="2873" gid="16428" x="17760" y="176" width="16" height="16">
   <properties>
    <property name="bg layer" value="1"/>
    <property name="metatile ID appearance" type="int" value="1514"/>
   </properties>
  </object>
  <object id="2869" gid="16428" x="17568" y="176" width="16" height="16">
   <properties>
    <property name="bg layer" value="1"/>
    <property name="metatile ID appearance" type="int" value="1514"/>
   </properties>
  </object>
  <object id="2858" gid="16428" x="10096" y="288" width="16" height="16">
   <properties>
    <property name="bg layer" value="1"/>
    <property name="metatile ID appearance" type="int" value="1514"/>
   </properties>
  </object>
  <object id="2859" gid="16428" x="9952" y="288" width="16" height="16">
   <properties>
    <property name="bg layer" value="1"/>
    <property name="metatile ID appearance" type="int" value="1514"/>
   </properties>
  </object>
  <object id="2860" gid="16428" x="9712" y="288" width="16" height="16">
   <properties>
    <property name="bg layer" value="1"/>
    <property name="metatile ID appearance" type="int" value="1514"/>
   </properties>
  </object>
  <object id="2861" gid="16428" x="9632" y="288" width="16" height="16">
   <properties>
    <property name="bg layer" value="1"/>
    <property name="metatile ID appearance" type="int" value="1514"/>
   </properties>
  </object>
  <object id="2836" gid="16428" x="9616" y="432" width="16" height="16">
   <properties>
    <property name="bg layer" value="1"/>
    <property name="metatile ID appearance" type="int" value="1509"/>
   </properties>
  </object>
  <object id="2837" gid="16428" x="9904" y="432" width="16" height="16">
   <properties>
    <property name="bg layer" value="1"/>
    <property name="metatile ID appearance" type="int" value="1509"/>
   </properties>
  </object>
  <object id="2838" gid="16428" x="10032" y="432" width="16" height="16">
   <properties>
    <property name="bg layer" value="1"/>
    <property name="metatile ID appearance" type="int" value="1509"/>
   </properties>
  </object>
  <object id="2839" gid="16428" x="10368" y="432" width="16" height="16">
   <properties>
    <property name="bg layer" value="1"/>
    <property name="metatile ID appearance" type="int" value="1509"/>
   </properties>
  </object>
  <object id="2863" gid="16428" x="17344" y="336" width="16" height="16">
   <properties>
    <property name="bg layer" value="1"/>
    <property name="metatile ID appearance" type="int" value="1509"/>
   </properties>
  </object>
  <object id="2870" gid="16428" x="17760" y="336" width="16" height="16">
   <properties>
    <property name="bg layer" value="1"/>
    <property name="metatile ID appearance" type="int" value="1509"/>
   </properties>
  </object>
  <object id="2868" gid="16428" x="17568" y="336" width="16" height="16">
   <properties>
    <property name="bg layer" value="1"/>
    <property name="metatile ID appearance" type="int" value="1509"/>
   </properties>
  </object>
  <object id="2840" gid="16428" x="10608" y="432" width="16" height="16">
   <properties>
    <property name="bg layer" value="1"/>
    <property name="metatile ID appearance" type="int" value="1509"/>
   </properties>
  </object>
  <object id="2841" gid="16428" x="10864" y="432" width="16" height="16">
   <properties>
    <property name="bg layer" value="1"/>
    <property name="metatile ID appearance" type="int" value="1509"/>
   </properties>
  </object>
  <object id="2842" gid="16428" x="10784" y="432" width="16" height="16">
   <properties>
    <property name="bg layer" value="1"/>
    <property name="metatile ID appearance" type="int" value="1510"/>
   </properties>
  </object>
  <object id="2843" gid="16428" x="10576" y="432" width="16" height="16">
   <properties>
    <property name="bg layer" value="1"/>
    <property name="metatile ID appearance" type="int" value="1510"/>
   </properties>
  </object>
  <object id="2844" gid="16428" x="10240" y="432" width="16" height="16">
   <properties>
    <property name="bg layer" value="1"/>
    <property name="metatile ID appearance" type="int" value="1510"/>
   </properties>
  </object>
  <object id="2862" gid="16428" x="17280" y="336" width="16" height="16">
   <properties>
    <property name="bg layer" value="1"/>
    <property name="metatile ID appearance" type="int" value="1510"/>
   </properties>
  </object>
  <object id="2871" gid="16428" x="17696" y="336" width="16" height="16">
   <properties>
    <property name="bg layer" value="1"/>
    <property name="metatile ID appearance" type="int" value="1510"/>
   </properties>
  </object>
  <object id="2866" gid="16428" x="17472" y="336" width="16" height="16">
   <properties>
    <property name="bg layer" value="1"/>
    <property name="metatile ID appearance" type="int" value="1510"/>
   </properties>
  </object>
  <object id="2845" gid="16428" x="9984" y="432" width="16" height="16">
   <properties>
    <property name="bg layer" value="1"/>
    <property name="metatile ID appearance" type="int" value="1510"/>
   </properties>
  </object>
  <object id="2846" gid="16428" x="9792" y="432" width="16" height="16">
   <properties>
    <property name="bg layer" value="1"/>
    <property name="metatile ID appearance" type="int" value="1510"/>
   </properties>
  </object>
  <object id="2847" gid="16428" x="9568" y="432" width="16" height="16">
   <properties>
    <property name="bg layer" value="1"/>
    <property name="metatile ID appearance" type="int" value="1510"/>
   </properties>
  </object>
  <object id="2874" gid="16428" x="5712" y="336" width="16" height="16">
   <properties>
    <property name="bg layer" value="0"/>
    <property name="metatile ID appearance" type="int" value="5730"/>
   </properties>
  </object>
  <object id="2894" gid="16428" x="6000" y="352" width="16" height="16">
   <properties>
    <property name="bg layer" value="0"/>
    <property name="metatile ID appearance" type="int" value="5730"/>
   </properties>
  </object>
  <object id="2895" gid="16428" x="6192" y="368" width="16" height="16">
   <properties>
    <property name="bg layer" value="0"/>
    <property name="metatile ID appearance" type="int" value="5732"/>
   </properties>
  </object>
  <object id="2880" gid="16428" x="1920" y="432" width="16" height="16">
   <properties>
    <property name="bg layer" value="0"/>
    <property name="metatile ID appearance" type="int" value="5088"/>
    <property name="z index" type="int" value="0"/>
   </properties>
  </object>
  <object id="2881" gid="16428" x="2384" y="432" width="16" height="16">
   <properties>
    <property name="bg layer" value="0"/>
    <property name="metatile ID appearance" type="int" value="5088"/>
    <property name="z index" type="int" value="0"/>
   </properties>
  </object>
  <object id="2884" gid="16428" x="3184" y="432" width="16" height="16">
   <properties>
    <property name="bg layer" value="0"/>
    <property name="metatile ID appearance" type="int" value="5088"/>
    <property name="z index" type="int" value="0"/>
   </properties>
  </object>
  <object id="2885" gid="16428" x="3344" y="432" width="16" height="16">
   <properties>
    <property name="bg layer" value="0"/>
    <property name="metatile ID appearance" type="int" value="5088"/>
    <property name="z index" type="int" value="0"/>
   </properties>
  </object>
  <object id="2886" gid="16428" x="3744" y="432" width="16" height="16">
   <properties>
    <property name="bg layer" value="0"/>
    <property name="metatile ID appearance" type="int" value="5088"/>
    <property name="z index" type="int" value="0"/>
   </properties>
  </object>
  <object id="2887" gid="16511" x="4416" y="384" width="16" height="16">
   <properties>
    <property name="bg layer" value="-1"/>
    <property name="color channel" value="4"/>
   </properties>
  </object>
  <object id="2888" gid="16428" x="5392" y="384" width="16" height="16">
   <properties>
    <property name="bg layer" value="1"/>
    <property name="metatile ID appearance" type="int" value="5976"/>
    <property name="z index" type="int" value="20"/>
   </properties>
  </object>
  <object id="2889" gid="16428" x="5600" y="432" width="16" height="16">
   <properties>
    <property name="bg layer" value="1"/>
    <property name="metatile ID appearance" type="int" value="5980"/>
    <property name="z index" type="int" value="20"/>
   </properties>
  </object>
  <object id="2890" gid="16428" x="5808" y="432" width="16" height="16">
   <properties>
    <property name="bg layer" value="1"/>
    <property name="metatile ID appearance" type="int" value="5980"/>
    <property name="z index" type="int" value="20"/>
   </properties>
  </object>
  <object id="2892" gid="16428" x="5632" y="432" width="16" height="16">
   <properties>
    <property name="bg layer" value="1"/>
    <property name="metatile ID appearance" type="int" value="5982"/>
    <property name="z index" type="int" value="20"/>
   </properties>
  </object>
  <object id="2893" gid="16428" x="5856" y="432" width="16" height="16">
   <properties>
    <property name="bg layer" value="1"/>
    <property name="metatile ID appearance" type="int" value="5982"/>
    <property name="z index" type="int" value="20"/>
   </properties>
  </object>
  <object id="2896" gid="16428" x="6128" y="432" width="16" height="16">
   <properties>
    <property name="bg layer" value="1"/>
    <property name="metatile ID appearance" type="int" value="5982"/>
    <property name="z index" type="int" value="20"/>
   </properties>
  </object>
  <object id="2891" gid="16428" x="6064" y="432" width="16" height="16">
   <properties>
    <property name="bg layer" value="1"/>
    <property name="metatile ID appearance" type="int" value="5980"/>
    <property name="z index" type="int" value="20"/>
   </properties>
  </object>
  <object id="2897" gid="16428" x="6480" y="432" width="16" height="16">
   <properties>
    <property name="bg layer" value="1"/>
    <property name="metatile ID appearance" type="int" value="5152"/>
   </properties>
  </object>
  <object id="2898" gid="16428" x="6544" y="432" width="16" height="16">
   <properties>
    <property name="bg layer" value="1"/>
    <property name="metatile ID appearance" type="int" value="5152"/>
   </properties>
  </object>
  <object id="2899" gid="16428" x="6608" y="432" width="16" height="16">
   <properties>
    <property name="bg layer" value="1"/>
    <property name="metatile ID appearance" type="int" value="5152"/>
   </properties>
  </object>
  <object id="2935" gid="16428" x="5832" y="392" width="16" height="16">
   <properties>
    <property name="bg layer" value="1"/>
    <property name="metatile ID appearance" type="int" value="5090"/>
   </properties>
  </object>
  <object id="2936" gid="16428" x="5832" y="408" width="16" height="16">
   <properties>
    <property name="bg layer" value="1"/>
    <property name="metatile ID appearance" type="int" value="5088"/>
   </properties>
  </object>
  <object id="2937" gid="16428" x="5832" y="424" width="16" height="16">
   <properties>
    <property name="bg layer" value="1"/>
    <property name="metatile ID appearance" type="int" value="5088"/>
   </properties>
  </object>
  <object id="2938" gid="16428" x="5952" y="432" width="16" height="16">
   <properties>
    <property name="bg layer" value="1"/>
    <property name="metatile ID appearance" type="int" value="5088"/>
   </properties>
  </object>
  <object id="2939" gid="16428" x="6096" y="432" width="16" height="16">
   <properties>
    <property name="bg layer" value="1"/>
    <property name="metatile ID appearance" type="int" value="5088"/>
   </properties>
  </object>
  <object id="2940" gid="16428" x="6336" y="432" width="16" height="16">
   <properties>
    <property name="bg layer" value="1"/>
    <property name="metatile ID appearance" type="int" value="5088"/>
   </properties>
  </object>
  <object id="2941" gid="16428" x="6800" y="400" width="16" height="16">
   <properties>
    <property name="bg layer" value="1"/>
    <property name="metatile ID appearance" type="int" value="5980"/>
    <property name="z index" type="int" value="20"/>
   </properties>
  </object>
  <object id="2942" gid="16428" x="6960" y="400" width="16" height="16">
   <properties>
    <property name="bg layer" value="1"/>
    <property name="metatile ID appearance" type="int" value="5980"/>
    <property name="z index" type="int" value="20"/>
   </properties>
  </object>
  <object id="2943" gid="16428" x="6896" y="288" width="16" height="16">
   <properties>
    <property name="bg layer" value="1"/>
    <property name="metatile ID appearance" type="int" value="5980"/>
    <property name="z index" type="int" value="20"/>
   </properties>
  </object>
  <object id="2944" gid="16428" x="7072" y="400" width="16" height="16">
   <properties>
    <property name="bg layer" value="1"/>
    <property name="metatile ID appearance" type="int" value="5980"/>
    <property name="z index" type="int" value="20"/>
   </properties>
  </object>
  <object id="2945" gid="16428" x="7152" y="400" width="16" height="16">
   <properties>
    <property name="bg layer" value="1"/>
    <property name="metatile ID appearance" type="int" value="5980"/>
    <property name="z index" type="int" value="20"/>
   </properties>
  </object>
  <object id="2946" gid="16428" x="7280" y="400" width="16" height="16">
   <properties>
    <property name="bg layer" value="1"/>
    <property name="metatile ID appearance" type="int" value="5980"/>
    <property name="z index" type="int" value="20"/>
   </properties>
  </object>
  <object id="2947" gid="16428" x="7456" y="288" width="16" height="16">
   <properties>
    <property name="bg layer" value="1"/>
    <property name="metatile ID appearance" type="int" value="5980"/>
    <property name="z index" type="int" value="20"/>
   </properties>
  </object>
  <object id="2948" gid="16428" x="7504" y="288" width="16" height="16">
   <properties>
    <property name="bg layer" value="1"/>
    <property name="metatile ID appearance" type="int" value="5980"/>
    <property name="z index" type="int" value="20"/>
   </properties>
  </object>
  <object id="2949" gid="16428" x="7568" y="400" width="16" height="16">
   <properties>
    <property name="bg layer" value="1"/>
    <property name="metatile ID appearance" type="int" value="5980"/>
    <property name="z index" type="int" value="20"/>
   </properties>
  </object>
  <object id="2950" gid="16428" x="7664" y="288" width="16" height="16">
   <properties>
    <property name="bg layer" value="1"/>
    <property name="metatile ID appearance" type="int" value="5980"/>
    <property name="z index" type="int" value="20"/>
   </properties>
  </object>
  <object id="2951" gid="16428" x="7744" y="400" width="16" height="16">
   <properties>
    <property name="bg layer" value="1"/>
    <property name="metatile ID appearance" type="int" value="5980"/>
    <property name="z index" type="int" value="20"/>
   </properties>
  </object>
  <object id="2952" gid="16428" x="7824" y="288" width="16" height="16">
   <properties>
    <property name="bg layer" value="1"/>
    <property name="metatile ID appearance" type="int" value="5980"/>
    <property name="z index" type="int" value="20"/>
   </properties>
  </object>
  <object id="2953" gid="16428" x="7904" y="400" width="16" height="16">
   <properties>
    <property name="bg layer" value="1"/>
    <property name="metatile ID appearance" type="int" value="5980"/>
    <property name="z index" type="int" value="20"/>
   </properties>
  </object>
  <object id="2954" gid="16428" x="8128" y="400" width="16" height="16">
   <properties>
    <property name="bg layer" value="1"/>
    <property name="metatile ID appearance" type="int" value="5980"/>
    <property name="z index" type="int" value="20"/>
   </properties>
  </object>
  <object id="3149" gid="16428" x="15088" y="192" width="16" height="16">
   <properties>
    <property name="bg layer" value="1"/>
    <property name="metatile ID appearance" type="int" value="5980"/>
    <property name="z index" type="int" value="20"/>
   </properties>
  </object>
  <object id="3150" gid="16428" x="15088" y="320" width="16" height="16">
   <properties>
    <property name="bg layer" value="1"/>
    <property name="metatile ID appearance" type="int" value="5980"/>
    <property name="z index" type="int" value="20"/>
   </properties>
  </object>
  <object id="3151" gid="16428" x="15120" y="320" width="16" height="16">
   <properties>
    <property name="bg layer" value="1"/>
    <property name="metatile ID appearance" type="int" value="5980"/>
    <property name="z index" type="int" value="20"/>
   </properties>
  </object>
  <object id="3152" gid="16428" x="15168" y="320" width="16" height="16">
   <properties>
    <property name="bg layer" value="1"/>
    <property name="metatile ID appearance" type="int" value="5980"/>
    <property name="z index" type="int" value="20"/>
   </properties>
  </object>
  <object id="3153" gid="16428" x="15168" y="192" width="16" height="16">
   <properties>
    <property name="bg layer" value="1"/>
    <property name="metatile ID appearance" type="int" value="5980"/>
    <property name="z index" type="int" value="20"/>
   </properties>
  </object>
  <object id="3158" gid="16428" x="15120" y="192" width="16" height="16">
   <properties>
    <property name="bg layer" value="1"/>
    <property name="metatile ID appearance" type="int" value="5836"/>
    <property name="z index" type="int" value="20"/>
   </properties>
  </object>
  <object id="3180" gid="16428" x="15760" y="192" width="16" height="16">
   <properties>
    <property name="bg layer" value="1"/>
    <property name="metatile ID appearance" type="int" value="5836"/>
    <property name="z index" type="int" value="20"/>
   </properties>
  </object>
  <object id="3181" gid="16428" x="16448" y="192" width="16" height="16">
   <properties>
    <property name="bg layer" value="1"/>
    <property name="metatile ID appearance" type="int" value="5836"/>
    <property name="z index" type="int" value="20"/>
   </properties>
  </object>
  <object id="3182" gid="16428" x="16544" y="192" width="16" height="16">
   <properties>
    <property name="bg layer" value="1"/>
    <property name="metatile ID appearance" type="int" value="5836"/>
    <property name="z index" type="int" value="20"/>
   </properties>
  </object>
  <object id="3154" gid="16428" x="15328" y="192" width="16" height="16">
   <properties>
    <property name="bg layer" value="1"/>
    <property name="metatile ID appearance" type="int" value="5980"/>
    <property name="z index" type="int" value="20"/>
   </properties>
  </object>
  <object id="3155" gid="16428" x="15360" y="192" width="16" height="16">
   <properties>
    <property name="bg layer" value="1"/>
    <property name="metatile ID appearance" type="int" value="5980"/>
    <property name="z index" type="int" value="20"/>
   </properties>
  </object>
  <object id="3156" gid="16428" x="15328" y="320" width="16" height="16">
   <properties>
    <property name="bg layer" value="1"/>
    <property name="metatile ID appearance" type="int" value="5980"/>
    <property name="z index" type="int" value="20"/>
   </properties>
  </object>
  <object id="3157" gid="16428" x="15360" y="320" width="16" height="16">
   <properties>
    <property name="bg layer" value="1"/>
    <property name="metatile ID appearance" type="int" value="5980"/>
    <property name="z index" type="int" value="20"/>
   </properties>
  </object>
  <object id="3159" gid="16428" x="15728" y="320" width="16" height="16">
   <properties>
    <property name="bg layer" value="1"/>
    <property name="metatile ID appearance" type="int" value="5980"/>
    <property name="z index" type="int" value="20"/>
   </properties>
  </object>
  <object id="3160" gid="16428" x="15728" y="192" width="16" height="16">
   <properties>
    <property name="bg layer" value="1"/>
    <property name="metatile ID appearance" type="int" value="5980"/>
    <property name="z index" type="int" value="20"/>
   </properties>
  </object>
  <object id="3161" gid="16428" x="15808" y="192" width="16" height="16">
   <properties>
    <property name="bg layer" value="1"/>
    <property name="metatile ID appearance" type="int" value="5980"/>
    <property name="z index" type="int" value="20"/>
   </properties>
  </object>
  <object id="3162" gid="16428" x="15840" y="192" width="16" height="16">
   <properties>
    <property name="bg layer" value="1"/>
    <property name="metatile ID appearance" type="int" value="5980"/>
    <property name="z index" type="int" value="20"/>
   </properties>
  </object>
  <object id="3163" gid="16428" x="15760" y="320" width="16" height="16">
   <properties>
    <property name="bg layer" value="1"/>
    <property name="metatile ID appearance" type="int" value="5980"/>
    <property name="z index" type="int" value="20"/>
   </properties>
  </object>
  <object id="3164" gid="16428" x="15808" y="320" width="16" height="16">
   <properties>
    <property name="bg layer" value="1"/>
    <property name="metatile ID appearance" type="int" value="5980"/>
    <property name="z index" type="int" value="20"/>
   </properties>
  </object>
  <object id="3165" gid="16428" x="15840" y="320" width="16" height="16">
   <properties>
    <property name="bg layer" value="1"/>
    <property name="metatile ID appearance" type="int" value="5980"/>
    <property name="z index" type="int" value="20"/>
   </properties>
  </object>
  <object id="3166" gid="16428" x="16448" y="320" width="16" height="16">
   <properties>
    <property name="bg layer" value="1"/>
    <property name="metatile ID appearance" type="int" value="5980"/>
    <property name="z index" type="int" value="20"/>
   </properties>
  </object>
  <object id="3167" gid="16428" x="16480" y="192" width="16" height="16">
   <properties>
    <property name="bg layer" value="1"/>
    <property name="metatile ID appearance" type="int" value="5980"/>
    <property name="z index" type="int" value="20"/>
   </properties>
  </object>
  <object id="3168" gid="16428" x="16512" y="192" width="16" height="16">
   <properties>
    <property name="bg layer" value="1"/>
    <property name="metatile ID appearance" type="int" value="5980"/>
    <property name="z index" type="int" value="20"/>
   </properties>
  </object>
  <object id="3169" gid="16428" x="16736" y="192" width="16" height="16">
   <properties>
    <property name="bg layer" value="1"/>
    <property name="metatile ID appearance" type="int" value="5980"/>
    <property name="z index" type="int" value="20"/>
   </properties>
  </object>
  <object id="3170" gid="16428" x="16480" y="320" width="16" height="16">
   <properties>
    <property name="bg layer" value="1"/>
    <property name="metatile ID appearance" type="int" value="5980"/>
    <property name="z index" type="int" value="20"/>
   </properties>
  </object>
  <object id="3171" gid="16428" x="16512" y="320" width="16" height="16">
   <properties>
    <property name="bg layer" value="1"/>
    <property name="metatile ID appearance" type="int" value="5980"/>
    <property name="z index" type="int" value="20"/>
   </properties>
  </object>
  <object id="3172" gid="16428" x="16544" y="320" width="16" height="16">
   <properties>
    <property name="bg layer" value="1"/>
    <property name="metatile ID appearance" type="int" value="5980"/>
    <property name="z index" type="int" value="20"/>
   </properties>
  </object>
  <object id="3173" gid="16428" x="16608" y="320" width="16" height="16">
   <properties>
    <property name="bg layer" value="1"/>
    <property name="metatile ID appearance" type="int" value="5980"/>
    <property name="z index" type="int" value="20"/>
   </properties>
  </object>
  <object id="3174" gid="16428" x="16608" y="192" width="16" height="16">
   <properties>
    <property name="bg layer" value="1"/>
    <property name="metatile ID appearance" type="int" value="5980"/>
    <property name="z index" type="int" value="20"/>
   </properties>
  </object>
  <object id="3175" gid="16428" x="16736" y="320" width="16" height="16">
   <properties>
    <property name="bg layer" value="1"/>
    <property name="metatile ID appearance" type="int" value="5980"/>
    <property name="z index" type="int" value="20"/>
   </properties>
  </object>
  <object id="3176" gid="16428" x="16784" y="320" width="16" height="16">
   <properties>
    <property name="bg layer" value="1"/>
    <property name="metatile ID appearance" type="int" value="5980"/>
    <property name="z index" type="int" value="20"/>
   </properties>
  </object>
  <object id="3177" gid="16428" x="16816" y="320" width="16" height="16">
   <properties>
    <property name="bg layer" value="1"/>
    <property name="metatile ID appearance" type="int" value="5980"/>
    <property name="z index" type="int" value="20"/>
   </properties>
  </object>
  <object id="3178" gid="16428" x="16816" y="192" width="16" height="16">
   <properties>
    <property name="bg layer" value="1"/>
    <property name="metatile ID appearance" type="int" value="5980"/>
    <property name="z index" type="int" value="20"/>
   </properties>
  </object>
  <object id="3179" gid="16428" x="16784" y="192" width="16" height="16">
   <properties>
    <property name="bg layer" value="1"/>
    <property name="metatile ID appearance" type="int" value="5980"/>
    <property name="z index" type="int" value="20"/>
   </properties>
  </object>
  <object id="2955" gid="16428" x="8176" y="400" width="16" height="16">
   <properties>
    <property name="bg layer" value="1"/>
    <property name="metatile ID appearance" type="int" value="5980"/>
    <property name="z index" type="int" value="20"/>
   </properties>
  </object>
  <object id="2956" gid="16428" x="8256" y="288" width="16" height="16">
   <properties>
    <property name="bg layer" value="1"/>
    <property name="metatile ID appearance" type="int" value="5980"/>
    <property name="z index" type="int" value="20"/>
   </properties>
  </object>
  <object id="2957" gid="16428" x="8288" y="400" width="16" height="16">
   <properties>
    <property name="bg layer" value="1"/>
    <property name="metatile ID appearance" type="int" value="5980"/>
    <property name="z index" type="int" value="20"/>
   </properties>
  </object>
  <object id="2958" gid="16428" x="8336" y="400" width="16" height="16">
   <properties>
    <property name="bg layer" value="1"/>
    <property name="metatile ID appearance" type="int" value="5980"/>
    <property name="z index" type="int" value="20"/>
   </properties>
  </object>
  <object id="2959" gid="16428" x="8480" y="400" width="16" height="16">
   <properties>
    <property name="bg layer" value="1"/>
    <property name="metatile ID appearance" type="int" value="5980"/>
    <property name="z index" type="int" value="20"/>
   </properties>
  </object>
  <object id="2960" gid="16428" x="8528" y="400" width="16" height="16">
   <properties>
    <property name="bg layer" value="1"/>
    <property name="metatile ID appearance" type="int" value="5980"/>
    <property name="z index" type="int" value="20"/>
   </properties>
  </object>
  <object id="2967" gid="16428" x="8648" y="400" width="16" height="16">
   <properties>
    <property name="bg layer" value="1"/>
    <property name="metatile ID appearance" type="int" value="5980"/>
    <property name="z index" type="int" value="20"/>
   </properties>
  </object>
  <object id="2968" gid="16428" x="8648" y="384" width="16" height="16">
   <properties>
    <property name="bg layer" value="1"/>
    <property name="metatile ID appearance" type="int" value="5980"/>
    <property name="z index" type="int" value="20"/>
   </properties>
  </object>
  <object id="2969" gid="16428" x="8648" y="368" width="16" height="16">
   <properties>
    <property name="bg layer" value="1"/>
    <property name="metatile ID appearance" type="int" value="5980"/>
    <property name="z index" type="int" value="20"/>
   </properties>
  </object>
  <object id="2970" gid="16428" x="8648" y="352" width="16" height="16">
   <properties>
    <property name="bg layer" value="1"/>
    <property name="metatile ID appearance" type="int" value="5856"/>
    <property name="z index" type="int" value="20"/>
   </properties>
  </object>
  <object id="2971" gid="16428" x="8632" y="352" width="16" height="16">
   <properties>
    <property name="bg layer" value="1"/>
    <property name="metatile ID appearance" type="int" value="5976"/>
    <property name="z index" type="int" value="20"/>
   </properties>
  </object>
  <object id="2972" gid="16428" x="8616" y="352" width="16" height="16">
   <properties>
    <property name="bg layer" value="1"/>
    <property name="metatile ID appearance" type="int" value="5824"/>
    <property name="z index" type="int" value="20"/>
   </properties>
  </object>
  <object id="2961" gid="16428" x="8608" y="288" width="16" height="16">
   <properties>
    <property name="bg layer" value="1"/>
    <property name="metatile ID appearance" type="int" value="5980"/>
    <property name="z index" type="int" value="20"/>
   </properties>
  </object>
  <object id="2962" gid="16428" x="8688" y="288" width="16" height="16">
   <properties>
    <property name="bg layer" value="1"/>
    <property name="metatile ID appearance" type="int" value="5980"/>
    <property name="z index" type="int" value="20"/>
   </properties>
  </object>
  <object id="2963" gid="16428" x="8960" y="288" width="16" height="16">
   <properties>
    <property name="bg layer" value="1"/>
    <property name="metatile ID appearance" type="int" value="5980"/>
    <property name="z index" type="int" value="20"/>
   </properties>
  </object>
  <object id="2964" gid="16428" x="9040" y="400" width="16" height="16">
   <properties>
    <property name="bg layer" value="1"/>
    <property name="metatile ID appearance" type="int" value="5980"/>
    <property name="z index" type="int" value="20"/>
   </properties>
  </object>
  <object id="2965" gid="16428" x="9120" y="288" width="16" height="16">
   <properties>
    <property name="bg layer" value="1"/>
    <property name="metatile ID appearance" type="int" value="5980"/>
    <property name="z index" type="int" value="20"/>
   </properties>
  </object>
  <object id="2966" gid="16428" x="9200" y="432" width="16" height="16">
   <properties>
    <property name="bg layer" value="1"/>
    <property name="metatile ID appearance" type="int" value="5980"/>
    <property name="z index" type="int" value="20"/>
   </properties>
  </object>
  <object id="2973" gid="16428" x="6848" y="400" width="16" height="16">
   <properties>
    <property name="bg layer" value="1"/>
    <property name="metatile ID appearance" type="int" value="5088"/>
   </properties>
  </object>
  <object id="2974" gid="16428" x="6928" y="288" width="16" height="16">
   <properties>
    <property name="bg layer" value="1"/>
    <property name="metatile ID appearance" type="int" value="5088"/>
   </properties>
  </object>
  <object id="2975" gid="16428" x="7024" y="288" width="16" height="16">
   <properties>
    <property name="bg layer" value="1"/>
    <property name="metatile ID appearance" type="int" value="5088"/>
   </properties>
  </object>
  <object id="2976" gid="16428" x="7192" y="400" width="16" height="16">
   <properties>
    <property name="bg layer" value="1"/>
    <property name="metatile ID appearance" type="int" value="5088"/>
   </properties>
  </object>
  <object id="3027" gid="16428" x="7192" y="384" width="16" height="16">
   <properties>
    <property name="bg layer" value="1"/>
    <property name="metatile ID appearance" type="int" value="5088"/>
   </properties>
  </object>
  <object id="3028" gid="16428" x="7192" y="368" width="16" height="16">
   <properties>
    <property name="bg layer" value="1"/>
    <property name="metatile ID appearance" type="int" value="5090"/>
   </properties>
  </object>
  <object id="2977" gid="16428" x="7368" y="288" width="16" height="16">
   <properties>
    <property name="bg layer" value="1"/>
    <property name="metatile ID appearance" type="int" value="5088"/>
   </properties>
  </object>
  <object id="3029" gid="16428" x="7368" y="304" width="16" height="16">
   <properties>
    <property name="bg layer" value="1"/>
    <property name="metatile ID appearance" type="int" value="5088"/>
   </properties>
  </object>
  <object id="3030" gid="16428" x="7368" y="320" width="16" height="16">
   <properties>
    <property name="bg layer" value="1"/>
    <property name="metatile ID appearance" type="int" value="5091"/>
   </properties>
  </object>
  <object id="2978" gid="16428" x="7488" y="392" width="16" height="16">
   <properties>
    <property name="bg layer" value="1"/>
    <property name="metatile ID appearance" type="int" value="5088"/>
   </properties>
  </object>
  <object id="3032" gid="16428" x="7488" y="376" width="16" height="16">
   <properties>
    <property name="bg layer" value="1"/>
    <property name="metatile ID appearance" type="int" value="5090"/>
   </properties>
  </object>
  <object id="3031" gid="16428" x="7488" y="408" width="16" height="16">
   <properties>
    <property name="bg layer" value="1"/>
    <property name="metatile ID appearance" type="int" value="5088"/>
   </properties>
  </object>
  <object id="2979" gid="16428" x="7608" y="400" width="16" height="16">
   <properties>
    <property name="bg layer" value="1"/>
    <property name="metatile ID appearance" type="int" value="5088"/>
   </properties>
  </object>
  <object id="3039" gid="16428" x="7696" y="288" width="16" height="16">
   <properties>
    <property name="bg layer" value="1"/>
    <property name="metatile ID appearance" type="int" value="5088"/>
   </properties>
  </object>
  <object id="3033" gid="16428" x="7608" y="384" width="16" height="16">
   <properties>
    <property name="bg layer" value="1"/>
    <property name="metatile ID appearance" type="int" value="5088"/>
   </properties>
  </object>
  <object id="3034" gid="16428" x="7608" y="368" width="16" height="16">
   <properties>
    <property name="bg layer" value="1"/>
    <property name="metatile ID appearance" type="int" value="5090"/>
   </properties>
  </object>
  <object id="2980" gid="16428" x="7776" y="400" width="16" height="16">
   <properties>
    <property name="bg layer" value="1"/>
    <property name="metatile ID appearance" type="int" value="5088"/>
   </properties>
  </object>
  <object id="2981" gid="16428" x="7936" y="400" width="16" height="16">
   <properties>
    <property name="bg layer" value="1"/>
    <property name="metatile ID appearance" type="int" value="5088"/>
   </properties>
  </object>
  <object id="2982" gid="16428" x="8048" y="400" width="16" height="16">
   <properties>
    <property name="bg layer" value="1"/>
    <property name="metatile ID appearance" type="int" value="5088"/>
   </properties>
  </object>
  <object id="2983" gid="16428" x="8144" y="288" width="16" height="16">
   <properties>
    <property name="bg layer" value="1"/>
    <property name="metatile ID appearance" type="int" value="5088"/>
   </properties>
  </object>
  <object id="2984" gid="16428" x="8208" y="408" width="16" height="16">
   <properties>
    <property name="bg layer" value="1"/>
    <property name="metatile ID appearance" type="int" value="5088"/>
   </properties>
  </object>
  <object id="3017" gid="16428" x="8208" y="392" width="16" height="16">
   <properties>
    <property name="bg layer" value="1"/>
    <property name="metatile ID appearance" type="int" value="5088"/>
   </properties>
  </object>
  <object id="3018" gid="16428" x="8208" y="376" width="16" height="16">
   <properties>
    <property name="bg layer" value="1"/>
    <property name="metatile ID appearance" type="int" value="5090"/>
   </properties>
  </object>
  <object id="3084" gid="16428" x="13064" y="320" width="16" height="16">
   <properties>
    <property name="bg layer" value="1"/>
    <property name="metatile ID appearance" type="int" value="5090"/>
   </properties>
  </object>
  <object id="3256" gid="16428" x="22072" y="384" width="16" height="16">
   <properties>
    <property name="bg layer" value="1"/>
    <property name="metatile ID appearance" type="int" value="5090"/>
   </properties>
  </object>
  <object id="3085" gid="16428" x="13064" y="336" width="16" height="16">
   <properties>
    <property name="bg layer" value="1"/>
    <property name="metatile ID appearance" type="int" value="5088"/>
   </properties>
  </object>
  <object id="3255" gid="16428" x="22072" y="400" width="16" height="16">
   <properties>
    <property name="bg layer" value="1"/>
    <property name="metatile ID appearance" type="int" value="5088"/>
   </properties>
  </object>
  <object id="3086" gid="16428" x="13064" y="352" width="16" height="16">
   <properties>
    <property name="bg layer" value="1"/>
    <property name="metatile ID appearance" type="int" value="5088"/>
   </properties>
  </object>
  <object id="3254" gid="16428" x="22072" y="416" width="16" height="16">
   <properties>
    <property name="bg layer" value="1"/>
    <property name="metatile ID appearance" type="int" value="5088"/>
   </properties>
  </object>
  <object id="3087" gid="16428" x="13064" y="368" width="16" height="16">
   <properties>
    <property name="bg layer" value="1"/>
    <property name="metatile ID appearance" type="int" value="5088"/>
   </properties>
  </object>
  <object id="3253" gid="16428" x="22072" y="432" width="16" height="16">
   <properties>
    <property name="bg layer" value="1"/>
    <property name="metatile ID appearance" type="int" value="5088"/>
   </properties>
  </object>
  <object id="3355" gid="16428" x="29424" y="432" width="16" height="16">
   <properties>
    <property name="bg layer" value="1"/>
    <property name="metatile ID appearance" type="int" value="5088"/>
   </properties>
  </object>
  <object id="3356" gid="16428" x="30640" y="432" width="16" height="16">
   <properties>
    <property name="bg layer" value="1"/>
    <property name="metatile ID appearance" type="int" value="5088"/>
   </properties>
  </object>
  <object id="3088" gid="16428" x="13064" y="384" width="16" height="16">
   <properties>
    <property name="bg layer" value="1"/>
    <property name="metatile ID appearance" type="int" value="5088"/>
   </properties>
  </object>
  <object id="3089" gid="16428" x="13064" y="400" width="16" height="16">
   <properties>
    <property name="bg layer" value="1"/>
    <property name="metatile ID appearance" type="int" value="5088"/>
   </properties>
  </object>
  <object id="3090" gid="16428" x="13064" y="416" width="16" height="16">
   <properties>
    <property name="bg layer" value="1"/>
    <property name="metatile ID appearance" type="int" value="5088"/>
   </properties>
  </object>
  <object id="3091" gid="16428" x="13064" y="432" width="16" height="16">
   <properties>
    <property name="bg layer" value="1"/>
    <property name="metatile ID appearance" type="int" value="5088"/>
   </properties>
  </object>
  <object id="3092" gid="16428" x="13232" y="432" width="16" height="16">
   <properties>
    <property name="bg layer" value="1"/>
    <property name="metatile ID appearance" type="int" value="5088"/>
   </properties>
  </object>
  <object id="3093" gid="16428" x="13456" y="432" width="16" height="16">
   <properties>
    <property name="bg layer" value="1"/>
    <property name="metatile ID appearance" type="int" value="5088"/>
   </properties>
  </object>
  <object id="2985" gid="16428" x="8304" y="288" width="16" height="16">
   <properties>
    <property name="bg layer" value="1"/>
    <property name="metatile ID appearance" type="int" value="5088"/>
   </properties>
  </object>
  <object id="2986" gid="16428" x="8384" y="400" width="16" height="16">
   <properties>
    <property name="bg layer" value="1"/>
    <property name="metatile ID appearance" type="int" value="5088"/>
   </properties>
  </object>
  <object id="2987" gid="16428" x="8496" y="288" width="16" height="16">
   <properties>
    <property name="bg layer" value="1"/>
    <property name="metatile ID appearance" type="int" value="5088"/>
   </properties>
  </object>
  <object id="2988" gid="16428" x="8576" y="400" width="16" height="16">
   <properties>
    <property name="bg layer" value="1"/>
    <property name="metatile ID appearance" type="int" value="5088"/>
   </properties>
  </object>
  <object id="2989" gid="16428" x="8720" y="288" width="16" height="16">
   <properties>
    <property name="bg layer" value="1"/>
    <property name="metatile ID appearance" type="int" value="5088"/>
   </properties>
  </object>
  <object id="2990" gid="16428" x="8848" y="288" width="16" height="16">
   <properties>
    <property name="bg layer" value="1"/>
    <property name="metatile ID appearance" type="int" value="5088"/>
   </properties>
  </object>
  <object id="2991" gid="16428" x="8928" y="400" width="16" height="16">
   <properties>
    <property name="bg layer" value="1"/>
    <property name="metatile ID appearance" type="int" value="5088"/>
   </properties>
  </object>
  <object id="2992" gid="16428" x="9000" y="296" width="16" height="16">
   <properties>
    <property name="bg layer" value="1"/>
    <property name="metatile ID appearance" type="int" value="5088"/>
   </properties>
  </object>
  <object id="3041" gid="16428" x="9000" y="312" width="16" height="16">
   <properties>
    <property name="bg layer" value="1"/>
    <property name="metatile ID appearance" type="int" value="5091"/>
   </properties>
  </object>
  <object id="3040" gid="16428" x="9000" y="280" width="16" height="16">
   <properties>
    <property name="bg layer" value="1"/>
    <property name="metatile ID appearance" type="int" value="5088"/>
   </properties>
  </object>
  <object id="2993" gid="16428" x="9072" y="392" width="16" height="16">
   <properties>
    <property name="bg layer" value="1"/>
    <property name="metatile ID appearance" type="int" value="5088"/>
   </properties>
  </object>
  <object id="3043" gid="16428" x="9072" y="376" width="16" height="16">
   <properties>
    <property name="bg layer" value="1"/>
    <property name="metatile ID appearance" type="int" value="5090"/>
   </properties>
  </object>
  <object id="3042" gid="16428" x="9072" y="408" width="16" height="16">
   <properties>
    <property name="bg layer" value="1"/>
    <property name="metatile ID appearance" type="int" value="5088"/>
   </properties>
  </object>
  <object id="2994" gid="16428" x="9152" y="288" width="16" height="16">
   <properties>
    <property name="bg layer" value="1"/>
    <property name="metatile ID appearance" type="int" value="5088"/>
   </properties>
  </object>
  <object id="2995" gid="16428" x="9248" y="432" width="16" height="16">
   <properties>
    <property name="bg layer" value="1"/>
    <property name="metatile ID appearance" type="int" value="5088"/>
   </properties>
  </object>
  <object id="2996" gid="16428" x="9328" y="288" width="16" height="16">
   <properties>
    <property name="bg layer" value="1"/>
    <property name="metatile ID appearance" type="int" value="5088"/>
   </properties>
  </object>
  <object id="2997" gid="16396" x="6688" y="368" width="16" height="16">
   <properties>
    <property name="bg layer" value="0"/>
   </properties>
  </object>
  <object id="2998" gid="16396" x="6752" y="368" width="16" height="16">
   <properties>
    <property name="bg layer" value="0"/>
   </properties>
  </object>
  <object id="2999" gid="16396" x="6848" y="320" width="16" height="16">
   <properties>
    <property name="bg layer" value="0"/>
    <property name="vflip" type="bool" value="true"/>
   </properties>
  </object>
  <object id="3000" gid="16396" x="7048" y="368" width="16" height="16">
   <properties>
    <property name="bg layer" value="0"/>
   </properties>
  </object>
  <object id="3003" gid="16396" x="7088" y="331" width="16" height="16">
   <properties>
    <property name="bg layer" value="0"/>
    <property name="vflip" type="bool" value="true"/>
   </properties>
  </object>
  <object id="3001" gid="16396" x="7128" y="368" width="16" height="16">
   <properties>
    <property name="bg layer" value="0"/>
   </properties>
  </object>
  <object id="3002" gid="16396" x="7256" y="368" width="16" height="16">
   <properties>
    <property name="bg layer" value="0"/>
   </properties>
  </object>
  <object id="3004" gid="16397" x="7192" y="331" width="16" height="16">
   <properties>
    <property name="vflip" type="bool" value="true"/>
   </properties>
  </object>
  <object id="3005" gid="16396" x="7432" y="336" width="16" height="16">
   <properties>
    <property name="bg layer" value="0"/>
    <property name="vflip" type="bool" value="true"/>
   </properties>
  </object>
  <object id="3006" gid="16396" x="7480" y="320" width="16" height="16">
   <properties>
    <property name="bg layer" value="0"/>
    <property name="vflip" type="bool" value="true"/>
   </properties>
  </object>
  <object id="3008" gid="16396" x="7616" y="320" width="16" height="16">
   <properties>
    <property name="bg layer" value="0"/>
    <property name="vflip" type="bool" value="true"/>
   </properties>
  </object>
  <object id="3007" gid="16396" x="7544" y="368" width="16" height="16">
   <properties>
    <property name="bg layer" value="0"/>
   </properties>
  </object>
  <object id="3012" gid="16396" x="8104" y="352" width="16" height="16">
   <properties>
    <property name="bg layer" value="0"/>
   </properties>
  </object>
  <object id="3013" gid="16396" x="8152" y="368" width="16" height="16">
   <properties>
    <property name="bg layer" value="0"/>
   </properties>
  </object>
  <object id="3016" gid="16396" x="8216" y="320" width="16" height="16">
   <properties>
    <property name="bg layer" value="0"/>
    <property name="vflip" type="bool" value="true"/>
   </properties>
  </object>
  <object id="3014" gid="16396" x="8264" y="352" width="16" height="16">
   <properties>
    <property name="bg layer" value="0"/>
   </properties>
  </object>
  <object id="3019" gid="16396" x="8456" y="352" width="16" height="16">
   <properties>
    <property name="bg layer" value="0"/>
   </properties>
  </object>
  <object id="3020" gid="16396" x="8504" y="368" width="16" height="16">
   <properties>
    <property name="bg layer" value="0"/>
   </properties>
  </object>
  <object id="3022" gid="16396" x="8568" y="320" width="16" height="16">
   <properties>
    <property name="bg layer" value="0"/>
    <property name="vflip" type="bool" value="true"/>
   </properties>
  </object>
  <object id="3021" gid="16396" x="8624" y="336" width="16" height="16">
   <properties>
    <property name="bg layer" value="0"/>
   </properties>
  </object>
  <object id="3015" gid="16396" x="8312" y="368" width="16" height="16">
   <properties>
    <property name="bg layer" value="0"/>
   </properties>
  </object>
  <object id="3009" gid="16397" x="7696" y="352" width="16" height="16">
   <properties>
    <property name="bg layer" value="0"/>
   </properties>
  </object>
  <object id="3010" gid="16397" x="7776" y="336" width="16" height="16">
   <properties>
    <property name="bg layer" value="0"/>
    <property name="vflip" type="bool" value="true"/>
   </properties>
  </object>
  <object id="3011" gid="16396" x="7860" y="362" width="16" height="16">
   <properties>
    <property name="bg layer" value="0"/>
    <property name="enable rotation" type="bool" value="true"/>
    <property name="rotation angle" type="int" value="-26"/>
   </properties>
  </object>
  <object id="3023" gid="16396" x="8928" y="320" width="16" height="16">
   <properties>
    <property name="bg layer" value="0"/>
    <property name="vflip" type="bool" value="true"/>
   </properties>
  </object>
  <object id="3024" gid="16396" x="9000" y="368" width="16" height="16">
   <properties>
    <property name="bg layer" value="0"/>
   </properties>
  </object>
  <object id="3025" gid="16396" x="9080" y="336" width="16" height="16">
   <properties>
    <property name="bg layer" value="0"/>
   </properties>
  </object>
  <object id="3026" gid="16397" x="9152" y="352" width="16" height="16">
   <properties>
    <property name="bg layer" value="0"/>
   </properties>
  </object>
  <object id="3044" gid="16396" x="12996" y="321" width="16" height="16">
   <properties>
    <property name="bg layer" value="0"/>
    <property name="enable rotation" type="bool" value="true"/>
    <property name="rotation angle" type="int" value="-26"/>
   </properties>
  </object>
  <object id="3045" gid="16396" x="13132" y="321" width="16" height="16">
   <properties>
    <property name="bg layer" value="0"/>
    <property name="enable rotation" type="bool" value="true"/>
    <property name="rotation angle" type="int" value="26"/>
   </properties>
  </object>
  <object id="3046" gid="16396" x="13372" y="353" width="16" height="16">
   <properties>
    <property name="bg layer" value="0"/>
    <property name="enable rotation" type="bool" value="true"/>
    <property name="rotation angle" type="int" value="26"/>
   </properties>
  </object>
  <object id="3047" gid="16396" x="13404" y="369" width="16" height="16">
   <properties>
    <property name="bg layer" value="0"/>
    <property name="enable rotation" type="bool" value="true"/>
    <property name="rotation angle" type="int" value="26"/>
   </properties>
  </object>
  <object id="3048" gid="16396" x="13552" y="384" width="16" height="16">
   <properties>
    <property name="vflip" type="bool" value="true"/>
   </properties>
  </object>
  <object id="3049" gid="16396" x="13584" y="368" width="16" height="16">
   <properties>
    <property name="vflip" type="bool" value="true"/>
   </properties>
  </object>
  <object id="3050" gid="16396" x="13648" y="384" width="16" height="16">
   <properties>
    <property name="vflip" type="bool" value="true"/>
   </properties>
  </object>
  <object id="3051" gid="16396" x="13776" y="400" width="16" height="16"/>
  <object id="3052" gid="16396" x="13840" y="384" width="16" height="16"/>
  <object id="3053" gid="16428" x="13104" y="320" width="16" height="16">
   <properties>
    <property name="bg layer" value="0"/>
    <property name="metatile ID appearance" type="int" value="5730"/>
   </properties>
  </object>
  <object id="3054" gid="16428" x="13344" y="352" width="16" height="16">
   <properties>
    <property name="bg layer" value="0"/>
    <property name="metatile ID appearance" type="int" value="5730"/>
   </properties>
  </object>
  <object id="3055" gid="16428" x="13168" y="432" width="16" height="16">
   <properties>
    <property name="bg layer" value="1"/>
    <property name="metatile ID appearance" type="int" value="5980"/>
    <property name="z index" type="int" value="20"/>
   </properties>
  </object>
  <object id="3056" gid="16428" x="13440" y="432" width="16" height="16">
   <properties>
    <property name="bg layer" value="1"/>
    <property name="metatile ID appearance" type="int" value="5980"/>
    <property name="z index" type="int" value="20"/>
   </properties>
  </object>
  <object id="3057" gid="16428" x="13728" y="432" width="16" height="16">
   <properties>
    <property name="bg layer" value="1"/>
    <property name="metatile ID appearance" type="int" value="5980"/>
    <property name="z index" type="int" value="20"/>
   </properties>
  </object>
  <object id="3058" gid="16428" x="13792" y="432" width="16" height="16">
   <properties>
    <property name="bg layer" value="1"/>
    <property name="metatile ID appearance" type="int" value="5980"/>
    <property name="z index" type="int" value="20"/>
   </properties>
  </object>
  <object id="3059" gid="16428" x="13856" y="432" width="16" height="16">
   <properties>
    <property name="bg layer" value="1"/>
    <property name="metatile ID appearance" type="int" value="5980"/>
    <property name="z index" type="int" value="20"/>
   </properties>
  </object>
  <object id="3060" gid="16428" x="14224" y="432" width="16" height="16">
   <properties>
    <property name="bg layer" value="1"/>
    <property name="metatile ID appearance" type="int" value="5980"/>
    <property name="z index" type="int" value="20"/>
   </properties>
  </object>
  <object id="3061" gid="16428" x="14192" y="432" width="16" height="16">
   <properties>
    <property name="bg layer" value="1"/>
    <property name="metatile ID appearance" type="int" value="5980"/>
    <property name="z index" type="int" value="20"/>
   </properties>
  </object>
  <object id="3062" gid="16428" x="14160" y="432" width="16" height="16">
   <properties>
    <property name="bg layer" value="1"/>
    <property name="metatile ID appearance" type="int" value="5980"/>
    <property name="z index" type="int" value="20"/>
   </properties>
  </object>
  <object id="3063" gid="16428" x="14112" y="432" width="16" height="16">
   <properties>
    <property name="bg layer" value="1"/>
    <property name="metatile ID appearance" type="int" value="5980"/>
    <property name="z index" type="int" value="20"/>
   </properties>
  </object>
  <object id="3064" gid="16428" x="14080" y="432" width="16" height="16">
   <properties>
    <property name="bg layer" value="1"/>
    <property name="metatile ID appearance" type="int" value="5980"/>
    <property name="z index" type="int" value="20"/>
   </properties>
  </object>
  <object id="3101" gid="16520" x="15518" y="240" width="16" height="16"/>
  <object id="3106" gid="16520" x="16045" y="240" width="16" height="16">
   <properties>
    <property name="color channel" value="2"/>
   </properties>
  </object>
  <object id="3108" gid="16520" x="16221" y="240" width="16" height="16">
   <properties>
    <property name="color channel" value="2"/>
   </properties>
  </object>
  <object id="3104" gid="16520" x="15459" y="240" width="16" height="16"/>
  <object id="3102" gid="16520" x="15518" y="272" width="16" height="16">
   <properties>
    <property name="vflip" type="bool" value="true"/>
   </properties>
  </object>
  <object id="3105" gid="16520" x="16045" y="272" width="16" height="16">
   <properties>
    <property name="color channel" value="2"/>
    <property name="vflip" type="bool" value="true"/>
   </properties>
  </object>
  <object id="3107" gid="16520" x="16221" y="272" width="16" height="16">
   <properties>
    <property name="color channel" value="2"/>
    <property name="vflip" type="bool" value="true"/>
   </properties>
  </object>
  <object id="3103" gid="16520" x="15459" y="272" width="16" height="16">
   <properties>
    <property name="vflip" type="bool" value="true"/>
   </properties>
  </object>
  <object id="3109" gid="16396" x="15072" y="288" width="16" height="16"/>
  <object id="3110" gid="16396" x="15072" y="224" width="16" height="16">
   <properties>
    <property name="vflip" type="bool" value="true"/>
   </properties>
  </object>
  <object id="3111" gid="16396" x="15104" y="208" width="16" height="16">
   <properties>
    <property name="vflip" type="bool" value="true"/>
   </properties>
  </object>
  <object id="3112" gid="16396" x="15104" y="304" width="16" height="16"/>
  <object id="3113" gid="16397" x="15152" y="272" width="16" height="16"/>
  <object id="3114" gid="16397" x="15152" y="240" width="16" height="16">
   <properties>
    <property name="vflip" type="bool" value="true"/>
   </properties>
  </object>
  <object id="3115" gid="16397" x="15312" y="272" width="16" height="16"/>
  <object id="3116" gid="16397" x="15312" y="240" width="16" height="16">
   <properties>
    <property name="vflip" type="bool" value="true"/>
   </properties>
  </object>
  <object id="3117" gid="16396" x="15504" y="224" width="16" height="16"/>
  <object id="3118" gid="16396" x="15504" y="288" width="16" height="16">
   <properties>
    <property name="vflip" type="bool" value="true"/>
   </properties>
  </object>
  <object id="3119" gid="16396" x="15712" y="288" width="16" height="16"/>
  <object id="3120" gid="16396" x="15744" y="304" width="16" height="16"/>
  <object id="3121" gid="16396" x="15712" y="224" width="16" height="16">
   <properties>
    <property name="vflip" type="bool" value="true"/>
   </properties>
  </object>
  <object id="3122" gid="16396" x="15744" y="208" width="16" height="16">
   <properties>
    <property name="vflip" type="bool" value="true"/>
   </properties>
  </object>
  <object id="3123" gid="16397" x="15792" y="240" width="16" height="16">
   <properties>
    <property name="vflip" type="bool" value="true"/>
   </properties>
  </object>
  <object id="3124" gid="16397" x="15792" y="272" width="16" height="16"/>
  <object id="3125" gid="16397" x="16032" y="224" width="16" height="16"/>
  <object id="3126" gid="16397" x="16208" y="224" width="16" height="16"/>
  <object id="3127" gid="16397" x="16032" y="288" width="16" height="16">
   <properties>
    <property name="vflip" type="bool" value="true"/>
   </properties>
  </object>
  <object id="3128" gid="16397" x="16208" y="288" width="16" height="16">
   <properties>
    <property name="vflip" type="bool" value="true"/>
   </properties>
  </object>
  <object id="3129" gid="16396" x="16064" y="240" width="16" height="16"/>
  <object id="3130" gid="16396" x="16064" y="272" width="16" height="16">
   <properties>
    <property name="vflip" type="bool" value="true"/>
   </properties>
  </object>
  <object id="3131" gid="16396" x="16240" y="240" width="16" height="16"/>
  <object id="3132" gid="16396" x="16240" y="272" width="16" height="16">
   <properties>
    <property name="vflip" type="bool" value="true"/>
   </properties>
  </object>
  <object id="3133" gid="16396" x="16432" y="304" width="16" height="16"/>
  <object id="3134" gid="16396" x="16496" y="288" width="16" height="16"/>
  <object id="3135" gid="16396" x="16528" y="304" width="16" height="16"/>
  <object id="3136" gid="16396" x="16592" y="288" width="16" height="16"/>
  <object id="3137" gid="16396" x="16712" y="288" width="16" height="16"/>
  <object id="3138" gid="16396" x="16712" y="224" width="16" height="16">
   <properties>
    <property name="vflip" type="bool" value="true"/>
   </properties>
  </object>
  <object id="3139" gid="16396" x="16592" y="224" width="16" height="16">
   <properties>
    <property name="vflip" type="bool" value="true"/>
   </properties>
  </object>
  <object id="3140" gid="16396" x="16432" y="208" width="16" height="16">
   <properties>
    <property name="vflip" type="bool" value="true"/>
   </properties>
  </object>
  <object id="3143" gid="16396" x="16496" y="224" width="16" height="16">
   <properties>
    <property name="vflip" type="bool" value="true"/>
   </properties>
  </object>
  <object id="3144" gid="16396" x="16528" y="208" width="16" height="16">
   <properties>
    <property name="vflip" type="bool" value="true"/>
   </properties>
  </object>
  <object id="3145" gid="16397" x="16800" y="240" width="16" height="16">
   <properties>
    <property name="vflip" type="bool" value="true"/>
   </properties>
  </object>
  <object id="3146" gid="16397" x="16800" y="272" width="16" height="16"/>
  <object id="3147" gid="16397" x="16464" y="240" width="16" height="16">
   <properties>
    <property name="vflip" type="bool" value="true"/>
   </properties>
  </object>
  <object id="3148" gid="16397" x="16464" y="272" width="16" height="16"/>
  <object id="3190" gid="16428" x="17512" y="248" width="16" height="16">
   <properties>
    <property name="bg layer" value="1"/>
    <property name="metatile ID appearance" type="int" value="3696"/>
   </properties>
  </object>
  <object id="3191" gid="16428" x="17528" y="248" width="16" height="16">
   <properties>
    <property name="bg layer" value="1"/>
    <property name="metatile ID appearance" type="int" value="3697"/>
   </properties>
  </object>
  <object id="3192" gid="16428" x="17512" y="264" width="16" height="16">
   <properties>
    <property name="bg layer" value="1"/>
    <property name="metatile ID appearance" type="int" value="3698"/>
   </properties>
  </object>
  <object id="3193" gid="16428" x="17528" y="264" width="16" height="16">
   <properties>
    <property name="bg layer" value="1"/>
    <property name="metatile ID appearance" type="int" value="3699"/>
   </properties>
  </object>
  <object id="3194" gid="16428" x="17512" y="248" width="16" height="16">
   <properties>
    <property name="bg layer" value="0"/>
    <property name="metatile ID appearance" type="int" value="1331"/>
   </properties>
  </object>
  <object id="3195" gid="16428" x="17528" y="248" width="16" height="16">
   <properties>
    <property name="bg layer" value="0"/>
    <property name="metatile ID appearance" type="int" value="1330"/>
   </properties>
  </object>
  <object id="3196" gid="16428" x="17512" y="264" width="16" height="16">
   <properties>
    <property name="bg layer" value="0"/>
    <property name="metatile ID appearance" type="int" value="1329"/>
   </properties>
  </object>
  <object id="3197" gid="16428" x="17528" y="264" width="16" height="16">
   <properties>
    <property name="bg layer" value="0"/>
    <property name="metatile ID appearance" type="int" value="1328"/>
   </properties>
  </object>
  <object id="3198" gid="16428" x="17496" y="232" width="16" height="16">
   <properties>
    <property name="bg layer" value="0"/>
    <property name="metatile ID appearance" type="int" value="1328"/>
   </properties>
  </object>
  <object id="3200" gid="16428" x="17544" y="232" width="16" height="16">
   <properties>
    <property name="bg layer" value="0"/>
    <property name="metatile ID appearance" type="int" value="1329"/>
   </properties>
  </object>
  <object id="3201" gid="16428" x="17560" y="248" width="16" height="16">
   <properties>
    <property name="bg layer" value="0"/>
    <property name="metatile ID appearance" type="int" value="1329"/>
   </properties>
  </object>
  <object id="3202" gid="16428" x="17480" y="264" width="16" height="16">
   <properties>
    <property name="bg layer" value="0"/>
    <property name="metatile ID appearance" type="int" value="1330"/>
   </properties>
  </object>
  <object id="3203" gid="16428" x="17496" y="280" width="16" height="16">
   <properties>
    <property name="bg layer" value="0"/>
    <property name="metatile ID appearance" type="int" value="1330"/>
   </properties>
  </object>
  <object id="3204" gid="16428" x="17560" y="264" width="16" height="16">
   <properties>
    <property name="bg layer" value="0"/>
    <property name="metatile ID appearance" type="int" value="1331"/>
   </properties>
  </object>
  <object id="3205" gid="16428" x="17544" y="280" width="16" height="16">
   <properties>
    <property name="bg layer" value="0"/>
    <property name="metatile ID appearance" type="int" value="1331"/>
   </properties>
  </object>
  <object id="3206" gid="16428" x="17544" y="248" width="16" height="16">
   <properties>
    <property name="bg layer" value="0"/>
    <property name="metatile ID appearance" type="int" value="125"/>
   </properties>
  </object>
  <object id="3207" gid="16428" x="17544" y="264" width="16" height="16">
   <properties>
    <property name="bg layer" value="0"/>
    <property name="metatile ID appearance" type="int" value="125"/>
   </properties>
  </object>
  <object id="3208" gid="16428" x="17496" y="264" width="16" height="16">
   <properties>
    <property name="bg layer" value="0"/>
    <property name="metatile ID appearance" type="int" value="125"/>
   </properties>
  </object>
  <object id="3209" gid="16428" x="17496" y="248" width="16" height="16">
   <properties>
    <property name="bg layer" value="0"/>
    <property name="metatile ID appearance" type="int" value="125"/>
   </properties>
  </object>
  <object id="3210" gid="16428" x="17512" y="232" width="16" height="16">
   <properties>
    <property name="bg layer" value="0"/>
    <property name="metatile ID appearance" type="int" value="113"/>
   </properties>
  </object>
  <object id="3211" gid="16428" x="17528" y="232" width="16" height="16">
   <properties>
    <property name="bg layer" value="0"/>
    <property name="metatile ID appearance" type="int" value="113"/>
   </properties>
  </object>
  <object id="3212" gid="16428" x="17512" y="280" width="16" height="16">
   <properties>
    <property name="bg layer" value="0"/>
    <property name="metatile ID appearance" type="int" value="114"/>
   </properties>
  </object>
  <object id="3213" gid="16428" x="17528" y="280" width="16" height="16">
   <properties>
    <property name="bg layer" value="0"/>
    <property name="metatile ID appearance" type="int" value="114"/>
   </properties>
  </object>
  <object id="3199" gid="16428" x="17480" y="248" width="16" height="16">
   <properties>
    <property name="bg layer" value="0"/>
    <property name="metatile ID appearance" type="int" value="1328"/>
   </properties>
  </object>
  <object id="3232" gid="16396" x="21536" y="384" width="16" height="16"/>
  <object id="3233" gid="16396" x="21568" y="400" width="16" height="16"/>
  <object id="3234" gid="16396" x="21600" y="416" width="16" height="16"/>
  <object id="3235" gid="16396" x="21648" y="384" width="16" height="16"/>
  <object id="3236" gid="16396" x="21680" y="400" width="16" height="16"/>
  <object id="3237" gid="16396" x="21712" y="416" width="16" height="16"/>
  <object id="3238" gid="16396" x="21856" y="384" width="16" height="16"/>
  <object id="3239" gid="16396" x="21888" y="400" width="16" height="16"/>
  <object id="3240" gid="16396" x="22000" y="400" width="16" height="16"/>
  <object id="3241" gid="16396" x="22048" y="320" width="16" height="16">
   <properties>
    <property name="vflip" type="bool" value="true"/>
   </properties>
  </object>
  <object id="3242" gid="16396" x="22080" y="320" width="16" height="16">
   <properties>
    <property name="vflip" type="bool" value="true"/>
   </properties>
  </object>
  <object id="3243" gid="16396" x="22160" y="352" width="16" height="16">
   <properties>
    <property name="vflip" type="bool" value="true"/>
   </properties>
  </object>
  <object id="3244" gid="16396" x="22208" y="368" width="16" height="16">
   <properties>
    <property name="vflip" type="bool" value="true"/>
   </properties>
  </object>
  <object id="3245" gid="16396" x="22256" y="384" width="16" height="16">
   <properties>
    <property name="vflip" type="bool" value="true"/>
   </properties>
  </object>
  <object id="3246" gid="16396" x="22448" y="400" width="16" height="16"/>
  <object id="3247" gid="16396" x="22480" y="416" width="16" height="16"/>
  <object id="3248" gid="16396" x="22672" y="384" width="16" height="16">
   <properties>
    <property name="vflip" type="bool" value="true"/>
   </properties>
  </object>
  <object id="3249" gid="16396" x="22704" y="368" width="16" height="16">
   <properties>
    <property name="vflip" type="bool" value="true"/>
   </properties>
  </object>
  <object id="3250" gid="16396" x="22768" y="416" width="16" height="16"/>
  <object id="3251" gid="16396" x="23040" y="368" width="16" height="16"/>
  <object id="3252" gid="16396" x="23088" y="352" width="16" height="16"/>
  <object id="3259" gid="16520" x="23603" y="256" width="16" height="16">
   <properties>
    <property name="color channel" value="2"/>
    <property name="vflip" type="bool" value="true"/>
   </properties>
  </object>
  <object id="3282" gid="16520" x="24611" y="240" width="16" height="16">
   <properties>
    <property name="color channel" value="2"/>
    <property name="vflip" type="bool" value="true"/>
   </properties>
  </object>
  <object id="3260" gid="16520" x="23629" y="256" width="16" height="16">
   <properties>
    <property name="color channel" value="2"/>
    <property name="vflip" type="bool" value="true"/>
   </properties>
  </object>
  <object id="3281" gid="16520" x="24637" y="240" width="16" height="16">
   <properties>
    <property name="color channel" value="2"/>
    <property name="vflip" type="bool" value="true"/>
   </properties>
  </object>
  <object id="3261" gid="16520" x="23603" y="304" width="16" height="16"/>
  <object id="3276" gid="16520" x="24611" y="320" width="16" height="16"/>
  <object id="3262" gid="16520" x="23629" y="304" width="16" height="16"/>
  <object id="3275" gid="16520" x="24637" y="320" width="16" height="16"/>
  <object id="3263" gid="16516" x="23590" y="304" width="16" height="16">
   <properties>
    <property name="color channel" value="2"/>
   </properties>
  </object>
  <object id="3274" gid="16516" x="24598" y="320" width="16" height="16">
   <properties>
    <property name="color channel" value="2"/>
   </properties>
  </object>
  <object id="3264" gid="16516" x="23642" y="304" width="16" height="16">
   <properties>
    <property name="color channel" value="2"/>
   </properties>
  </object>
  <object id="3273" gid="16516" x="24650" y="320" width="16" height="16">
   <properties>
    <property name="color channel" value="2"/>
   </properties>
  </object>
  <object id="3265" gid="16516" x="23590" y="256" width="16" height="16">
   <properties>
    <property name="vflip" type="bool" value="true"/>
   </properties>
  </object>
  <object id="3280" gid="16516" x="24598" y="240" width="16" height="16">
   <properties>
    <property name="vflip" type="bool" value="true"/>
   </properties>
  </object>
  <object id="3266" gid="16516" x="23642" y="256" width="16" height="16">
   <properties>
    <property name="vflip" type="bool" value="true"/>
   </properties>
  </object>
  <object id="3279" gid="16516" x="24650" y="240" width="16" height="16">
   <properties>
    <property name="vflip" type="bool" value="true"/>
   </properties>
  </object>
  <object id="3267" gid="16541" x="23580" y="304" width="16" height="16"/>
  <object id="3272" gid="16541" x="24588" y="320" width="16" height="16"/>
  <object id="3268" gid="16541" x="23652" y="304" width="16" height="16"/>
  <object id="3271" gid="16541" x="24660" y="320" width="16" height="16"/>
  <object id="3269" gid="16541" x="23652" y="256" width="16" height="16">
   <properties>
    <property name="color channel" value="2"/>
    <property name="vflip" type="bool" value="true"/>
   </properties>
  </object>
  <object id="3278" gid="16541" x="24660" y="240" width="16" height="16">
   <properties>
    <property name="color channel" value="2"/>
    <property name="vflip" type="bool" value="true"/>
   </properties>
  </object>
  <object id="3270" gid="16541" x="23580" y="256" width="16" height="16">
   <properties>
    <property name="color channel" value="2"/>
    <property name="vflip" type="bool" value="true"/>
   </properties>
  </object>
  <object id="3277" gid="16541" x="24588" y="240" width="16" height="16">
   <properties>
    <property name="color channel" value="2"/>
    <property name="vflip" type="bool" value="true"/>
   </properties>
  </object>
  <object id="3283" gid="16520" x="24948" y="320" width="16" height="16"/>
  <object id="3294" gid="16520" x="25988" y="304" width="16" height="16"/>
  <object id="3299" gid="16520" x="27364" y="304" width="16" height="16"/>
  <object id="3284" gid="16520" x="24972" y="320" width="16" height="16"/>
  <object id="3293" gid="16520" x="26012" y="304" width="16" height="16"/>
  <object id="3300" gid="16520" x="27388" y="304" width="16" height="16"/>
  <object id="3285" gid="16520" x="24948" y="240" width="16" height="16">
   <properties>
    <property name="color channel" value="2"/>
    <property name="vflip" type="bool" value="true"/>
   </properties>
  </object>
  <object id="3298" gid="16520" x="25988" y="256" width="16" height="16">
   <properties>
    <property name="color channel" value="2"/>
    <property name="vflip" type="bool" value="true"/>
   </properties>
  </object>
  <object id="3304" gid="16520" x="27364" y="256" width="16" height="16">
   <properties>
    <property name="color channel" value="2"/>
    <property name="vflip" type="bool" value="true"/>
   </properties>
  </object>
  <object id="3286" gid="16520" x="24972" y="240" width="16" height="16">
   <properties>
    <property name="color channel" value="2"/>
    <property name="vflip" type="bool" value="true"/>
   </properties>
  </object>
  <object id="3297" gid="16520" x="26012" y="256" width="16" height="16">
   <properties>
    <property name="color channel" value="2"/>
    <property name="vflip" type="bool" value="true"/>
   </properties>
  </object>
  <object id="3305" gid="16520" x="27388" y="256" width="16" height="16">
   <properties>
    <property name="color channel" value="2"/>
    <property name="vflip" type="bool" value="true"/>
   </properties>
  </object>
  <object id="3287" gid="16541" x="24980" y="320" width="16" height="16">
   <properties>
    <property name="color channel" value="2"/>
   </properties>
  </object>
  <object id="3292" gid="16541" x="26020" y="304" width="16" height="16">
   <properties>
    <property name="color channel" value="2"/>
   </properties>
  </object>
  <object id="3301" gid="16541" x="27396" y="304" width="16" height="16">
   <properties>
    <property name="color channel" value="2"/>
   </properties>
  </object>
  <object id="3288" gid="16541" x="24940" y="320" width="16" height="16">
   <properties>
    <property name="color channel" value="2"/>
   </properties>
  </object>
  <object id="3291" gid="16541" x="25980" y="304" width="16" height="16">
   <properties>
    <property name="color channel" value="2"/>
   </properties>
  </object>
  <object id="3302" gid="16541" x="27356" y="304" width="16" height="16">
   <properties>
    <property name="color channel" value="2"/>
   </properties>
  </object>
  <object id="3289" gid="16541" x="24980" y="240" width="16" height="16">
   <properties>
    <property name="vflip" type="bool" value="true"/>
   </properties>
  </object>
  <object id="3296" gid="16541" x="26020" y="256" width="16" height="16">
   <properties>
    <property name="vflip" type="bool" value="true"/>
   </properties>
  </object>
  <object id="3306" gid="16541" x="27396" y="256" width="16" height="16">
   <properties>
    <property name="vflip" type="bool" value="true"/>
   </properties>
  </object>
  <object id="3290" gid="16541" x="24940" y="240" width="16" height="16">
   <properties>
    <property name="vflip" type="bool" value="true"/>
   </properties>
  </object>
  <object id="3295" gid="16541" x="25980" y="256" width="16" height="16">
   <properties>
    <property name="vflip" type="bool" value="true"/>
   </properties>
  </object>
  <object id="3307" gid="16541" x="27356" y="256" width="16" height="16">
   <properties>
    <property name="vflip" type="bool" value="true"/>
   </properties>
  </object>
  <object id="3308" gid="16447" x="23680" y="280" width="16" height="16"/>
  <object id="3311" gid="16447" x="26160" y="320" width="16" height="16"/>
  <object id="3313" gid="16447" x="26448" y="240" width="16" height="16"/>
  <object id="3309" gid="16510" x="23680" y="280" width="16" height="16"/>
  <object id="3310" gid="16510" x="26160" y="320" width="16" height="16"/>
  <object id="3312" gid="16510" x="26448" y="240" width="16" height="16"/>
  <object id="3314" gid="16447" x="29696" y="336" width="16" height="16"/>
  <object id="3315" gid="16510" x="29696" y="336" width="16" height="16"/>
  <object id="3316" gid="16396" x="28800" y="368" width="16" height="16"/>
  <object id="3317" gid="16396" x="28832" y="384" width="16" height="16"/>
  <object id="3318" gid="16396" x="28864" y="400" width="16" height="16"/>
  <object id="3319" gid="16396" x="28944" y="400" width="16" height="16"/>
  <object id="3320" gid="16396" x="28976" y="416" width="16" height="16"/>
  <object id="3321" gid="16396" x="29088" y="384" width="16" height="16"/>
  <object id="3322" gid="16396" x="29120" y="400" width="16" height="16"/>
  <object id="3323" gid="16396" x="29152" y="416" width="16" height="16"/>
  <object id="3324" gid="16396" x="29392" y="352" width="16" height="16">
   <properties>
    <property name="vflip" type="bool" value="true"/>
   </properties>
  </object>
  <object id="3325" gid="16396" x="29424" y="336" width="16" height="16">
   <properties>
    <property name="vflip" type="bool" value="true"/>
   </properties>
  </object>
  <object id="3326" gid="16396" x="29568" y="400" width="16" height="16"/>
  <object id="3327" gid="16396" x="29632" y="384" width="16" height="16"/>
  <object id="3328" gid="16396" x="29696" y="368" width="16" height="16"/>
  <object id="3329" gid="16396" x="29936" y="384" width="16" height="16"/>
  <object id="3330" gid="16396" x="29968" y="400" width="16" height="16"/>
  <object id="3331" gid="16396" x="30064" y="320" width="16" height="16">
   <properties>
    <property name="vflip" type="bool" value="true"/>
   </properties>
  </object>
  <object id="3332" gid="16396" x="30240" y="384" width="16" height="16"/>
  <object id="3333" gid="16396" x="30304" y="368" width="16" height="16"/>
  <object id="3334" gid="16396" x="30336" y="384" width="16" height="16"/>
  <object id="3335" gid="16396" x="30368" y="400" width="16" height="16"/>
  <object id="3336" gid="16396" x="30624" y="352" width="16" height="16">
   <properties>
    <property name="vflip" type="bool" value="true"/>
   </properties>
  </object>
  <object id="3337" gid="16396" x="30656" y="352" width="16" height="16">
   <properties>
    <property name="vflip" type="bool" value="true"/>
   </properties>
  </object>
  <object id="3338" gid="16396" x="30736" y="368" width="16" height="16">
   <properties>
    <property name="vflip" type="bool" value="true"/>
   </properties>
  </object>
  <object id="3339" gid="16396" x="30800" y="384" width="16" height="16">
   <properties>
    <property name="vflip" type="bool" value="true"/>
   </properties>
  </object>
  <object id="3357" gid="16511" x="5536" y="360" width="16" height="16">
   <properties>
    <property name="color channel" value="4"/>
   </properties>
  </object>
  <object id="3358" gid="16511" x="6624" y="336" width="16" height="16">
   <properties>
    <property name="color channel" value="4"/>
   </properties>
  </object>
  <object id="3359" gid="16511" x="9312" y="368" width="16" height="16">
   <properties>
    <property name="color channel" value="4"/>
   </properties>
  </object>
  <object id="3360" gid="16511" x="11104" y="400" width="16" height="16">
   <properties>
    <property name="color channel" value="4"/>
   </properties>
  </object>
  <object id="3361" gid="16511" x="12880" y="312" width="16" height="16">
   <properties>
    <property name="color channel" value="4"/>
   </properties>
  </object>
  <object id="3362" gid="16511" x="14884" y="256" width="16" height="16">
   <properties>
    <property name="color channel" value="4"/>
   </properties>
  </object>
  <object id="3363" gid="16500" x="14884" y="256" width="16" height="16">
   <properties>
    <property name="color channel" value="3"/>
   </properties>
  </object>
 </objectgroup>
</map>
